P3
400 225
255
204 226 255
204 226 255
204 226 255
204 226 255
204 226 255
204 226 255
204 226 255
204 226 255
204 226 255
204 226 255
204 226 255
204 226 255
204 226 255
204 226 255
204 226 255
203 226 255
203 226 255
203 226 255
203 226 255
203 226 255
203 226 255
203 226 255
203 226 255
203 225 255
203 225 255
203 225 255
203 225 255
203 225 255
203 225 255
203 225 255
203 225 255
203 225 255
202 225 255
202 225 255
202 225 255
202 225 255
202 225 255
202 225 255
202 225 255
202 225 255
202 225 255
202 225 255
202 225 255
202 225 255
202 225 255
202 225 255
202 225 255
202 225 255
201 225 255
201 225 255
201 225 255
201 225 255
201 224 255
201 224 255
201 224 255
201 224 255
201 224 255
201 224 255
201 224 255
201 224 255
201 224 255
201 224 255
201 224 255
200 224 255
200 224 255
200 224 255
200 224 255
200 224 255
200 224 255
200 224 255
200 224 255
200 224 255
200 224 255
200 224 255
200 224 255
200 224 255
200 224 255
199 224 255
199 224 255
199 224 255
199 223 255
199 223 255
199 223 255
199 223 255
199 223 255
199 223 255
199 223 255
199 223 255
199 223 255
199 223 255
199 223 255
199 223 255
198 223 255
198 223 255
198 223 255
198 223 255
198 223 255
198 223 255
198 223 255
198 223 255
198 223 255
198 223 255
198 223 255
198 223 255
198 223 255
198 223 255
197 222 255
197 222 255
197 222 255
197 222 255
197 222 255
197 222 255
197 222 255
197 222 255
197 222 255
197 222 255
197 222 255
197 222 255
197 222 255
197 222 255
197 222 255
196 222 255
196 222 255
196 222 255
196 222 255
196 222 255
196 222 255
196 222 255
196 222 255
196 222 255
196 222 255
196 222 255
196 222 255
196 222 255
196 222 255
196 221 255
196 221 255
195 221 255
195 221 255
195 221 255
195 221 255
195 221 255
195 221 255
195 221 255
195 221 255
195 221 255
195 221 255
195 221 255
195 221 255
195 221 255
195 221 255
195 221 255
195 221 255
195 221 255
195 221 255
194 221 255
194 221 255
194 221 255
194 221 255
194 221 255
194 221 255
194 221 255
194 221 255
194 221 255
194 221 255
194 221 255
194 221 255
194 221 255
194 221 255
194 221 255
194 221 255
194 221 255
194 221 255
194 221 255
194 221 255
194 221 255
194 221 255
194 220 255
194 220 255
194 220 255
194 220 255
194 220 255
194 220 255
194 220 255
194 220 255
194 220 255
193 220 255
193 220 255
193 220 255
193 220 255
193 220 255
193 220 255
193 220 255
193 220 255
193 220 255
193 220 255
193 220 255
193 220 255
193 220 255
193 220 255
193 220 255
193 220 255
193 220 255
193 220 255
193 220 255
193 220 255
193 220 255
193 220 255
193 220 255
193 220 255
193 220 255
193 220 255
193 220 255
193 220 255
194 220 255
194 220 255
194 220 255
194 220 255
194 220 255
194 220 255
194 220 255
194 220 255
194 220 255
194 221 255
194 221 255
194 221 255
194 221 255
194 221 255
194 221 255
194 221 255
194 221 255
194 221 255
194 221 255
194 221 255
194 221 255
194 221 255
194 221 255
194 221 255
194 221 255
194 221 255
194 221 255
194 221 255
194 221 255
194 221 255
194 221 255
195 221 255
195 221 255
195 221 255
195 221 255
195 221 255
195 221 255
195 221 255
195 221 255
195 221 255
195 221 255
195 221 255
195 221 255
195 221 255
195 221 255
195 221 255
195 221 255
195 221 255
195 221 255
196 221 255
196 221 255
196 222 255
196 222 255
196 222 255
196 222 255
196 222 255
196 222 255
196 222 255
196 222 255
196 222 255
196 222 255
196 222 255
196 222 255
196 222 255
196 222 255
197 222 255
197 222 255
197 222 255
197 222 255
197 222 255
197 222 255
197 222 255
197 222 255
197 222 255
197 222 255
197 222 255
197 222 255
197 222 255
197 222 255
197 223 255
198 223 255
198 223 255
198 223 255
198 223 255
198 223 255
198 223 255
198 223 255
198 223 255
198 223 255
198 223 255
198 223 255
198 223 255
198 223 255
198 223 255
199 223 255
199 223 255
199 223 255
199 223 255
199 223 255
199 223 255
199 223 255
199 223 255
199 223 255
199 223 255
199 223 255
199 223 255
199 224 255
199 224 255
199 224 255
200 224 255
200 224 255
200 224 255
200 224 255
200 224 255
200 224 255
200 224 255
200 224 255
200 224 255
200 224 255
200 224 255
200 224 255
200 224 255
200 224 255
201 224 255
201 224 255
201 224 255
201 224 255
201 224 255
201 224 255
201 224 255
201 224 255
201 224 255
201 224 255
201 225 255
201 225 255
201 225 255
201 225 255
201 225 255
202 225 255
202 225 255
202 225 255
202 225 255
202 225 255
202 225 255
202 225 255
202 225 255
202 225 255
202 225 255
202 225 255
202 225 255
202 225 255
202 225 255
202 225 255
202 225 255
203 225 255
203 225 255
203 225 255
203 225 255
203 225 255
203 225 255
203 225 255
203 225 255
203 225 255
203 226 255
203 226 255
203 226 255
203 226 255
203 226 255
203 226 255
203 226 255
204 226 255
204 226 255
204 226 255
204 226 255
204 226 255
204 226 255
204 226 255
204 226 255
204 226 255
204 226 255
204 226 255
204 226 255
204 226 255
204 226 255
204 226 255
204 226 255
204 226 255
204 226 255
204 226 255
204 226 255
204 226 255
204 226 255
204 226 255
204 226 255
204 226 255
204 226 255
204 226 255
204 226 255
204 226 255
204 226 255
204 226 255
204 226 255
204 226 255
204 226 255
203 226 255
203 226 255
203 226 255
203 226 255
203 226 255
203 226 255
203 226 255
203 225 255
203 225 255
203 225 255
203 225 255
203 225 255
203 225 255
203 225 255
203 225 255
203 225 255
202 225 255
202 225 255
202 225 255
202 225 255
202 225 255
202 225 255
202 225 255
202 225 255
202 225 255
202 225 255
202 225 255
202 225 255
202 225 255
202 225 255
202 225 255
202 225 255
201 225 255
201 225 255
201 225 255
201 225 255
201 225 255
201 224 255
201 224 255
201 224 255
201 224 255
201 224 255
201 224 255
201 224 255
201 224 255
201 224 255
201 224 255
200 224 255
200 224 255
200 224 255
200 224 255
200 224 255
200 224 255
200 224 255
200 224 255
200 224 255
200 224 255
200 224 255
200 224 255
200 224 255
200 224 255
199 224 255
199 224 255
199 224 255
199 223 255
199 223 255
199 223 255
199 223 255
199 223 255
199 223 255
199 223 255
199 223 255
199 223 255
199 223 255
199 223 255
199 223 255
198 223 255
198 223 255
198 223 255
198 223 255
198 223 255
198 223 255
198 223 255
198 223 255
198 223 255
198 223 255
198 223 255
198 223 255
198 223 255
198 223 255
197 223 255
197 222 255
197 222 255
197 222 255
197 222 255
197 222 255
197 222 255
197 222 255
197 222 255
197 222 255
197 222 255
197 222 255
197 222 255
197 222 255
197 222 255
196 222 255
196 222 255
196 222 255
196 222 255
196 222 255
196 222 255
196 222 255
196 222 255
196 222 255
196 222 255
196 222 255
196 222 255
196 222 255
196 222 255
196 222 255
196 221 255
195 221 255
195 221 255
195 221 255
195 221 255
195 221 255
195 221 255
195 221 255
195 221 255
195 221 255
195 221 255
195 221 255
195 221 255
195 221 255
195 221 255
195 221 255
195 221 255
195 221 255
195 221 255
195 221 255
194 221 255
194 221 255
194 221 255
194 221 255
194 221 255
194 221 255
194 221 255
194 221 255
194 221 255
194 221 255
194 221 255
194 221 255
194 221 255
194 221 255
194 221 255
194 221 255
194 221 255
194 221 255
194 221 255
194 221 255
194 221 255
194 221 255
194 221 255
194 221 255
194 221 255
194 220 255
194 220 255
194 220 255
194 220 255
194 220 255
194 220 255
194 220 255
194 220 255
194 220 255
194 220 255
194 220 255
194 220 255
194 220 255
194 220 255
194 220 255
194 220 255
194 220 255
194 220 255
194 220 255
194 220 255
194 220 255
194 220 255
194 220 255
194 220 255
194 220 255
194 220 255
194 220 255
194 220 255
194 220 255
194 220 255
194 220 255
194 220 255
194 220 255
194 220 255
194 221 255
194 221 255
194 221 255
194 221 255
194 221 255
194 221 255
194 221 255
194 221 255
194 221 255
194 221 255
194 221 255
194 221 255
194 221 255
194 221 255
194 221 255
194 221 255
194 221 255
194 221 255
194 221 255
194 221 255
194 221 255
194 221 255
194 221 255
194 221 255
194 221 255
195 221 255
195 221 255
195 221 255
195 221 255
195 221 255
195 221 255
195 221 255
195 221 255
195 221 255
195 221 255
195 221 255
195 221 255
195 221 255
195 221 255
195 221 255
195 221 255
195 221 255
195 221 255
195 221 255
196 221 255
196 222 255
196 222 255
196 222 255
196 222 255
196 222 255
196 222 255
196 222 255
196 222 255
196 222 255
196 222 255
196 222 255
196 222 255
196 222 255
196 222 255
196 222 255
197 222 255
197 222 255
197 222 255
197 222 255
197 222 255
197 222 255
197 222 255
197 222 255
197 222 255
197 222 255
197 222 255
197 222 255
197 222 255
197 222 255
197 223 255
198 223 255
198 223 255
198 223 255
198 223 255
198 223 255
198 223 255
198 223 255
198 223 255
198 223 255
198 223 255
198 223 255
198 223 255
198 223 255
198 223 255
199 223 255
199 223 255
199 223 255
199 223 255
199 223 255
199 223 255
199 223 255
199 223 255
199 223 255
199 223 255
199 223 255
199 223 255
199 224 255
199 224 255
200 224 255
200 224 255
200 224 255
200 224 255
200 224 255
200 224 255
200 224 255
200 224 255
200 224 255
200 224 255
200 224 255
200 224 255
200 224 255
200 224 255
200 224 255
201 224 255
201 224 255
201 224 255
201 224 255
201 224 255
201 224 255
201 224 255
201 224 255
201 224 255
201 224 255
201 225 255
201 225 255
201 225 255
201 225 255
201 225 255
202 225 255
202 225 255
202 225 255
202 225 255
202 225 255
202 225 255
202 225 255
202 225 255
202 225 255
202 225 255
202 225 255
202 225 255
202 225 255
202 225 255
202 225 255
202 225 255
203 225 255
203 225 255
203 225 255
203 225 255
203 225 255
203 225 255
203 225 255
203 225 255
203 225 255
203 226 255
203 226 255
203 226 255
203 226 255
203 226 255
203 226 255
203 226 255
204 226 255
204 226 255
204 226 255
204 226 255
204 226 255
204 226 255
204 226 255
204 226 255
204 226 255
204 226 255
204 226 255
204 226 255
204 226 255
204 226 255
204 226 255
204 226 255
204 226 255
204 226 255
205 226 255
205 226 255
204 226 255
204 226 255
204 226 255
204 226 255
204 226 255
204 226 255
204 226 255
204 226 255
204 226 255
204 226 255
204 226 255
204 226 255
204 226 255
204 226 255
204 226 255
204 226 255
204 226 255
204 226 255
203 226 255
203 226 255
203 226 255
203 226 255
203 226 255
203 226 255
203 226 255
203 225 255
203 225 255
203 225 255
203 225 255
203 225 255
203 225 255
203 225 255
203 225 255
203 225 255
203 225 255
202 225 255
202 225 255
202 225 255
202 225 255
202 225 255
202 225 255
202 225 255
202 225 255
202 225 255
202 225 255
202 225 255
202 225 255
202 225 255
202 225 255
202 225 255
201 225 255
201 225 255
201 225 255
201 225 255
201 225 255
201 224 255
201 224 255
201 224 255
201 224 255
201 224 255
201 224 255
201 224 255
201 224 255
201 224 255
201 224 255
200 224 255
200 224 255
200 224 255
200 224 255
200 224 255
200 224 255
200 224 255
200 224 255
200 224 255
200 224 255
200 224 255
200 224 255
200 224 255
200 224 255
200 224 255
199 224 255
199 224 255
199 223 255
199 223 255
199 223 255
199 223 255
199 223 255
199 223 255
199 223 255
199 223 255
199 223 255
199 223 255
199 223 255
199 223 255
198 223 255
198 223 255
198 223 255
198 223 255
198 223 255
198 223 255
198 223 255
198 223 255
198 223 255
198 223 255
198 223 255
198 223 255
198 223 255
198 223 255
197 223 255
197 222 255
197 222 255
197 222 255
197 222 255
197 222 255
197 222 255
197 222 255
197 222 255
197 222 255
197 222 255
197 222 255
197 222 255
197 222 255
197 222 255
196 222 255
196 222 255
196 222 255
196 222 255
196 222 255
196 222 255
196 222 255
196 222 255
196 222 255
196 222 255
196 222 255
196 222 255
196 222 255
196 222 255
196 222 255
196 221 255
196 221 255
195 221 255
195 221 255
195 221 255
195 221 255
195 221 255
195 221 255
195 221 255
195 221 255
195 221 255
195 221 255
195 221 255
195 221 255
195 221 255
195 221 255
195 221 255
195 221 255
195 221 255
195 221 255
195 221 255
195 221 255
194 221 255
194 221 255
194 221 255
194 221 255
194 221 255
194 221 255
194 221 255
194 221 255
194 221 255
194 221 255
194 221 255
194 221 255
194 221 255
194 221 255
194 221 255
194 221 255
194 221 255
194 221 255
194 221 255
194 221 255
194 221 255
194 221 255
194 221 255
194 221 255
194 221 255
194 221 255
194 221 255
194 221 255
194 221 255
194 221 255
194 220 255
194 220 255
194 220 255
194 220 255
194 220 255
194 220 255
194 220 255
194 220 255
194 220 255
194 220 255
194 220 255
194 220 255
194 220 255
194 220 255
194 220 255
194 220 255
194 221 255
194 221 255
194 221 255
194 221 255
194 221 255
194 221 255
194 221 255
194 221 255
194 221 255
194 221 255
194 221 255
194 221 255
194 221 255
194 221 255
194 221 255
194 221 255
194 221 255
194 221 255
194 221 255
194 221 255
194 221 255
194 221 255
194 221 255
194 221 255
194 221 255
194 221 255
194 221 255
194 221 255
194 221 255
194 221 255
194 221 255
195 221 255
195 221 255
195 221 255
195 221 255
195 221 255
195 221 255
195 221 255
195 221 255
195 221 255
195 221 255
195 221 255
195 221 255
195 221 255
195 221 255
195 221 255
195 221 255
195 221 255
195 221 255
195 221 255
195 221 255
196 221 255
196 222 255
196 222 255
196 222 255
196 222 255
196 222 255
196 222 255
196 222 255
196 222 255
196 222 255
196 222 255
196 222 255
196 222 255
196 222 255
196 222 255
196 222 255
197 222 255
197 222 255
197 222 255
197 222 255
197 222 255
197 222 255
197 222 255
197 222 255
197 222 255
197 222 255
197 222 255
197 222 255
197 222 255
197 222 255
197 223 255
198 223 255
198 223 255
198 223 255
198 223 255
198 223 255
198 223 255
198 223 255
198 223 255
198 223 255
198 223 255
198 223 255
198 223 255
198 223 255
198 223 255
199 223 255
199 223 255
199 223 255
199 223 255
199 223 255
199 223 255
199 223 255
199 223 255
199 223 255
199 223 255
199 223 255
199 223 255
199 224 255
199 224 255
200 224 255
200 224 255
200 224 255
200 224 255
200 224 255
200 224 255
200 224 255
200 224 255
200 224 255
200 224 255
200 224 255
200 224 255
200 224 255
200 224 255
200 224 255
201 224 255
201 224 255
201 224 255
201 224 255
201 224 255
201 224 255
201 224 255
201 224 255
201 224 255
201 224 255
201 225 255
201 225 255
201 225 255
201 225 255
201 225 255
202 225 255
202 225 255
202 225 255
202 225 255
202 225 255
202 225 255
202 225 255
202 225 255
202 225 255
202 225 255
202 225 255
202 225 255
202 225 255
202 225 255
202 225 255
202 225 255
203 225 255
203 225 255
203 225 255
203 225 255
203 225 255
203 225 255
203 225 255
203 225 255
203 225 255
203 226 255
203 226 255
203 226 255
203 226 255
203 226 255
203 226 255
203 226 255
204 226 255
204 226 255
204 226 255
204 226 255
204 226 255
204 226 255
204 226 255
204 226 255
204 226 255
204 226 255
204 226 255
204 226 255
204 226 255
204 226 255
204 226 255
204 226 255
204 226 255
204 226 255
205 226 255
205 226 255
205 226 255
205 226 255
205 226 255
205 226 255
204 226 255
204 226 255
204 226 255
204 226 255
204 226 255
204 226 255
204 226 255
204 226 255
204 226 255
204 226 255
204 226 255
204 226 255
204 226 255
204 226 255
204 226 255
204 226 255
204 226 255
204 226 255
203 226 255
203 226 255
203 226 255
203 226 255
203 226 255
203 226 255
203 226 255
203 225 255
203 225 255
203 225 255
203 225 255
203 225 255
203 225 255
203 225 255
203 225 255
203 225 255
203 225 255
202 225 255
202 225 255
202 225 255
202 225 255
202 225 255
202 225 255
202 225 255
202 225 255
202 225 255
202 225 255
202 225 255
202 225 255
202 225 255
202 225 255
202 225 255
201 225 255
201 225 255
201 225 255
201 225 255
201 225 255
201 224 255
201 224 255
201 224 255
201 224 255
201 224 255
201 224 255
201 224 255
201 224 255
201 224 255
201 224 255
200 224 255
200 224 255
200 224 255
200 224 255
200 224 255
200 224 255
200 224 255
200 224 255
200 224 255
200 224 255
200 224 255
200 224 255
200 224 255
200 224 255
200 224 255
199 224 255
199 224 255
199 223 255
199 223 255
199 223 255
199 223 255
199 223 255
199 223 255
199 223 255
199 223 255
199 223 255
199 223 255
199 223 255
199 223 255
198 223 255
198 223 255
198 223 255
198 223 255
198 223 255
198 223 255
198 223 255
198 223 255
198 223 255
198 223 255
198 223 255
198 223 255
198 223 255
198 223 255
197 223 255
197 222 255
197 222 255
197 222 255
197 222 255
197 222 255
197 222 255
197 222 255
197 222 255
197 222 255
197 222 255
197 222 255
197 222 255
197 222 255
197 222 255
196 222 255
196 222 255
196 222 255
196 222 255
196 222 255
196 222 255
196 222 255
196 222 255
196 222 255
196 222 255
196 222 255
196 222 255
196 222 255
196 222 255
196 222 255
196 221 255
196 221 255
195 221 255
195 221 255
195 221 255
195 221 255
195 221 255
195 221 255
195 221 255
195 221 255
195 221 255
195 221 255
195 221 255
195 221 255
195 221 255
195 221 255
195 221 255
195 221 255
195 221 255
195 221 255
195 221 255
195 221 255
195 221 255
194 221 255
194 221 255
194 221 255
194 221 255
194 221 255
194 221 255
194 221 255
194 221 255
194 221 255
194 221 255
194 221 255
194 221 255
194 221 255
194 221 255
194 221 255
194 221 255
194 221 255
194 221 255
194 221 255
194 221 255
194 221 255
194 221 255
194 221 255
194 221 255
194 221 255
194 221 255
194 221 255
194 221 255
194 221 255
194 221 255
194 221 255
194 221 255
194 221 255
194 221 255
194 221 255
194 221 255
194 221 255
194 221 255
194 221 255
194 221 255
194 221 255
194 221 255
194 221 255
194 221 255
194 221 255
194 221 255
194 221 255
194 221 255
194 221 255
194 221 255
194 221 255
194 221 255
194 221 255
194 221 255
194 221 255
194 221 255
194 221 255
194 221 255
194 221 255
194 221 255
194 221 255
194 221 255
194 221 255
194 221 255
194 221 255
194 221 255
194 221 255
194 221 255
194 221 255
194 221 255
195 221 255
195 221 255
195 221 255
195 221 255
195 221 255
195 221 255
195 221 255
195 221 255
195 221 255
195 221 255
195 221 255
195 221 255
195 221 255
195 221 255
195 221 255
195 221 255
195 221 255
195 221 255
195 221 255
195 221 255
195 221 255
196 221 255
196 222 255
196 222 255
196 222 255
196 222 255
196 222 255
196 222 255
196 222 255
196 222 255
196 222 255
196 222 255
196 222 255
196 222 255
196 222 255
196 222 255
196 222 255
196 222 255
197 222 255
197 222 255
197 222 255
197 222 255
197 222 255
197 222 255
197 222 255
197 222 255
197 222 255
197 222 255
197 222 255
197 222 255
197 222 255
197 222 255
197 223 255
198 223 255
198 223 255
198 223 255
198 223 255
198 223 255
198 223 255
198 223 255
198 223 255
198 223 255
198 223 255
198 223 255
198 223 255
198 223 255
198 223 255
199 223 255
199 223 255
199 223 255
199 223 255
199 223 255
199 223 255
199 223 255
199 223 255
199 223 255
199 223 255
199 223 255
199 223 255
199 224 255
199 224 255
200 224 255
200 224 255
200 224 255
200 224 255
200 224 255
200 224 255
200 224 255
200 224 255
200 224 255
200 224 255
200 224 255
200 224 255
200 224 255
200 224 255
200 224 255
201 224 255
201 224 255
201 224 255
201 224 255
201 224 255
201 224 255
201 224 255
201 224 255
201 224 255
201 224 255
201 225 255
201 225 255
201 225 255
201 225 255
201 225 255
202 225 255
202 225 255
202 225 255
202 225 255
202 225 255
202 225 255
202 225 255
202 225 255
202 225 255
202 225 255
202 225 255
202 225 255
202 225 255
202 225 255
202 225 255
203 225 255
203 225 255
203 225 255
203 225 255
203 225 255
203 225 255
203 225 255
203 225 255
203 225 255
203 226 255
203 226 255
203 226 255
203 226 255
203 226 255
203 226 255
203 226 255
203 226 255
204 226 255
204 226 255
204 226 255
204 226 255
204 226 255
204 226 255
204 226 255
204 226 255
204 226 255
204 226 255
204 226 255
204 226 255
204 226 255
204 226 255
204 226 255
204 226 255
204 226 255
204 226 255
205 226 255
205 226 255
205 226 255
205 226 255
205 226 255
205 226 255
205 226 255
205 226 255
205 226 255
205 226 255
205 226 255
204 226 255
204 226 255
204 226 255
204 226 255
204 226 255
204 226 255
204 226 255
204 226 255
204 226 255
204 226 255
204 226 255
204 226 255
204 226 255
204 226 255
204 226 255
204 226 255
204 226 255
204 226 255
203 226 255
203 226 255
203 226 255
203 226 255
203 226 255
203 226 255
203 226 255
203 225 255
203 225 255
203 225 255
203 225 255
203 225 255
203 225 255
203 225 255
203 225 255
203 225 255
202 225 255
202 225 255
202 225 255
202 225 255
202 225 255
202 225 255
202 225 255
202 225 255
202 225 255
202 225 255
202 225 255
202 225 255
202 225 255
202 225 255
202 225 255
201 225 255
201 225 255
201 225 255
201 225 255
201 225 255
201 224 255
201 224 255
201 224 255
201 224 255
201 224 255
201 224 255
201 224 255
201 224 255
201 224 255
201 224 255
200 224 255
200 224 255
200 224 255
200 224 255
200 224 255
200 224 255
200 224 255
200 224 255
200 224 255
200 224 255
200 224 255
200 224 255
200 224 255
200 224 255
200 224 255
199 224 255
199 224 255
199 223 255
199 223 255
199 223 255
199 223 255
199 223 255
199 223 255
199 223 255
199 223 255
199 223 255
199 223 255
199 223 255
199 223 255
198 223 255
198 223 255
198 223 255
198 223 255
198 223 255
198 223 255
198 223 255
198 223 255
198 223 255
198 223 255
198 223 255
198 223 255
198 223 255
198 223 255
198 223 255
197 222 255
197 222 255
197 222 255
197 222 255
197 222 255
197 222 255
197 222 255
197 222 255
197 222 255
197 222 255
197 222 255
197 222 255
197 222 255
197 222 255
197 222 255
196 222 255
196 222 255
196 222 255
196 222 255
196 222 255
196 222 255
196 222 255
196 222 255
196 222 255
196 222 255
196 222 255
196 222 255
196 222 255
196 222 255
196 222 255
196 221 255
196 221 255
195 221 255
195 221 255
195 221 255
195 221 255
195 221 255
195 221 255
195 221 255
195 221 255
195 221 255
195 221 255
195 221 255
195 221 255
195 221 255
195 221 255
195 221 255
195 221 255
195 221 255
195 221 255
195 221 255
195 221 255
195 221 255
195 221 255
194 221 255
194 221 255
194 221 255
194 221 255
194 221 255
194 221 255
194 221 255
194 221 255
194 221 255
194 221 255
194 221 255
194 221 255
194 221 255
194 221 255
194 221 255
194 221 255
194 221 255
194 221 255
194 221 255
194 221 255
194 221 255
194 221 255
194 221 255
194 221 255
194 221 255
194 221 255
194 221 255
194 221 255
194 221 255
194 221 255
194 221 255
194 221 255
194 221 255
194 221 255
194 221 255
194 221 255
194 221 255
194 221 255
194 221 255
194 221 255
194 221 255
194 221 255
194 221 255
194 221 255
194 221 255
194 221 255
194 221 255
194 221 255
194 221 255
194 221 255
194 221 255
194 221 255
194 221 255
194 221 255
194 221 255
194 221 255
194 221 255
194 221 255
194 221 255
194 221 255
194 221 255
194 221 255
195 221 255
195 221 255
195 221 255
195 221 255
195 221 255
195 221 255
195 221 255
195 221 255
195 221 255
195 221 255
195 221 255
195 221 255
195 221 255
195 221 255
195 221 255
195 221 255
195 221 255
195 221 255
195 221 255
195 221 255
195 221 255
195 221 255
196 221 255
196 221 255
196 222 255
196 222 255
196 222 255
196 222 255
196 222 255
196 222 255
196 222 255
196 222 255
196 222 255
196 222 255
196 222 255
196 222 255
196 222 255
196 222 255
196 222 255
197 222 255
197 222 255
197 222 255
197 222 255
197 222 255
197 222 255
197 222 255
197 222 255
197 222 255
197 222 255
197 222 255
197 222 255
197 222 255
197 222 255
197 222 255
197 223 255
198 223 255
198 223 255
198 223 255
198 223 255
198 223 255
198 223 255
198 223 255
198 223 255
198 223 255
198 223 255
198 223 255
198 223 255
198 223 255
198 223 255
199 223 255
199 223 255
199 223 255
199 223 255
199 223 255
199 223 255
199 223 255
199 223 255
199 223 255
199 223 255
199 223 255
199 223 255
199 224 255
199 224 255
200 224 255
200 224 255
200 224 255
200 224 255
200 224 255
200 224 255
200 224 255
200 224 255
200 224 255
200 224 255
200 224 255
200 224 255
200 224 255
200 224 255
200 224 255
201 224 255
201 224 255
201 224 255
201 224 255
201 224 255
201 224 255
201 224 255
201 224 255
201 224 255
201 224 255
201 225 255
201 225 255
201 225 255
201 225 255
202 225 255
202 225 255
202 225 255
202 225 255
202 225 255
202 225 255
202 225 255
202 225 255
202 225 255
202 225 255
202 225 255
202 225 255
202 225 255
202 225 255
202 225 255
202 225 255
203 225 255
203 225 255
203 225 255
203 225 255
203 225 255
203 225 255
203 225 255
203 225 255
203 225 255
203 226 255
203 226 255
203 226 255
203 226 255
203 226 255
203 226 255
203 226 255
203 226 255
204 226 255
204 226 255
204 226 255
204 226 255
204 226 255
204 226 255
204 226 255
204 226 255
204 226 255
204 226 255
204 226 255
204 226 255
204 226 255
204 226 255
204 226 255
204 226 255
204 226 255
205 226 255
205 226 255
205 226 255
205 226 255
205 226 255
205 226 255
205 226 255
205 227 255
205 227 255
205 226 255
205 226 255
205 226 255
205 226 255
205 226 255
205 226 255
205 226 255
204 226 255
204 226 255
204 226 255
204 226 255
204 226 255
204 226 255
204 226 255
204 226 255
204 226 255
204 226 255
204 226 255
204 226 255
204 226 255
204 226 255
204 226 255
204 226 255
204 226 255
204 226 255
203 226 255
203 226 255
203 226 255
203 226 255
203 226 255
203 226 255
203 226 255
203 225 255
203 225 255
203 225 255
203 225 255
203 225 255
203 225 255
203 225 255
203 225 255
203 225 255
202 225 255
202 225 255
202 225 255
202 225 255
202 225 255
202 225 255
202 225 255
202 225 255
202 225 255
202 225 255
202 225 255
202 225 255
202 225 255
202 225 255
202 225 255
202 225 255
201 225 255
201 225 255
201 225 255
201 225 255
201 224 255
201 224 255
201 224 255
201 224 255
201 224 255
201 224 255
201 224 255
201 224 255
201 224 255
201 224 255
200 224 255
200 224 255
200 224 255
200 224 255
200 224 255
200 224 255
200 224 255
200 224 255
200 224 255
200 224 255
200 224 255
200 224 255
200 224 255
200 224 255
200 224 255
199 224 255
199 224 255
199 223 255
199 223 255
199 223 255
199 223 255
199 223 255
199 223 255
199 223 255
199 223 255
199 223 255
199 223 255
199 223 255
199 223 255
198 223 255
198 223 255
198 223 255
198 223 255
198 223 255
198 223 255
198 223 255
198 223 255
198 223 255
198 223 255
198 223 255
198 223 255
198 223 255
198 223 255
198 223 255
197 222 255
197 222 255
197 222 255
197 222 255
197 222 255
197 222 255
197 222 255
197 222 255
197 222 255
197 222 255
197 222 255
197 222 255
197 222 255
197 222 255
197 222 255
196 222 255
196 222 255
196 222 255
196 222 255
196 222 255
196 222 255
196 222 255
196 222 255
196 222 255
196 222 255
196 222 255
196 222 255
196 222 255
196 222 255
196 222 255
196 222 255
196 221 255
195 221 255
195 221 255
195 221 255
195 221 255
195 221 255
195 221 255
195 221 255
195 221 255
195 221 255
195 221 255
195 221 255
195 221 255
195 221 255
195 221 255
195 221 255
195 221 255
195 221 255
195 221 255
195 221 255
195 221 255
195 221 255
195 221 255
195 221 255
195 221 255
194 221 255
194 221 255
194 221 255
194 221 255
194 221 255
194 221 255
194 221 255
194 221 255
194 221 255
194 221 255
194 221 255
194 221 255
194 221 255
194 221 255
194 221 255
194 221 255
194 221 255
194 221 255
194 221 255
194 221 255
194 221 255
194 221 255
194 221 255
194 221 255
194 221 255
194 221 255
194 221 255
194 221 255
194 221 255
194 221 255
194 221 255
194 221 255
194 221 255
194 221 255
194 221 255
194 221 255
194 221 255
194 221 255
194 221 255
194 221 255
194 221 255
194 221 255
194 221 255
194 221 255
194 221 255
194 221 255
194 221 255
194 221 255
194 221 255
194 221 255
194 221 255
194 221 255
194 221 255
194 221 255
195 221 255
195 221 255
195 221 255
195 221 255
195 221 255
195 221 255
195 221 255
195 221 255
195 221 255
195 221 255
195 221 255
195 221 255
195 221 255
195 221 255
195 221 255
195 221 255
195 221 255
195 221 255
195 221 255
195 221 255
195 221 255
195 221 255
195 221 255
195 221 255
196 221 255
196 222 255
196 222 255
196 222 255
196 222 255
196 222 255
196 222 255
196 222 255
196 222 255
196 222 255
196 222 255
196 222 255
196 222 255
196 222 255
196 222 255
196 222 255
196 222 255
197 222 255
197 222 255
197 222 255
197 222 255
197 222 255
197 222 255
197 222 255
197 222 255
197 222 255
197 222 255
197 222 255
197 222 255
197 222 255
197 222 255
197 222 255
198 223 255
198 223 255
198 223 255
198 223 255
198 223 255
198 223 255
198 223 255
198 223 255
198 223 255
198 223 255
198 223 255
198 223 255
198 223 255
198 223 255
198 223 255
199 223 255
199 223 255
199 223 255
199 223 255
199 223 255
199 223 255
199 223 255
199 223 255
199 223 255
199 223 255
199 223 255
199 223 255
199 224 255
199 224 255
200 224 255
200 224 255
200 224 255
200 224 255
200 224 255
200 224 255
200 224 255
200 224 255
200 224 255
200 224 255
200 224 255
200 224 255
200 224 255
200 224 255
200 224 255
201 224 255
201 224 255
201 224 255
201 224 255
201 224 255
201 224 255
201 224 255
201 224 255
201 224 255
201 224 255
201 225 255
201 225 255
201 225 255
201 225 255
202 225 255
202 225 255
202 225 255
202 225 255
202 225 255
202 225 255
202 225 255
202 225 255
202 225 255
202 225 255
202 225 255
202 225 255
202 225 255
202 225 255
202 225 255
202 225 255
203 225 255
203 225 255
203 225 255
203 225 255
203 225 255
203 225 255
203 225 255
203 225 255
203 225 255
203 226 255
203 226 255
203 226 255
203 226 255
203 226 255
203 226 255
203 226 255
204 226 255
204 226 255
204 226 255
204 226 255
204 226 255
204 226 255
204 226 255
204 226 255
204 226 255
204 226 255
204 226 255
204 226 255
204 226 255
204 226 255
204 226 255
204 226 255
204 226 255
204 226 255
205 226 255
205 226 255
205 226 255
205 226 255
205 226 255
205 226 255
205 226 255
205 227 255
205 227 255
205 227 255
205 227 255
205 227 255
205 227 255
205 226 255
205 226 255
205 226 255
205 226 255
205 226 255
205 226 255
205 226 255
205 226 255
204 226 255
204 226 255
204 226 255
204 226 255
204 226 255
204 226 255
204 226 255
204 226 255
204 226 255
204 226 255
204 226 255
204 226 255
204 226 255
204 226 255
204 226 255
204 226 255
204 226 255
203 226 255
203 226 255
203 226 255
203 226 255
203 226 255
203 226 255
203 226 255
203 225 255
203 225 255
203 225 255
203 225 255
203 225 255
203 225 255
203 225 255
203 225 255
203 225 255
202 225 255
202 225 255
202 225 255
202 225 255
202 225 255
202 225 255
202 225 255
202 225 255
202 225 255
202 225 255
202 225 255
202 225 255
202 225 255
202 225 255
202 225 255
202 225 255
201 225 255
201 225 255
201 225 255
201 225 255
201 224 255
201 224 255
201 224 255
201 224 255
201 224 255
201 224 255
201 224 255
201 224 255
201 224 255
201 224 255
201 224 255
200 224 255
200 224 255
200 224 255
200 224 255
200 224 255
200 224 255
200 224 255
200 224 255
200 224 255
200 224 255
200 224 255
200 224 255
200 224 255
200 224 255
199 224 255
199 224 255
199 223 255
199 223 255
199 223 255
199 223 255
199 223 255
199 223 255
199 223 255
199 223 255
199 223 255
199 223 255
199 223 255
199 223 255
198 223 255
198 223 255
198 223 255
198 223 255
198 223 255
198 223 255
198 223 255
198 223 255
198 223 255
198 223 255
198 223 255
198 223 255
198 223 255
198 223 255
198 223 255
197 222 255
197 222 255
197 222 255
197 222 255
197 222 255
197 222 255
197 222 255
197 222 255
197 222 255
197 222 255
197 222 255
197 222 255
197 222 255
197 222 255
197 222 255
196 222 255
196 222 255
196 222 255
196 222 255
196 222 255
196 222 255
196 222 255
196 222 255
196 222 255
196 222 255
196 222 255
196 222 255
196 222 255
196 222 255
196 222 255
196 222 255
196 221 255
196 221 255
195 221 255
195 221 255
195 221 255
195 221 255
195 221 255
195 221 255
195 221 255
195 221 255
195 221 255
195 221 255
195 221 255
195 221 255
195 221 255
195 221 255
195 221 255
195 221 255
195 221 255
195 221 255
195 221 255
195 221 255
195 221 255
195 221 255
195 221 255
195 221 255
195 221 255
195 221 255
194 221 255
194 221 255
194 221 255
194 221 255
194 221 255
194 221 255
194 221 255
194 221 255
194 221 255
194 221 255
194 221 255
194 221 255
194 221 255
194 221 255
194 221 255
194 221 255
194 221 255
194 221 255
194 221 255
194 221 255
194 221 255
194 221 255
194 221 255
194 221 255
194 221 255
194 221 255
194 221 255
194 221 255
194 221 255
194 221 255
194 221 255
194 221 255
194 221 255
194 221 255
194 221 255
194 221 255
194 221 255
194 221 255
194 221 255
194 221 255
194 221 255
194 221 255
194 221 255
194 221 255
195 221 255
195 221 255
195 221 255
195 221 255
195 221 255
195 221 255
195 221 255
195 221 255
195 221 255
195 221 255
195 221 255
195 221 255
195 221 255
195 221 255
195 221 255
195 221 255
195 221 255
195 221 255
195 221 255
195 221 255
195 221 255
195 221 255
195 221 255
195 221 255
195 221 255
195 221 255
196 221 255
196 222 255
196 222 255
196 222 255
196 222 255
196 222 255
196 222 255
196 222 255
196 222 255
196 222 255
196 222 255
196 222 255
196 222 255
196 222 255
196 222 255
196 222 255
196 222 255
196 222 255
197 222 255
197 222 255
197 222 255
197 222 255
197 222 255
197 222 255
197 222 255
197 222 255
197 222 255
197 222 255
197 222 255
197 222 255
197 222 255
197 222 255
197 222 255
198 223 255
198 223 255
198 223 255
198 223 255
198 223 255
198 223 255
198 223 255
198 223 255
198 223 255
198 223 255
198 223 255
198 223 255
198 223 255
198 223 255
198 223 255
199 223 255
199 223 255
199 223 255
199 223 255
199 223 255
199 223 255
199 223 255
199 223 255
199 223 255
199 223 255
199 223 255
199 223 255
199 224 255
199 224 255
200 224 255
200 224 255
200 224 255
200 224 255
200 224 255
200 224 255
200 224 255
200 224 255
200 224 255
200 224 255
200 224 255
200 224 255
200 224 255
200 224 255
201 224 255
201 224 255
201 224 255
201 224 255
201 224 255
201 224 255
201 224 255
201 224 255
201 224 255
201 224 255
201 224 255
201 225 255
201 225 255
201 225 255
201 225 255
202 225 255
202 225 255
202 225 255
202 225 255
202 225 255
202 225 255
202 225 255
202 225 255
202 225 255
202 225 255
202 225 255
202 225 255
202 225 255
202 225 255
202 225 255
202 225 255
203 225 255
203 225 255
203 225 255
203 225 255
203 225 255
203 225 255
203 225 255
203 225 255
203 225 255
203 226 255
203 226 255
203 226 255
203 226 255
203 226 255
203 226 255
203 226 255
204 226 255
204 226 255
204 226 255
204 226 255
204 226 255
204 226 255
204 226 255
204 226 255
204 226 255
204 226 255
204 226 255
204 226 255
204 226 255
204 226 255
204 226 255
204 226 255
204 226 255
205 226 255
205 226 255
205 226 255
205 226 255
205 226 255
205 226 255
205 226 255
205 226 255
205 227 255
205 227 255
205 227 255
205 227 255
205 227 255
205 227 255
205 227 255
205 227 255
205 227 255
205 227 255
205 227 255
205 226 255
205 226 255
205 226 255
205 226 255
205 226 255
205 226 255
205 226 255
204 226 255
204 226 255
204 226 255
204 226 255
204 226 255
204 226 255
204 226 255
204 226 255
204 226 255
204 226 255
204 226 255
204 226 255
204 226 255
204 226 255
204 226 255
204 226 255
204 226 255
204 226 255
203 226 255
203 226 255
203 226 255
203 226 255
203 226 255
203 226 255
203 226 255
203 225 255
203 225 255
203 225 255
203 225 255
203 225 255
203 225 255
203 225 255
203 225 255
203 225 255
202 225 255
202 225 255
202 225 255
202 225 255
202 225 255
202 225 255
202 225 255
202 225 255
202 225 255
202 225 255
202 225 255
202 225 255
202 225 255
202 225 255
202 225 255
201 225 255
201 225 255
201 225 255
201 225 255
201 224 255
201 224 255
201 224 255
201 224 255
201 224 255
201 224 255
201 224 255
201 224 255
201 224 255
201 224 255
201 224 255
200 224 255
200 224 255
200 224 255
200 224 255
200 224 255
200 224 255
200 224 255
200 224 255
200 224 255
200 224 255
200 224 255
200 224 255
200 224 255
200 224 255
199 224 255
199 224 255
199 223 255
199 223 255
199 223 255
199 223 255
199 223 255
199 223 255
199 223 255
199 223 255
199 223 255
199 223 255
199 223 255
199 223 255
198 223 255
198 223 255
198 223 255
198 223 255
198 223 255
198 223 255
198 223 255
198 223 255
198 223 255
198 223 255
198 223 255
198 223 255
198 223 255
198 223 255
198 223 255
197 222 255
197 222 255
197 222 255
197 222 255
197 222 255
197 222 255
197 222 255
197 222 255
197 222 255
197 222 255
197 222 255
197 222 255
197 222 255
197 222 255
197 222 255
197 222 255
196 222 255
196 222 255
196 222 255
196 222 255
196 222 255
196 222 255
196 222 255
196 222 255
196 222 255
196 222 255
196 222 255
196 222 255
196 222 255
196 222 255
196 222 255
196 222 255
196 222 255
196 221 255
195 221 255
195 221 255
195 221 255
195 221 255
195 221 255
195 221 255
195 221 255
195 221 255
195 221 255
195 221 255
195 221 255
195 221 255
195 221 255
195 221 255
195 221 255
195 221 255
195 221 255
195 221 255
195 221 255
195 221 255
195 221 255
195 221 255
195 221 255
195 221 255
195 221 255
195 221 255
195 221 255
195 221 255
195 221 255
195 221 255
194 221 255
194 221 255
194 221 255
194 221 255
194 221 255
194 221 255
194 221 255
194 221 255
194 221 255
194 221 255
194 221 255
194 221 255
194 221 255
194 221 255
194 221 255
194 221 255
194 221 255
194 221 255
194 221 255
194 221 255
194 221 255
194 221 255
194 221 255
194 221 255
194 221 255
194 221 255
194 221 255
194 221 255
194 221 255
194 221 255
195 221 255
195 221 255
195 221 255
195 221 255
195 221 255
195 221 255
195 221 255
195 221 255
195 221 255
195 221 255
195 221 255
195 221 255
195 221 255
195 221 255
195 221 255
195 221 255
195 221 255
195 221 255
195 221 255
195 221 255
195 221 255
195 221 255
195 221 255
195 221 255
195 221 255
195 221 255
195 221 255
195 221 255
195 221 255
195 221 255
196 221 255
196 222 255
196 222 255
196 222 255
196 222 255
196 222 255
196 222 255
196 222 255
196 222 255
196 222 255
196 222 255
196 222 255
196 222 255
196 222 255
196 222 255
196 222 255
196 222 255
196 222 255
197 222 255
197 222 255
197 222 255
197 222 255
197 222 255
197 222 255
197 222 255
197 222 255
197 222 255
197 222 255
197 222 255
197 222 255
197 222 255
197 222 255
197 222 255
197 223 255
198 223 255
198 223 255
198 223 255
198 223 255
198 223 255
198 223 255
198 223 255
198 223 255
198 223 255
198 223 255
198 223 255
198 223 255
198 223 255
198 223 255
198 223 255
199 223 255
199 223 255
199 223 255
199 223 255
199 223 255
199 223 255
199 223 255
199 223 255
199 223 255
199 223 255
199 223 255
199 223 255
199 224 255
199 224 255
200 224 255
200 224 255
200 224 255
200 224 255
200 224 255
200 224 255
200 224 255
200 224 255
200 224 255
200 224 255
200 224 255
200 224 255
200 224 255
200 224 255
201 224 255
201 224 255
201 224 255
201 224 255
201 224 255
201 224 255
201 224 255
201 224 255
201 224 255
201 224 255
201 224 255
201 225 255
201 225 255
201 225 255
201 225 255
202 225 255
202 225 255
202 225 255
202 225 255
202 225 255
202 225 255
202 225 255
202 225 255
202 225 255
202 225 255
202 225 255
202 225 255
202 225 255
202 225 255
202 225 255
203 225 255
203 225 255
203 225 255
203 225 255
203 225 255
203 225 255
203 225 255
203 225 255
203 225 255
203 226 255
203 226 255
203 226 255
203 226 255
203 226 255
203 226 255
203 226 255
203 226 255
204 226 255
204 226 255
204 226 255
204 226 255
204 226 255
204 226 255
204 226 255
204 226 255
204 226 255
204 226 255
204 226 255
204 226 255
204 226 255
204 226 255
204 226 255
204 226 255
204 226 255
205 226 255
205 226 255
205 226 255
205 226 255
205 226 255
205 226 255
205 226 255
205 227 255
205 227 255
205 227 255
205 227 255
205 227 255
205 227 255
205 227 255
205 227 255
205 227 255
205 227 255
205 227 255
205 227 255
205 227 255
205 227 255
205 227 255
205 227 255
205 226 255
205 226 255
205 226 255
205 226 255
205 226 255
205 226 255
205 226 255
205 226 255
204 226 255
204 226 255
204 226 255
204 226 255
204 226 255
204 226 255
204 226 255
204 226 255
204 226 255
204 226 255
204 226 255
204 226 255
204 226 255
204 226 255
204 226 255
204 226 255
204 226 255
203 226 255
203 226 255
203 226 255
203 226 255
203 226 255
203 226 255
203 226 255
203 225 255
203 225 255
203 225 255
203 225 255
203 225 255
203 225 255
203 225 255
203 225 255
203 225 255
202 225 255
202 225 255
202 225 255
202 225 255
202 225 255
202 225 255
202 225 255
202 225 255
202 225 255
202 225 255
202 225 255
202 225 255
202 225 255
202 225 255
202 225 255
201 225 255
201 225 255
201 225 255
201 225 255
201 224 255
201 224 255
201 224 255
201 224 255
201 224 255
201 224 255
201 224 255
201 224 255
201 224 255
201 224 255
201 224 255
200 224 255
200 224 255
200 224 255
200 224 255
200 224 255
200 224 255
200 224 255
200 224 255
200 224 255
200 224 255
200 224 255
200 224 255
200 224 255
200 224 255
199 224 255
199 224 255
199 223 255
199 223 255
199 223 255
199 223 255
199 223 255
199 223 255
199 223 255
199 223 255
199 223 255
199 223 255
199 223 255
199 223 255
199 223 255
198 223 255
198 223 255
198 223 255
198 223 255
198 223 255
198 223 255
198 223 255
198 223 255
198 223 255
198 223 255
198 223 255
198 223 255
198 223 255
198 223 255
197 223 255
197 222 255
197 222 255
197 222 255
197 222 255
197 222 255
197 222 255
197 222 255
197 222 255
197 222 255
197 222 255
197 222 255
197 222 255
197 222 255
197 222 255
197 222 255
197 222 255
196 222 255
196 222 255
196 222 255
196 222 255
196 222 255
196 222 255
196 222 255
196 222 255
196 222 255
196 222 255
196 222 255
196 222 255
196 222 255
196 222 255
196 222 255
196 222 255
196 222 255
196 221 255
196 221 255
195 221 255
195 221 255
195 221 255
195 221 255
195 221 255
195 221 255
195 221 255
195 221 255
195 221 255
195 221 255
195 221 255
195 221 255
195 221 255
195 221 255
195 221 255
195 221 255
195 221 255
195 221 255
195 221 255
195 221 255
195 221 255
195 221 255
195 221 255
195 221 255
195 221 255
195 221 255
195 221 255
195 221 255
195 221 255
195 221 255
195 221 255
195 221 255
195 221 255
195 221 255
195 221 255
195 221 255
195 221 255
195 221 255
195 221 255
195 221 255
195 221 255
195 221 255
195 221 255
195 221 255
195 221 255
195 221 255
195 221 255
195 221 255
195 221 255
195 221 255
195 221 255
195 221 255
195 221 255
195 221 255
195 221 255
195 221 255
195 221 255
195 221 255
195 221 255
195 221 255
195 221 255
195 221 255
195 221 255
195 221 255
195 221 255
195 221 255
195 221 255
195 221 255
195 221 255
195 221 255
195 221 255
195 221 255
195 221 255
195 221 255
195 221 255
195 221 255
195 221 255
195 221 255
195 221 255
195 221 255
195 221 255
195 221 255
196 221 255
196 221 255
196 222 255
196 222 255
196 222 255
196 222 255
196 222 255
196 222 255
196 222 255
196 222 255
196 222 255
196 222 255
196 222 255
196 222 255
196 222 255
196 222 255
196 222 255
196 222 255
196 222 255
196 222 255
197 222 255
197 222 255
197 222 255
197 222 255
197 222 255
197 222 255
197 222 255
197 222 255
197 222 255
197 222 255
197 222 255
197 222 255
197 222 255
197 222 255
197 222 255
197 223 255
198 223 255
198 223 255
198 223 255
198 223 255
198 223 255
198 223 255
198 223 255
198 223 255
198 223 255
198 223 255
198 223 255
198 223 255
198 223 255
198 223 255
199 223 255
199 223 255
199 223 255
199 223 255
199 223 255
199 223 255
199 223 255
199 223 255
199 223 255
199 223 255
199 223 255
199 223 255
199 224 255
199 224 255
199 224 255
200 224 255
200 224 255
200 224 255
200 224 255
200 224 255
200 224 255
200 224 255
200 224 255
200 224 255
200 224 255
200 224 255
200 224 255
200 224 255
200 224 255
201 224 255
201 224 255
201 224 255
201 224 255
201 224 255
201 224 255
201 224 255
201 224 255
201 224 255
201 224 255
201 225 255
201 225 255
201 225 255
201 225 255
201 225 255
202 225 255
202 225 255
202 225 255
202 225 255
202 225 255
202 225 255
202 225 255
202 225 255
202 225 255
202 225 255
202 225 255
202 225 255
202 225 255
202 225 255
202 225 255
203 225 255
203 225 255
203 225 255
203 225 255
203 225 255
203 225 255
203 225 255
203 225 255
203 225 255
203 226 255
203 226 255
203 226 255
203 226 255
203 226 255
203 226 255
203 226 255
204 226 255
204 226 255
204 226 255
204 226 255
204 226 255
204 226 255
204 226 255
204 226 255
204 226 255
204 226 255
204 226 255
204 226 255
204 226 255
204 226 255
204 226 255
204 226 255
204 226 255
204 226 255
205 226 255
205 226 255
205 226 255
205 226 255
205 226 255
205 226 255
205 226 255
205 227 255
205 227 255
205 227 255
205 227 255
205 227 255
205 227 255
205 227 255
205 227 255
205 227 255
205 227 255
205 227 255
205 227 255
205 227 255
205 227 255
205 227 255
205 227 255
205 227 255
205 227 255
205 227 255
205 227 255
205 227 255
205 226 255
205 226 255
205 226 255
205 226 255
205 226 255
205 226 255
205 226 255
204 226 255
204 226 255
204 226 255
204 226 255
204 226 255
204 226 255
204 226 255
204 226 255
204 226 255
204 226 255
204 226 255
204 226 255
204 226 255
204 226 255
204 226 255
204 226 255
204 226 255
203 226 255
203 226 255
203 226 255
203 226 255
203 226 255
203 226 255
203 226 255
203 225 255
203 225 255
203 225 255
203 225 255
203 225 255
203 225 255
203 225 255
203 225 255
203 225 255
202 225 255
202 225 255
202 225 255
202 225 255
202 225 255
202 225 255
202 225 255
202 225 255
202 225 255
202 225 255
202 225 255
202 225 255
202 225 255
202 225 255
202 225 255
201 225 255
201 225 255
201 225 255
201 225 255
201 225 255
201 224 255
201 224 255
201 224 255
201 224 255
201 224 255
201 224 255
201 224 255
201 224 255
201 224 255
201 224 255
200 224 255
200 224 255
200 224 255
200 224 255
200 224 255
200 224 255
200 224 255
200 224 255
200 224 255
200 224 255
200 224 255
200 224 255
200 224 255
200 224 255
199 224 255
199 224 255
199 224 255
199 223 255
199 223 255
199 223 255
199 223 255
199 223 255
199 223 255
199 223 255
199 223 255
199 223 255
199 223 255
199 223 255
199 223 255
198 223 255
198 223 255
198 223 255
198 223 255
198 223 255
198 223 255
198 223 255
198 223 255
198 223 255
198 223 255
198 223 255
198 223 255
198 223 255
198 223 255
198 223 255
197 222 255
197 222 255
197 222 255
197 222 255
197 222 255
197 222 255
197 222 255
197 222 255
197 222 255
197 222 255
197 222 255
197 222 255
197 222 255
197 222 255
197 222 255
197 222 255
196 222 255
196 222 255
196 222 255
196 222 255
196 222 255
196 222 255
196 222 255
196 222 255
196 222 255
196 222 255
196 222 255
196 222 255
196 222 255
196 222 255
196 222 255
196 222 255
196 222 255
196 222 255
196 221 255
196 221 255
195 221 255
195 221 255
195 221 255
195 221 255
195 221 255
195 221 255
195 221 255
195 221 255
195 221 255
195 221 255
195 221 255
195 221 255
195 221 255
195 221 255
195 221 255
195 221 255
195 221 255
195 221 255
195 221 255
195 221 255
195 221 255
195 221 255
195 221 255
195 221 255
195 221 255
195 221 255
195 221 255
195 221 255
195 221 255
195 221 255
195 221 255
195 221 255
195 221 255
195 221 255
195 221 255
195 221 255
195 221 255
195 221 255
195 221 255
195 221 255
195 221 255
195 221 255
195 221 255
195 221 255
195 221 255
195 221 255
195 221 255
195 221 255
195 221 255
195 221 255
195 221 255
195 221 255
195 221 255
195 221 255
195 221 255
195 221 255
195 221 255
195 221 255
195 221 255
195 221 255
195 221 255
195 221 255
195 221 255
195 221 255
195 221 255
195 221 255
195 221 255
195 221 255
195 221 255
195 221 255
195 221 255
195 221 255
195 221 255
195 221 255
195 221 255
195 221 255
196 221 255
196 221 255
196 222 255
196 222 255
196 222 255
196 222 255
196 222 255
196 222 255
196 222 255
196 222 255
196 222 255
196 222 255
196 222 255
196 222 255
196 222 255
196 222 255
196 222 255
196 222 255
196 222 255
196 222 255
197 222 255
197 222 255
197 222 255
197 222 255
197 222 255
197 222 255
197 222 255
197 222 255
197 222 255
197 222 255
197 222 255
197 222 255
197 222 255
197 222 255
197 222 255
197 222 255
198 223 255
198 223 255
198 223 255
198 223 255
198 223 255
198 223 255
198 223 255
198 223 255
198 223 255
198 223 255
198 223 255
198 223 255
198 223 255
198 223 255
198 223 255
199 223 255
199 223 255
199 223 255
199 223 255
199 223 255
199 223 255
199 223 255
199 223 255
199 223 255
199 223 255
199 223 255
199 223 255
199 224 255
199 224 255
199 224 255
200 224 255
200 224 255
200 224 255
200 224 255
200 224 255
200 224 255
200 224 255
200 224 255
200 224 255
200 224 255
200 224 255
200 224 255
200 224 255
200 224 255
201 224 255
201 224 255
201 224 255
201 224 255
201 224 255
201 224 255
201 224 255
201 224 255
201 224 255
201 224 255
201 225 255
201 225 255
201 225 255
201 225 255
201 225 255
202 225 255
202 225 255
202 225 255
202 225 255
202 225 255
202 225 255
202 225 255
202 225 255
202 225 255
202 225 255
202 225 255
202 225 255
202 225 255
202 225 255
202 225 255
203 225 255
203 225 255
203 225 255
203 225 255
203 225 255
203 225 255
203 225 255
203 225 255
203 225 255
203 226 255
203 226 255
203 226 255
203 226 255
203 226 255
203 226 255
203 226 255
204 226 255
204 226 255
204 226 255
204 226 255
204 226 255
204 226 255
204 226 255
204 226 255
204 226 255
204 226 255
204 226 255
204 226 255
204 226 255
204 226 255
204 226 255
204 226 255
204 226 255
205 226 255
205 226 255
205 226 255
205 226 255
205 226 255
205 226 255
205 226 255
205 227 255
205 227 255
205 227 255
205 227 255
205 227 255
205 227 255
205 227 255
205 227 255
205 227 255
205 227 255
205 227 255
206 227 255
206 227 255
206 227 255
206 227 255
205 227 255
205 227 255
205 227 255
205 227 255
205 227 255
205 227 255
205 227 255
205 227 255
205 227 255
205 227 255
205 227 255
205 226 255
205 226 255
205 226 255
205 226 255
205 226 255
205 226 255
205 226 255
204 226 255
204 226 255
204 226 255
204 226 255
204 226 255
204 226 255
204 226 255
204 226 255
204 226 255
204 226 255
204 226 255
204 226 255
204 226 255
204 226 255
204 226 255
204 226 255
204 226 255
203 226 255
203 226 255
203 226 255
203 226 255
203 226 255
203 226 255
203 226 255
203 226 255
203 225 255
203 225 255
203 225 255
203 225 255
203 225 255
203 225 255
203 225 255
203 225 255
202 225 255
202 225 255
202 225 255
202 225 255
202 225 255
202 225 255
202 225 255
202 225 255
202 225 255
202 225 255
202 225 255
202 225 255
202 225 255
202 225 255
202 225 255
201 225 255
201 225 255
201 225 255
201 225 255
201 225 255
201 224 255
201 224 255
201 224 255
201 224 255
201 224 255
201 224 255
201 224 255
201 224 255
201 224 255
201 224 255
200 224 255
200 224 255
200 224 255
200 224 255
200 224 255
200 224 255
200 224 255
200 224 255
200 224 255
200 224 255
200 224 255
200 224 255
200 224 255
200 224 255
200 224 255
199 224 255
199 224 255
199 223 255
199 223 255
199 223 255
199 223 255
199 223 255
199 223 255
199 223 255
199 223 255
199 223 255
199 223 255
199 223 255
199 223 255
198 223 255
198 223 255
198 223 255
198 223 255
198 223 255
198 223 255
198 223 255
198 223 255
198 223 255
198 223 255
198 223 255
198 223 255
198 223 255
198 223 255
198 223 255
197 223 255
197 222 255
197 222 255
197 222 255
197 222 255
197 222 255
197 222 255
197 222 255
197 222 255
197 222 255
197 222 255
197 222 255
197 222 255
197 222 255
197 222 255
197 222 255
197 222 255
196 222 255
196 222 255
196 222 255
196 222 255
196 222 255
196 222 255
196 222 255
196 222 255
196 222 255
196 222 255
196 222 255
196 222 255
196 222 255
196 222 255
196 222 255
196 222 255
196 222 255
196 222 255
196 222 255
196 221 255
196 221 255
195 221 255
195 221 255
195 221 255
195 221 255
195 221 255
195 221 255
195 221 255
195 221 255
195 221 255
195 221 255
195 221 255
195 221 255
195 221 255
195 221 255
195 221 255
195 221 255
195 221 255
195 221 255
195 221 255
195 221 255
195 221 255
195 221 255
195 221 255
195 221 255
195 221 255
195 221 255
195 221 255
195 221 255
195 221 255
195 221 255
195 221 255
195 221 255
195 221 255
195 221 255
195 221 255
195 221 255
195 221 255
195 221 255
195 221 255
195 221 255
195 221 255
195 221 255
195 221 255
195 221 255
195 221 255
195 221 255
195 221 255
195 221 255
195 221 255
195 221 255
195 221 255
195 221 255
195 221 255
195 221 255
195 221 255
195 221 255
195 221 255
195 221 255
195 221 255
195 221 255
195 221 255
195 221 255
195 221 255
195 221 255
195 221 255
195 221 255
195 221 255
195 221 255
196 221 255
196 221 255
196 222 255
196 222 255
196 222 255
196 222 255
196 222 255
196 222 255
196 222 255
196 222 255
196 222 255
196 222 255
196 222 255
196 222 255
196 222 255
196 222 255
196 222 255
196 222 255
196 222 255
196 222 255
196 222 255
197 222 255
197 222 255
197 222 255
197 222 255
197 222 255
197 222 255
197 222 255
197 222 255
197 222 255
197 222 255
197 222 255
197 222 255
197 222 255
197 222 255
197 222 255
197 222 255
197 223 255
198 223 255
198 223 255
198 223 255
198 223 255
198 223 255
198 223 255
198 223 255
198 223 255
198 223 255
198 223 255
198 223 255
198 223 255
198 223 255
198 223 255
198 223 255
199 223 255
199 223 255
199 223 255
199 223 255
199 223 255
199 223 255
199 223 255
199 223 255
199 223 255
199 223 255
199 223 255
199 223 255
199 224 255
199 224 255
200 224 255
200 224 255
200 224 255
200 224 255
200 224 255
200 224 255
200 224 255
200 224 255
200 224 255
200 224 255
200 224 255
200 224 255
200 224 255
200 224 255
200 224 255
201 224 255
201 224 255
201 224 255
201 224 255
201 224 255
201 224 255
201 224 255
201 224 255
201 224 255
201 224 255
201 225 255
201 225 255
201 225 255
201 225 255
201 225 255
202 225 255
202 225 255
202 225 255
202 225 255
202 225 255
202 225 255
202 225 255
202 225 255
202 225 255
202 225 255
202 225 255
202 225 255
202 225 255
202 225 255
202 225 255
203 225 255
203 225 255
203 225 255
203 225 255
203 225 255
203 225 255
203 225 255
203 225 255
203 226 255
203 226 255
203 226 255
203 226 255
203 226 255
203 226 255
203 226 255
203 226 255
204 226 255
204 226 255
204 226 255
204 226 255
204 226 255
204 226 255
204 226 255
204 226 255
204 226 255
204 226 255
204 226 255
204 226 255
204 226 255
204 226 255
204 226 255
204 226 255
204 226 255
205 226 255
205 226 255
205 226 255
205 226 255
205 226 255
205 226 255
205 226 255
205 227 255
205 227 255
205 227 255
205 227 255
205 227 255
205 227 255
205 227 255
205 227 255
205 227 255
205 227 255
205 227 255
206 227 255
206 227 255
206 227 255
206 227 255
206 227 255
206 227 255
206 227 255
206 227 255
205 227 255
205 227 255
205 227 255
205 227 255
205 227 255
205 227 255
205 227 255
205 227 255
205 227 255
205 227 255
205 227 255
205 226 255
205 226 255
205 226 255
205 226 255
205 226 255
205 226 255
205 226 255
205 226 255
204 226 255
204 226 255
204 226 255
204 226 255
204 226 255
204 226 255
204 226 255
204 226 255
204 226 255
204 226 255
204 226 255
204 226 255
204 226 255
204 226 255
204 226 255
204 226 255
204 226 255
203 226 255
203 226 255
203 226 255
203 226 255
203 226 255
203 226 255
203 226 255
203 225 255
203 225 255
203 225 255
203 225 255
203 225 255
203 225 255
203 225 255
203 225 255
203 225 255
202 225 255
202 225 255
202 225 255
202 225 255
202 225 255
202 225 255
202 225 255
202 225 255
202 225 255
202 225 255
202 225 255
202 225 255
202 225 255
202 225 255
202 225 255
201 225 255
201 225 255
201 225 255
201 225 255
201 224 255
201 224 255
201 224 255
201 224 255
201 224 255
201 224 255
201 224 255
201 224 255
201 224 255
201 224 255
200 224 255
200 224 255
200 224 255
200 224 255
200 224 255
200 224 255
200 224 255
200 224 255
200 224 255
200 224 255
200 224 255
200 224 255
200 224 255
200 224 255
200 224 255
199 224 255
199 224 255
199 223 255
199 223 255
199 223 255
199 223 255
199 223 255
199 223 255
199 223 255
199 223 255
199 223 255
199 223 255
199 223 255
199 223 255
198 223 255
198 223 255
198 223 255
198 223 255
198 223 255
198 223 255
198 223 255
198 223 255
198 223 255
198 223 255
198 223 255
198 223 255
198 223 255
198 223 255
198 223 255
198 223 255
197 222 255
197 222 255
197 222 255
197 222 255
197 222 255
197 222 255
197 222 255
197 222 255
197 222 255
197 222 255
197 222 255
197 222 255
197 222 255
197 222 255
197 222 255
197 222 255
197 222 255
196 222 255
196 222 255
196 222 255
196 222 255
196 222 255
196 222 255
196 222 255
196 222 255
196 222 255
196 222 255
196 222 255
196 222 255
196 222 255
196 222 255
196 222 255
196 222 255
196 222 255
196 222 255
196 222 255
196 222 255
196 221 255
196 221 255
195 221 255
195 221 255
195 221 255
195 221 255
195 221 255
195 221 255
195 221 255
195 221 255
195 221 255
195 221 255
195 221 255
195 221 255
195 221 255
195 221 255
195 221 255
195 221 255
195 221 255
195 221 255
195 221 255
195 221 255
195 221 255
195 221 255
195 221 255
195 221 255
195 221 255
195 221 255
195 221 255
195 221 255
195 221 255
195 221 255
195 221 255
195 221 255
195 221 255
195 221 255
195 221 255
195 221 255
195 221 255
195 221 255
195 221 255
195 221 255
195 221 255
195 221 255
195 221 255
195 221 255
195 221 255
195 221 255
195 221 255
195 221 255
195 221 255
195 221 255
195 221 255
195 221 255
195 221 255
195 221 255
195 221 255
195 221 255
195 221 255
195 221 255
195 221 255
195 221 255
196 221 255
196 221 255
196 221 255
196 222 255
196 222 255
196 222 255
196 222 255
196 222 255
196 222 255
196 222 255
196 222 255
196 222 255
196 222 255
196 222 255
196 222 255
196 222 255
196 222 255
196 222 255
196 222 255
196 222 255
196 222 255
196 222 255
197 222 255
197 222 255
197 222 255
197 222 255
197 222 255
197 222 255
197 222 255
197 222 255
197 222 255
197 222 255
197 222 255
197 222 255
197 222 255
197 222 255
197 222 255
197 222 255
197 222 255
198 223 255
198 223 255
198 223 255
198 223 255
198 223 255
198 223 255
198 223 255
198 223 255
198 223 255
198 223 255
198 223 255
198 223 255
198 223 255
198 223 255
198 223 255
198 223 255
199 223 255
199 223 255
199 223 255
199 223 255
199 223 255
199 223 255
199 223 255
199 223 255
199 223 255
199 223 255
199 223 255
199 223 255
199 224 255
199 224 255
200 224 255
200 224 255
200 224 255
200 224 255
200 224 255
200 224 255
200 224 255
200 224 255
200 224 255
200 224 255
200 224 255
200 224 255
200 224 255
200 224 255
200 224 255
201 224 255
201 224 255
201 224 255
201 224 255
201 224 255
201 224 255
201 224 255
201 224 255
201 224 255
201 224 255
201 225 255
201 225 255
201 225 255
201 225 255
202 225 255
202 225 255
202 225 255
202 225 255
202 225 255
202 225 255
202 225 255
202 225 255
202 225 255
202 225 255
202 225 255
202 225 255
202 225 255
202 225 255
202 225 255
203 225 255
203 225 255
203 225 255
203 225 255
203 225 255
203 225 255
203 225 255
203 225 255
203 225 255
203 226 255
203 226 255
203 226 255
203 226 255
203 226 255
203 226 255
203 226 255
204 226 255
204 226 255
204 226 255
204 226 255
204 226 255
204 226 255
204 226 255
204 226 255
204 226 255
204 226 255
204 226 255
204 226 255
204 226 255
204 226 255
204 226 255
204 226 255
204 226 255
205 226 255
205 226 255
205 226 255
205 226 255
205 226 255
205 226 255
205 226 255
205 226 255
205 227 255
205 227 255
205 227 255
205 227 255
205 227 255
205 227 255
205 227 255
205 227 255
205 227 255
205 227 255
205 227 255
206 227 255
206 227 255
206 227 255
206 227 255
206 227 255
206 227 255
206 227 255
206 227 255
206 227 255
206 227 255
206 227 255
206 227 255
206 227 255
205 227 255
205 227 255
205 227 255
205 227 255
205 227 255
205 227 255
205 227 255
205 227 255
205 227 255
205 227 255
205 227 255
205 226 255
205 226 255
205 226 255
205 226 255
205 226 255
205 226 255
205 226 255
204 226 255
204 226 255
204 226 255
204 226 255
204 226 255
204 226 255
204 226 255
204 226 255
204 226 255
204 226 255
204 226 255
204 226 255
204 226 255
204 226 255
204 226 255
204 226 255
204 226 255
203 226 255
203 226 255
203 226 255
203 226 255
203 226 255
203 226 255
203 226 255
203 225 255
203 225 255
203 225 255
203 225 255
203 225 255
203 225 255
203 225 255
203 225 255
203 225 255
202 225 255
202 225 255
202 225 255
202 225 255
202 225 255
202 225 255
202 225 255
202 225 255
202 225 255
202 225 255
202 225 255
202 225 255
202 225 255
202 225 255
202 225 255
201 225 255
201 225 255
201 225 255
201 225 255
201 224 255
201 224 255
201 224 255
201 224 255
201 224 255
201 224 255
201 224 255
201 224 255
201 224 255
201 224 255
201 224 255
200 224 255
200 224 255
200 224 255
200 224 255
200 224 255
200 224 255
200 224 255
200 224 255
200 224 255
200 224 255
200 224 255
200 224 255
200 224 255
200 224 255
199 224 255
199 224 255
199 224 255
199 223 255
199 223 255
199 223 255
199 223 255
199 223 255
199 223 255
199 223 255
199 223 255
199 223 255
199 223 255
199 223 255
199 223 255
198 223 255
198 223 255
198 223 255
198 223 255
198 223 255
198 223 255
198 223 255
198 223 255
198 223 255
198 223 255
198 223 255
198 223 255
198 223 255
198 223 255
198 223 255
197 223 255
197 222 255
197 222 255
197 222 255
197 222 255
197 222 255
197 222 255
197 222 255
197 222 255
197 222 255
197 222 255
197 222 255
197 222 255
197 222 255
197 222 255
197 222 255
197 222 255
197 222 255
196 222 255
196 222 255
196 222 255
196 222 255
196 222 255
196 222 255
196 222 255
196 222 255
196 222 255
196 222 255
196 222 255
196 222 255
196 222 255
196 222 255
196 222 255
196 222 255
196 222 255
196 222 255
196 222 255
196 222 255
196 222 255
196 221 255
196 221 255
196 221 255
195 221 255
195 221 255
195 221 255
195 221 255
195 221 255
195 221 255
195 221 255
195 221 255
195 221 255
195 221 255
195 221 255
195 221 255
195 221 255
195 221 255
195 221 255
195 221 255
195 221 255
195 221 255
195 221 255
195 221 255
195 221 255
195 221 255
195 221 255
195 221 255
195 221 255
195 221 255
195 221 255
195 221 255
195 221 255
195 221 255
195 221 255
195 221 255
195 221 255
195 221 255
195 221 255
195 221 255
195 221 255
195 221 255
195 221 255
195 221 255
195 221 255
195 221 255
195 221 255
195 221 255
195 221 255
195 221 255
195 221 255
195 221 255
195 221 255
195 221 255
196 221 255
196 221 255
196 221 255
196 222 255
196 222 255
196 222 255
196 222 255
196 222 255
196 222 255
196 222 255
196 222 255
196 222 255
196 222 255
196 222 255
196 222 255
196 222 255
196 222 255
196 222 255
196 222 255
196 222 255
196 222 255
196 222 255
196 222 255
196 222 255
197 222 255
197 222 255
197 222 255
197 222 255
197 222 255
197 222 255
197 222 255
197 222 255
197 222 255
197 222 255
197 222 255
197 222 255
197 222 255
197 222 255
197 222 255
197 222 255
197 222 255
197 223 255
198 223 255
198 223 255
198 223 255
198 223 255
198 223 255
198 223 255
198 223 255
198 223 255
198 223 255
198 223 255
198 223 255
198 223 255
198 223 255
198 223 255
198 223 255
199 223 255
199 223 255
199 223 255
199 223 255
199 223 255
199 223 255
199 223 255
199 223 255
199 223 255
199 223 255
199 223 255
199 223 255
199 223 255
199 224 255
199 224 255
200 224 255
200 224 255
200 224 255
200 224 255
200 224 255
200 224 255
200 224 255
200 224 255
200 224 255
200 224 255
200 224 255
200 224 255
200 224 255
200 224 255
201 224 255
201 224 255
201 224 255
201 224 255
201 224 255
201 224 255
201 224 255
201 224 255
201 224 255
201 224 255
201 225 255
201 225 255
201 225 255
201 225 255
201 225 255
202 225 255
202 225 255
202 225 255
202 225 255
202 225 255
202 225 255
202 225 255
202 225 255
202 225 255
202 225 255
202 225 255
202 225 255
202 225 255
202 225 255
202 225 255
203 225 255
203 225 255
203 225 255
203 225 255
203 225 255
203 225 255
203 225 255
203 225 255
203 225 255
203 226 255
203 226 255
203 226 255
203 226 255
203 226 255
203 226 255
203 226 255
204 226 255
204 226 255
204 226 255
204 226 255
204 226 255
204 226 255
204 226 255
204 226 255
204 226 255
204 226 255
204 226 255
204 226 255
204 226 255
204 226 255
204 226 255
204 226 255
204 226 255
205 226 255
205 226 255
205 226 255
205 226 255
205 226 255
205 226 255
205 226 255
205 227 255
205 227 255
205 227 255
205 227 255
205 227 255
205 227 255
205 227 255
205 227 255
205 227 255
205 227 255
205 227 255
206 227 255
206 227 255
206 227 255
206 227 255
206 227 255
206 227 255
206 227 255
206 227 255
206 227 255
206 227 255
206 227 255
206 227 255
206 227 255
206 227 255
206 227 255
206 227 255
206 227 255
206 227 255
206 227 255
205 227 255
205 227 255
205 227 255
205 227 255
205 227 255
205 227 255
205 227 255
205 227 255
205 227 255
205 227 255
205 226 255
205 226 255
205 226 255
205 226 255
205 226 255
205 226 255
205 226 255
205 226 255
204 226 255
204 226 255
204 226 255
204 226 255
204 226 255
204 226 255
204 226 255
204 226 255
204 226 255
204 226 255
204 226 255
204 226 255
204 226 255
204 226 255
204 226 255
204 226 255
203 226 255
203 226 255
203 226 255
203 226 255
203 226 255
203 226 255
203 226 255
203 226 255
203 225 255
203 225 255
203 225 255
203 225 255
203 225 255
203 225 255
203 225 255
203 225 255
202 225 255
202 225 255
202 225 255
202 225 255
202 225 255
202 225 255
202 225 255
202 225 255
202 225 255
202 225 255
202 225 255
202 225 255
202 225 255
202 225 255
202 225 255
201 225 255
201 225 255
201 225 255
201 225 255
201 225 255
201 224 255
201 224 255
201 224 255
201 224 255
201 224 255
201 224 255
201 224 255
201 224 255
201 224 255
201 224 255
200 224 255
200 224 255
200 224 255
200 224 255
200 224 255
200 224 255
200 224 255
200 224 255
200 224 255
200 224 255
200 224 255
200 224 255
200 224 255
200 224 255
199 224 255
199 224 255
199 224 255
199 223 255
199 223 255
199 223 255
199 223 255
199 223 255
199 223 255
199 223 255
199 223 255
199 223 255
199 223 255
199 223 255
199 223 255
198 223 255
198 223 255
198 223 255
198 223 255
198 223 255
198 223 255
198 223 255
198 223 255
198 223 255
198 223 255
198 223 255
198 223 255
198 223 255
198 223 255
198 223 255
198 223 255
197 222 255
197 222 255
197 222 255
197 222 255
197 222 255
197 222 255
197 222 255
197 222 255
197 222 255
197 222 255
197 222 255
197 222 255
197 222 255
197 222 255
197 222 255
197 222 255
197 222 255
197 222 255
196 222 255
196 222 255
196 222 255
196 222 255
196 222 255
196 222 255
196 222 255
196 222 255
196 222 255
196 222 255
196 222 255
196 222 255
196 222 255
196 222 255
196 222 255
196 222 255
196 222 255
196 222 255
196 222 255
196 222 255
196 222 255
196 222 255
196 222 255
196 222 255
196 221 255
196 221 255
196 221 255
195 221 255
195 221 255
195 221 255
195 221 255
195 221 255
195 221 255
195 221 255
195 221 255
195 221 255
195 221 255
195 221 255
195 221 255
195 221 255
195 221 255
195 221 255
195 221 255
195 221 255
195 221 255
195 221 255
195 221 255
195 221 255
195 221 255
195 221 255
195 221 255
195 221 255
195 221 255
195 221 255
195 221 255
195 221 255
195 221 255
195 221 255
195 221 255
195 221 255
195 221 255
195 221 255
195 221 255
195 221 255
195 221 255
196 221 255
196 221 255
196 221 255
196 222 255
196 222 255
196 222 255
196 222 255
196 222 255
196 222 255
196 222 255
196 222 255
196 222 255
196 222 255
196 222 255
196 222 255
196 222 255
196 222 255
196 222 255
196 222 255
196 222 255
196 222 255
196 222 255
196 222 255
196 222 255
196 222 255
196 222 255
196 222 255
197 222 255
197 222 255
197 222 255
197 222 255
197 222 255
197 222 255
197 222 255
197 222 255
197 222 255
197 222 255
197 222 255
197 222 255
197 222 255
197 222 255
197 222 255
197 222 255
197 222 255
197 222 255
198 223 255
198 223 255
198 223 255
198 223 255
198 223 255
198 223 255
198 223 255
198 223 255
198 223 255
198 223 255
198 223 255
198 223 255
198 223 255
198 223 255
198 223 255
198 223 255
199 223 255
199 223 255
199 223 255
199 223 255
199 223 255
199 223 255
199 223 255
199 223 255
199 223 255
199 223 255
199 223 255
199 223 255
199 224 255
199 224 255
199 224 255
200 224 255
200 224 255
200 224 255
200 224 255
200 224 255
200 224 255
200 224 255
200 224 255
200 224 255
200 224 255
200 224 255
200 224 255
200 224 255
200 224 255
201 224 255
201 224 255
201 224 255
201 224 255
201 224 255
201 224 255
201 224 255
201 224 255
201 224 255
201 224 255
201 225 255
201 225 255
201 225 255
201 225 255
201 225 255
202 225 255
202 225 255
202 225 255
202 225 255
202 225 255
202 225 255
202 225 255
202 225 255
202 225 255
202 225 255
202 225 255
202 225 255
202 225 255
202 225 255
202 225 255
203 225 255
203 225 255
203 225 255
203 225 255
203 225 255
203 225 255
203 225 255
203 225 255
203 225 255
203 226 255
203 226 255
203 226 255
203 226 255
203 226 255
203 226 255
204 226 255
204 226 255
204 226 255
204 226 255
204 226 255
204 226 255
204 226 255
204 226 255
204 226 255
204 226 255
204 226 255
204 226 255
204 226 255
204 226 255
204 226 255
204 226 255
204 226 255
205 226 255
205 226 255
205 226 255
205 226 255
205 226 255
205 226 255
205 226 255
205 227 255
205 227 255
205 227 255
205 227 255
205 227 255
205 227 255
205 227 255
205 227 255
205 227 255
205 227 255
205 227 255
206 227 255
206 227 255
206 227 255
206 227 255
206 227 255
206 227 255
206 227 255
206 227 255
206 227 255
206 227 255
206 227 255
206 227 255
206 227 255
206 227 255
206 227 255
206 227 255
206 227 255
206 227 255
206 227 255
206 227 255
206 227 255
206 227 255
206 227 255
206 227 255
205 227 255
205 227 255
205 227 255
205 227 255
205 227 255
205 227 255
205 227 255
205 227 255
205 227 255
205 227 255
205 227 255
205 226 255
205 226 255
205 226 255
205 226 255
205 226 255
205 226 255
205 226 255
204 226 255
204 226 255
204 226 255
204 226 255
204 226 255
204 226 255
204 226 255
204 226 255
204 226 255
204 226 255
204 226 255
204 226 255
204 226 255
204 226 255
204 226 255
204 226 255
204 226 255
203 226 255
203 226 255
203 226 255
203 226 255
203 226 255
203 226 255
203 226 255
203 225 255
203 225 255
203 225 255
203 225 255
203 225 255
203 225 255
203 225 255
203 225 255
203 225 255
202 225 255
202 225 255
202 225 255
202 225 255
202 225 255
202 225 255
202 225 255
202 225 255
202 225 255
202 225 255
202 225 255
202 225 255
202 225 255
202 225 255
202 225 255
201 225 255
201 225 255
201 225 255
201 225 255
201 224 255
201 224 255
201 224 255
201 224 255
201 224 255
201 224 255
201 224 255
201 224 255
201 224 255
201 224 255
200 224 255
200 224 255
200 224 255
200 224 255
200 224 255
200 224 255
200 224 255
200 224 255
200 224 255
200 224 255
200 224 255
200 224 255
200 224 255
200 224 255
200 224 255
199 224 255
199 224 255
199 223 255
199 223 255
199 223 255
199 223 255
199 223 255
199 223 255
199 223 255
199 223 255
199 223 255
199 223 255
199 223 255
199 223 255
198 223 255
198 223 255
198 223 255
198 223 255
198 223 255
198 223 255
198 223 255
198 223 255
198 223 255
198 223 255
198 223 255
198 223 255
198 223 255
198 223 255
198 223 255
198 223 255
198 223 255
197 222 255
197 222 255
197 222 255
197 222 255
197 222 255
197 222 255
197 222 255
197 222 255
197 222 255
197 222 255
197 222 255
197 222 255
197 222 255
197 222 255
197 222 255
197 222 255
197 222 255
197 222 255
196 222 255
196 222 255
196 222 255
196 222 255
196 222 255
196 222 255
196 222 255
196 222 255
196 222 255
196 222 255
196 222 255
196 222 255
196 222 255
196 222 255
196 222 255
196 222 255
196 222 255
196 222 255
196 222 255
196 222 255
196 222 255
196 222 255
196 222 255
196 222 255
196 222 255
196 222 255
196 222 255
196 221 255
196 221 255
196 221 255
196 221 255
196 221 255
196 221 255
195 221 255
195 221 255
195 221 255
195 221 255
195 221 255
195 221 255
195 221 255
195 221 255
195 221 255
195 221 255
195 221 255
195 221 255
195 221 255
195 221 255
195 221 255
195 221 255
195 221 255
195 221 255
195 221 255
195 221 255
196 221 255
196 221 255
196 221 255
196 221 255
196 221 255
196 222 255
196 222 255
196 222 255
196 222 255
196 222 255
196 222 255
196 222 255
196 222 255
196 222 255
196 222 255
196 222 255
196 222 255
196 222 255
196 222 255
196 222 255
196 222 255
196 222 255
196 222 255
196 222 255
196 222 255
196 222 255
196 222 255
196 222 255
196 222 255
196 222 255
196 222 255
196 222 255
196 222 255
197 222 255
197 222 255
197 222 255
197 222 255
197 222 255
197 222 255
197 222 255
197 222 255
197 222 255
197 222 255
197 222 255
197 222 255
197 222 255
197 222 255
197 222 255
197 222 255
197 222 255
197 222 255
197 223 255
198 223 255
198 223 255
198 223 255
198 223 255
198 223 255
198 223 255
198 223 255
198 223 255
198 223 255
198 223 255
198 223 255
198 223 255
198 223 255
198 223 255
198 223 255
199 223 255
199 223 255
199 223 255
199 223 255
199 223 255
199 223 255
199 223 255
199 223 255
199 223 255
199 223 255
199 223 255
199 223 255
199 223 255
199 224 255
199 224 255
200 224 255
200 224 255
200 224 255
200 224 255
200 224 255
200 224 255
200 224 255
200 224 255
200 224 255
200 224 255
200 224 255
200 224 255
200 224 255
200 224 255
200 224 255
201 224 255
201 224 255
201 224 255
201 224 255
201 224 255
201 224 255
201 224 255
201 224 255
201 224 255
201 224 255
201 225 255
201 225 255
201 225 255
201 225 255
202 225 255
202 225 255
202 225 255
202 225 255
202 225 255
202 225 255
202 225 255
202 225 255
202 225 255
202 225 255
202 225 255
202 225 255
202 225 255
202 225 255
202 225 255
203 225 255
203 225 255
203 225 255
203 225 255
203 225 255
203 225 255
203 225 255
203 225 255
203 225 255
203 226 255
203 226 255
203 226 255
203 226 255
203 226 255
203 226 255
203 226 255
204 226 255
204 226 255
204 226 255
204 226 255
204 226 255
204 226 255
204 226 255
204 226 255
204 226 255
204 226 255
204 226 255
204 226 255
204 226 255
204 226 255
204 226 255
204 226 255
204 226 255
205 226 255
205 226 255
205 226 255
205 226 255
205 226 255
205 226 255
205 226 255
205 227 255
205 227 255
205 227 255
205 227 255
205 227 255
205 227 255
205 227 255
205 227 255
205 227 255
205 227 255
205 227 255
206 227 255
206 227 255
206 227 255
206 227 255
206 227 255
206 227 255
206 227 255
206 227 255
206 227 255
206 227 255
206 227 255
206 227 255
206 227 255
206 227 255
206 227 255
206 227 255
206 227 255
206 227 255
206 227 255
206 227 255
206 227 255
206 227 255
206 227 255
206 227 255
206 227 255
206 227 255
206 227 255
206 227 255
206 227 255
205 227 255
205 227 255
205 227 255
205 227 255
205 227 255
205 227 255
205 227 255
205 227 255
205 227 255
205 227 255
205 226 255
205 226 255
205 226 255
205 226 255
205 226 255
205 226 255
205 226 255
205 226 255
204 226 255
204 226 255
204 226 255
204 226 255
204 226 255
204 226 255
204 226 255
204 226 255
204 226 255
204 226 255
204 226 255
204 226 255
204 226 255
204 226 255
204 226 255
204 226 255
203 226 255
203 226 255
203 226 255
203 226 255
203 226 255
203 226 255
203 226 255
203 225 255
203 225 255
203 225 255
203 225 255
203 225 255
203 225 255
203 225 255
203 225 255
203 225 255
202 225 255
202 225 255
202 225 255
202 225 255
202 225 255
202 225 255
202 225 255
202 225 255
202 225 255
202 225 255
202 225 255
202 225 255
202 225 255
202 225 255
202 225 255
201 225 255
201 225 255
201 225 255
201 225 255
201 224 255
201 224 255
201 224 255
201 224 255
201 224 255
201 224 255
201 224 255
201 224 255
201 224 255
201 224 255
201 224 255
200 224 255
200 224 255
200 224 255
200 224 255
200 224 255
200 224 255
200 224 255
200 224 255
200 224 255
200 224 255
200 224 255
200 224 255
200 224 255
200 224 255
199 224 255
199 224 255
199 223 255
199 223 255
199 223 255
199 223 255
199 223 255
199 223 255
199 223 255
199 223 255
199 223 255
199 223 255
199 223 255
199 223 255
199 223 255
198 223 255
198 223 255
198 223 255
198 223 255
198 223 255
198 223 255
198 223 255
198 223 255
198 223 255
198 223 255
198 223 255
198 223 255
198 223 255
198 223 255
198 223 255
198 223 255
197 223 255
197 222 255
197 222 255
197 222 255
197 222 255
197 222 255
197 222 255
197 222 255
197 222 255
197 222 255
197 222 255
197 222 255
197 222 255
197 222 255
197 222 255
197 222 255
197 222 255
197 222 255
197 222 255
197 222 255
196 222 255
196 222 255
196 222 255
196 222 255
196 222 255
196 222 255
196 222 255
196 222 255
196 222 255
196 222 255
196 222 255
196 222 255
196 222 255
196 222 255
196 222 255
196 222 255
196 222 255
196 222 255
196 222 255
196 222 255
196 222 255
196 222 255
196 222 255
196 222 255
196 222 255
196 222 255
196 222 255
196 222 255
196 222 255
196 222 255
196 222 255
196 222 255
196 222 255
196 222 255
196 222 255
196 222 255
196 222 255
196 222 255
196 222 255
196 222 255
196 222 255
196 222 255
196 222 255
196 222 255
196 222 255
196 222 255
196 222 255
196 222 255
196 222 255
196 222 255
196 222 255
196 222 255
196 222 255
196 222 255
196 222 255
196 222 255
196 222 255
196 222 255
196 222 255
196 222 255
196 222 255
196 222 255
196 222 255
196 222 255
196 222 255
196 222 255
196 222 255
196 222 255
196 222 255
196 222 255
196 222 255
196 222 255
196 222 255
196 222 255
196 222 255
196 222 255
196 222 255
196 222 255
197 222 255
197 222 255
197 222 255
197 222 255
197 222 255
197 222 255
197 222 255
197 222 255
197 222 255
197 222 255
197 222 255
197 222 255
197 222 255
197 222 255
197 222 255
197 222 255
197 222 255
197 222 255
197 222 255
197 223 255
198 223 255
198 223 255
198 223 255
198 223 255
198 223 255
198 223 255
198 223 255
198 223 255
198 223 255
198 223 255
198 223 255
198 223 255
198 223 255
198 223 255
198 223 255
198 223 255
199 223 255
199 223 255
199 223 255
199 223 255
199 223 255
199 223 255
199 223 255
199 223 255
199 223 255
199 223 255
199 223 255
199 223 255
199 223 255
199 224 255
199 224 255
200 224 255
200 224 255
200 224 255
200 224 255
200 224 255
200 224 255
200 224 255
200 224 255
200 224 255
200 224 255
200 224 255
200 224 255
200 224 255
200 224 255
200 224 255
201 224 255
201 224 255
201 224 255
201 224 255
201 224 255
201 224 255
201 224 255
201 224 255
201 224 255
201 224 255
201 225 255
201 225 255
201 225 255
201 225 255
202 225 255
202 225 255
202 225 255
202 225 255
202 225 255
202 225 255
202 225 255
202 225 255
202 225 255
202 225 255
202 225 255
202 225 255
202 225 255
202 225 255
202 225 255
203 225 255
203 225 255
203 225 255
203 225 255
203 225 255
203 225 255
203 225 255
203 225 255
203 225 255
203 226 255
203 226 255
203 226 255
203 226 255
203 226 255
203 226 255
203 226 255
204 226 255
204 226 255
204 226 255
204 226 255
204 226 255
204 226 255
204 226 255
204 226 255
204 226 255
204 226 255
204 226 255
204 226 255
204 226 255
204 226 255
204 226 255
204 226 255
205 226 255
205 226 255
205 226 255
205 226 255
205 226 255
205 226 255
205 226 255
205 227 255
205 227 255
205 227 255
205 227 255
205 227 255
205 227 255
205 227 255
205 227 255
205 227 255
205 227 255
205 227 255
206 227 255
206 227 255
206 227 255
206 227 255
206 227 255
206 227 255
206 227 255
206 227 255
206 227 255
206 227 255
206 227 255
206 227 255
206 227 255
206 227 255
206 227 255
206 227 255
206 227 255
206 227 255
206 227 255
206 227 255
206 227 255
206 227 255
206 227 255
206 227 255
206 227 255
206 227 255
206 227 255
206 227 255
206 227 255
206 227 255
206 227 255
206 227 255
206 227 255
206 227 255
205 227 255
205 227 255
205 227 255
205 227 255
205 227 255
205 227 255
205 227 255
205 227 255
205 227 255
205 227 255
205 227 255
205 226 255
205 226 255
205 226 255
205 226 255
205 226 255
205 226 255
205 226 255
204 226 255
204 226 255
204 226 255
204 226 255
204 226 255
204 226 255
204 226 255
204 226 255
204 226 255
204 226 255
204 226 255
204 226 255
204 226 255
204 226 255
204 226 255
204 226 255
204 226 255
203 226 255
203 226 255
203 226 255
203 226 255
203 226 255
203 226 255
203 226 255
203 225 255
203 225 255
203 225 255
203 225 255
203 225 255
203 225 255
203 225 255
203 225 255
202 225 255
202 225 255
202 225 255
202 225 255
202 225 255
202 225 255
202 225 255
202 225 255
202 225 255
202 225 255
202 225 255
202 225 255
202 225 255
202 225 255
202 225 255
201 225 255
201 225 255
201 225 255
201 225 255
201 225 255
201 224 255
201 224 255
201 224 255
201 224 255
201 224 255
201 224 255
201 224 255
201 224 255
201 224 255
201 224 255
200 224 255
200 224 255
200 224 255
200 224 255
200 224 255
200 224 255
200 224 255
200 224 255
200 224 255
200 224 255
200 224 255
200 224 255
200 224 255
200 224 255
200 224 255
199 224 255
199 224 255
199 223 255
199 223 255
199 223 255
199 223 255
199 223 255
199 223 255
199 223 255
199 223 255
199 223 255
199 223 255
199 223 255
199 223 255
199 223 255
198 223 255
198 223 255
198 223 255
198 223 255
198 223 255
198 223 255
198 223 255
198 223 255
198 223 255
198 223 255
198 223 255
198 223 255
198 223 255
198 223 255
198 223 255
198 223 255
197 223 255
197 222 255
197 222 255
197 222 255
197 222 255
197 222 255
197 222 255
197 222 255
197 222 255
197 222 255
197 222 255
197 222 255
197 222 255
197 222 255
197 222 255
197 222 255
197 222 255
197 222 255
197 222 255
197 222 255
197 222 255
196 222 255
196 222 255
196 222 255
196 222 255
196 222 255
196 222 255
196 222 255
196 222 255
196 222 255
196 222 255
196 222 255
196 222 255
196 222 255
196 222 255
196 222 255
196 222 255
196 222 255
196 222 255
196 222 255
196 222 255
196 222 255
196 222 255
196 222 255
196 222 255
196 222 255
196 222 255
196 222 255
196 222 255
196 222 255
196 222 255
196 222 255
196 222 255
196 222 255
196 222 255
196 222 255
196 222 255
196 222 255
196 222 255
196 222 255
196 222 255
196 222 255
196 222 255
196 222 255
196 222 255
196 222 255
196 222 255
196 222 255
196 222 255
196 222 255
196 222 255
196 222 255
196 222 255
196 222 255
196 222 255
196 222 255
196 222 255
196 222 255
196 222 255
196 222 255
196 222 255
196 222 255
196 222 255
196 222 255
196 222 255
196 222 255
196 222 255
196 222 255
196 222 255
196 222 255
196 222 255
197 222 255
197 222 255
197 222 255
197 222 255
197 222 255
197 222 255
197 222 255
197 222 255
197 222 255
197 222 255
197 222 255
197 222 255
197 222 255
197 222 255
197 222 255
197 222 255
197 222 255
197 222 255
197 222 255
197 222 255
197 223 255
198 223 255
198 223 255
198 223 255
198 223 255
198 223 255
198 223 255
198 223 255
198 223 255
198 223 255
198 223 255
198 223 255
198 223 255
198 223 255
198 223 255
198 223 255
198 223 255
199 223 255
199 223 255
199 223 255
199 223 255
199 223 255
199 223 255
199 223 255
199 223 255
199 223 255
199 223 255
199 223 255
199 223 255
199 223 255
199 224 255
199 224 255
200 224 255
200 224 255
200 224 255
200 224 255
200 224 255
200 224 255
200 224 255
200 224 255
200 224 255
200 224 255
200 224 255
200 224 255
200 224 255
200 224 255
200 224 255
201 224 255
201 224 255
201 224 255
201 224 255
201 224 255
201 224 255
201 224 255
201 224 255
201 224 255
201 224 255
201 225 255
201 225 255
201 225 255
201 225 255
201 225 255
202 225 255
202 225 255
202 225 255
202 225 255
202 225 255
202 225 255
202 225 255
202 225 255
202 225 255
202 225 255
202 225 255
202 225 255
202 225 255
202 225 255
202 225 255
203 225 255
203 225 255
203 225 255
203 225 255
203 225 255
203 225 255
203 225 255
203 225 255
203 226 255
203 226 255
203 226 255
203 226 255
203 226 255
203 226 255
203 226 255
204 226 255
204 226 255
204 226 255
204 226 255
204 226 255
204 226 255
204 226 255
204 226 255
204 226 255
204 226 255
204 226 255
204 226 255
204 226 255
204 226 255
204 226 255
204 226 255
204 226 255
205 226 255
205 226 255
205 226 255
205 226 255
205 226 255
205 226 255
205 226 255
205 227 255
205 227 255
205 227 255
205 227 255
205 227 255
205 227 255
205 227 255
205 227 255
205 227 255
205 227 255
205 227 255
206 227 255
206 227 255
206 227 255
206 227 255
206 227 255
206 227 255
206 227 255
206 227 255
206 227 255
206 227 255
206 227 255
206 227 255
206 227 255
206 227 255
206 227 255
206 227 255
206 227 255
206 227 255
207 227 255
207 227 255
206 227 255
206 227 255
206 227 255
206 227 255
206 227 255
206 227 255
206 227 255
206 227 255
206 227 255
206 227 255
206 227 255
206 227 255
206 227 255
206 227 255
206 227 255
206 227 255
206 227 255
206 227 255
206 227 255
205 227 255
205 227 255
205 227 255
205 227 255
205 227 255
205 227 255
205 227 255
205 227 255
205 227 255
205 227 255
205 227 255
205 226 255
205 226 255
205 226 255
205 226 255
205 226 255
205 226 255
205 226 255
204 226 255
204 226 255
204 226 255
204 226 255
204 226 255
204 226 255
204 226 255
204 226 255
204 226 255
204 226 255
204 226 255
204 226 255
204 226 255
204 226 255
204 226 255
204 226 255
203 226 255
203 226 255
203 226 255
203 226 255
203 226 255
203 226 255
203 226 255
203 225 255
203 225 255
203 225 255
203 225 255
203 225 255
203 225 255
203 225 255
203 225 255
203 225 255
202 225 255
202 225 255
202 225 255
202 225 255
202 225 255
202 225 255
202 225 255
202 225 255
202 225 255
202 225 255
202 225 255
202 225 255
202 225 255
202 225 255
202 225 255
201 225 255
201 225 255
201 225 255
201 225 255
201 224 255
201 224 255
201 224 255
201 224 255
201 224 255
201 224 255
201 224 255
201 224 255
201 224 255
201 224 255
200 224 255
200 224 255
200 224 255
200 224 255
200 224 255
200 224 255
200 224 255
200 224 255
200 224 255
200 224 255
200 224 255
200 224 255
200 224 255
200 224 255
200 224 255
199 224 255
199 224 255
199 223 255
199 223 255
199 223 255
199 223 255
199 223 255
199 223 255
199 223 255
199 223 255
199 223 255
199 223 255
199 223 255
199 223 255
199 223 255
198 223 255
198 223 255
198 223 255
198 223 255
198 223 255
198 223 255
198 223 255
198 223 255
198 223 255
198 223 255
198 223 255
198 223 255
198 223 255
198 223 255
198 223 255
198 223 255
198 223 255
197 223 255
197 222 255
197 222 255
197 222 255
197 222 255
197 222 255
197 222 255
197 222 255
197 222 255
197 222 255
197 222 255
197 222 255
197 222 255
197 222 255
197 222 255
197 222 255
197 222 255
197 222 255
197 222 255
197 222 255
197 222 255
197 222 255
196 222 255
196 222 255
196 222 255
196 222 255
196 222 255
196 222 255
196 222 255
196 222 255
196 222 255
196 222 255
196 222 255
196 222 255
196 222 255
196 222 255
196 222 255
196 222 255
196 222 255
196 222 255
196 222 255
196 222 255
196 222 255
196 222 255
196 222 255
196 222 255
196 222 255
196 222 255
196 222 255
196 222 255
196 222 255
196 222 255
196 222 255
196 222 255
196 222 255
196 222 255
196 222 255
196 222 255
196 222 255
196 222 255
196 222 255
196 222 255
196 222 255
196 222 255
196 222 255
196 222 255
196 222 255
196 222 255
196 222 255
196 222 255
196 222 255
196 222 255
196 222 255
196 222 255
196 222 255
196 222 255
196 222 255
196 222 255
196 222 255
196 222 255
196 222 255
196 222 255
196 222 255
196 222 255
197 222 255
197 222 255
197 222 255
197 222 255
197 222 255
197 222 255
197 222 255
197 222 255
197 222 255
197 222 255
197 222 255
197 222 255
197 222 255
197 222 255
197 222 255
197 222 255
197 222 255
197 222 255
197 222 255
197 222 255
197 222 255
197 223 255
198 223 255
198 223 255
198 223 255
198 223 255
198 223 255
198 223 255
198 223 255
198 223 255
198 223 255
198 223 255
198 223 255
198 223 255
198 223 255
198 223 255
198 223 255
198 223 255
198 223 255
199 223 255
199 223 255
199 223 255
199 223 255
199 223 255
199 223 255
199 223 255
199 223 255
199 223 255
199 223 255
199 223 255
199 223 255
199 223 255
199 224 255
199 224 255
200 224 255
200 224 255
200 224 255
200 224 255
200 224 255
200 224 255
200 224 255
200 224 255
200 224 255
200 224 255
200 224 255
200 224 255
200 224 255
200 224 255
200 224 255
201 224 255
201 224 255
201 224 255
201 224 255
201 224 255
201 224 255
201 224 255
201 224 255
201 224 255
201 224 255
201 225 255
201 225 255
201 225 255
201 225 255
202 225 255
202 225 255
202 225 255
202 225 255
202 225 255
202 225 255
202 225 255
202 225 255
202 225 255
202 225 255
202 225 255
202 225 255
202 225 255
202 225 255
202 225 255
203 225 255
203 225 255
203 225 255
203 225 255
203 225 255
203 225 255
203 225 255
203 225 255
203 225 255
203 226 255
203 226 255
203 226 255
203 226 255
203 226 255
203 226 255
203 226 255
204 226 255
204 226 255
204 226 255
204 226 255
204 226 255
204 226 255
204 226 255
204 226 255
204 226 255
204 226 255
204 226 255
204 226 255
204 226 255
204 226 255
204 226 255
204 226 255
205 226 255
205 226 255
205 226 255
205 226 255
205 226 255
205 226 255
205 226 255
205 227 255
205 227 255
205 227 255
205 227 255
205 227 255
205 227 255
205 227 255
205 227 255
205 227 255
205 227 255
205 227 255
206 227 255
206 227 255
206 227 255
206 227 255
206 227 255
206 227 255
206 227 255
206 227 255
206 227 255
206 227 255
206 227 255
206 227 255
206 227 255
206 227 255
206 227 255
206 227 255
206 227 255
206 227 255
206 227 255
207 227 255
207 227 255
207 227 255
207 227 255
207 227 255
207 227 255
206 227 255
206 227 255
206 227 255
206 227 255
206 227 255
206 227 255
206 227 255
206 227 255
206 227 255
206 227 255
206 227 255
206 227 255
206 227 255
206 227 255
206 227 255
206 227 255
206 227 255
206 227 255
206 227 255
206 227 255
205 227 255
205 227 255
205 227 255
205 227 255
205 227 255
205 227 255
205 227 255
205 227 255
205 227 255
205 227 255
205 226 255
205 226 255
205 226 255
205 226 255
205 226 255
205 226 255
205 226 255
204 226 255
204 226 255
204 226 255
204 226 255
204 226 255
204 226 255
204 226 255
204 226 255
204 226 255
204 226 255
204 226 255
204 226 255
204 226 255
204 226 255
204 226 255
204 226 255
204 226 255
203 226 255
203 226 255
203 226 255
203 226 255
203 226 255
203 226 255
203 226 255
203 225 255
203 225 255
203 225 255
203 225 255
203 225 255
203 225 255
203 225 255
203 225 255
202 225 255
202 225 255
202 225 255
202 225 255
202 225 255
202 225 255
202 225 255
202 225 255
202 225 255
202 225 255
202 225 255
202 225 255
202 225 255
202 225 255
202 225 255
201 225 255
201 225 255
201 225 255
201 225 255
201 224 255
201 224 255
201 224 255
201 224 255
201 224 255
201 224 255
201 224 255
201 224 255
201 224 255
201 224 255
201 224 255
200 224 255
200 224 255
200 224 255
200 224 255
200 224 255
200 224 255
200 224 255
200 224 255
200 224 255
200 224 255
200 224 255
200 224 255
200 224 255
200 224 255
199 224 255
199 224 255
199 224 255
199 223 255
199 223 255
199 223 255
199 223 255
199 223 255
199 223 255
199 223 255
199 223 255
199 223 255
199 223 255
199 223 255
199 223 255
199 223 255
198 223 255
198 223 255
198 223 255
198 223 255
198 223 255
198 223 255
198 223 255
198 223 255
198 223 255
198 223 255
198 223 255
198 223 255
198 223 255
198 223 255
198 223 255
198 223 255
198 223 255
197 223 255
197 222 255
197 222 255
197 222 255
197 222 255
197 222 255
197 222 255
197 222 255
197 222 255
197 222 255
197 222 255
197 222 255
197 222 255
197 222 255
197 222 255
197 222 255
197 222 255
197 222 255
197 222 255
197 222 255
197 222 255
197 222 255
197 222 255
197 222 255
196 222 255
196 222 255
196 222 255
196 222 255
196 222 255
196 222 255
196 222 255
196 222 255
196 222 255
196 222 255
196 222 255
196 222 255
196 222 255
196 222 255
196 222 255
196 222 255
196 222 255
196 222 255
196 222 255
196 222 255
196 222 255
196 222 255
196 222 255
196 222 255
196 222 255
196 222 255
196 222 255
196 222 255
196 222 255
196 222 255
196 222 255
196 222 255
196 222 255
196 222 255
196 222 255
196 222 255
196 222 255
196 222 255
196 222 255
196 222 255
196 222 255
196 222 255
196 222 255
196 222 255
196 222 255
196 222 255
196 222 255
196 222 255
196 222 255
196 222 255
196 222 255
196 222 255
197 222 255
197 222 255
197 222 255
197 222 255
197 222 255
197 222 255
197 222 255
197 222 255
197 222 255
197 222 255
197 222 255
197 222 255
197 222 255
197 222 255
197 222 255
197 222 255
197 222 255
197 222 255
197 222 255
197 222 255
197 222 255
197 222 255
197 222 255
197 223 255
198 223 255
198 223 255
198 223 255
198 223 255
198 223 255
198 223 255
198 223 255
198 223 255
198 223 255
198 223 255
198 223 255
198 223 255
198 223 255
198 223 255
198 223 255
198 223 255
198 223 255
199 223 255
199 223 255
199 223 255
199 223 255
199 223 255
199 223 255
199 223 255
199 223 255
199 223 255
199 223 255
199 223 255
199 223 255
199 223 255
199 224 255
199 224 255
199 224 255
200 224 255
200 224 255
200 224 255
200 224 255
200 224 255
200 224 255
200 224 255
200 224 255
200 224 255
200 224 255
200 224 255
200 224 255
200 224 255
200 224 255
201 224 255
201 224 255
201 224 255
201 224 255
201 224 255
201 224 255
201 224 255
201 224 255
201 224 255
201 224 255
201 224 255
201 225 255
201 225 255
201 225 255
201 225 255
202 225 255
202 225 255
202 225 255
202 225 255
202 225 255
202 225 255
202 225 255
202 225 255
202 225 255
202 225 255
202 225 255
202 225 255
202 225 255
202 225 255
202 225 255
203 225 255
203 225 255
203 225 255
203 225 255
203 225 255
203 225 255
203 225 255
203 225 255
203 226 255
203 226 255
203 226 255
203 226 255
203 226 255
203 226 255
203 226 255
204 226 255
204 226 255
204 226 255
204 226 255
204 226 255
204 226 255
204 226 255
204 226 255
204 226 255
204 226 255
204 226 255
204 226 255
204 226 255
204 226 255
204 226 255
204 226 255
204 226 255
205 226 255
205 226 255
205 226 255
205 226 255
205 226 255
205 226 255
205 226 255
205 227 255
205 227 255
205 227 255
205 227 255
205 227 255
205 227 255
205 227 255
205 227 255
205 227 255
205 227 255
206 227 255
206 227 255
206 227 255
206 227 255
206 227 255
206 227 255
206 227 255
206 227 255
206 227 255
206 227 255
206 227 255
206 227 255
206 227 255
206 227 255
206 227 255
206 227 255
206 227 255
206 227 255
206 227 255
206 227 255
207 227 255
207 227 255
207 227 255
207 227 255
207 228 255
207 228 255
207 228 255
207 227 255
207 227 255
207 227 255
207 227 255
206 227 255
206 227 255
206 227 255
206 227 255
206 227 255
206 227 255
206 227 255
206 227 255
206 227 255
206 227 255
206 227 255
206 227 255
206 227 255
206 227 255
206 227 255
206 227 255
206 227 255
206 227 255
206 227 255
205 227 255
205 227 255
205 227 255
205 227 255
205 227 255
205 227 255
205 227 255
205 227 255
205 227 255
205 227 255
205 227 255
205 226 255
205 226 255
205 226 255
205 226 255
205 226 255
205 226 255
205 226 255
204 226 255
204 226 255
204 226 255
204 226 255
204 226 255
204 226 255
204 226 255
204 226 255
204 226 255
204 226 255
204 226 255
204 226 255
204 226 255
204 226 255
204 226 255
204 226 255
203 226 255
203 226 255
203 226 255
203 226 255
203 226 255
203 226 255
203 226 255
203 225 255
203 225 255
203 225 255
203 225 255
203 225 255
203 225 255
203 225 255
203 225 255
203 225 255
202 225 255
202 225 255
202 225 255
202 225 255
202 225 255
202 225 255
202 225 255
202 225 255
202 225 255
202 225 255
202 225 255
202 225 255
202 225 255
202 225 255
201 225 255
201 225 255
201 225 255
201 225 255
201 225 255
201 224 255
201 224 255
201 224 255
201 224 255
201 224 255
201 224 255
201 224 255
201 224 255
201 224 255
201 224 255
200 224 255
200 224 255
200 224 255
200 224 255
200 224 255
200 224 255
200 224 255
200 224 255
200 224 255
200 224 255
200 224 255
200 224 255
200 224 255
200 224 255
200 224 255
199 224 255
199 224 255
199 223 255
199 223 255
199 223 255
199 223 255
199 223 255
199 223 255
199 223 255
199 223 255
199 223 255
199 223 255
199 223 255
199 223 255
199 223 255
199 223 255
198 223 255
198 223 255
198 223 255
198 223 255
198 223 255
198 223 255
198 223 255
198 223 255
198 223 255
198 223 255
198 223 255
198 223 255
198 223 255
198 223 255
198 223 255
198 223 255
198 223 255
197 223 255
197 222 255
197 222 255
197 222 255
197 222 255
197 222 255
197 222 255
197 222 255
197 222 255
197 222 255
197 222 255
197 222 255
197 222 255
197 222 255
197 222 255
197 222 255
197 222 255
197 222 255
197 222 255
197 222 255
197 222 255
197 222 255
197 222 255
197 222 255
197 222 255
197 222 255
197 222 255
196 222 255
196 222 255
196 222 255
196 222 255
196 222 255
196 222 255
196 222 255
196 222 255
196 222 255
196 222 255
196 222 255
196 222 255
196 222 255
196 222 255
196 222 255
196 222 255
196 222 255
196 222 255
196 222 255
196 222 255
196 222 255
196 222 255
196 222 255
196 222 255
196 222 255
196 222 255
196 222 255
196 222 255
196 222 255
196 222 255
196 222 255
196 222 255
196 222 255
196 222 255
196 222 255
196 222 255
196 222 255
196 222 255
196 222 255
196 222 255
197 222 255
197 222 255
197 222 255
197 222 255
197 222 255
197 222 255
197 222 255
197 222 255
197 222 255
197 222 255
197 222 255
197 222 255
197 222 255
197 222 255
197 222 255
197 222 255
197 222 255
197 222 255
197 222 255
197 222 255
197 222 255
197 222 255
197 222 255
197 222 255
197 222 255
197 222 255
197 223 255
198 223 255
198 223 255
198 223 255
198 223 255
198 223 255
198 223 255
198 223 255
198 223 255
198 223 255
198 223 255
198 223 255
198 223 255
198 223 255
198 223 255
198 223 255
198 223 255
198 223 255
199 223 255
199 223 255
199 223 255
199 223 255
199 223 255
199 223 255
199 223 255
199 223 255
199 223 255
199 223 255
199 223 255
199 223 255
199 223 255
199 223 255
199 224 255
199 224 255
200 224 255
200 224 255
200 224 255
200 224 255
200 224 255
200 224 255
200 224 255
200 224 255
200 224 255
200 224 255
200 224 255
200 224 255
200 224 255
200 224 255
200 224 255
201 224 255
201 224 255
201 224 255
201 224 255
201 224 255
201 224 255
201 224 255
201 224 255
201 224 255
201 224 255
201 225 255
201 225 255
201 225 255
201 225 255
201 225 255
202 225 255
202 225 255
202 225 255
202 225 255
202 225 255
202 225 255
202 225 255
202 225 255
202 225 255
202 225 255
202 225 255
202 225 255
202 225 255
202 225 255
203 225 255
203 225 255
203 225 255
203 225 255
203 225 255
203 225 255
203 225 255
203 225 255
203 225 255
203 226 255
203 226 255
203 226 255
203 226 255
203 226 255
203 226 255
203 226 255
204 226 255
204 226 255
204 226 255
204 226 255
204 226 255
204 226 255
204 226 255
204 226 255
204 226 255
204 226 255
204 226 255
204 226 255
204 226 255
204 226 255
204 226 255
204 226 255
205 226 255
205 226 255
205 226 255
205 226 255
205 226 255
205 226 255
205 226 255
205 227 255
205 227 255
205 227 255
205 227 255
205 227 255
205 227 255
205 227 255
205 227 255
205 227 255
205 227 255
205 227 255
206 227 255
206 227 255
206 227 255
206 227 255
206 227 255
206 227 255
206 227 255
206 227 255
206 227 255
206 227 255
206 227 255
206 227 255
206 227 255
206 227 255
206 227 255
206 227 255
206 227 255
206 227 255
206 227 255
207 227 255
207 227 255
207 227 255
207 227 255
207 227 255
207 228 255
207 228 255
207 228 255
207 228 255
207 228 255
207 228 255
207 228 255
207 227 255
207 227 255
207 227 255
207 227 255
207 227 255
206 227 255
206 227 255
206 227 255
206 227 255
206 227 255
206 227 255
206 227 255
206 227 255
206 227 255
206 227 255
206 227 255
206 227 255
206 227 255
206 227 255
206 227 255
206 227 255
206 227 255
206 227 255
206 227 255
205 227 255
205 227 255
205 227 255
205 227 255
205 227 255
205 227 255
205 227 255
205 227 255
205 227 255
205 227 255
205 227 255
205 226 255
205 226 255
205 226 255
205 226 255
205 226 255
205 226 255
204 226 255
204 226 255
204 226 255
204 226 255
204 226 255
204 226 255
204 226 255
204 226 255
204 226 255
204 226 255
204 226 255
204 226 255
204 226 255
204 226 255
204 226 255
204 226 255
204 226 255
203 226 255
203 226 255
203 226 255
203 226 255
203 226 255
203 226 255
203 226 255
203 225 255
203 225 255
203 225 255
203 225 255
203 225 255
203 225 255
203 225 255
203 225 255
202 225 255
202 225 255
202 225 255
202 225 255
202 225 255
202 225 255
202 225 255
202 225 255
202 225 255
202 225 255
202 225 255
202 225 255
202 225 255
202 225 255
202 225 255
201 225 255
201 225 255
201 225 255
201 225 255
201 224 255
201 224 255
201 224 255
201 224 255
201 224 255
201 224 255
201 224 255
201 224 255
201 224 255
201 224 255
201 224 255
200 224 255
200 224 255
200 224 255
200 224 255
200 224 255
200 224 255
200 224 255
200 224 255
200 224 255
200 224 255
200 224 255
200 224 255
200 224 255
200 224 255
199 224 255
199 224 255
199 224 255
199 223 255
199 223 255
199 223 255
199 223 255
199 223 255
199 223 255
199 223 255
199 223 255
199 223 255
199 223 255
199 223 255
199 223 255
199 223 255
198 223 255
198 223 255
198 223 255
198 223 255
198 223 255
198 223 255
198 223 255
198 223 255
198 223 255
198 223 255
198 223 255
198 223 255
198 223 255
198 223 255
198 223 255
198 223 255
198 223 255
198 223 255
198 223 255
197 223 255
197 222 255
197 222 255
197 222 255
197 222 255
197 222 255
197 222 255
197 222 255
197 222 255
197 222 255
197 222 255
197 222 255
197 222 255
197 222 255
197 222 255
197 222 255
197 222 255
197 222 255
197 222 255
197 222 255
197 222 255
197 222 255
197 222 255
197 222 255
197 222 255
197 222 255
197 222 255
197 222 255
197 222 255
197 222 255
197 222 255
197 222 255
196 222 255
196 222 255
196 222 255
196 222 255
196 222 255
196 222 255
196 222 255
196 222 255
196 222 255
196 222 255
196 222 255
196 222 255
196 222 255
196 222 255
196 222 255
196 222 255
196 222 255
196 222 255
196 222 255
196 222 255
196 222 255
196 222 255
197 222 255
197 222 255
197 222 255
197 222 255
197 222 255
197 222 255
197 222 255
197 222 255
197 222 255
197 222 255
197 222 255
197 222 255
197 222 255
197 222 255
197 222 255
197 222 255
197 222 255
197 222 255
197 222 255
197 222 255
197 222 255
197 222 255
197 222 255
197 222 255
197 222 255
197 222 255
197 222 255
197 222 255
197 222 255
197 222 255
197 222 255
197 223 255
198 223 255
198 223 255
198 223 255
198 223 255
198 223 255
198 223 255
198 223 255
198 223 255
198 223 255
198 223 255
198 223 255
198 223 255
198 223 255
198 223 255
198 223 255
198 223 255
198 223 255
198 223 255
198 223 255
199 223 255
199 223 255
199 223 255
199 223 255
199 223 255
199 223 255
199 223 255
199 223 255
199 223 255
199 223 255
199 223 255
199 223 255
199 223 255
199 224 255
199 224 255
199 224 255
200 224 255
200 224 255
200 224 255
200 224 255
200 224 255
200 224 255
200 224 255
200 224 255
200 224 255
200 224 255
200 224 255
200 224 255
200 224 255
200 224 255
201 224 255
201 224 255
201 224 255
201 224 255
201 224 255
201 224 255
201 224 255
201 224 255
201 224 255
201 224 255
201 224 255
201 225 255
201 225 255
201 225 255
201 225 255
202 225 255
202 225 255
202 225 255
202 225 255
202 225 255
202 225 255
202 225 255
202 225 255
202 225 255
202 225 255
202 225 255
202 225 255
202 225 255
202 225 255
202 225 255
203 225 255
203 225 255
203 225 255
203 225 255
203 225 255
203 225 255
203 225 255
203 225 255
203 225 255
203 226 255
203 226 255
203 226 255
203 226 255
203 226 255
203 226 255
204 226 255
204 226 255
204 226 255
204 226 255
204 226 255
204 226 255
204 226 255
204 226 255
204 226 255
204 226 255
204 226 255
204 226 255
204 226 255
204 226 255
204 226 255
204 226 255
204 226 255
205 226 255
205 226 255
205 226 255
205 226 255
205 226 255
205 226 255
205 227 255
205 227 255
205 227 255
205 227 255
205 227 255
205 227 255
205 227 255
205 227 255
205 227 255
205 227 255
205 227 255
206 227 255
206 227 255
206 227 255
206 227 255
206 227 255
206 227 255
206 227 255
206 227 255
206 227 255
206 227 255
206 227 255
206 227 255
206 227 255
206 227 255
206 227 255
206 227 255
206 227 255
206 227 255
206 227 255
207 227 255
207 227 255
207 227 255
207 227 255
207 227 255
207 228 255
207 228 255
207 228 255
207 228 255
207 228 255
207 228 255
207 228 255
207 228 255
207 228 255
207 228 255
207 228 255
207 228 255
207 228 255
207 227 255
207 227 255
207 227 255
207 227 255
207 227 255
206 227 255
206 227 255
206 227 255
206 227 255
206 227 255
206 227 255
206 227 255
206 227 255
206 227 255
206 227 255
206 227 255
206 227 255
206 227 255
206 227 255
206 227 255
206 227 255
206 227 255
206 227 255
206 227 255
205 227 255
205 227 255
205 227 255
205 227 255
205 227 255
205 227 255
205 227 255
205 227 255
205 227 255
205 227 255
205 226 255
205 226 255
205 226 255
205 226 255
205 226 255
205 226 255
205 226 255
204 226 255
204 226 255
204 226 255
204 226 255
204 226 255
204 226 255
204 226 255
204 226 255
204 226 255
204 226 255
204 226 255
204 226 255
204 226 255
204 226 255
204 226 255
204 226 255
203 226 255
203 226 255
203 226 255
203 226 255
203 226 255
203 226 255
203 226 255
203 225 255
203 225 255
203 225 255
203 225 255
203 225 255
203 225 255
203 225 255
203 225 255
203 225 255
202 225 255
202 225 255
202 225 255
202 225 255
202 225 255
202 225 255
202 225 255
202 225 255
202 225 255
202 225 255
202 225 255
202 225 255
202 225 255
202 225 255
201 225 255
201 225 255
201 225 255
201 225 255
201 225 255
201 224 255
201 224 255
201 224 255
201 224 255
201 224 255
201 224 255
201 224 255
201 224 255
201 224 255
201 224 255
200 224 255
200 224 255
200 224 255
200 224 255
200 224 255
200 224 255
200 224 255
200 224 255
200 224 255
200 224 255
200 224 255
200 224 255
200 224 255
200 224 255
200 224 255
199 224 255
199 224 255
199 224 255
199 223 255
199 223 255
199 223 255
199 223 255
199 223 255
199 223 255
199 223 255
199 223 255
199 223 255
199 223 255
199 223 255
199 223 255
199 223 255
198 223 255
198 223 255
198 223 255
198 223 255
198 223 255
198 223 255
198 223 255
198 223 255
198 223 255
198 223 255
198 223 255
198 223 255
198 223 255
198 223 255
198 223 255
198 223 255
198 223 255
198 223 255
198 223 255
198 223 255
197 223 255
197 222 255
197 222 255
197 222 255
197 222 255
197 222 255
197 222 255
197 222 255
197 222 255
197 222 255
197 222 255
197 222 255
197 222 255
197 222 255
197 222 255
197 222 255
197 222 255
197 222 255
197 222 255
197 222 255
197 222 255
197 222 255
197 222 255
197 222 255
197 222 255
197 222 255
197 222 255
197 222 255
197 222 255
197 222 255
197 222 255
197 222 255
197 222 255
197 222 255
197 222 255
197 222 255
197 222 255
197 222 255
197 222 255
197 222 255
197 222 255
197 222 255
197 222 255
197 222 255
197 222 255
197 222 255
197 222 255
197 222 255
197 222 255
197 222 255
197 222 255
197 222 255
197 222 255
197 222 255
197 222 255
197 222 255
197 222 255
197 222 255
197 222 255
197 222 255
197 222 255
197 222 255
197 222 255
197 222 255
197 222 255
197 222 255
197 222 255
197 222 255
197 222 255
197 222 255
197 222 255
197 222 255
197 222 255
197 222 255
197 222 255
197 222 255
197 222 255
197 223 255
198 223 255
198 223 255
198 223 255
198 223 255
198 223 255
198 223 255
198 223 255
198 223 255
198 223 255
198 223 255
198 223 255
198 223 255
198 223 255
198 223 255
198 223 255
198 223 255
198 223 255
198 223 255
198 223 255
198 223 255
199 223 255
199 223 255
199 223 255
199 223 255
199 223 255
199 223 255
199 223 255
199 223 255
199 223 255
199 223 255
199 223 255
199 223 255
199 223 255
199 224 255
199 224 255
199 224 255
200 224 255
200 224 255
200 224 255
200 224 255
200 224 255
200 224 255
200 224 255
200 224 255
200 224 255
200 224 255
200 224 255
200 224 255
200 224 255
200 224 255
200 224 255
201 224 255
201 224 255
201 224 255
201 224 255
201 224 255
201 224 255
201 224 255
201 224 255
201 224 255
201 224 255
201 225 255
201 225 255
201 225 255
201 225 255
201 225 255
202 225 255
202 225 255
202 225 255
202 225 255
202 225 255
202 225 255
202 225 255
202 225 255
202 225 255
202 225 255
202 225 255
202 225 255
202 225 255
202 225 255
202 225 255
203 225 255
203 225 255
203 225 255
203 225 255
203 225 255
203 225 255
203 225 255
203 225 255
203 226 255
203 226 255
203 226 255
203 226 255
203 226 255
203 226 255
203 226 255
204 226 255
204 226 255
204 226 255
204 226 255
204 226 255
204 226 255
204 226 255
204 226 255
204 226 255
204 226 255
204 226 255
204 226 255
204 226 255
204 226 255
204 226 255
204 226 255
205 226 255
205 226 255
205 226 255
205 226 255
205 226 255
205 226 255
205 226 255
205 227 255
205 227 255
205 227 255
205 227 255
205 227 255
205 227 255
205 227 255
205 227 255
205 227 255
205 227 255
206 227 255
206 227 255
206 227 255
206 227 255
206 227 255
206 227 255
206 227 255
206 227 255
206 227 255
206 227 255
206 227 255
206 227 255
206 227 255
206 227 255
206 227 255
206 227 255
206 227 255
206 227 255
206 227 255
207 227 255
207 227 255
207 227 255
207 227 255
207 227 255
207 228 255
207 228 255
207 228 255
207 228 255
207 228 255
207 228 255
207 228 255
207 228 255
207 228 255
207 228 255
207 228 255
207 228 255
207 228 255
207 228 255
207 228 255
207 228 255
207 228 255
207 228 255
207 228 255
207 227 255
207 227 255
207 227 255
207 227 255
207 227 255
206 227 255
206 227 255
206 227 255
206 227 255
206 227 255
206 227 255
206 227 255
206 227 255
206 227 255
206 227 255
206 227 255
206 227 255
206 227 255
206 227 255
206 227 255
206 227 255
206 227 255
206 227 255
205 227 255
205 227 255
205 227 255
205 227 255
205 227 255
205 227 255
205 227 255
205 227 255
205 227 255
205 227 255
205 227 255
205 226 255
205 226 255
205 226 255
205 226 255
205 226 255
205 226 255
204 226 255
204 226 255
204 226 255
204 226 255
204 226 255
204 226 255
204 226 255
204 226 255
204 226 255
204 226 255
204 226 255
204 226 255
204 226 255
204 226 255
204 226 255
204 226 255
203 226 255
203 226 255
203 226 255
203 226 255
203 226 255
203 226 255
203 226 255
203 225 255
203 225 255
203 225 255
203 225 255
203 225 255
203 225 255
203 225 255
203 225 255
203 225 255
202 225 255
202 225 255
202 225 255
202 225 255
202 225 255
202 225 255
202 225 255
202 225 255
202 225 255
202 225 255
202 225 255
202 225 255
202 225 255
202 225 255
202 225 255
201 225 255
201 225 255
201 225 255
201 225 255
201 224 255
201 224 255
201 224 255
201 224 255
201 224 255
201 224 255
201 224 255
201 224 255
201 224 255
201 224 255
201 224 255
200 224 255
200 224 255
200 224 255
200 224 255
200 224 255
200 224 255
200 224 255
200 224 255
200 224 255
200 224 255
200 224 255
200 224 255
200 224 255
200 224 255
200 224 255
199 224 255
199 224 255
199 223 255
199 223 255
199 223 255
199 223 255
199 223 255
199 223 255
199 223 255
199 223 255
199 223 255
199 223 255
199 223 255
199 223 255
199 223 255
199 223 255
199 223 255
198 223 255
198 223 255
198 223 255
198 223 255
198 223 255
198 223 255
198 223 255
198 223 255
198 223 255
198 223 255
198 223 255
198 223 255
198 223 255
198 223 255
198 223 255
198 223 255
198 223 255
198 223 255
198 223 255
198 223 255
197 223 255
197 222 255
197 222 255
197 222 255
197 222 255
197 222 255
197 222 255
197 222 255
197 222 255
197 222 255
197 222 255
197 222 255
197 222 255
197 222 255
197 222 255
197 222 255
197 222 255
197 222 255
197 222 255
197 222 255
197 222 255
197 222 255
197 222 255
197 222 255
197 222 255
197 222 255
197 222 255
197 222 255
197 222 255
197 222 255
197 222 255
197 222 255
197 222 255
197 222 255
197 222 255
197 222 255
197 222 255
197 222 255
197 222 255
197 222 255
197 222 255
197 222 255
197 222 255
197 222 255
197 222 255
197 222 255
197 222 255
197 222 255
197 222 255
197 222 255
197 222 255
197 222 255
197 222 255
197 222 255
197 222 255
197 222 255
197 222 255
197 222 255
197 222 255
197 222 255
197 222 255
197 222 255
197 222 255
197 222 255
197 222 255
197 222 255
197 222 255
197 222 255
197 222 255
197 223 255
198 223 255
198 223 255
198 223 255
198 223 255
198 223 255
198 223 255
198 223 255
198 223 255
198 223 255
198 223 255
198 223 255
198 223 255
198 223 255
198 223 255
198 223 255
198 223 255
198 223 255
198 223 255
198 223 255
198 223 255
198 223 255
199 223 255
199 223 255
199 223 255
199 223 255
199 223 255
199 223 255
199 223 255
199 223 255
199 223 255
199 223 255
199 223 255
199 223 255
199 223 255
199 223 255
199 224 255
199 224 255
200 224 255
200 224 255
200 224 255
200 224 255
200 224 255
200 224 255
200 224 255
200 224 255
200 224 255
200 224 255
200 224 255
200 224 255
200 224 255
200 224 255
200 224 255
201 224 255
201 224 255
201 224 255
201 224 255
201 224 255
201 224 255
201 224 255
201 224 255
201 224 255
201 224 255
201 224 255
201 225 255
201 225 255
201 225 255
201 225 255
202 225 255
202 225 255
202 225 255
202 225 255
202 225 255
202 225 255
202 225 255
202 225 255
202 225 255
202 225 255
202 225 255
202 225 255
202 225 255
202 225 255
202 225 255
203 225 255
203 225 255
203 225 255
203 225 255
203 225 255
203 225 255
203 225 255
203 225 255
203 225 255
203 226 255
203 226 255
203 226 255
203 226 255
203 226 255
203 226 255
204 226 255
204 226 255
204 226 255
204 226 255
204 226 255
204 226 255
204 226 255
204 226 255
204 226 255
204 226 255
204 226 255
204 226 255
204 226 255
204 226 255
204 226 255
204 226 255
204 226 255
205 226 255
205 226 255
205 226 255
205 226 255
205 226 255
205 226 255
205 227 255
205 227 255
205 227 255
205 227 255
205 227 255
205 227 255
205 227 255
205 227 255
205 227 255
205 227 255
205 227 255
206 227 255
206 227 255
206 227 255
206 227 255
206 227 255
206 227 255
206 227 255
206 227 255
206 227 255
206 227 255
206 227 255
206 227 255
206 227 255
206 227 255
206 227 255
206 227 255
206 227 255
206 227 255
207 227 255
207 227 255
207 227 255
207 227 255
207 227 255
207 228 255
207 228 255
207 228 255
207 228 255
207 228 255
207 228 255
207 228 255
207 228 255
207 228 255
207 228 255
207 228 255
207 228 255
207 228 255
207 228 255
207 228 255
207 228 255
207 228 255
207 228 255
207 228 255
207 228 255
207 228 255
207 228 255
207 228 255
207 228 255
207 228 255
207 227 255
207 227 255
207 227 255
207 227 255
207 227 255
206 227 255
206 227 255
206 227 255
206 227 255
206 227 255
206 227 255
206 227 255
206 227 255
206 227 255
206 227 255
206 227 255
206 227 255
206 227 255
206 227 255
206 227 255
206 227 255
206 227 255
206 227 255
205 227 255
205 227 255
205 227 255
205 227 255
205 227 255
205 227 255
205 227 255
205 227 255
205 227 255
205 227 255
205 226 255
205 226 255
205 226 255
205 226 255
205 226 255
205 226 255
205 226 255
204 226 255
204 226 255
204 226 255
204 226 255
204 226 255
204 226 255
204 226 255
204 226 255
204 226 255
204 226 255
204 226 255
204 226 255
204 226 255
204 226 255
204 226 255
204 226 255
203 226 255
203 226 255
203 226 255
203 226 255
203 226 255
203 226 255
203 226 255
203 225 255
203 225 255
203 225 255
203 225 255
203 225 255
203 225 255
203 225 255
203 225 255
203 225 255
202 225 255
202 225 255
202 225 255
202 225 255
202 225 255
202 225 255
202 225 255
202 225 255
202 225 255
202 225 255
202 225 255
202 225 255
202 225 255
202 225 255
201 225 255
201 225 255
201 225 255
201 225 255
201 225 255
201 224 255
201 224 255
201 224 255
201 224 255
201 224 255
201 224 255
201 224 255
201 224 255
201 224 255
201 224 255
200 224 255
200 224 255
200 224 255
200 224 255
200 224 255
200 224 255
200 224 255
200 224 255
200 224 255
200 224 255
200 224 255
200 224 255
200 224 255
200 224 255
200 224 255
200 224 255
199 224 255
199 224 255
199 223 255
199 223 255
199 223 255
199 223 255
199 223 255
199 223 255
199 223 255
199 223 255
199 223 255
199 223 255
199 223 255
199 223 255
199 223 255
199 223 255
199 223 255
198 223 255
198 223 255
198 223 255
198 223 255
198 223 255
198 223 255
198 223 255
198 223 255
198 223 255
198 223 255
198 223 255
198 223 255
198 223 255
198 223 255
198 223 255
198 223 255
198 223 255
198 223 255
198 223 255
198 223 255
198 223 255
198 223 255
197 223 255
197 222 255
197 222 255
197 222 255
197 222 255
197 222 255
197 222 255
197 222 255
197 222 255
197 222 255
197 222 255
197 222 255
197 222 255
197 222 255
197 222 255
197 222 255
197 222 255
197 222 255
197 222 255
197 222 255
197 222 255
197 222 255
197 222 255
197 222 255
197 222 255
197 222 255
197 222 255
197 222 255
197 222 255
197 222 255
197 222 255
197 222 255
197 222 255
197 222 255
197 222 255
197 222 255
197 222 255
197 222 255
197 222 255
197 222 255
197 222 255
197 222 255
197 222 255
197 222 255
197 222 255
197 222 255
197 222 255
197 222 255
197 222 255
197 222 255
197 222 255
197 222 255
197 222 255
197 222 255
197 222 255
197 222 255
197 222 255
197 222 255
197 222 255
197 223 255
198 223 255
198 223 255
198 223 255
198 223 255
198 223 255
198 223 255
198 223 255
198 223 255
198 223 255
198 223 255
198 223 255
198 223 255
198 223 255
198 223 255
198 223 255
198 223 255
198 223 255
198 223 255
198 223 255
198 223 255
198 223 255
198 223 255
199 223 255
199 223 255
199 223 255
199 223 255
199 223 255
199 223 255
199 223 255
199 223 255
199 223 255
199 223 255
199 223 255
199 223 255
199 223 255
199 223 255
199 223 255
199 224 255
199 224 255
200 224 255
200 224 255
200 224 255
200 224 255
200 224 255
200 224 255
200 224 255
200 224 255
200 224 255
200 224 255
200 224 255
200 224 255
200 224 255
200 224 255
200 224 255
200 224 255
201 224 255
201 224 255
201 224 255
201 224 255
201 224 255
201 224 255
201 224 255
201 224 255
201 224 255
201 224 255
201 225 255
201 225 255
201 225 255
201 225 255
201 225 255
202 225 255
202 225 255
202 225 255
202 225 255
202 225 255
202 225 255
202 225 255
202 225 255
202 225 255
202 225 255
202 225 255
202 225 255
202 225 255
202 225 255
202 225 255
203 225 255
203 225 255
203 225 255
203 225 255
203 225 255
203 225 255
203 225 255
203 225 255
203 226 255
203 226 255
203 226 255
203 226 255
203 226 255
203 226 255
203 226 255
204 226 255
204 226 255
204 226 255
204 226 255
204 226 255
204 226 255
204 226 255
204 226 255
204 226 255
204 226 255
204 226 255
204 226 255
204 226 255
204 226 255
204 226 255
204 226 255
205 226 255
205 226 255
205 226 255
205 226 255
205 226 255
205 226 255
205 226 255
205 227 255
205 227 255
205 227 255
205 227 255
205 227 255
205 227 255
205 227 255
205 227 255
205 227 255
205 227 255
206 227 255
206 227 255
206 227 255
206 227 255
206 227 255
206 227 255
206 227 255
206 227 255
206 227 255
206 227 255
206 227 255
206 227 255
206 227 255
206 227 255
206 227 255
206 227 255
206 227 255
206 227 255
206 227 255
207 227 255
207 227 255
207 227 255
207 227 255
207 228 255
207 228 255
207 228 255
207 228 255
207 228 255
207 228 255
207 228 255
207 228 255
207 228 255
207 228 255
207 228 255
207 228 255
207 228 255
207 228 255
208 228 255
207 228 255
207 228 255
207 228 255
207 228 255
207 228 255
207 228 255
207 228 255
207 228 255
207 228 255
207 228 255
207 228 255
207 228 255
207 228 255
207 228 255
207 228 255
207 228 255
207 227 255
207 227 255
207 227 255
207 227 255
206 227 255
206 227 255
206 227 255
206 227 255
206 227 255
206 227 255
206 227 255
206 227 255
206 227 255
206 227 255
206 227 255
206 227 255
206 227 255
206 227 255
206 227 255
206 227 255
206 227 255
206 227 255
206 227 255
205 227 255
205 227 255
205 227 255
205 227 255
205 227 255
205 227 255
205 227 255
205 227 255
205 227 255
205 227 255
205 226 255
205 226 255
205 226 255
205 226 255
205 226 255
205 226 255
205 226 255
204 226 255
204 226 255
204 226 255
204 226 255
204 226 255
204 226 255
204 226 255
204 226 255
204 226 255
204 226 255
204 226 255
204 226 255
204 226 255
204 226 255
204 226 255
204 226 255
203 226 255
203 226 255
203 226 255
203 226 255
203 226 255
203 226 255
203 225 255
203 225 255
203 225 255
203 225 255
203 225 255
203 225 255
203 225 255
203 225 255
203 225 255
202 225 255
202 225 255
202 225 255
202 225 255
202 225 255
202 225 255
202 225 255
202 225 255
202 225 255
202 225 255
202 225 255
202 225 255
202 225 255
202 225 255
202 225 255
201 225 255
201 225 255
201 225 255
201 225 255
201 224 255
201 224 255
201 224 255
201 224 255
201 224 255
201 224 255
201 224 255
201 224 255
201 224 255
201 224 255
201 224 255
200 224 255
200 224 255
200 224 255
200 224 255
200 224 255
200 224 255
200 224 255
200 224 255
200 224 255
200 224 255
200 224 255
200 224 255
200 224 255
200 224 255
200 224 255
200 224 255
199 224 255
199 224 255
199 223 255
199 223 255
199 223 255
199 223 255
199 223 255
199 223 255
199 223 255
199 223 255
199 223 255
199 223 255
199 223 255
199 223 255
199 223 255
199 223 255
199 223 255
198 223 255
198 223 255
198 223 255
198 223 255
198 223 255
198 223 255
198 223 255
198 223 255
198 223 255
198 223 255
198 223 255
198 223 255
198 223 255
198 223 255
198 223 255
198 223 255
198 223 255
198 223 255
198 223 255
198 223 255
198 223 255
198 223 255
198 223 255
198 223 255
197 223 255
197 223 255
197 222 255
197 222 255
197 222 255
197 222 255
197 222 255
197 222 255
197 222 255
197 222 255
197 222 255
197 222 255
197 222 255
197 222 255
197 222 255
197 222 255
197 222 255
197 222 255
197 222 255
197 222 255
197 222 255
197 222 255
197 222 255
197 222 255
197 222 255
197 222 255
197 222 255
197 222 255
197 222 255
197 222 255
197 222 255
197 222 255
197 222 255
197 222 255
197 222 255
197 222 255
197 222 255
197 222 255
197 222 255
197 222 255
197 222 255
197 222 255
197 222 255
197 222 255
197 222 255
197 222 255
197 222 255
197 222 255
197 222 255
197 223 255
198 223 255
198 223 255
198 223 255
198 223 255
198 223 255
198 223 255
198 223 255
198 223 255
198 223 255
198 223 255
198 223 255
198 223 255
198 223 255
198 223 255
198 223 255
198 223 255
198 223 255
198 223 255
198 223 255
198 223 255
198 223 255
198 223 255
198 223 255
198 223 255
199 223 255
199 223 255
199 223 255
199 223 255
199 223 255
199 223 255
199 223 255
199 223 255
199 223 255
199 223 255
199 223 255
199 223 255
199 223 255
199 223 255
199 223 255
199 224 255
199 224 255
200 224 255
200 224 255
200 224 255
200 224 255
200 224 255
200 224 255
200 224 255
200 224 255
200 224 255
200 224 255
200 224 255
200 224 255
200 224 255
200 224 255
200 224 255
200 224 255
201 224 255
201 224 255
201 224 255
201 224 255
201 224 255
201 224 255
201 224 255
201 224 255
201 224 255
201 224 255
201 224 255
201 225 255
201 225 255
201 225 255
201 225 255
202 225 255
202 225 255
202 225 255
202 225 255
202 225 255
202 225 255
202 225 255
202 225 255
202 225 255
202 225 255
202 225 255
202 225 255
202 225 255
202 225 255
202 225 255
203 225 255
203 225 255
203 225 255
203 225 255
203 225 255
203 225 255
203 225 255
203 225 255
203 226 255
203 226 255
203 226 255
203 226 255
203 226 255
203 226 255
203 226 255
204 226 255
204 226 255
204 226 255
204 226 255
204 226 255
204 226 255
204 226 255
204 226 255
204 226 255
204 226 255
204 226 255
204 226 255
204 226 255
204 226 255
204 226 255
204 226 255
205 226 255
205 226 255
205 226 255
205 226 255
205 226 255
205 226 255
205 226 255
205 227 255
205 227 255
205 227 255
205 227 255
205 227 255
205 227 255
205 227 255
205 227 255
205 227 255
205 227 255
206 227 255
206 227 255
206 227 255
206 227 255
206 227 255
206 227 255
206 227 255
206 227 255
206 227 255
206 227 255
206 227 255
206 227 255
206 227 255
206 227 255
206 227 255
206 227 255
206 227 255
206 227 255
206 227 255
207 227 255
207 227 255
207 227 255
207 227 255
207 228 255
207 228 255
207 228 255
207 228 255
207 228 255
207 228 255
207 228 255
207 228 255
207 228 255
207 228 255
207 228 255
207 228 255
207 228 255
207 228 255
207 228 255
207 228 255
208 228 255
208 228 255
208 228 255
208 228 255
208 228 255
207 228 255
207 228 255
207 228 255
207 228 255
207 228 255
207 228 255
207 228 255
207 228 255
207 228 255
207 228 255
207 228 255
207 228 255
207 228 255
207 228 255
207 228 255
207 227 255
207 227 255
207 227 255
207 227 255
207 227 255
206 227 255
206 227 255
206 227 255
206 227 255
206 227 255
206 227 255
206 227 255
206 227 255
206 227 255
206 227 255
206 227 255
206 227 255
206 227 255
206 227 255
206 227 255
206 227 255
206 227 255
206 227 255
205 227 255
205 227 255
205 227 255
205 227 255
205 227 255
205 227 255
205 227 255
205 227 255
205 227 255
205 227 255
205 227 255
205 226 255
205 226 255
205 226 255
205 226 255
205 226 255
205 226 255
204 226 255
204 226 255
204 226 255
204 226 255
204 226 255
204 226 255
204 226 255
204 226 255
204 226 255
204 226 255
204 226 255
204 226 255
204 226 255
204 226 255
204 226 255
204 226 255
203 226 255
203 226 255
203 226 255
203 226 255
203 226 255
203 226 255
203 226 255
203 225 255
203 225 255
203 225 255
203 225 255
203 225 255
203 225 255
203 225 255
203 225 255
202 225 255
202 225 255
202 225 255
202 225 255
202 225 255
202 225 255
202 225 255
202 225 255
202 225 255
202 225 255
202 225 255
202 225 255
202 225 255
202 225 255
202 225 255
202 225 255
201 225 255
201 225 255
201 225 255
201 225 255
201 224 255
201 224 255
201 224 255
201 224 255
201 224 255
201 224 255
201 224 255
201 224 255
201 224 255
201 224 255
201 224 255
200 224 255
200 224 255
200 224 255
200 224 255
200 224 255
200 224 255
200 224 255
200 224 255
200 224 255
200 224 255
200 224 255
200 224 255
200 224 255
200 224 255
200 224 255
200 224 255
199 224 255
199 224 255
199 223 255
199 223 255
199 223 255
199 223 255
199 223 255
199 223 255
199 223 255
199 223 255
199 223 255
199 223 255
199 223 255
199 223 255
199 223 255
199 223 255
199 223 255
199 223 255
198 223 255
198 223 255
198 223 255
198 223 255
198 223 255
198 223 255
198 223 255
198 223 255
198 223 255
198 223 255
198 223 255
198 223 255
198 223 255
198 223 255
198 223 255
198 223 255
198 223 255
198 223 255
198 223 255
198 223 255
198 223 255
198 223 255
198 223 255
198 223 255
198 223 255
198 223 255
198 223 255
197 223 255
197 223 255
197 222 255
197 222 255
197 222 255
197 222 255
197 222 255
197 222 255
197 222 255
197 222 255
197 222 255
197 222 255
197 222 255
197 222 255
197 222 255
197 222 255
197 222 255
197 222 255
197 222 255
197 222 255
197 222 255
197 222 255
197 222 255
197 222 255
197 222 255
197 222 255
197 222 255
197 222 255
197 222 255
197 222 255
197 222 255
197 222 255
197 222 255
197 222 255
197 223 255
197 223 255
198 223 255
198 223 255
198 223 255
198 223 255
198 223 255
198 223 255
198 223 255
198 223 255
198 223 255
198 223 255
198 223 255
198 223 255
198 223 255
198 223 255
198 223 255
198 223 255
198 223 255
198 223 255
198 223 255
198 223 255
198 223 255
198 223 255
198 223 255
198 223 255
198 223 255
198 223 255
198 223 255
199 223 255
199 223 255
199 223 255
199 223 255
199 223 255
199 223 255
199 223 255
199 223 255
199 223 255
199 223 255
199 223 255
199 223 255
199 223 255
199 223 255
199 223 255
199 223 255
199 224 255
199 224 255
199 224 255
200 224 255
200 224 255
200 224 255
200 224 255
200 224 255
200 224 255
200 224 255
200 224 255
200 224 255
200 224 255
200 224 255
200 224 255
200 224 255
200 224 255
200 224 255
201 224 255
201 224 255
201 224 255
201 224 255
201 224 255
201 224 255
201 224 255
201 224 255
201 224 255
201 224 255
201 224 255
201 225 255
201 225 255
201 225 255
201 225 255
201 225 255
202 225 255
202 225 255
202 225 255
202 225 255
202 225 255
202 225 255
202 225 255
202 225 255
202 225 255
202 225 255
202 225 255
202 225 255
202 225 255
202 225 255
203 225 255
203 225 255
203 225 255
203 225 255
203 225 255
203 225 255
203 225 255
203 225 255
203 225 255
203 226 255
203 226 255
203 226 255
203 226 255
203 226 255
203 226 255
203 226 255
204 226 255
204 226 255
204 226 255
204 226 255
204 226 255
204 226 255
204 226 255
204 226 255
204 226 255
204 226 255
204 226 255
204 226 255
204 226 255
204 226 255
204 226 255
204 226 255
205 226 255
205 226 255
205 226 255
205 226 255
205 226 255
205 226 255
205 227 255
205 227 255
205 227 255
205 227 255
205 227 255
205 227 255
205 227 255
205 227 255
205 227 255
205 227 255
205 227 255
206 227 255
206 227 255
206 227 255
206 227 255
206 227 255
206 227 255
206 227 255
206 227 255
206 227 255
206 227 255
206 227 255
206 227 255
206 227 255
206 227 255
206 227 255
206 227 255
206 227 255
206 227 255
207 227 255
207 227 255
207 227 255
207 227 255
207 227 255
207 228 255
207 228 255
207 228 255
207 228 255
207 228 255
207 228 255
207 228 255
207 228 255
207 228 255
207 228 255
207 228 255
207 228 255
207 228 255
207 228 255
207 228 255
208 228 255
208 228 255
208 228 255
208 228 255
208 228 255
208 228 255
208 228 255
208 228 255
208 228 255
208 228 255
208 228 255
207 228 255
207 228 255
207 228 255
207 228 255
207 228 255
207 228 255
207 228 255
207 228 255
207 228 255
207 228 255
207 228 255
207 228 255
207 228 255
207 228 255
207 228 255
207 227 255
207 227 255
207 227 255
207 227 255
207 227 255
206 227 255
206 227 255
206 227 255
206 227 255
206 227 255
206 227 255
206 227 255
206 227 255
206 227 255
206 227 255
206 227 255
206 227 255
206 227 255
206 227 255
206 227 255
206 227 255
206 227 255
206 227 255
205 227 255
205 227 255
205 227 255
205 227 255
205 227 255
205 227 255
205 227 255
205 227 255
205 227 255
205 227 255
205 226 255
205 226 255
205 226 255
205 226 255
205 226 255
205 226 255
205 226 255
204 226 255
204 226 255
204 226 255
204 226 255
204 226 255
204 226 255
204 226 255
204 226 255
204 226 255
204 226 255
204 226 255
204 226 255
204 226 255
204 226 255
204 226 255
204 226 255
203 226 255
203 226 255
203 226 255
203 226 255
203 226 255
203 226 255
203 226 255
203 225 255
203 225 255
203 225 255
203 225 255
203 225 255
203 225 255
203 225 255
203 225 255
202 225 255
202 225 255
202 225 255
202 225 255
202 225 255
202 225 255
202 225 255
202 225 255
202 225 255
202 225 255
202 225 255
202 225 255
202 225 255
202 225 255
202 225 255
201 225 255
201 225 255
201 225 255
201 225 255
201 225 255
201 224 255
201 224 255
201 224 255
201 224 255
201 224 255
201 224 255
201 224 255
201 224 255
201 224 255
201 224 255
200 224 255
200 224 255
200 224 255
200 224 255
200 224 255
200 224 255
200 224 255
200 224 255
200 224 255
200 224 255
200 224 255
200 224 255
200 224 255
200 224 255
200 224 255
200 224 255
200 224 255
199 224 255
199 224 255
199 223 255
199 223 255
199 223 255
199 223 255
199 223 255
199 223 255
199 223 255
199 223 255
199 223 255
199 223 255
199 223 255
199 223 255
199 223 255
199 223 255
199 223 255
199 223 255
199 223 255
198 223 255
198 223 255
198 223 255
198 223 255
198 223 255
198 223 255
198 223 255
198 223 255
198 223 255
198 223 255
198 223 255
198 223 255
198 223 255
198 223 255
198 223 255
198 223 255
198 223 255
198 223 255
198 223 255
198 223 255
198 223 255
198 223 255
198 223 255
198 223 255
198 223 255
198 223 255
198 223 255
198 223 255
198 223 255
198 223 255
198 223 255
198 223 255
198 223 255
198 223 255
198 223 255
198 223 255
198 223 255
198 223 255
197 223 255
197 223 255
197 223 255
197 223 255
197 223 255
197 223 255
198 223 255
197 223 255
198 223 255
198 223 255
198 223 255
198 223 255
198 223 255
198 223 255
198 223 255
198 223 255
198 223 255
198 223 255
198 223 255
198 223 255
198 223 255
198 223 255
198 223 255
198 223 255
198 223 255
198 223 255
198 223 255
198 223 255
198 223 255
198 223 255
198 223 255
198 223 255
198 223 255
198 223 255
198 223 255
198 223 255
198 223 255
198 223 255
198 223 255
198 223 255
198 223 255
198 223 255
198 223 255
198 223 255
199 223 255
199 223 255
199 223 255
199 223 255
199 223 255
199 223 255
199 223 255
199 223 255
199 223 255
199 223 255
199 223 255
199 223 255
199 223 255
199 223 255
199 223 255
199 223 255
199 223 255
199 224 255
199 224 255
200 224 255
200 224 255
200 224 255
200 224 255
200 224 255
200 224 255
200 224 255
200 224 255
200 224 255
200 224 255
200 224 255
200 224 255
200 224 255
200 224 255
200 224 255
200 224 255
200 224 255
201 224 255
201 224 255
201 224 255
201 224 255
201 224 255
201 224 255
201 224 255
201 224 255
201 224 255
201 224 255
201 225 255
201 225 255
201 225 255
201 225 255
201 225 255
202 225 255
202 225 255
202 225 255
202 225 255
202 225 255
202 225 255
202 225 255
202 225 255
202 225 255
202 225 255
202 225 255
202 225 255
202 225 255
202 225 255
202 225 255
203 225 255
203 225 255
203 225 255
203 225 255
203 225 255
203 225 255
203 225 255
203 225 255
203 226 255
203 226 255
203 226 255
203 226 255
203 226 255
203 226 255
203 226 255
204 226 255
204 226 255
204 226 255
204 226 255
204 226 255
204 226 255
204 226 255
204 226 255
204 226 255
204 226 255
204 226 255
204 226 255
204 226 255
204 226 255
204 226 255
204 226 255
205 226 255
205 226 255
205 226 255
205 226 255
205 226 255
205 226 255
205 226 255
205 227 255
205 227 255
205 227 255
205 227 255
205 227 255
205 227 255
205 227 255
205 227 255
205 227 255
205 227 255
206 227 255
206 227 255
206 227 255
206 227 255
206 227 255
206 227 255
206 227 255
206 227 255
206 227 255
206 227 255
206 227 255
206 227 255
206 227 255
206 227 255
206 227 255
206 227 255
206 227 255
206 227 255
207 227 255
207 227 255
207 227 255
207 227 255
207 227 255
207 228 255
207 228 255
207 228 255
207 228 255
207 228 255
207 228 255
207 228 255
207 228 255
207 228 255
207 228 255
207 228 255
207 228 255
207 228 255
207 228 255
207 228 255
208 228 255
208 228 255
208 228 255
208 228 255
208 228 255
208 228 255
208 228 255
208 228 255
208 228 255
208 228 255
208 228 255
208 228 255
208 228 255
208 228 255
208 228 255
208 228 255
208 228 255
207 228 255
207 228 255
207 228 255
207 228 255
207 228 255
207 228 255
207 228 255
207 228 255
207 228 255
207 228 255
207 228 255
207 228 255
207 228 255
207 228 255
207 228 255
207 227 255
207 227 255
207 227 255
207 227 255
207 227 255
206 227 255
206 227 255
206 227 255
206 227 255
206 227 255
206 227 255
206 227 255
206 227 255
206 227 255
206 227 255
206 227 255
206 227 255
206 227 255
206 227 255
206 227 255
206 227 255
206 227 255
206 227 255
205 227 255
205 227 255
205 227 255
205 227 255
205 227 255
205 227 255
205 227 255
205 227 255
205 227 255
205 227 255
205 226 255
205 226 255
205 226 255
205 226 255
205 226 255
205 226 255
205 226 255
204 226 255
204 226 255
204 226 255
204 226 255
204 226 255
204 226 255
204 226 255
204 226 255
204 226 255
204 226 255
204 226 255
204 226 255
204 226 255
204 226 255
204 226 255
203 226 255
203 226 255
203 226 255
203 226 255
203 226 255
203 226 255
203 226 255
203 225 255
203 225 255
203 225 255
203 225 255
203 225 255
203 225 255
203 225 255
203 225 255
203 225 255
202 225 255
202 225 255
202 225 255
202 225 255
202 225 255
202 225 255
202 225 255
202 225 255
202 225 255
202 225 255
202 225 255
202 225 255
202 225 255
202 225 255
202 225 255
201 225 255
201 225 255
201 225 255
201 225 255
201 224 255
201 224 255
201 224 255
201 224 255
201 224 255
201 224 255
201 224 255
201 224 255
201 224 255
201 224 255
201 224 255
200 224 255
200 224 255
200 224 255
200 224 255
200 224 255
200 224 255
200 224 255
200 224 255
200 224 255
200 224 255
200 224 255
200 224 255
200 224 255
200 224 255
200 224 255
200 224 255
200 224 255
199 224 255
199 224 255
199 224 255
199 223 255
199 223 255
199 223 255
199 223 255
199 223 255
199 223 255
199 223 255
199 223 255
199 223 255
199 223 255
199 223 255
199 223 255
199 223 255
199 223 255
199 223 255
199 223 255
199 223 255
198 223 255
198 223 255
198 223 255
198 223 255
198 223 255
198 223 255
198 223 255
198 223 255
198 223 255
198 223 255
198 223 255
198 223 255
198 223 255
198 223 255
198 223 255
198 223 255
198 223 255
198 223 255
198 223 255
198 223 255
198 223 255
198 223 255
198 223 255
198 223 255
198 223 255
198 223 255
198 223 255
198 223 255
198 223 255
198 223 255
198 223 255
198 223 255
198 223 255
198 223 255
198 223 255
198 223 255
198 223 255
198 223 255
198 223 255
198 223 255
198 223 255
198 223 255
198 223 255
198 223 255
198 223 255
198 223 255
198 223 255
198 223 255
198 223 255
198 223 255
198 223 255
198 223 255
198 223 255
198 223 255
198 223 255
198 223 255
198 223 255
198 223 255
198 223 255
198 223 255
198 223 255
198 223 255
198 223 255
198 223 255
198 223 255
198 223 255
198 223 255
198 223 255
198 223 255
198 223 255
198 223 255
198 223 255
198 223 255
198 223 255
199 223 255
199 223 255
199 223 255
199 223 255
199 223 255
199 223 255
199 223 255
199 223 255
199 223 255
199 223 255
199 223 255
199 223 255
199 223 255
199 223 255
199 223 255
199 223 255
199 223 255
199 224 255
199 224 255
199 224 255
200 224 255
200 224 255
200 224 255
200 224 255
200 224 255
200 224 255
200 224 255
200 224 255
200 224 255
200 224 255
200 224 255
200 224 255
200 224 255
200 224 255
200 224 255
200 224 255
200 224 255
201 224 255
201 224 255
201 224 255
201 224 255
201 224 255
201 224 255
201 224 255
201 224 255
201 224 255
201 224 255
201 224 255
201 225 255
201 225 255
201 225 255
201 225 255
202 225 255
202 225 255
202 225 255
202 225 255
202 225 255
202 225 255
202 225 255
202 225 255
202 225 255
202 225 255
202 225 255
202 225 255
202 225 255
202 225 255
202 225 255
203 225 255
203 225 255
203 225 255
203 225 255
203 225 255
203 225 255
203 225 255
203 225 255
203 225 255
203 226 255
203 226 255
203 226 255
203 226 255
203 226 255
203 226 255
204 226 255
204 226 255
204 226 255
204 226 255
204 226 255
204 226 255
204 226 255
204 226 255
204 226 255
204 226 255
204 226 255
204 226 255
204 226 255
204 226 255
204 226 255
204 226 255
205 226 255
205 226 255
205 226 255
205 226 255
205 226 255
205 226 255
205 226 255
205 227 255
205 227 255
205 227 255
205 227 255
205 227 255
205 227 255
205 227 255
205 227 255
205 227 255
205 227 255
206 227 255
206 227 255
206 227 255
206 227 255
206 227 255
206 227 255
206 227 255
206 227 255
206 227 255
206 227 255
206 227 255
206 227 255
206 227 255
206 227 255
206 227 255
206 227 255
206 227 255
206 227 255
207 227 255
207 227 255
207 227 255
207 227 255
207 227 255
207 228 255
207 228 255
207 228 255
207 228 255
207 228 255
207 228 255
207 228 255
207 228 255
207 228 255
207 228 255
207 228 255
207 228 255
207 228 255
207 228 255
207 228 255
208 228 255
208 228 255
208 228 255
208 228 255
208 228 255
208 228 255
208 228 255
208 228 255
208 228 255
208 228 255
208 228 255
208 228 255
208 228 255
208 228 255
208 228 255
208 228 255
208 228 255
208 228 255
208 228 255
208 228 255
208 228 255
208 228 255
208 228 255
207 228 255
207 228 255
207 228 255
207 228 255
207 228 255
207 228 255
207 228 255
207 228 255
207 228 255
207 228 255
207 228 255
207 228 255
207 228 255
207 228 255
207 228 255
207 227 255
207 227 255
207 227 255
207 227 255
207 227 255
206 227 255
206 227 255
206 227 255
206 227 255
206 227 255
206 227 255
206 227 255
206 227 255
206 227 255
206 227 255
206 227 255
206 227 255
206 227 255
206 227 255
206 227 255
206 227 255
206 227 255
206 227 255
205 227 255
205 227 255
205 227 255
205 227 255
205 227 255
205 227 255
205 227 255
205 227 255
205 227 255
205 227 255
205 226 255
205 226 255
205 226 255
205 226 255
205 226 255
205 226 255
204 226 255
204 226 255
204 226 255
204 226 255
204 226 255
204 226 255
204 226 255
204 226 255
204 226 255
204 226 255
204 226 255
204 226 255
204 226 255
204 226 255
204 226 255
204 226 255
203 226 255
203 226 255
203 226 255
203 226 255
203 226 255
203 226 255
203 226 255
203 225 255
203 225 255
203 225 255
203 225 255
203 225 255
203 225 255
203 225 255
203 225 255
203 225 255
202 225 255
202 225 255
202 225 255
202 225 255
202 225 255
202 225 255
202 225 255
202 225 255
202 225 255
202 225 255
202 225 255
202 225 255
202 225 255
202 225 255
202 225 255
201 225 255
201 225 255
201 225 255
201 225 255
201 224 255
201 224 255
201 224 255
201 224 255
201 224 255
201 224 255
201 224 255
201 224 255
201 224 255
201 224 255
201 224 255
200 224 255
200 224 255
200 224 255
200 224 255
200 224 255
200 224 255
200 224 255
200 224 255
200 224 255
200 224 255
200 224 255
200 224 255
200 224 255
200 224 255
200 224 255
200 224 255
200 224 255
199 224 255
199 224 255
199 224 255
199 223 255
199 223 255
199 223 255
199 223 255
199 223 255
199 223 255
199 223 255
199 223 255
199 223 255
199 223 255
199 223 255
199 223 255
199 223 255
199 223 255
199 223 255
199 223 255
199 223 255
199 223 255
199 223 255
198 223 255
198 223 255
198 223 255
198 223 255
198 223 255
198 223 255
198 223 255
198 223 255
198 223 255
198 223 255
198 223 255
198 223 255
198 223 255
198 223 255
198 223 255
198 223 255
198 223 255
198 223 255
198 223 255
198 223 255
198 223 255
198 223 255
198 223 255
198 223 255
198 223 255
198 223 255
198 223 255
198 223 255
198 223 255
198 223 255
198 223 255
198 223 255
198 223 255
198 223 255
198 223 255
198 223 255
198 223 255
198 223 255
198 223 255
198 223 255
198 223 255
198 223 255
198 223 255
198 223 255
198 223 255
198 223 255
198 223 255
198 223 255
198 223 255
198 223 255
198 223 255
198 223 255
198 223 255
198 223 255
198 223 255
198 223 255
198 223 255
198 223 255
198 223 255
198 223 255
198 223 255
198 223 255
198 223 255
198 223 255
198 223 255
199 223 255
199 223 255
199 223 255
199 223 255
199 223 255
199 223 255
199 223 255
199 223 255
199 223 255
199 223 255
199 223 255
199 223 255
199 223 255
199 223 255
199 223 255
199 223 255
199 223 255
199 223 255
199 224 255
199 224 255
199 224 255
200 224 255
200 224 255
200 224 255
200 224 255
200 224 255
200 224 255
200 224 255
200 224 255
200 224 255
200 224 255
200 224 255
200 224 255
200 224 255
200 224 255
200 224 255
200 224 255
200 224 255
201 224 255
201 224 255
201 224 255
201 224 255
201 224 255
201 224 255
201 224 255
201 224 255
201 224 255
201 224 255
201 224 255
201 225 255
201 225 255
201 225 255
201 225 255
202 225 255
202 225 255
202 225 255
202 225 255
202 225 255
202 225 255
202 225 255
202 225 255
202 225 255
202 225 255
202 225 255
202 225 255
202 225 255
202 225 255
202 225 255
202 225 255
203 225 255
203 225 255
203 225 255
203 225 255
203 225 255
203 225 255
203 225 255
203 225 255
203 226 255
203 226 255
203 226 255
203 226 255
203 226 255
203 226 255
203 226 255
204 226 255
204 226 255
204 226 255
204 226 255
204 226 255
204 226 255
204 226 255
204 226 255
204 226 255
204 226 255
204 226 255
204 226 255
204 226 255
204 226 255
204 226 255
204 226 255
205 226 255
205 226 255
205 226 255
205 226 255
205 226 255
205 226 255
205 227 255
205 227 255
205 227 255
205 227 255
205 227 255
205 227 255
205 227 255
205 227 255
205 227 255
205 227 255
206 227 255
206 227 255
206 227 255
206 227 255
206 227 255
206 227 255
206 227 255
206 227 255
206 227 255
206 227 255
206 227 255
206 227 255
206 227 255
206 227 255
206 227 255
206 227 255
206 227 255
206 227 255
207 227 255
207 227 255
207 227 255
207 227 255
207 227 255
207 228 255
207 228 255
207 228 255
207 228 255
207 228 255
207 228 255
207 228 255
207 228 255
207 228 255
207 228 255
207 228 255
207 228 255
207 228 255
207 228 255
207 228 255
208 228 255
208 228 255
208 228 255
208 228 255
208 228 255
208 228 255
208 228 255
208 228 255
208 228 255
208 228 255
208 228 255
208 228 255
208 228 255
208 228 255
208 228 255
208 228 255
208 228 255
208 228 255
208 228 255
208 228 255
208 228 255
208 228 255
208 228 255
208 228 255
208 228 255
208 228 255
208 228 255
208 228 255
208 228 255
207 228 255
207 228 255
207 228 255
207 228 255
207 228 255
207 228 255
207 228 255
207 228 255
207 228 255
207 228 255
207 228 255
207 228 255
207 228 255
207 228 255
207 228 255
207 227 255
207 227 255
207 227 255
207 227 255
207 227 255
206 227 255
206 227 255
206 227 255
206 227 255
206 227 255
206 227 255
206 227 255
206 227 255
206 227 255
206 227 255
206 227 255
206 227 255
206 227 255
206 227 255
206 227 255
206 227 255
206 227 255
206 227 255
205 227 255
205 227 255
205 227 255
205 227 255
205 227 255
205 227 255
205 227 255
205 227 255
205 227 255
205 226 255
205 226 255
205 226 255
205 226 255
205 226 255
205 226 255
205 226 255
204 226 255
204 226 255
204 226 255
204 226 255
204 226 255
204 226 255
204 226 255
204 226 255
204 226 255
204 226 255
204 226 255
204 226 255
204 226 255
204 226 255
204 226 255
204 226 255
203 226 255
203 226 255
203 226 255
203 226 255
203 226 255
203 226 255
203 226 255
203 225 255
203 225 255
203 225 255
203 225 255
203 225 255
203 225 255
203 225 255
203 225 255
202 225 255
202 225 255
202 225 255
202 225 255
202 225 255
202 225 255
202 225 255
202 225 255
202 225 255
202 225 255
202 225 255
202 225 255
202 225 255
202 225 255
202 225 255
201 225 255
201 225 255
201 225 255
201 225 255
201 225 255
201 224 255
201 224 255
201 224 255
201 224 255
201 224 255
201 224 255
201 224 255
201 224 255
201 224 255
201 224 255
201 224 255
200 224 255
200 224 255
200 224 255
200 224 255
200 224 255
200 224 255
200 224 255
200 224 255
200 224 255
200 224 255
200 224 255
200 224 255
200 224 255
200 224 255
200 224 255
200 224 255
200 224 255
200 224 255
199 224 255
199 224 255
199 224 255
199 223 255
199 223 255
199 223 255
199 223 255
199 223 255
199 223 255
199 223 255
199 223 255
199 223 255
199 223 255
199 223 255
199 223 255
199 223 255
199 223 255
199 223 255
199 223 255
199 223 255
199 223 255
199 223 255
199 223 255
198 223 255
198 223 255
198 223 255
198 223 255
198 223 255
198 223 255
198 223 255
198 223 255
198 223 255
198 223 255
198 223 255
198 223 255
198 223 255
198 223 255
198 223 255
198 223 255
198 223 255
198 223 255
198 223 255
198 223 255
198 223 255
198 223 255
198 223 255
198 223 255
198 223 255
198 223 255
198 223 255
198 223 255
198 223 255
198 223 255
198 223 255
198 223 255
198 223 255
198 223 255
198 223 255
198 223 255
198 223 255
198 223 255
198 223 255
198 223 255
198 223 255
198 223 255
198 223 255
198 223 255
198 223 255
198 223 255
198 223 255
198 223 255
198 223 255
198 223 255
198 223 255
198 223 255
198 223 255
198 223 255
199 223 255
199 223 255
199 223 255
199 223 255
199 223 255
199 223 255
199 223 255
199 223 255
199 223 255
199 223 255
199 223 255
199 223 255
199 223 255
199 223 255
199 223 255
199 223 255
199 223 255
199 223 255
199 223 255
199 223 255
199 224 255
199 224 255
199 224 255
200 224 255
200 224 255
200 224 255
200 224 255
200 224 255
200 224 255
200 224 255
200 224 255
200 224 255
200 224 255
200 224 255
200 224 255
200 224 255
200 224 255
200 224 255
200 224 255
200 224 255
200 224 255
201 224 255
201 224 255
201 224 255
201 224 255
201 224 255
201 224 255
201 224 255
201 224 255
201 224 255
201 224 255
201 224 255
201 225 255
201 225 255
201 225 255
201 225 255
201 225 255
202 225 255
202 225 255
202 225 255
202 225 255
202 225 255
202 225 255
202 225 255
202 225 255
202 225 255
202 225 255
202 225 255
202 225 255
202 225 255
202 225 255
202 225 255
203 225 255
203 225 255
203 225 255
203 225 255
203 225 255
203 225 255
203 225 255
203 225 255
203 226 255
203 226 255
203 226 255
203 226 255
203 226 255
203 226 255
203 226 255
204 226 255
204 226 255
204 226 255
204 226 255
204 226 255
204 226 255
204 226 255
204 226 255
204 226 255
204 226 255
204 226 255
204 226 255
204 226 255
204 226 255
204 226 255
204 226 255
205 226 255
205 226 255
205 226 255
205 226 255
205 226 255
205 226 255
205 227 255
205 227 255
205 227 255
205 227 255
205 227 255
205 227 255
205 227 255
205 227 255
205 227 255
205 227 255
206 227 255
206 227 255
206 227 255
206 227 255
206 227 255
206 227 255
206 227 255
206 227 255
206 227 255
206 227 255
206 227 255
206 227 255
206 227 255
206 227 255
206 227 255
206 227 255
206 227 255
206 227 255
207 227 255
207 227 255
207 227 255
207 227 255
207 227 255
207 228 255
207 228 255
207 228 255
207 228 255
207 228 255
207 228 255
207 228 255
207 228 255
207 228 255
207 228 255
207 228 255
207 228 255
207 228 255
207 228 255
207 228 255
208 228 255
208 228 255
208 228 255
208 228 255
208 228 255
208 228 255
208 228 255
208 228 255
208 228 255
208 228 255
208 228 255
208 228 255
208 228 255
208 228 255
208 228 255
208 228 255
208 228 255
208 228 255
208 228 255
208 228 255
208 228 255
208 228 255
208 228 255
208 228 255
208 228 255
208 228 255
208 228 255
208 228 255
208 228 255
208 228 255
208 228 255
208 228 255
208 228 255
208 228 255
208 228 255
207 228 255
207 228 255
207 228 255
207 228 255
207 228 255
207 228 255
207 228 255
207 228 255
207 228 255
207 228 255
207 228 255
207 228 255
207 228 255
207 228 255
207 228 255
207 227 255
207 227 255
207 227 255
207 227 255
207 227 255
206 227 255
206 227 255
206 227 255
206 227 255
206 227 255
206 227 255
206 227 255
206 227 255
206 227 255
206 227 255
206 227 255
206 227 255
206 227 255
206 227 255
206 227 255
206 227 255
206 227 255
205 227 255
205 227 255
205 227 255
205 227 255
205 227 255
205 227 255
205 227 255
205 227 255
205 227 255
205 227 255
205 226 255
205 226 255
205 226 255
205 226 255
205 226 255
205 226 255
205 226 255
204 226 255
204 226 255
204 226 255
204 226 255
204 226 255
204 226 255
204 226 255
204 226 255
204 226 255
204 226 255
204 226 255
204 226 255
204 226 255
204 226 255
204 226 255
204 226 255
203 226 255
203 226 255
203 226 255
203 226 255
203 226 255
203 226 255
203 225 255
203 225 255
203 225 255
203 225 255
203 225 255
203 225 255
203 225 255
203 225 255
203 225 255
202 225 255
202 225 255
202 225 255
202 225 255
202 225 255
202 225 255
202 225 255
202 225 255
202 225 255
202 225 255
202 225 255
202 225 255
202 225 255
202 225 255
202 225 255
201 225 255
201 225 255
201 225 255
201 225 255
201 225 255
201 224 255
201 224 255
201 224 255
201 224 255
201 224 255
201 224 255
201 224 255
201 224 255
201 224 255
201 224 255
201 224 255
200 224 255
200 224 255
200 224 255
200 224 255
200 224 255
200 224 255
200 224 255
200 224 255
200 224 255
200 224 255
200 224 255
200 224 255
200 224 255
200 224 255
200 224 255
200 224 255
200 224 255
200 224 255
199 224 255
199 224 255
199 224 255
199 224 255
199 223 255
199 223 255
199 223 255
199 223 255
199 223 255
199 223 255
199 223 255
199 223 255
199 223 255
199 223 255
199 223 255
199 223 255
199 223 255
199 223 255
199 223 255
199 223 255
199 223 255
199 223 255
199 223 255
199 223 255
199 223 255
199 223 255
199 223 255
198 223 255
198 223 255
198 223 255
198 223 255
198 223 255
198 223 255
198 223 255
198 223 255
198 223 255
198 223 255
198 223 255
198 223 255
198 223 255
198 223 255
198 223 255
198 223 255
198 223 255
198 223 255
198 223 255
198 223 255
198 223 255
198 223 255
198 223 255
198 223 255
198 223 255
198 223 255
198 223 255
198 223 255
198 223 255
198 223 255
198 223 255
198 223 255
198 223 255
198 223 255
198 223 255
198 223 255
198 223 255
198 223 255
198 223 255
198 223 255
199 223 255
199 223 255
199 223 255
199 223 255
199 223 255
199 223 255
199 223 255
199 223 255
199 223 255
199 223 255
199 223 255
199 223 255
199 223 255
199 223 255
199 223 255
199 223 255
199 223 255
199 223 255
199 223 255
199 223 255
199 223 255
199 223 255
199 223 255
199 224 255
199 224 255
199 224 255
199 224 255
200 224 255
200 224 255
200 224 255
200 224 255
200 224 255
200 224 255
200 224 255
200 224 255
200 224 255
200 224 255
200 224 255
200 224 255
200 224 255
200 224 255
200 224 255
200 224 255
200 224 255
200 224 255
201 224 255
201 224 255
201 224 255
201 224 255
201 224 255
201 224 255
201 224 255
201 224 255
201 224 255
201 224 255
201 224 255
201 225 255
201 225 255
201 225 255
201 225 255
201 225 255
202 225 255
202 225 255
202 225 255
202 225 255
202 225 255
202 225 255
202 225 255
202 225 255
202 225 255
202 225 255
202 225 255
202 225 255
202 225 255
202 225 255
202 225 255
203 225 255
203 225 255
203 225 255
203 225 255
203 225 255
203 225 255
203 225 255
203 225 255
203 225 255
203 226 255
203 226 255
203 226 255
203 226 255
203 226 255
203 226 255
204 226 255
204 226 255
204 226 255
204 226 255
204 226 255
204 226 255
204 226 255
204 226 255
204 226 255
204 226 255
204 226 255
204 226 255
204 226 255
204 226 255
204 226 255
204 226 255
205 226 255
205 226 255
205 226 255
205 226 255
205 226 255
205 226 255
205 226 255
205 227 255
205 227 255
205 227 255
205 227 255
205 227 255
205 227 255
205 227 255
205 227 255
205 227 255
205 227 255
206 227 255
206 227 255
206 227 255
206 227 255
206 227 255
206 227 255
206 227 255
206 227 255
206 227 255
206 227 255
206 227 255
206 227 255
206 227 255
206 227 255
206 227 255
206 227 255
206 227 255
207 227 255
207 227 255
207 227 255
207 227 255
207 227 255
207 228 255
207 228 255
207 228 255
207 228 255
207 228 255
207 228 255
207 228 255
207 228 255
207 228 255
207 228 255
207 228 255
207 228 255
207 228 255
207 228 255
207 228 255
208 228 255
208 228 255
208 228 255
208 228 255
208 228 255
208 228 255
208 228 255
208 228 255
208 228 255
208 228 255
208 228 255
208 228 255
208 228 255
208 228 255
208 228 255
208 228 255
208 228 255
208 228 255
208 228 255
209 228 255
208 228 255
208 228 255
208 228 255
208 228 255
208 228 255
208 228 255
208 228 255
208 228 255
208 228 255
208 228 255
208 228 255
208 228 255
208 228 255
208 228 255
208 228 255
208 228 255
208 228 255
208 228 255
208 228 255
208 228 255
208 228 255
207 228 255
207 228 255
207 228 255
207 228 255
207 228 255
207 228 255
207 228 255
207 228 255
207 228 255
207 228 255
207 228 255
207 228 255
207 228 255
207 228 255
207 228 255
207 227 255
207 227 255
207 227 255
207 227 255
207 227 255
206 227 255
206 227 255
206 227 255
206 227 255
206 227 255
206 227 255
206 227 255
206 227 255
206 227 255
206 227 255
206 227 255
206 227 255
206 227 255
206 227 255
206 227 255
206 227 255
206 227 255
205 227 255
205 227 255
205 227 255
205 227 255
205 227 255
205 227 255
205 227 255
205 227 255
205 227 255
205 227 255
205 226 255
205 226 255
205 226 255
205 226 255
205 226 255
205 226 255
205 226 255
204 226 255
204 226 255
204 226 255
204 226 255
204 226 255
204 226 255
204 226 255
204 226 255
204 226 255
204 226 255
204 226 255
204 226 255
204 226 255
204 226 255
204 226 255
203 226 255
203 226 255
203 226 255
203 226 255
203 226 255
203 226 255
203 226 255
203 225 255
203 225 255
203 225 255
203 225 255
203 225 255
203 225 255
203 225 255
203 225 255
203 225 255
202 225 255
202 225 255
202 225 255
202 225 255
202 225 255
202 225 255
202 225 255
202 225 255
202 225 255
202 225 255
202 225 255
202 225 255
202 225 255
202 225 255
202 225 255
201 225 255
201 225 255
201 225 255
201 225 255
201 225 255
201 224 255
201 224 255
201 224 255
201 224 255
201 224 255
201 224 255
201 224 255
201 224 255
201 224 255
201 224 255
201 224 255
200 224 255
200 224 255
200 224 255
200 224 255
200 224 255
200 224 255
200 224 255
200 224 255
200 224 255
200 224 255
200 224 255
200 224 255
200 224 255
200 224 255
200 224 255
200 224 255
200 224 255
200 224 255
200 224 255
200 224 255
199 224 255
199 224 255
199 224 255
199 223 255
199 223 255
199 223 255
199 223 255
199 223 255
199 223 255
199 223 255
199 223 255
199 223 255
199 223 255
199 223 255
199 223 255
199 223 255
199 223 255
199 223 255
199 223 255
199 223 255
199 223 255
199 223 255
199 223 255
199 223 255
199 223 255
199 223 255
199 223 255
199 223 255
199 223 255
199 223 255
199 223 255
199 223 255
199 223 255
198 223 255
198 223 255
198 223 255
198 223 255
198 223 255
198 223 255
198 223 255
198 223 255
198 223 255
198 223 255
198 223 255
198 223 255
198 223 255
198 223 255
198 223 255
198 223 255
198 223 255
198 223 255
199 223 255
199 223 255
199 223 255
199 223 255
199 223 255
199 223 255
199 223 255
199 223 255
199 223 255
199 223 255
199 223 255
199 223 255
199 223 255
199 223 255
199 223 255
199 223 255
199 223 255
199 223 255
199 223 255
199 223 255
199 223 255
199 223 255
199 223 255
199 223 255
199 223 255
199 223 255
199 223 255
199 223 255
199 223 255
199 223 255
199 224 255
199 224 255
199 224 255
199 224 255
200 224 255
200 224 255
200 224 255
200 224 255
200 224 255
200 224 255
200 224 255
200 224 255
200 224 255
200 224 255
200 224 255
200 224 255
200 224 255
200 224 255
200 224 255
200 224 255
200 224 255
200 224 255
200 224 255
201 224 255
201 224 255
201 224 255
201 224 255
201 224 255
201 224 255
201 224 255
201 224 255
201 224 255
201 224 255
201 224 255
201 225 255
201 225 255
201 225 255
201 225 255
201 225 255
202 225 255
202 225 255
202 225 255
202 225 255
202 225 255
202 225 255
202 225 255
202 225 255
202 225 255
202 225 255
202 225 255
202 225 255
202 225 255
202 225 255
202 225 255
203 225 255
203 225 255
203 225 255
203 225 255
203 225 255
203 225 255
203 225 255
203 225 255
203 225 255
203 226 255
203 226 255
203 226 255
203 226 255
203 226 255
203 226 255
203 226 255
204 226 255
204 226 255
204 226 255
204 226 255
204 226 255
204 226 255
204 226 255
204 226 255
204 226 255
204 226 255
204 226 255
204 226 255
204 226 255
204 226 255
204 226 255
205 226 255
205 226 255
205 226 255
205 226 255
205 226 255
205 226 255
205 226 255
205 227 255
205 227 255
205 227 255
205 227 255
205 227 255
205 227 255
205 227 255
205 227 255
205 227 255
205 227 255
206 227 255
206 227 255
206 227 255
206 227 255
206 227 255
206 227 255
206 227 255
206 227 255
206 227 255
206 227 255
206 227 255
206 227 255
206 227 255
206 227 255
206 227 255
206 227 255
206 227 255
207 227 255
207 227 255
207 227 255
207 227 255
207 227 255
207 228 255
207 228 255
207 228 255
207 228 255
207 228 255
207 228 255
207 228 255
207 228 255
207 228 255
207 228 255
207 228 255
207 228 255
207 228 255
207 228 255
207 228 255
208 228 255
208 228 255
208 228 255
208 228 255
208 228 255
208 228 255
208 228 255
208 228 255
208 228 255
208 228 255
208 228 255
208 228 255
208 228 255
208 228 255
208 228 255
208 228 255
208 228 255
208 228 255
208 228 255
208 228 255
208 228 255
209 228 255
209 229 255
209 229 255
209 229 255
209 228 255
208 228 255
208 228 255
208 228 255
208 228 255
208 228 255
208 228 255
208 228 255
208 228 255
208 228 255
208 228 255
208 228 255
208 228 255
208 228 255
208 228 255
208 228 255
208 228 255
208 228 255
208 228 255
208 228 255
208 228 255
208 228 255
207 228 255
207 228 255
207 228 255
207 228 255
207 228 255
207 228 255
207 228 255
207 228 255
207 228 255
207 228 255
207 228 255
207 228 255
207 228 255
207 228 255
207 228 255
207 227 255
207 227 255
207 227 255
207 227 255
207 227 255
206 227 255
206 227 255
206 227 255
206 227 255
206 227 255
206 227 255
206 227 255
206 227 255
206 227 255
206 227 255
206 227 255
206 227 255
206 227 255
206 227 255
206 227 255
206 227 255
206 227 255
205 227 255
205 227 255
205 227 255
205 227 255
205 227 255
205 227 255
205 227 255
205 227 255
205 227 255
205 227 255
205 226 255
205 226 255
205 226 255
205 226 255
205 226 255
205 226 255
204 226 255
204 226 255
204 226 255
204 226 255
204 226 255
204 226 255
204 226 255
204 226 255
204 226 255
204 226 255
204 226 255
204 226 255
204 226 255
204 226 255
204 226 255
204 226 255
203 226 255
203 226 255
203 226 255
203 226 255
203 226 255
203 226 255
203 226 255
203 225 255
203 225 255
203 225 255
203 225 255
203 225 255
203 225 255
203 225 255
203 225 255
203 225 255
202 225 255
202 225 255
202 225 255
202 225 255
202 225 255
202 225 255
202 225 255
202 225 255
202 225 255
202 225 255
202 225 255
202 225 255
202 225 255
202 225 255
202 225 255
201 225 255
201 225 255
201 225 255
201 225 255
201 225 255
201 224 255
201 224 255
201 224 255
201 224 255
201 224 255
201 224 255
201 224 255
201 224 255
201 224 255
201 224 255
201 224 255
201 224 255
200 224 255
200 224 255
200 224 255
200 224 255
200 224 255
200 224 255
200 224 255
200 224 255
200 224 255
200 224 255
200 224 255
200 224 255
200 224 255
200 224 255
200 224 255
200 224 255
200 224 255
200 224 255
200 224 255
200 224 255
199 224 255
199 224 255
199 224 255
199 224 255
199 223 255
199 223 255
199 223 255
199 223 255
199 223 255
199 223 255
199 223 255
199 223 255
199 223 255
199 223 255
199 223 255
199 223 255
199 223 255
199 223 255
199 223 255
199 223 255
199 223 255
199 223 255
199 223 255
199 223 255
199 223 255
199 223 255
199 223 255
199 223 255
199 223 255
199 223 255
199 223 255
199 223 255
199 223 255
199 223 255
199 223 255
199 223 255
199 223 255
199 223 255
199 223 255
199 223 255
199 223 255
199 223 255
199 223 255
199 223 255
199 223 255
199 223 255
199 223 255
199 223 255
199 223 255
199 223 255
199 223 255
199 223 255
199 223 255
199 223 255
199 223 255
199 223 255
199 223 255
199 223 255
199 223 255
199 223 255
199 223 255
199 223 255
199 223 255
199 223 255
199 223 255
199 223 255
199 223 255
199 223 255
199 223 255
199 223 255
199 223 255
199 223 255
199 224 255
199 224 255
199 224 255
199 224 255
200 224 255
200 224 255
200 224 255
200 224 255
200 224 255
200 224 255
200 224 255
200 224 255
200 224 255
200 224 255
200 224 255
200 224 255
200 224 255
200 224 255
200 224 255
200 224 255
200 224 255
200 224 255
200 224 255
200 224 255
201 224 255
201 224 255
201 224 255
201 224 255
201 224 255
201 224 255
201 224 255
201 224 255
201 224 255
201 224 255
201 224 255
201 224 255
201 225 255
201 225 255
201 225 255
201 225 255
201 225 255
202 225 255
202 225 255
202 225 255
202 225 255
202 225 255
202 225 255
202 225 255
202 225 255
202 225 255
202 225 255
202 225 255
202 225 255
202 225 255
202 225 255
202 225 255
203 225 255
203 225 255
203 225 255
203 225 255
203 225 255
203 225 255
203 225 255
203 225 255
203 225 255
203 226 255
203 226 255
203 226 255
203 226 255
203 226 255
203 226 255
203 226 255
204 226 255
204 226 255
204 226 255
204 226 255
204 226 255
204 226 255
204 226 255
204 226 255
204 226 255
204 226 255
204 226 255
204 226 255
204 226 255
204 226 255
204 226 255
205 226 255
205 226 255
205 226 255
205 226 255
205 226 255
205 226 255
205 226 255
205 227 255
205 227 255
205 227 255
205 227 255
205 227 255
205 227 255
205 227 255
205 227 255
205 227 255
205 227 255
206 227 255
206 227 255
206 227 255
206 227 255
206 227 255
206 227 255
206 227 255
206 227 255
206 227 255
206 227 255
206 227 255
206 227 255
206 227 255
206 227 255
206 227 255
206 227 255
206 227 255
207 227 255
207 227 255
207 227 255
207 227 255
207 227 255
207 228 255
207 228 255
207 228 255
207 228 255
207 228 255
207 228 255
207 228 255
207 228 255
207 228 255
207 228 255
207 228 255
207 228 255
207 228 255
207 228 255
207 228 255
208 228 255
208 228 255
208 228 255
208 228 255
208 228 255
208 228 255
208 228 255
208 228 255
208 228 255
208 228 255
208 228 255
208 228 255
208 228 255
208 228 255
208 228 255
208 228 255
208 228 255
208 228 255
208 228 255
208 228 255
208 228 255
209 228 255
209 229 255
209 229 255
209 229 255
209 229 255
209 229 255
209 229 255
209 229 255
209 229 255
209 229 255
209 228 255
208 228 255
208 228 255
208 228 255
208 228 255
208 228 255
208 228 255
208 228 255
208 228 255
208 228 255
208 228 255
208 228 255
208 228 255
208 228 255
208 228 255
208 228 255
208 228 255
208 228 255
208 228 255
208 228 255
208 228 255
208 228 255
207 228 255
207 228 255
207 228 255
207 228 255
207 228 255
207 228 255
207 228 255
207 228 255
207 228 255
207 228 255
207 228 255
207 228 255
207 228 255
207 228 255
207 228 255
207 227 255
207 227 255
207 227 255
207 227 255
206 227 255
206 227 255
206 227 255
206 227 255
206 227 255
206 227 255
206 227 255
206 227 255
206 227 255
206 227 255
206 227 255
206 227 255
206 227 255
206 227 255
206 227 255
206 227 255
206 227 255
206 227 255
205 227 255
205 227 255
205 227 255
205 227 255
205 227 255
205 227 255
205 227 255
205 227 255
205 227 255
205 227 255
205 226 255
205 226 255
205 226 255
205 226 255
205 226 255
205 226 255
204 226 255
204 226 255
204 226 255
204 226 255
204 226 255
204 226 255
204 226 255
204 226 255
204 226 255
204 226 255
204 226 255
204 226 255
204 226 255
204 226 255
204 226 255
204 226 255
203 226 255
203 226 255
203 226 255
203 226 255
203 226 255
203 226 255
203 226 255
203 225 255
203 225 255
203 225 255
203 225 255
203 225 255
203 225 255
203 225 255
203 225 255
202 225 255
202 225 255
202 225 255
202 225 255
202 225 255
202 225 255
202 225 255
202 225 255
202 225 255
202 225 255
202 225 255
202 225 255
202 225 255
202 225 255
202 225 255
202 225 255
201 225 255
201 225 255
201 225 255
201 225 255
201 225 255
201 224 255
201 224 255
201 224 255
201 224 255
201 224 255
201 224 255
201 224 255
201 224 255
201 224 255
201 224 255
201 224 255
201 224 255
200 224 255
200 224 255
200 224 255
200 224 255
200 224 255
200 224 255
200 224 255
200 224 255
200 224 255
200 224 255
200 224 255
200 224 255
200 224 255
200 224 255
200 224 255
200 224 255
200 224 255
200 224 255
200 224 255
200 224 255
200 224 255
200 224 255
199 224 255
199 224 255
199 224 255
199 224 255
199 224 255
199 223 255
199 223 255
199 223 255
199 223 255
199 223 255
199 223 255
199 223 255
199 223 255
199 223 255
199 223 255
199 223 255
199 223 255
199 223 255
199 223 255
199 223 255
199 223 255
199 223 255
199 223 255
199 223 255
199 223 255
199 223 255
199 223 255
199 223 255
199 223 255
199 223 255
199 223 255
199 223 255
199 223 255
199 223 255
199 223 255
199 223 255
199 223 255
199 223 255
199 223 255
199 223 255
199 223 255
199 223 255
199 223 255
199 223 255
199 223 255
199 223 255
199 223 255
199 223 255
199 223 255
199 223 255
199 223 255
199 223 255
199 223 255
199 223 255
199 223 255
199 223 255
199 223 255
199 223 255
199 223 255
199 223 255
199 223 255
199 223 255
199 224 255
199 224 255
199 224 255
199 224 255
200 224 255
200 224 255
200 224 255
200 224 255
200 224 255
200 224 255
200 224 255
200 224 255
200 224 255
200 224 255
200 224 255
200 224 255
200 224 255
200 224 255
200 224 255
200 224 255
200 224 255
200 224 255
200 224 255
200 224 255
200 224 255
201 224 255
201 224 255
201 224 255
201 224 255
201 224 255
201 224 255
201 224 255
201 224 255
201 224 255
201 224 255
201 224 255
201 224 255
201 224 255
201 225 255
201 225 255
201 225 255
201 225 255
201 225 255
202 225 255
202 225 255
202 225 255
202 225 255
202 225 255
202 225 255
202 225 255
202 225 255
202 225 255
202 225 255
202 225 255
202 225 255
202 225 255
202 225 255
202 225 255
203 225 255
203 225 255
203 225 255
203 225 255
203 225 255
203 225 255
203 225 255
203 225 255
203 225 255
203 226 255
203 226 255
203 226 255
203 226 255
203 226 255
203 226 255
203 226 255
204 226 255
204 226 255
204 226 255
204 226 255
204 226 255
204 226 255
204 226 255
204 226 255
204 226 255
204 226 255
204 226 255
204 226 255
204 226 255
204 226 255
204 226 255
204 226 255
205 226 255
205 226 255
205 226 255
205 226 255
205 226 255
205 226 255
205 227 255
205 227 255
205 227 255
205 227 255
205 227 255
205 227 255
205 227 255
205 227 255
205 227 255
205 227 255
206 227 255
206 227 255
206 227 255
206 227 255
206 227 255
206 227 255
206 227 255
206 227 255
206 227 255
206 227 255
206 227 255
206 227 255
206 227 255
206 227 255
206 227 255
206 227 255
206 227 255
206 227 255
207 227 255
207 227 255
207 227 255
207 227 255
207 228 255
207 228 255
207 228 255
207 228 255
207 228 255
207 228 255
207 228 255
207 228 255
207 228 255
207 228 255
207 228 255
207 228 255
207 228 255
207 228 255
207 228 255
208 228 255
208 228 255
208 228 255
208 228 255
208 228 255
208 228 255
208 228 255
208 228 255
208 228 255
208 228 255
208 228 255
208 228 255
208 228 255
208 228 255
208 228 255
208 228 255
208 228 255
208 228 255
208 228 255
208 228 255
208 228 255
209 228 255
209 229 255
209 229 255
209 229 255
209 229 255
209 229 255
209 229 255
209 229 255
209 229 255
209 229 255
209 229 255
209 229 255
209 229 255
209 229 255
209 229 255
209 229 255
209 228 255
209 228 255
208 228 255
208 228 255
208 228 255
208 228 255
208 228 255
208 228 255
208 228 255
208 228 255
208 228 255
208 228 255
208 228 255
208 228 255
208 228 255
208 228 255
208 228 255
208 228 255
208 228 255
208 228 255
208 228 255
208 228 255
208 228 255
207 228 255
207 228 255
207 228 255
207 228 255
207 228 255
207 228 255
207 228 255
207 228 255
207 228 255
207 228 255
207 228 255
207 228 255
207 228 255
207 228 255
207 227 255
207 227 255
207 227 255
207 227 255
206 227 255
206 227 255
206 227 255
206 227 255
206 227 255
206 227 255
206 227 255
206 227 255
206 227 255
206 227 255
206 227 255
206 227 255
206 227 255
206 227 255
206 227 255
206 227 255
206 227 255
206 227 255
205 227 255
205 227 255
205 227 255
205 227 255
205 227 255
205 227 255
205 227 255
205 227 255
205 227 255
205 227 255
205 226 255
205 226 255
205 226 255
205 226 255
205 226 255
205 226 255
204 226 255
204 226 255
204 226 255
204 226 255
204 226 255
204 226 255
204 226 255
204 226 255
204 226 255
204 226 255
204 226 255
204 226 255
204 226 255
204 226 255
204 226 255
204 226 255
203 226 255
203 226 255
203 226 255
203 226 255
203 226 255
203 226 255
203 226 255
203 225 255
203 225 255
203 225 255
203 225 255
203 225 255
203 225 255
203 225 255
203 225 255
202 225 255
202 225 255
202 225 255
202 225 255
202 225 255
202 225 255
202 225 255
202 225 255
202 225 255
202 225 255
202 225 255
202 225 255
202 225 255
202 225 255
202 225 255
202 225 255
201 225 255
201 225 255
201 225 255
201 225 255
201 225 255
201 224 255
201 224 255
201 224 255
201 224 255
201 224 255
201 224 255
201 224 255
201 224 255
201 224 255
201 224 255
201 224 255
201 224 255
201 224 255
200 224 255
200 224 255
200 224 255
200 224 255
200 224 255
200 224 255
200 224 255
200 224 255
200 224 255
200 224 255
200 224 255
200 224 255
200 224 255
200 224 255
200 224 255
200 224 255
200 224 255
200 224 255
200 224 255
200 224 255
200 224 255
200 224 255
200 224 255
199 224 255
199 224 255
199 224 255
199 224 255
199 224 255
199 224 255
199 223 255
199 223 255
199 223 255
199 223 255
199 223 255
199 223 255
199 223 255
199 223 255
199 223 255
199 223 255
199 223 255
199 223 255
199 223 255
199 223 255
199 223 255
199 223 255
199 223 255
199 223 255
199 223 255
199 223 255
199 223 255
199 223 255
199 223 255
199 223 255
199 223 255
199 223 255
199 223 255
199 223 255
199 223 255
199 223 255
199 223 255
199 223 255
199 223 255
199 223 255
199 223 255
199 223 255
199 223 255
199 223 255
199 223 255
199 223 255
199 223 255
199 223 255
199 223 255
199 223 255
199 224 255
199 224 255
199 224 255
199 224 255
199 224 255
199 224 255
200 224 255
200 224 255
200 224 255
200 224 255
200 224 255
200 224 255
200 224 255
200 224 255
200 224 255
200 224 255
200 224 255
200 224 255
200 224 255
200 224 255
200 224 255
200 224 255
200 224 255
200 224 255
200 224 255
200 224 255
200 224 255
200 224 255
200 224 255
201 224 255
201 224 255
201 224 255
201 224 255
201 224 255
201 224 255
201 224 255
201 224 255
201 224 255
201 224 255
201 224 255
201 224 255
201 224 255
201 225 255
201 225 255
201 225 255
201 225 255
201 225 255
202 225 255
202 225 255
202 225 255
202 225 255
202 225 255
202 225 255
202 225 255
202 225 255
202 225 255
202 225 255
202 225 255
202 225 255
202 225 255
202 225 255
202 225 255
203 225 255
203 225 255
203 225 255
203 225 255
203 225 255
203 225 255
203 225 255
203 225 255
203 225 255
203 226 255
203 226 255
203 226 255
203 226 255
203 226 255
203 226 255
203 226 255
204 226 255
204 226 255
204 226 255
204 226 255
204 226 255
204 226 255
204 226 255
204 226 255
204 226 255
204 226 255
204 226 255
204 226 255
204 226 255
204 226 255
204 226 255
204 226 255
205 226 255
205 226 255
205 226 255
205 226 255
205 226 255
205 226 255
205 227 255
205 227 255
205 227 255
205 227 255
205 227 255
205 227 255
205 227 255
205 227 255
205 227 255
205 227 255
206 227 255
206 227 255
206 227 255
206 227 255
206 227 255
206 227 255
206 227 255
206 227 255
206 227 255
206 227 255
206 227 255
206 227 255
206 227 255
206 227 255
206 227 255
206 227 255
206 227 255
207 227 255
207 227 255
207 227 255
207 227 255
207 227 255
207 228 255
207 228 255
207 228 255
207 228 255
207 228 255
207 228 255
207 228 255
207 228 255
207 228 255
207 228 255
207 228 255
207 228 255
207 228 255
207 228 255
208 228 255
208 228 255
208 228 255
208 228 255
208 228 255
208 228 255
208 228 255
208 228 255
208 228 255
208 228 255
208 228 255
208 228 255
208 228 255
208 228 255
208 228 255
208 228 255
208 228 255
208 228 255
208 228 255
208 228 255
208 228 255
209 228 255
209 228 255
209 229 255
209 229 255
209 229 255
209 229 255
209 229 255
209 229 255
209 229 255
209 229 255
209 229 255
209 229 255
209 229 255
209 229 255
209 229 255
209 229 255
209 229 255
209 229 255
209 229 255
209 229 255
209 229 255
209 229 255
209 229 255
209 228 255
209 228 255
208 228 255
208 228 255
208 228 255
208 228 255
208 228 255
208 228 255
208 228 255
208 228 255
208 228 255
208 228 255
208 228 255
208 228 255
208 228 255
208 228 255
208 228 255
208 228 255
208 228 255
208 228 255
208 228 255
208 228 255
208 228 255
207 228 255
207 228 255
207 228 255
207 228 255
207 228 255
207 228 255
207 228 255
207 228 255
207 228 255
207 228 255
207 228 255
207 228 255
207 228 255
207 228 255
207 227 255
207 227 255
207 227 255
207 227 255
206 227 255
206 227 255
206 227 255
206 227 255
206 227 255
206 227 255
206 227 255
206 227 255
206 227 255
206 227 255
206 227 255
206 227 255
206 227 255
206 227 255
206 227 255
206 227 255
206 227 255
206 227 255
205 227 255
205 227 255
205 227 255
205 227 255
205 227 255
205 227 255
205 227 255
205 227 255
205 227 255
205 226 255
205 226 255
205 226 255
205 226 255
205 226 255
205 226 255
205 226 255
204 226 255
204 226 255
204 226 255
204 226 255
204 226 255
204 226 255
204 226 255
204 226 255
204 226 255
204 226 255
204 226 255
204 226 255
204 226 255
204 226 255
204 226 255
204 226 255
203 226 255
203 226 255
203 226 255
203 226 255
203 226 255
203 226 255
203 226 255
203 225 255
203 225 255
203 225 255
203 225 255
203 225 255
203 225 255
203 225 255
203 225 255
202 225 255
202 225 255
202 225 255
202 225 255
202 225 255
202 225 255
202 225 255
202 225 255
202 225 255
202 225 255
202 225 255
202 225 255
202 225 255
202 225 255
202 225 255
202 225 255
202 225 255
201 225 255
201 225 255
201 225 255
201 225 255
201 225 255
201 224 255
201 224 255
201 224 255
201 224 255
201 224 255
201 224 255
201 224 255
201 224 255
201 224 255
201 224 255
201 224 255
201 224 255
201 224 255
200 224 255
200 224 255
200 224 255
200 224 255
200 224 255
200 224 255
200 224 255
200 224 255
200 224 255
200 224 255
200 224 255
200 224 255
200 224 255
200 224 255
200 224 255
200 224 255
200 224 255
200 224 255
200 224 255
200 224 255
200 224 255
200 224 255
200 224 255
200 224 255
200 224 255
200 224 255
200 224 255
199 224 255
199 224 255
199 224 255
199 224 255
199 224 255
199 224 255
199 224 255
199 223 255
199 223 255
199 223 255
199 223 255
199 223 255
199 223 255
199 223 255
199 223 255
199 223 255
199 223 255
199 223 255
199 223 255
199 223 255
199 223 255
199 223 255
199 223 255
199 223 255
199 223 255
199 223 255
199 223 255
199 223 255
199 223 255
199 223 255
199 223 255
199 223 255
199 224 255
199 224 255
199 224 255
199 224 255
199 224 255
199 224 255
199 224 255
199 224 255
199 224 255
200 224 255
200 224 255
200 224 255
200 224 255
200 224 255
200 224 255
200 224 255
200 224 255
200 224 255
200 224 255
200 224 255
200 224 255
200 224 255
200 224 255
200 224 255
200 224 255
200 224 255
200 224 255
200 224 255
200 224 255
200 224 255
200 224 255
200 224 255
200 224 255
200 224 255
200 224 255
201 224 255
201 224 255
201 224 255
201 224 255
201 224 255
201 224 255
201 224 255
201 224 255
201 224 255
201 224 255
201 224 255
201 224 255
201 224 255
201 225 255
201 225 255
201 225 255
201 225 255
201 225 255
202 225 255
202 225 255
202 225 255
202 225 255
202 225 255
202 225 255
202 225 255
202 225 255
202 225 255
202 225 255
202 225 255
202 225 255
202 225 255
202 225 255
202 225 255
202 225 255
203 225 255
203 225 255
203 225 255
203 225 255
203 225 255
203 225 255
203 225 255
203 225 255
203 225 255
203 226 255
203 226 255
203 226 255
203 226 255
203 226 255
203 226 255
203 226 255
204 226 255
204 226 255
204 226 255
204 226 255
204 226 255
204 226 255
204 226 255
204 226 255
204 226 255
204 226 255
204 226 255
204 226 255
204 226 255
204 226 255
204 226 255
204 226 255
205 226 255
205 226 255
205 226 255
205 226 255
205 226 255
205 226 255
205 227 255
205 227 255
205 227 255
205 227 255
205 227 255
205 227 255
205 227 255
205 227 255
205 227 255
205 227 255
206 227 255
206 227 255
206 227 255
206 227 255
206 227 255
206 227 255
206 227 255
206 227 255
206 227 255
206 227 255
206 227 255
206 227 255
206 227 255
206 227 255
206 227 255
206 227 255
206 227 255
206 227 255
207 227 255
207 227 255
207 227 255
207 227 255
207 228 255
207 228 255
207 228 255
207 228 255
207 228 255
207 228 255
207 228 255
207 228 255
207 228 255
207 228 255
207 228 255
207 228 255
207 228 255
207 228 255
208 228 255
208 228 255
208 228 255
208 228 255
208 228 255
208 228 255
208 228 255
208 228 255
208 228 255
208 228 255
208 228 255
208 228 255
208 228 255
208 228 255
208 228 255
208 228 255
208 228 255
208 228 255
208 228 255
208 228 255
208 228 255
209 228 255
209 228 255
209 229 255
209 229 255
209 229 255
209 229 255
209 229 255
209 229 255
209 229 255
209 229 255
209 229 255
209 229 255
209 229 255
209 229 255
209 229 255
209 229 255
209 229 255
209 229 255
209 229 255
209 229 255
209 229 255
209 229 255
209 229 255
209 229 255
209 229 255
209 229 255
209 229 255
209 229 255
209 229 255
209 229 255
209 228 255
208 228 255
208 228 255
208 228 255
208 228 255
208 228 255
208 228 255
208 228 255
208 228 255
208 228 255
208 228 255
208 228 255
208 228 255
208 228 255
208 228 255
208 228 255
208 228 255
208 228 255
208 228 255
208 228 255
208 228 255
208 228 255
207 228 255
207 228 255
207 228 255
207 228 255
207 228 255
207 228 255
207 228 255
207 228 255
207 228 255
207 228 255
207 228 255
207 228 255
207 228 255
207 228 255
207 227 255
207 227 255
207 227 255
207 227 255
206 227 255
206 227 255
206 227 255
206 227 255
206 227 255
206 227 255
206 227 255
206 227 255
206 227 255
206 227 255
206 227 255
206 227 255
206 227 255
206 227 255
206 227 255
206 227 255
206 227 255
206 227 255
205 227 255
205 227 255
205 227 255
205 227 255
205 227 255
205 227 255
205 227 255
205 227 255
205 227 255
205 227 255
205 226 255
205 226 255
205 226 255
205 226 255
205 226 255
205 226 255
204 226 255
204 226 255
204 226 255
204 226 255
204 226 255
204 226 255
204 226 255
204 226 255
204 226 255
204 226 255
204 226 255
204 226 255
204 226 255
204 226 255
204 226 255
204 226 255
203 226 255
203 226 255
203 226 255
203 226 255
203 226 255
203 226 255
203 226 255
203 225 255
203 225 255
203 225 255
203 225 255
203 225 255
203 225 255
203 225 255
203 225 255
203 225 255
202 225 255
202 225 255
202 225 255
202 225 255
202 225 255
202 225 255
202 225 255
202 225 255
202 225 255
202 225 255
202 225 255
202 225 255
202 225 255
202 225 255
202 225 255
202 225 255
201 225 255
201 225 255
201 225 255
201 225 255
201 225 255
201 225 255
201 224 255
201 224 255
201 224 255
201 224 255
201 224 255
201 224 255
201 224 255
201 224 255
201 224 255
201 224 255
201 224 255
201 224 255
201 224 255
200 224 255
200 224 255
200 224 255
200 224 255
200 224 255
200 224 255
200 224 255
200 224 255
200 224 255
200 224 255
200 224 255
200 224 255
200 224 255
200 224 255
200 224 255
200 224 255
200 224 255
200 224 255
200 224 255
200 224 255
200 224 255
200 224 255
200 224 255
200 224 255
200 224 255
200 224 255
200 224 255
200 224 255
200 224 255
200 224 255
200 224 255
200 224 255
200 224 255
200 224 255
199 224 255
199 224 255
199 224 255
199 224 255
199 224 255
199 224 255
199 224 255
199 224 255
199 224 255
199 224 255
199 224 255
199 224 255
199 224 255
199 224 255
199 224 255
199 224 255
199 224 255
199 224 255
200 224 255
200 224 255
200 224 255
200 224 255
200 224 255
200 224 255
200 224 255
200 224 255
200 224 255
200 224 255
200 224 255
200 224 255
200 224 255
200 224 255
200 224 255
200 224 255
200 224 255
200 224 255
200 224 255
200 224 255
200 224 255
200 224 255
200 224 255
200 224 255
200 224 255
200 224 255
200 224 255
200 224 255
200 224 255
200 224 255
200 224 255
200 224 255
200 224 255
200 224 255
201 224 255
201 224 255
201 224 255
201 224 255
201 224 255
201 224 255
201 224 255
201 224 255
201 224 255
201 224 255
201 224 255
201 224 255
201 224 255
201 225 255
201 225 255
201 225 255
201 225 255
201 225 255
201 225 255
202 225 255
202 225 255
202 225 255
202 225 255
202 225 255
202 225 255
202 225 255
202 225 255
202 225 255
202 225 255
202 225 255
202 225 255
202 225 255
202 225 255
202 225 255
202 225 255
203 225 255
203 225 255
203 225 255
203 225 255
203 225 255
203 225 255
203 225 255
203 225 255
203 225 255
203 226 255
203 226 255
203 226 255
203 226 255
203 226 255
203 226 255
203 226 255
204 226 255
204 226 255
204 226 255
204 226 255
204 226 255
204 226 255
204 226 255
204 226 255
204 226 255
204 226 255
204 226 255
204 226 255
204 226 255
204 226 255
204 226 255
204 226 255
205 226 255
205 226 255
205 226 255
205 226 255
205 226 255
205 226 255
205 227 255
205 227 255
205 227 255
205 227 255
205 227 255
205 227 255
205 227 255
205 227 255
205 227 255
205 227 255
206 227 255
206 227 255
206 227 255
206 227 255
206 227 255
206 227 255
206 227 255
206 227 255
206 227 255
206 227 255
206 227 255
206 227 255
206 227 255
206 227 255
206 227 255
206 227 255
206 227 255
206 227 255
207 227 255
207 227 255
207 227 255
207 227 255
207 228 255
207 228 255
207 228 255
207 228 255
207 228 255
207 228 255
207 228 255
207 228 255
207 228 255
207 228 255
207 228 255
207 228 255
207 228 255
207 228 255
208 228 255
208 228 255
208 228 255
208 228 255
208 228 255
208 228 255
208 228 255
208 228 255
208 228 255
208 228 255
208 228 255
208 228 255
208 228 255
208 228 255
208 228 255
208 228 255
208 228 255
208 228 255
208 228 255
208 228 255
208 228 255
209 228 255
209 229 255
209 229 255
209 229 255
209 229 255
209 229 255
209 229 255
209 229 255
209 229 255
209 229 255
209 229 255
209 229 255
209 229 255
209 229 255
209 229 255
209 229 255
209 229 255
209 229 255
209 229 255
209 229 255
209 229 255
209 229 255
209 229 255
209 229 255
209 229 255
209 229 255
209 229 255
209 229 255
209 229 255
209 229 255
209 229 255
209 229 255
209 229 255
209 229 255
209 229 255
209 229 255
209 228 255
209 228 255
208 228 255
208 228 255
208 228 255
208 228 255
208 228 255
208 228 255
208 228 255
208 228 255
208 228 255
208 228 255
208 228 255
208 228 255
208 228 255
208 228 255
208 228 255
208 228 255
208 228 255
208 228 255
208 228 255
208 228 255
207 228 255
207 228 255
207 228 255
207 228 255
207 228 255
207 228 255
207 228 255
207 228 255
207 228 255
207 228 255
207 228 255
207 228 255
207 228 255
207 228 255
207 227 255
207 227 255
207 227 255
207 227 255
206 227 255
206 227 255
206 227 255
206 227 255
206 227 255
206 227 255
206 227 255
206 227 255
206 227 255
206 227 255
206 227 255
206 227 255
206 227 255
206 227 255
206 227 255
206 227 255
206 227 255
206 227 255
205 227 255
205 227 255
205 227 255
205 227 255
205 227 255
205 227 255
205 227 255
205 227 255
205 227 255
205 227 255
205 226 255
205 226 255
205 226 255
205 226 255
205 226 255
205 226 255
204 226 255
204 226 255
204 226 255
204 226 255
204 226 255
204 226 255
204 226 255
204 226 255
204 226 255
204 226 255
204 226 255
204 226 255
204 226 255
204 226 255
204 226 255
204 226 255
203 226 255
203 226 255
203 226 255
203 226 255
203 226 255
203 226 255
203 226 255
203 225 255
203 225 255
203 225 255
203 225 255
203 225 255
203 225 255
203 225 255
203 225 255
203 225 255
202 225 255
202 225 255
202 225 255
202 225 255
202 225 255
202 225 255
202 225 255
202 225 255
202 225 255
202 225 255
202 225 255
202 225 255
202 225 255
202 225 255
202 225 255
202 225 255
202 225 255
201 225 255
201 225 255
201 225 255
201 225 255
201 225 255
201 224 255
201 224 255
201 224 255
201 224 255
201 224 255
201 224 255
201 224 255
201 224 255
201 224 255
201 224 255
201 224 255
201 224 255
201 224 255
201 224 255
201 224 255
200 224 255
200 224 255
200 224 255
200 224 255
200 224 255
200 224 255
200 224 255
200 224 255
200 224 255
200 224 255
200 224 255
200 224 255
200 224 255
200 224 255
200 224 255
200 224 255
200 224 255
200 224 255
200 224 255
200 224 255
200 224 255
200 224 255
200 224 255
200 224 255
200 224 255
200 224 255
200 224 255
200 224 255
200 224 255
200 224 255
200 224 255
200 224 255
200 224 255
200 224 255
200 224 255
200 224 255
200 224 255
200 224 255
200 224 255
200 224 255
200 224 255
200 224 255
200 224 255
200 224 255
200 224 255
200 224 255
200 224 255
200 224 255
200 224 255
200 224 255
200 224 255
200 224 255
200 224 255
200 224 255
200 224 255
200 224 255
200 224 255
200 224 255
200 224 255
200 224 255
200 224 255
200 224 255
200 224 255
200 224 255
200 224 255
200 224 255
200 224 255
200 224 255
200 224 255
200 224 255
200 224 255
200 224 255
200 224 255
200 224 255
200 224 255
200 224 255
201 224 255
201 224 255
201 224 255
201 224 255
201 224 255
201 224 255
201 224 255
201 224 255
201 224 255
201 224 255
201 224 255
201 224 255
201 224 255
201 224 255
201 224 255
201 225 255
201 225 255
201 225 255
201 225 255
201 225 255
202 225 255
202 225 255
202 225 255
202 225 255
202 225 255
202 225 255
202 225 255
202 225 255
202 225 255
202 225 255
202 225 255
202 225 255
202 225 255
202 225 255
202 225 255
202 225 255
202 225 255
203 225 255
203 225 255
203 225 255
203 225 255
203 225 255
203 225 255
203 225 255
203 225 255
203 225 255
203 226 255
203 226 255
203 226 255
203 226 255
203 226 255
203 226 255
203 226 255
204 226 255
204 226 255
204 226 255
204 226 255
204 226 255
204 226 255
204 226 255
204 226 255
204 226 255
204 226 255
204 226 255
204 226 255
204 226 255
204 226 255
204 226 255
204 226 255
205 226 255
205 226 255
205 226 255
205 226 255
205 226 255
205 226 255
205 227 255
205 227 255
205 227 255
205 227 255
205 227 255
205 227 255
205 227 255
205 227 255
205 227 255
205 227 255
206 227 255
206 227 255
206 227 255
206 227 255
206 227 255
206 227 255
206 227 255
206 227 255
206 227 255
206 227 255
206 227 255
206 227 255
206 227 255
206 227 255
206 227 255
206 227 255
206 227 255
206 227 255
207 227 255
207 227 255
207 227 255
207 227 255
207 228 255
207 228 255
207 228 255
207 228 255
207 228 255
207 228 255
207 228 255
207 228 255
207 228 255
207 228 255
207 228 255
207 228 255
207 228 255
207 228 255
208 228 255
208 228 255
208 228 255
208 228 255
208 228 255
208 228 255
208 228 255
208 228 255
208 228 255
208 228 255
208 228 255
208 228 255
208 228 255
208 228 255
208 228 255
208 228 255
208 228 255
208 228 255
208 228 255
208 228 255
209 228 255
209 228 255
209 229 255
209 229 255
209 229 255
209 229 255
209 229 255
209 229 255
209 229 255
209 229 255
209 229 255
209 229 255
209 229 255
209 229 255
209 229 255
209 229 255
209 229 255
209 229 255
209 229 255
209 229 255
209 229 255
210 229 255
209 229 255
209 229 255
209 229 255
209 229 255
209 229 255
209 229 255
209 229 255
209 229 255
209 229 255
209 229 255
209 229 255
209 229 255
209 229 255
209 229 255
209 229 255
209 229 255
209 229 255
209 229 255
209 229 255
209 229 255
209 229 255
209 228 255
209 228 255
208 228 255
208 228 255
208 228 255
208 228 255
208 228 255
208 228 255
208 228 255
208 228 255
208 228 255
208 228 255
208 228 255
208 228 255
208 228 255
208 228 255
208 228 255
208 228 255
208 228 255
208 228 255
208 228 255
208 228 255
207 228 255
207 228 255
207 228 255
207 228 255
207 228 255
207 228 255
207 228 255
207 228 255
207 228 255
207 228 255
207 228 255
207 228 255
207 228 255
207 228 255
207 227 255
207 227 255
207 227 255
207 227 255
207 227 255
206 227 255
206 227 255
206 227 255
206 227 255
206 227 255
206 227 255
206 227 255
206 227 255
206 227 255
206 227 255
206 227 255
206 227 255
206 227 255
206 227 255
206 227 255
206 227 255
206 227 255
205 227 255
205 227 255
205 227 255
205 227 255
205 227 255
205 227 255
205 227 255
205 227 255
205 227 255
205 227 255
205 226 255
205 226 255
205 226 255
205 226 255
205 226 255
205 226 255
204 226 255
204 226 255
204 226 255
204 226 255
204 226 255
204 226 255
204 226 255
204 226 255
204 226 255
204 226 255
204 226 255
204 226 255
204 226 255
204 226 255
204 226 255
204 226 255
203 226 255
203 226 255
203 226 255
203 226 255
203 226 255
203 226 255
203 226 255
203 225 255
203 225 255
203 225 255
203 225 255
203 225 255
203 225 255
203 225 255
203 225 255
203 225 255
202 225 255
202 225 255
202 225 255
202 225 255
202 225 255
202 225 255
202 225 255
202 225 255
202 225 255
202 225 255
202 225 255
202 225 255
202 225 255
202 225 255
202 225 255
202 225 255
202 225 255
202 225 255
201 225 255
201 225 255
201 225 255
201 225 255
201 225 255
201 224 255
201 224 255
201 224 255
201 224 255
201 224 255
201 224 255
201 224 255
201 224 255
201 224 255
201 224 255
201 224 255
201 224 255
201 224 255
201 224 255
201 224 255
201 224 255
200 224 255
200 224 255
200 224 255
200 224 255
200 224 255
200 224 255
200 224 255
200 224 255
200 224 255
200 224 255
200 224 255
200 224 255
200 224 255
200 224 255
200 224 255
200 224 255
200 224 255
200 224 255
200 224 255
200 224 255
200 224 255
200 224 255
200 224 255
200 224 255
200 224 255
200 224 255
200 224 255
200 224 255
200 224 255
200 224 255
200 224 255
200 224 255
200 224 255
200 224 255
200 224 255
200 224 255
200 224 255
200 224 255
200 224 255
200 224 255
200 224 255
200 224 255
200 224 255
200 224 255
200 224 255
200 224 255
200 224 255
200 224 255
200 224 255
200 224 255
200 224 255
200 224 255
200 224 255
200 224 255
200 224 255
200 224 255
200 224 255
200 224 255
200 224 255
200 224 255
200 224 255
200 224 255
200 224 255
200 224 255
200 224 255
201 224 255
201 224 255
201 224 255
201 224 255
201 224 255
201 224 255
201 224 255
201 224 255
201 224 255
201 224 255
201 224 255
201 224 255
201 224 255
201 224 255
201 224 255
201 224 255
201 225 255
201 225 255
201 225 255
201 225 255
201 225 255
201 225 255
202 225 255
202 225 255
202 225 255
202 225 255
202 225 255
202 225 255
202 225 255
202 225 255
202 225 255
202 225 255
202 225 255
202 225 255
202 225 255
202 225 255
202 225 255
202 225 255
202 225 255
202 225 255
203 225 255
203 225 255
203 225 255
203 225 255
203 225 255
203 225 255
203 225 255
203 225 255
203 225 255
203 226 255
203 226 255
203 226 255
203 226 255
203 226 255
203 226 255
203 226 255
204 226 255
204 226 255
204 226 255
204 226 255
204 226 255
204 226 255
204 226 255
204 226 255
204 226 255
204 226 255
204 226 255
204 226 255
204 226 255
204 226 255
204 226 255
204 226 255
205 226 255
205 226 255
205 226 255
205 226 255
205 226 255
205 226 255
205 226 255
205 227 255
205 227 255
205 227 255
205 227 255
205 227 255
205 227 255
205 227 255
205 227 255
205 227 255
206 227 255
206 227 255
206 227 255
206 227 255
206 227 255
206 227 255
206 227 255
206 227 255
206 227 255
206 227 255
206 227 255
206 227 255
206 227 255
206 227 255
206 227 255
206 227 255
206 227 255
207 227 255
207 227 255
207 227 255
207 227 255
207 227 255
207 228 255
207 228 255
207 228 255
207 228 255
207 228 255
207 228 255
207 228 255
207 228 255
207 228 255
207 228 255
207 228 255
207 228 255
207 228 255
207 228 255
208 228 255
208 228 255
208 228 255
208 228 255
208 228 255
208 228 255
208 228 255
208 228 255
208 228 255
208 228 255
208 228 255
208 228 255
208 228 255
208 228 255
208 228 255
208 228 255
208 228 255
208 228 255
208 228 255
208 228 255
209 228 255
209 228 255
209 229 255
209 229 255
209 229 255
209 229 255
209 229 255
209 229 255
209 229 255
209 229 255
209 229 255
209 229 255
209 229 255
209 229 255
209 229 255
209 229 255
209 229 255
209 229 255
209 229 255
209 229 255
209 229 255
209 229 255
209 229 255
210 229 255
210 229 255
210 229 255
210 229 255
210 229 255
210 229 255
209 229 255
209 229 255
209 229 255
209 229 255
209 229 255
209 229 255
209 229 255
209 229 255
209 229 255
209 229 255
209 229 255
209 229 255
209 229 255
209 229 255
209 229 255
209 229 255
209 229 255
209 229 255
209 229 255
209 229 255
209 229 255
209 228 255
208 228 255
208 228 255
208 228 255
208 228 255
208 228 255
208 228 255
208 228 255
208 228 255
208 228 255
208 228 255
208 228 255
208 228 255
208 228 255
208 228 255
208 228 255
208 228 255
208 228 255
208 228 255
208 228 255
208 228 255
207 228 255
207 228 255
207 228 255
207 228 255
207 228 255
207 228 255
207 228 255
207 228 255
207 228 255
207 228 255
207 228 255
207 228 255
207 228 255
207 228 255
207 227 255
207 227 255
207 227 255
207 227 255
207 227 255
206 227 255
206 227 255
206 227 255
206 227 255
206 227 255
206 227 255
206 227 255
206 227 255
206 227 255
206 227 255
206 227 255
206 227 255
206 227 255
206 227 255
206 227 255
206 227 255
206 227 255
205 227 255
205 227 255
205 227 255
205 227 255
205 227 255
205 227 255
205 227 255
205 227 255
205 227 255
205 227 255
205 226 255
205 226 255
205 226 255
205 226 255
205 226 255
205 226 255
204 226 255
204 226 255
204 226 255
204 226 255
204 226 255
204 226 255
204 226 255
204 226 255
204 226 255
204 226 255
204 226 255
204 226 255
204 226 255
204 226 255
204 226 255
204 226 255
203 226 255
203 226 255
203 226 255
203 226 255
203 226 255
203 226 255
203 226 255
203 225 255
203 225 255
203 225 255
203 225 255
203 225 255
203 225 255
203 225 255
203 225 255
203 225 255
203 225 255
202 225 255
202 225 255
202 225 255
202 225 255
202 225 255
202 225 255
202 225 255
202 225 255
202 225 255
202 225 255
202 225 255
202 225 255
202 225 255
202 225 255
202 225 255
202 225 255
202 225 255
202 225 255
201 225 255
201 225 255
201 225 255
201 225 255
201 225 255
201 225 255
201 224 255
201 224 255
201 224 255
201 224 255
201 224 255
201 224 255
201 224 255
201 224 255
201 224 255
201 224 255
201 224 255
201 224 255
201 224 255
201 224 255
201 224 255
201 224 255
201 224 255
201 224 255
200 224 255
200 224 255
200 224 255
200 224 255
200 224 255
200 224 255
200 224 255
200 224 255
200 224 255
200 224 255
200 224 255
200 224 255
200 224 255
200 224 255
200 224 255
200 224 255
200 224 255
200 224 255
200 224 255
200 224 255
200 224 255
200 224 255
200 224 255
200 224 255
200 224 255
200 224 255
200 224 255
200 224 255
200 224 255
200 224 255
200 224 255
200 224 255
200 224 255
200 224 255
200 224 255
200 224 255
200 224 255
200 224 255
200 224 255
200 224 255
200 224 255
200 224 255
200 224 255
200 224 255
200 224 255
200 224 255
200 224 255
200 224 255
200 224 255
200 224 255
200 224 255
200 224 255
201 224 255
201 224 255
201 224 255
201 224 255
201 224 255
201 224 255
201 224 255
201 224 255
201 224 255
201 224 255
201 224 255
201 224 255
201 224 255
201 224 255
201 224 255
201 224 255
201 224 255
201 224 255
201 225 255
201 225 255
201 225 255
201 225 255
201 225 255
201 225 255
201 225 255
202 225 255
202 225 255
202 225 255
202 225 255
202 225 255
202 225 255
202 225 255
202 225 255
202 225 255
202 225 255
202 225 255
202 225 255
202 225 255
202 225 255
202 225 255
202 225 255
202 225 255
202 225 255
203 225 255
203 225 255
203 225 255
203 225 255
203 225 255
203 225 255
203 225 255
203 225 255
203 225 255
203 226 255
203 226 255
203 226 255
203 226 255
203 226 255
203 226 255
203 226 255
204 226 255
204 226 255
204 226 255
204 226 255
204 226 255
204 226 255
204 226 255
204 226 255
204 226 255
204 226 255
204 226 255
204 226 255
204 226 255
204 226 255
204 226 255
204 226 255
205 226 255
205 226 255
205 226 255
205 226 255
205 226 255
205 226 255
205 227 255
205 227 255
205 227 255
205 227 255
205 227 255
205 227 255
205 227 255
205 227 255
205 227 255
205 227 255
206 227 255
206 227 255
206 227 255
206 227 255
206 227 255
206 227 255
206 227 255
206 227 255
206 227 255
206 227 255
206 227 255
206 227 255
206 227 255
206 227 255
206 227 255
206 227 255
206 227 255
207 227 255
207 227 255
207 227 255
207 227 255
207 228 255
207 228 255
207 228 255
207 228 255
207 228 255
207 228 255
207 228 255
207 228 255
207 228 255
207 228 255
207 228 255
207 228 255
207 228 255
207 228 255
207 228 255
208 228 255
208 228 255
208 228 255
208 228 255
208 228 255
208 228 255
208 228 255
208 228 255
208 228 255
208 228 255
208 228 255
208 228 255
208 228 255
208 228 255
208 228 255
208 228 255
208 228 255
208 228 255
208 228 255
208 228 255
209 228 255
209 229 255
209 229 255
209 229 255
209 229 255
209 229 255
209 229 255
209 229 255
209 229 255
209 229 255
209 229 255
209 229 255
209 229 255
209 229 255
209 229 255
209 229 255
209 229 255
209 229 255
209 229 255
209 229 255
209 229 255
209 229 255
210 229 255
210 229 255
210 229 255
210 229 255
210 229 255
210 229 255
210 229 255
210 229 255
210 229 255
210 229 255
210 229 255
210 229 255
210 229 255
209 229 255
209 229 255
209 229 255
209 229 255
209 229 255
209 229 255
209 229 255
209 229 255
209 229 255
209 229 255
209 229 255
209 229 255
209 229 255
209 229 255
209 229 255
209 229 255
209 229 255
209 229 255
209 229 255
209 229 255
209 229 255
209 228 255
209 228 255
208 228 255
208 228 255
208 228 255
208 228 255
208 228 255
208 228 255
208 228 255
208 228 255
208 228 255
208 228 255
208 228 255
208 228 255
208 228 255
208 228 255
208 228 255
208 228 255
208 228 255
208 228 255
208 228 255
208 228 255
207 228 255
207 228 255
207 228 255
207 228 255
207 228 255
207 228 255
207 228 255
207 228 255
207 228 255
207 228 255
207 228 255
207 228 255
207 228 255
207 228 255
207 227 255
207 227 255
207 227 255
207 227 255
206 227 255
206 227 255
206 227 255
206 227 255
206 227 255
206 227 255
206 227 255
206 227 255
206 227 255
206 227 255
206 227 255
206 227 255
206 227 255
206 227 255
206 227 255
206 227 255
206 227 255
205 227 255
205 227 255
205 227 255
205 227 255
205 227 255
205 227 255
205 227 255
205 227 255
205 227 255
205 227 255
205 226 255
205 226 255
205 226 255
205 226 255
205 226 255
205 226 255
204 226 255
204 226 255
204 226 255
204 226 255
204 226 255
204 226 255
204 226 255
204 226 255
204 226 255
204 226 255
204 226 255
204 226 255
204 226 255
204 226 255
204 226 255
204 226 255
203 226 255
203 226 255
203 226 255
203 226 255
203 226 255
203 226 255
203 226 255
203 226 255
203 225 255
203 225 255
203 225 255
203 225 255
203 225 255
203 225 255
203 225 255
203 225 255
203 225 255
202 225 255
202 225 255
202 225 255
202 225 255
202 225 255
202 225 255
202 225 255
202 225 255
202 225 255
202 225 255
202 225 255
202 225 255
202 225 255
202 225 255
202 225 255
202 225 255
202 225 255
202 225 255
202 225 255
201 225 255
201 225 255
201 225 255
201 225 255
201 225 255
201 225 255
201 224 255
201 224 255
201 224 255
201 224 255
201 224 255
201 224 255
201 224 255
201 224 255
201 224 255
201 224 255
201 224 255
201 224 255
201 224 255
201 224 255
201 224 255
201 224 255
201 224 255
201 224 255
201 224 255
201 224 255
201 224 255
201 224 255
200 224 255
200 224 255
200 224 255
200 224 255
200 224 255
200 224 255
200 224 255
200 224 255
200 224 255
200 224 255
200 224 255
200 224 255
200 224 255
200 224 255
200 224 255
200 224 255
200 224 255
200 224 255
200 224 255
200 224 255
200 224 255
200 224 255
200 224 255
200 224 255
200 224 255
200 224 255
200 224 255
200 224 255
200 224 255
200 224 255
200 224 255
200 224 255
200 224 255
200 224 255
200 224 255
200 224 255
201 224 255
201 224 255
201 224 255
201 224 255
201 224 255
201 224 255
201 224 255
201 224 255
201 224 255
201 224 255
201 224 255
201 224 255
201 224 255
201 224 255
201 224 255
201 224 255
201 224 255
201 224 255
201 224 255
201 224 255
201 224 255
201 225 255
201 225 255
201 225 255
201 225 255
201 225 255
201 225 255
201 225 255
202 225 255
202 225 255
202 225 255
202 225 255
202 225 255
202 225 255
202 225 255
202 225 255
202 225 255
202 225 255
202 225 255
202 225 255
202 225 255
202 225 255
202 225 255
202 225 255
202 225 255
202 225 255
202 225 255
203 225 255
203 225 255
203 225 255
203 225 255
203 225 255
203 225 255
203 225 255
203 225 255
203 225 255
203 226 255
203 226 255
203 226 255
203 226 255
203 226 255
203 226 255
203 226 255
203 226 255
204 226 255
204 226 255
204 226 255
204 226 255
204 226 255
204 226 255
204 226 255
204 226 255
204 226 255
204 226 255
204 226 255
204 226 255
204 226 255
204 226 255
204 226 255
204 226 255
205 226 255
205 226 255
205 226 255
205 226 255
205 226 255
205 226 255
205 227 255
205 227 255
205 227 255
205 227 255
205 227 255
205 227 255
205 227 255
205 227 255
205 227 255
205 227 255
206 227 255
206 227 255
206 227 255
206 227 255
206 227 255
206 227 255
206 227 255
206 227 255
206 227 255
206 227 255
206 227 255
206 227 255
206 227 255
206 227 255
206 227 255
206 227 255
206 227 255
207 227 255
207 227 255
207 227 255
207 227 255
207 228 255
207 228 255
207 228 255
207 228 255
207 228 255
207 228 255
207 228 255
207 228 255
207 228 255
207 228 255
207 228 255
207 228 255
207 228 255
207 228 255
207 228 255
208 228 255
208 228 255
208 228 255
208 228 255
208 228 255
208 228 255
208 228 255
208 228 255
208 228 255
208 228 255
208 228 255
208 228 255
208 228 255
208 228 255
208 228 255
208 228 255
208 228 255
208 228 255
208 228 255
209 228 255
209 228 255
209 229 255
209 229 255
209 229 255
209 229 255
209 229 255
209 229 255
209 229 255
209 229 255
209 229 255
209 229 255
209 229 255
209 229 255
209 229 255
209 229 255
209 229 255
209 229 255
209 229 255
209 229 255
209 229 255
209 229 255
209 229 255
210 229 255
210 229 255
210 229 255
210 229 255
210 229 255
210 229 255
210 229 255
210 229 255
210 229 255
210 229 255
210 229 255
210 229 255
210 229 255
210 229 255
210 229 255
210 229 255
210 229 255
210 229 255
210 229 255
210 229 255
209 229 255
209 229 255
209 229 255
209 229 255
209 229 255
209 229 255
209 229 255
209 229 255
209 229 255
209 229 255
209 229 255
209 229 255
209 229 255
209 229 255
209 229 255
209 229 255
209 229 255
209 229 255
209 229 255
209 229 255
209 229 255
209 228 255
208 228 255
208 228 255
208 228 255
208 228 255
208 228 255
208 228 255
208 228 255
208 228 255
208 228 255
208 228 255
208 228 255
208 228 255
208 228 255
208 228 255
208 228 255
208 228 255
208 228 255
208 228 255
208 228 255
208 228 255
207 228 255
207 228 255
207 228 255
207 228 255
207 228 255
207 228 255
207 228 255
207 228 255
207 228 255
207 228 255
207 228 255
207 228 255
207 228 255
207 228 255
207 227 255
207 227 255
207 227 255
207 227 255
206 227 255
206 227 255
206 227 255
206 227 255
206 227 255
206 227 255
206 227 255
206 227 255
206 227 255
206 227 255
206 227 255
206 227 255
206 227 255
206 227 255
206 227 255
206 227 255
206 227 255
205 227 255
205 227 255
205 227 255
205 227 255
205 227 255
205 227 255
205 227 255
205 227 255
205 227 255
205 227 255
205 226 255
205 226 255
205 226 255
205 226 255
205 226 255
205 226 255
204 226 255
204 226 255
204 226 255
204 226 255
204 226 255
204 226 255
204 226 255
204 226 255
204 226 255
204 226 255
204 226 255
204 226 255
204 226 255
204 226 255
204 226 255
204 226 255
204 226 255
203 226 255
203 226 255
203 226 255
203 226 255
203 226 255
203 226 255
203 226 255
203 225 255
203 225 255
203 225 255
203 225 255
203 225 255
203 225 255
203 225 255
203 225 255
203 225 255
203 225 255
202 225 255
202 225 255
202 225 255
202 225 255
202 225 255
202 225 255
202 225 255
202 225 255
202 225 255
202 225 255
202 225 255
202 225 255
202 225 255
202 225 255
202 225 255
202 225 255
202 225 255
202 225 255
202 225 255
201 225 255
201 225 255
201 225 255
201 225 255
201 225 255
201 225 255
201 225 255
201 225 255
201 224 255
201 224 255
201 224 255
201 224 255
201 224 255
201 224 255
201 224 255
201 224 255
201 224 255
201 224 255
201 224 255
201 224 255
201 224 255
201 224 255
201 224 255
201 224 255
201 224 255
201 224 255
201 224 255
201 224 255
201 224 255
201 224 255
201 224 255
201 224 255
201 224 255
201 224 255
201 224 255
201 224 255
201 224 255
201 224 255
201 224 255
201 224 255
201 224 255
201 224 255
201 224 255
201 224 255
201 224 255
201 224 255
201 224 255
201 224 255
201 224 255
201 224 255
201 224 255
201 224 255
201 224 255
201 224 255
201 224 255
201 224 255
201 224 255
201 224 255
201 224 255
201 224 255
201 224 255
201 224 255
201 224 255
201 224 255
201 224 255
201 224 255
201 224 255
201 224 255
201 224 255
201 224 255
201 224 255
201 224 255
201 224 255
201 224 255
201 224 255
201 224 255
201 225 255
201 225 255
201 225 255
201 225 255
201 225 255
201 225 255
201 225 255
202 225 255
202 225 255
202 225 255
202 225 255
202 225 255
202 225 255
202 225 255
202 225 255
202 225 255
202 225 255
202 225 255
202 225 255
202 225 255
202 225 255
202 225 255
202 225 255
202 225 255
202 225 255
202 225 255
202 225 255
203 225 255
203 225 255
203 225 255
203 225 255
203 225 255
203 225 255
203 225 255
203 225 255
203 225 255
203 225 255
203 226 255
203 226 255
203 226 255
203 226 255
203 226 255
203 226 255
203 226 255
204 226 255
204 226 255
204 226 255
204 226 255
204 226 255
204 226 255
204 226 255
204 226 255
204 226 255
204 226 255
204 226 255
204 226 255
204 226 255
204 226 255
204 226 255
204 226 255
204 226 255
205 226 255
205 226 255
205 226 255
205 226 255
205 226 255
205 226 255
205 227 255
205 227 255
205 227 255
205 227 255
205 227 255
205 227 255
205 227 255
205 227 255
205 227 255
205 227 255
206 227 255
206 227 255
206 227 255
206 227 255
206 227 255
206 227 255
206 227 255
206 227 255
206 227 255
206 227 255
206 227 255
206 227 255
206 227 255
206 227 255
206 227 255
206 227 255
206 227 255
207 227 255
207 227 255
207 227 255
207 227 255
207 228 255
207 228 255
207 228 255
207 228 255
207 228 255
207 228 255
207 228 255
207 228 255
207 228 255
207 228 255
207 228 255
207 228 255
207 228 255
207 228 255
208 228 255
208 228 255
208 228 255
208 228 255
208 228 255
208 228 255
208 228 255
208 228 255
208 228 255
208 228 255
208 228 255
208 228 255
208 228 255
208 228 255
208 228 255
208 228 255
208 228 255
208 228 255
208 228 255
208 228 255
209 228 255
209 229 255
209 229 255
209 229 255
209 229 255
209 229 255
209 229 255
209 229 255
209 229 255
209 229 255
209 229 255
209 229 255
209 229 255
209 229 255
209 229 255
209 229 255
209 229 255
209 229 255
209 229 255
209 229 255
209 229 255
209 229 255
210 229 255
210 229 255
210 229 255
210 229 255
210 229 255
210 229 255
210 229 255
210 229 255
210 229 255
210 229 255
210 229 255
210 229 255
210 229 255
210 229 255
210 229 255
210 229 255
210 229 255
210 229 255
210 229 255
210 229 255
210 229 255
210 229 255
210 229 255
210 229 255
210 229 255
210 229 255
210 229 255
210 229 255
209 229 255
209 229 255
209 229 255
209 229 255
209 229 255
209 229 255
209 229 255
209 229 255
209 229 255
209 229 255
209 229 255
209 229 255
209 229 255
209 229 255
209 229 255
209 229 255
209 229 255
209 229 255
209 229 255
209 229 255
209 228 255
208 228 255
208 228 255
208 228 255
208 228 255
208 228 255
208 228 255
208 228 255
208 228 255
208 228 255
208 228 255
208 228 255
208 228 255
208 228 255
208 228 255
208 228 255
208 228 255
208 228 255
208 228 255
208 228 255
208 228 255
207 228 255
207 228 255
207 228 255
207 228 255
207 228 255
207 228 255
207 228 255
207 228 255
207 228 255
207 228 255
207 228 255
207 228 255
207 228 255
207 228 255
207 227 255
207 227 255
207 227 255
207 227 255
206 227 255
206 227 255
206 227 255
206 227 255
206 227 255
206 227 255
206 227 255
206 227 255
206 227 255
206 227 255
206 227 255
206 227 255
206 227 255
206 227 255
206 227 255
206 227 255
206 227 255
205 227 255
205 227 255
205 227 255
205 227 255
205 227 255
205 227 255
205 227 255
205 227 255
205 227 255
205 227 255
205 226 255
205 226 255
205 226 255
205 226 255
205 226 255
205 226 255
205 226 255
204 226 255
204 226 255
204 226 255
204 226 255
204 226 255
204 226 255
204 226 255
204 226 255
204 226 255
204 226 255
204 226 255
204 226 255
204 226 255
204 226 255
204 226 255
204 226 255
203 226 255
203 226 255
203 226 255
203 226 255
203 226 255
203 226 255
203 226 255
203 226 255
203 225 255
203 225 255
203 225 255
203 225 255
203 225 255
203 225 255
203 225 255
203 225 255
203 225 255
203 225 255
202 225 255
202 225 255
202 225 255
202 225 255
202 225 255
202 225 255
202 225 255
202 225 255
202 225 255
202 225 255
202 225 255
202 225 255
202 225 255
202 225 255
202 225 255
202 225 255
202 225 255
202 225 255
202 225 255
202 225 255
202 225 255
201 225 255
201 225 255
201 225 255
201 225 255
201 225 255
201 225 255
201 225 255
201 225 255
201 224 255
201 224 255
201 224 255
201 224 255
201 224 255
201 224 255
201 224 255
201 224 255
201 224 255
201 224 255
201 224 255
201 224 255
201 224 255
201 224 255
201 224 255
201 224 255
201 224 255
201 224 255
201 224 255
201 224 255
201 224 255
201 224 255
201 224 255
201 224 255
201 224 255
201 224 255
201 224 255
201 224 255
201 224 255
201 224 255
201 224 255
201 224 255
201 224 255
201 224 255
201 224 255
201 224 255
201 224 255
201 224 255
201 224 255
201 224 255
201 224 255
201 224 255
201 224 255
201 224 255
201 224 255
201 224 255
201 224 255
201 224 255
201 224 255
201 224 255
201 224 255
201 224 255
201 224 255
201 224 255
201 224 255
201 224 255
201 225 255
201 225 255
201 225 255
201 225 255
201 225 255
201 225 255
201 225 255
201 225 255
202 225 255
202 225 255
202 225 255
202 225 255
202 225 255
202 225 255
202 225 255
202 225 255
202 225 255
202 225 255
202 225 255
202 225 255
202 225 255
202 225 255
202 225 255
202 225 255
202 225 255
202 225 255
202 225 255
202 225 255
202 225 255
203 225 255
203 225 255
203 225 255
203 225 255
203 225 255
203 225 255
203 225 255
203 225 255
203 225 255
203 225 255
203 226 255
203 226 255
203 226 255
203 226 255
203 226 255
203 226 255
203 226 255
203 226 255
204 226 255
204 226 255
204 226 255
204 226 255
204 226 255
204 226 255
204 226 255
204 226 255
204 226 255
204 226 255
204 226 255
204 226 255
204 226 255
204 226 255
204 226 255
204 226 255
205 226 255
205 226 255
205 226 255
205 226 255
205 226 255
205 226 255
205 226 255
205 227 255
205 227 255
205 227 255
205 227 255
205 227 255
205 227 255
205 227 255
205 227 255
205 227 255
205 227 255
206 227 255
206 227 255
206 227 255
206 227 255
206 227 255
206 227 255
206 227 255
206 227 255
206 227 255
206 227 255
206 227 255
206 227 255
206 227 255
206 227 255
206 227 255
206 227 255
206 227 255
207 227 255
207 227 255
207 227 255
207 227 255
207 228 255
207 228 255
207 228 255
207 228 255
207 228 255
207 228 255
207 228 255
207 228 255
207 228 255
207 228 255
207 228 255
207 228 255
207 228 255
207 228 255
208 228 255
208 228 255
208 228 255
208 228 255
208 228 255
208 228 255
208 228 255
208 228 255
208 228 255
208 228 255
208 228 255
208 228 255
208 228 255
208 228 255
208 228 255
208 228 255
208 228 255
208 228 255
208 228 255
209 228 255
209 228 255
209 229 255
209 229 255
209 229 255
209 229 255
209 229 255
209 229 255
209 229 255
209 229 255
209 229 255
209 229 255
209 229 255
209 229 255
209 229 255
209 229 255
209 229 255
209 229 255
209 229 255
209 229 255
209 229 255
209 229 255
210 229 255
210 229 255
210 229 255
210 229 255
210 229 255
210 229 255
210 229 255
210 229 255
210 229 255
210 229 255
210 229 255
210 229 255
210 229 255
210 229 255
210 229 255
210 229 255
210 229 255
210 229 255
210 229 255
210 229 255
210 229 255
210 229 255
210 229 255
210 229 255
210 229 255
210 229 255
210 229 255
210 229 255
210 229 255
210 229 255
210 229 255
210 229 255
210 229 255
210 229 255
210 229 255
209 229 255
209 229 255
209 229 255
209 229 255
209 229 255
209 229 255
209 229 255
209 229 255
209 229 255
209 229 255
209 229 255
209 229 255
209 229 255
209 229 255
209 229 255
209 229 255
209 229 255
209 229 255
209 229 255
209 229 255
209 228 255
209 228 255
208 228 255
208 228 255
208 228 255
208 228 255
208 228 255
208 228 255
208 228 255
208 228 255
208 228 255
208 228 255
208 228 255
208 228 255
208 228 255
208 228 255
208 228 255
208 228 255
208 228 255
208 228 255
208 228 255
208 228 255
207 228 255
207 228 255
207 228 255
207 228 255
207 228 255
207 228 255
207 228 255
207 228 255
207 228 255
207 228 255
207 228 255
207 228 255
207 228 255
207 227 255
207 227 255
207 227 255
207 227 255
206 227 255
206 227 255
206 227 255
206 227 255
206 227 255
206 227 255
206 227 255
206 227 255
206 227 255
206 227 255
206 227 255
206 227 255
206 227 255
206 227 255
206 227 255
206 227 255
206 227 255
206 227 255
205 227 255
205 227 255
205 227 255
205 227 255
205 227 255
205 227 255
205 227 255
205 227 255
205 227 255
205 226 255
205 226 255
205 226 255
205 226 255
205 226 255
205 226 255
205 226 255
204 226 255
204 226 255
204 226 255
204 226 255
204 226 255
204 226 255
204 226 255
204 226 255
204 226 255
204 226 255
204 226 255
204 226 255
204 226 255
204 226 255
204 226 255
204 226 255
204 226 255
203 226 255
203 226 255
203 226 255
203 226 255
203 226 255
203 226 255
203 226 255
203 225 255
203 225 255
203 225 255
203 225 255
203 225 255
203 225 255
203 225 255
203 225 255
203 225 255
203 225 255
203 225 255
202 225 255
202 225 255
202 225 255
202 225 255
202 225 255
202 225 255
202 225 255
202 225 255
202 225 255
202 225 255
202 225 255
202 225 255
202 225 255
202 225 255
202 225 255
202 225 255
202 225 255
202 225 255
202 225 255
202 225 255
202 225 255
202 225 255
201 225 255
201 225 255
201 225 255
201 225 255
201 225 255
201 225 255
201 225 255
201 225 255
201 225 255
201 225 255
201 225 255
201 224 255
201 224 255
201 224 255
201 224 255
201 224 255
201 224 255
201 224 255
201 224 255
201 224 255
201 224 255
201 224 255
201 224 255
201 224 255
201 224 255
201 224 255
201 224 255
201 224 255
201 224 255
201 224 255
201 224 255
201 224 255
201 224 255
201 224 255
201 224 255
201 224 255
201 224 255
201 224 255
201 224 255
201 224 255
201 224 255
201 224 255
201 224 255
201 224 255
201 224 255
201 224 255
201 224 255
201 224 255
201 224 255
201 224 255
201 224 255
201 225 255
201 225 255
201 225 255
201 225 255
201 225 255
201 225 255
201 225 255
201 225 255
201 225 255
201 225 255
202 225 255
202 225 255
202 225 255
202 225 255
202 225 255
202 225 255
202 225 255
202 225 255
202 225 255
202 225 255
202 225 255
202 225 255
202 225 255
202 225 255
202 225 255
202 225 255
202 225 255
202 225 255
202 225 255
202 225 255
202 225 255
202 225 255
202 225 255
203 225 255
203 225 255
203 225 255
203 225 255
203 225 255
203 225 255
203 225 255
203 225 255
203 225 255
203 225 255
203 225 255
203 226 255
203 226 255
203 226 255
203 226 255
203 226 255
203 226 255
203 226 255
204 226 255
204 226 255
204 226 255
204 226 255
204 226 255
204 226 255
204 226 255
204 226 255
204 226 255
204 226 255
204 226 255
204 226 255
204 226 255
204 226 255
204 226 255
204 226 255
204 226 255
205 226 255
205 226 255
205 226 255
205 226 255
205 226 255
205 226 255
205 226 255
205 227 255
205 227 255
205 227 255
205 227 255
205 227 255
205 227 255
205 227 255
205 227 255
205 227 255
206 227 255
206 227 255
206 227 255
206 227 255
206 227 255
206 227 255
206 227 255
206 227 255
206 227 255
206 227 255
206 227 255
206 227 255
206 227 255
206 227 255
206 227 255
206 227 255
206 227 255
207 227 255
207 227 255
207 227 255
207 227 255
207 227 255
207 228 255
207 228 255
207 228 255
207 228 255
207 228 255
207 228 255
207 228 255
207 228 255
207 228 255
207 228 255
207 228 255
207 228 255
207 228 255
208 228 255
208 228 255
208 228 255
208 228 255
208 228 255
208 228 255
208 228 255
208 228 255
208 228 255
208 228 255
208 228 255
208 228 255
208 228 255
208 228 255
208 228 255
208 228 255
208 228 255
208 228 255
208 228 255
208 228 255
209 228 255
209 229 255
209 229 255
209 229 255
209 229 255
209 229 255
209 229 255
209 229 255
209 229 255
209 229 255
209 229 255
209 229 255
209 229 255
209 229 255
209 229 255
209 229 255
209 229 255
209 229 255
209 229 255
209 229 255
209 229 255
209 229 255
210 229 255
210 229 255
210 229 255
210 229 255
210 229 255
210 229 255
210 229 255
210 229 255
210 229 255
210 229 255
210 229 255
210 229 255
210 229 255
210 229 255
210 229 255
210 229 255
210 229 255
210 229 255
210 229 255
210 230 255
210 229 255
210 229 255
210 229 255
210 229 255
210 229 255
210 229 255
210 229 255
210 229 255
210 229 255
210 229 255
210 229 255
210 229 255
210 229 255
210 229 255
210 229 255
210 229 255
210 229 255
210 229 255
210 229 255
210 229 255
210 229 255
210 229 255
209 229 255
209 229 255
209 229 255
209 229 255
209 229 255
209 229 255
209 229 255
209 229 255
209 229 255
209 229 255
209 229 255
209 229 255
209 229 255
209 229 255
209 229 255
209 229 255
209 229 255
209 229 255
209 229 255
209 229 255
209 228 255
209 228 255
208 228 255
208 228 255
208 228 255
208 228 255
208 228 255
208 228 255
208 228 255
208 228 255
208 228 255
208 228 255
208 228 255
208 228 255
208 228 255
208 228 255
208 228 255
208 228 255
208 228 255
208 228 255
208 228 255
207 228 255
207 228 255
207 228 255
207 228 255
207 228 255
207 228 255
207 228 255
207 228 255
207 228 255
207 228 255
207 228 255
207 228 255
207 228 255
207 227 255
207 227 255
207 227 255
207 227 255
207 227 255
206 227 255
206 227 255
206 227 255
206 227 255
206 227 255
206 227 255
206 227 255
206 227 255
206 227 255
206 227 255
206 227 255
206 227 255
206 227 255
206 227 255
206 227 255
206 227 255
206 227 255
205 227 255
205 227 255
205 227 255
205 227 255
205 227 255
205 227 255
205 227 255
205 227 255
205 227 255
205 227 255
205 226 255
205 226 255
205 226 255
205 226 255
205 226 255
205 226 255
204 226 255
204 226 255
204 226 255
204 226 255
204 226 255
204 226 255
204 226 255
204 226 255
204 226 255
204 226 255
204 226 255
204 226 255
204 226 255
204 226 255
204 226 255
204 226 255
204 226 255
203 226 255
203 226 255
203 226 255
203 226 255
203 226 255
203 226 255
203 226 255
203 226 255
203 225 255
203 225 255
203 225 255
203 225 255
203 225 255
203 225 255
203 225 255
203 225 255
203 225 255
203 225 255
203 225 255
202 225 255
202 225 255
202 225 255
202 225 255
202 225 255
202 225 255
202 225 255
202 225 255
202 225 255
202 225 255
202 225 255
202 225 255
202 225 255
202 225 255
202 225 255
202 225 255
202 225 255
202 225 255
202 225 255
202 225 255
202 225 255
202 225 255
202 225 255
202 225 255
202 225 255
202 225 255
201 225 255
201 225 255
201 225 255
201 225 255
201 225 255
201 225 255
201 225 255
201 225 255
201 225 255
201 225 255
201 225 255
201 225 255
201 225 255
201 225 255
201 225 255
201 225 255
201 225 255
201 225 255
201 224 255
201 224 255
201 224 255
201 224 255
201 224 255
201 224 255
201 224 255
201 224 255
201 224 255
201 225 255
201 225 255
201 225 255
201 225 255
201 225 255
201 225 255
201 225 255
201 225 255
201 225 255
201 225 255
201 225 255
201 225 255
201 225 255
201 225 255
201 225 255
201 225 255
201 225 255
201 225 255
201 225 255
202 225 255
202 225 255
202 225 255
202 225 255
202 225 255
202 225 255
202 225 255
202 225 255
202 225 255
202 225 255
202 225 255
202 225 255
202 225 255
202 225 255
202 225 255
202 225 255
202 225 255
202 225 255
202 225 255
202 225 255
202 225 255
202 225 255
202 225 255
202 225 255
202 225 255
202 225 255
203 225 255
203 225 255
203 225 255
203 225 255
203 225 255
203 225 255
203 225 255
203 225 255
203 225 255
203 225 255
203 225 255
203 226 255
203 226 255
203 226 255
203 226 255
203 226 255
203 226 255
203 226 255
203 226 255
204 226 255
204 226 255
204 226 255
204 226 255
204 226 255
204 226 255
204 226 255
204 226 255
204 226 255
204 226 255
204 226 255
204 226 255
204 226 255
204 226 255
204 226 255
204 226 255
204 226 255
205 226 255
205 226 255
205 226 255
205 226 255
205 226 255
205 226 255
205 227 255
205 227 255
205 227 255
205 227 255
205 227 255
205 227 255
205 227 255
205 227 255
205 227 255
205 227 255
206 227 255
206 227 255
206 227 255
206 227 255
206 227 255
206 227 255
206 227 255
206 227 255
206 227 255
206 227 255
206 227 255
206 227 255
206 227 255
206 227 255
206 227 255
206 227 255
206 227 255
207 227 255
207 227 255
207 227 255
207 227 255
207 228 255
207 228 255
207 228 255
207 228 255
207 228 255
207 228 255
207 228 255
207 228 255
207 228 255
207 228 255
207 228 255
207 228 255
207 228 255
207 228 255
208 228 255
208 228 255
208 228 255
208 228 255
208 228 255
208 228 255
208 228 255
208 228 255
208 228 255
208 228 255
208 228 255
208 228 255
208 228 255
208 228 255
208 228 255
208 228 255
208 228 255
208 228 255
208 228 255
209 228 255
209 228 255
209 229 255
209 229 255
209 229 255
209 229 255
209 229 255
209 229 255
209 229 255
209 229 255
209 229 255
209 229 255
209 229 255
209 229 255
209 229 255
209 229 255
209 229 255
209 229 255
209 229 255
209 229 255
209 229 255
209 229 255
210 229 255
210 229 255
210 229 255
210 229 255
210 229 255
210 229 255
210 229 255
210 229 255
210 229 255
210 229 255
210 229 255
210 229 255
210 229 255
210 229 255
210 229 255
210 229 255
210 229 255
210 229 255
210 229 255
210 229 255
210 229 255
210 229 255
210 230 255
211 230 255
211 230 255
210 230 255
210 230 255
210 230 255
210 229 255
210 229 255
210 229 255
210 229 255
210 229 255
210 229 255
210 229 255
210 229 255
210 229 255
210 229 255
210 229 255
210 229 255
210 229 255
210 229 255
210 229 255
210 229 255
210 229 255
210 229 255
210 229 255
210 229 255
210 229 255
210 229 255
209 229 255
209 229 255
209 229 255
209 229 255
209 229 255
209 229 255
209 229 255
209 229 255
209 229 255
209 229 255
209 229 255
209 229 255
209 229 255
209 229 255
209 229 255
209 229 255
209 229 255
209 229 255
209 229 255
209 229 255
209 228 255
208 228 255
208 228 255
208 228 255
208 228 255
208 228 255
208 228 255
208 228 255
208 228 255
208 228 255
208 228 255
208 228 255
208 228 255
208 228 255
208 228 255
208 228 255
208 228 255
208 228 255
208 228 255
208 228 255
207 228 255
207 228 255
207 228 255
207 228 255
207 228 255
207 228 255
207 228 255
207 228 255
207 228 255
207 228 255
207 228 255
207 228 255
207 228 255
207 228 255
207 227 255
207 227 255
207 227 255
207 227 255
206 227 255
206 227 255
206 227 255
206 227 255
206 227 255
206 227 255
206 227 255
206 227 255
206 227 255
206 227 255
206 227 255
206 227 255
206 227 255
206 227 255
206 227 255
206 227 255
206 227 255
205 227 255
205 227 255
205 227 255
205 227 255
205 227 255
205 227 255
205 227 255
205 227 255
205 227 255
205 227 255
205 226 255
205 226 255
205 226 255
205 226 255
205 226 255
205 226 255
205 226 255
204 226 255
204 226 255
204 226 255
204 226 255
204 226 255
204 226 255
204 226 255
204 226 255
204 226 255
204 226 255
204 226 255
204 226 255
204 226 255
204 226 255
204 226 255
204 226 255
204 226 255
203 226 255
203 226 255
203 226 255
203 226 255
203 226 255
203 226 255
203 226 255
203 226 255
203 225 255
203 225 255
203 225 255
203 225 255
203 225 255
203 225 255
203 225 255
203 225 255
203 225 255
203 225 255
203 225 255
203 225 255
202 225 255
202 225 255
202 225 255
202 225 255
202 225 255
202 225 255
202 225 255
202 225 255
202 225 255
202 225 255
202 225 255
202 225 255
202 225 255
202 225 255
202 225 255
202 225 255
202 225 255
202 225 255
202 225 255
202 225 255
202 225 255
202 225 255
202 225 255
202 225 255
202 225 255
202 225 255
202 225 255
202 225 255
202 225 255
202 225 255
202 225 255
202 225 255
201 225 255
201 225 255
201 225 255
201 225 255
201 225 255
201 225 255
201 225 255
201 225 255
201 225 255
201 225 255
201 225 255
201 225 255
201 225 255
201 225 255
201 225 255
201 225 255
201 225 255
201 225 255
201 225 255
201 225 255
201 225 255
201 225 255
201 225 255
201 225 255
202 225 255
202 225 255
202 225 255
202 225 255
202 225 255
202 225 255
202 225 255
202 225 255
202 225 255
202 225 255
202 225 255
202 225 255
202 225 255
202 225 255
202 225 255
202 225 255
202 225 255
202 225 255
202 225 255
202 225 255
202 225 255
202 225 255
202 225 255
202 225 255
202 225 255
202 225 255
202 225 255
202 225 255
202 225 255
202 225 255
202 225 255
202 225 255
203 225 255
203 225 255
203 225 255
203 225 255
203 225 255
203 225 255
203 225 255
203 225 255
203 225 255
203 225 255
203 225 255
203 225 255
203 226 255
203 226 255
203 226 255
203 226 255
203 226 255
203 226 255
203 226 255
203 226 255
204 226 255
204 226 255
204 226 255
204 226 255
204 226 255
204 226 255
204 226 255
204 226 255
204 226 255
204 226 255
204 226 255
204 226 255
204 226 255
204 226 255
204 226 255
204 226 255
204 226 255
205 226 255
205 226 255
205 226 255
205 226 255
205 226 255
205 226 255
205 226 255
205 227 255
205 227 255
205 227 255
205 227 255
205 227 255
205 227 255
205 227 255
205 227 255
205 227 255
205 227 255
206 227 255
206 227 255
206 227 255
206 227 255
206 227 255
206 227 255
206 227 255
206 227 255
206 227 255
206 227 255
206 227 255
206 227 255
206 227 255
206 227 255
206 227 255
206 227 255
206 227 255
207 227 255
207 227 255
207 227 255
207 227 255
207 228 255
207 228 255
207 228 255
207 228 255
207 228 255
207 228 255
207 228 255
207 228 255
207 228 255
207 228 255
207 228 255
207 228 255
207 228 255
207 228 255
208 228 255
208 228 255
208 228 255
208 228 255
208 228 255
208 228 255
208 228 255
208 228 255
208 228 255
208 228 255
208 228 255
208 228 255
208 228 255
208 228 255
208 228 255
208 228 255
208 228 255
208 228 255
208 228 255
209 228 255
209 228 255
209 229 255
209 229 255
209 229 255
209 229 255
209 229 255
209 229 255
209 229 255
209 229 255
209 229 255
209 229 255
209 229 255
209 229 255
209 229 255
209 229 255
209 229 255
209 229 255
209 229 255
209 229 255
209 229 255
210 229 255
210 229 255
210 229 255
210 229 255
210 229 255
210 229 255
210 229 255
210 229 255
210 229 255
210 229 255
210 229 255
210 229 255
210 229 255
210 229 255
210 229 255
210 229 255
210 229 255
210 229 255
210 229 255
210 229 255
210 229 255
210 229 255
210 230 255
210 230 255
210 230 255
211 230 255
211 230 255
211 230 255
211 230 255
211 230 255
211 230 255
211 230 255
211 230 255
210 230 255
210 230 255
210 230 255
210 229 255
210 229 255
210 229 255
210 229 255
210 229 255
210 229 255
210 229 255
210 229 255
210 229 255
210 229 255
210 229 255
210 229 255
210 229 255
210 229 255
210 229 255
210 229 255
210 229 255
210 229 255
210 229 255
210 229 255
210 229 255
209 229 255
209 229 255
209 229 255
209 229 255
209 229 255
209 229 255
209 229 255
209 229 255
209 229 255
209 229 255
209 229 255
209 229 255
209 229 255
209 229 255
209 229 255
209 229 255
209 229 255
209 229 255
209 229 255
209 229 255
209 228 255
208 228 255
208 228 255
208 228 255
208 228 255
208 228 255
208 228 255
208 228 255
208 228 255
208 228 255
208 228 255
208 228 255
208 228 255
208 228 255
208 228 255
208 228 255
208 228 255
208 228 255
208 228 255
208 228 255
208 228 255
207 228 255
207 228 255
207 228 255
207 228 255
207 228 255
207 228 255
207 228 255
207 228 255
207 228 255
207 228 255
207 228 255
207 228 255
207 228 255
207 227 255
207 227 255
207 227 255
207 227 255
207 227 255
206 227 255
206 227 255
206 227 255
206 227 255
206 227 255
206 227 255
206 227 255
206 227 255
206 227 255
206 227 255
206 227 255
206 227 255
206 227 255
206 227 255
206 227 255
206 227 255
206 227 255
205 227 255
205 227 255
205 227 255
205 227 255
205 227 255
205 227 255
205 227 255
205 227 255
205 227 255
205 227 255
205 226 255
205 226 255
205 226 255
205 226 255
205 226 255
205 226 255
205 226 255
204 226 255
204 226 255
204 226 255
204 226 255
204 226 255
204 226 255
204 226 255
204 226 255
204 226 255
204 226 255
204 226 255
204 226 255
204 226 255
204 226 255
204 226 255
204 226 255
204 226 255
203 226 255
203 226 255
203 226 255
203 226 255
203 226 255
203 226 255
203 226 255
203 226 255
203 226 255
203 225 255
203 225 255
203 225 255
203 225 255
203 225 255
203 225 255
203 225 255
203 225 255
203 225 255
203 225 255
203 225 255
203 225 255
202 225 255
202 225 255
202 225 255
202 225 255
202 225 255
202 225 255
202 225 255
202 225 255
202 225 255
202 225 255
202 225 255
202 225 255
202 225 255
202 225 255
202 225 255
202 225 255
202 225 255
202 225 255
202 225 255
202 225 255
202 225 255
202 225 255
202 225 255
202 225 255
202 225 255
202 225 255
202 225 255
202 225 255
202 225 255
202 225 255
202 225 255
202 225 255
202 225 255
202 225 255
202 225 255
202 225 255
202 225 255
202 225 255
202 225 255
202 225 255
202 225 255
202 225 255
202 225 255
202 225 255
202 225 255
202 225 255
202 225 255
202 225 255
202 225 255
202 225 255
202 225 255
202 225 255
202 225 255
202 225 255
202 225 255
202 225 255
202 225 255
202 225 255
202 225 255
202 225 255
202 225 255
202 225 255
202 225 255
202 225 255
202 225 255
202 225 255
202 225 255
202 225 255
202 225 255
202 225 255
202 225 255
202 225 255
202 225 255
202 225 255
202 225 255
202 225 255
202 225 255
202 225 255
203 225 255
203 225 255
203 225 255
203 225 255
203 225 255
203 225 255
203 225 255
203 225 255
203 225 255
203 225 255
203 225 255
203 225 255
203 226 255
203 226 255
203 226 255
203 226 255
203 226 255
203 226 255
203 226 255
203 226 255
203 226 255
204 226 255
204 226 255
204 226 255
204 226 255
204 226 255
204 226 255
204 226 255
204 226 255
204 226 255
204 226 255
204 226 255
204 226 255
204 226 255
204 226 255
204 226 255
204 226 255
204 226 255
204 226 255
205 226 255
205 226 255
205 226 255
205 226 255
205 226 255
205 226 255
205 227 255
205 227 255
205 227 255
205 227 255
205 227 255
205 227 255
205 227 255
205 227 255
205 227 255
205 227 255
206 227 255
206 227 255
206 227 255
206 227 255
206 227 255
206 227 255
206 227 255
206 227 255
206 227 255
206 227 255
206 227 255
206 227 255
206 227 255
206 227 255
206 227 255
206 227 255
206 227 255
207 227 255
207 227 255
207 227 255
207 227 255
207 227 255
207 228 255
207 228 255
207 228 255
207 228 255
207 228 255
207 228 255
207 228 255
207 228 255
207 228 255
207 228 255
207 228 255
207 228 255
207 228 255
208 228 255
208 228 255
208 228 255
208 228 255
208 228 255
208 228 255
208 228 255
208 228 255
208 228 255
208 228 255
208 228 255
208 228 255
208 228 255
208 228 255
208 228 255
208 228 255
208 228 255
208 228 255
208 228 255
208 228 255
209 228 255
209 229 255
209 229 255
209 229 255
209 229 255
209 229 255
209 229 255
209 229 255
209 229 255
209 229 255
209 229 255
209 229 255
209 229 255
209 229 255
209 229 255
209 229 255
209 229 255
209 229 255
209 229 255
209 229 255
209 229 255
210 229 255
210 229 255
210 229 255
210 229 255
210 229 255
210 229 255
210 229 255
210 229 255
210 229 255
210 229 255
210 229 255
210 229 255
210 229 255
210 229 255
210 229 255
210 229 255
210 229 255
210 229 255
210 229 255
210 229 255
210 229 255
210 230 255
210 230 255
210 230 255
211 230 255
211 230 255
211 230 255
211 230 255
211 230 255
211 230 255
211 230 255
211 230 255
211 230 255
211 230 255
211 230 255
211 230 255
211 230 255
211 230 255
211 230 255
211 230 255
210 230 255
210 230 255
210 230 255
210 229 255
210 229 255
210 229 255
210 229 255
210 229 255
210 229 255
210 229 255
210 229 255
210 229 255
210 229 255
210 229 255
210 229 255
210 229 255
210 229 255
210 229 255
210 229 255
210 229 255
210 229 255
210 229 255
210 229 255
210 229 255
209 229 255
209 229 255
209 229 255
209 229 255
209 229 255
209 229 255
209 229 255
210 229 255
209 229 255
209 229 255
209 229 255
209 229 255
208 228 254
209 228 253
209 229 255
209 229 255
209 229 255
209 228 254
211 230 255
210 229 255
210 229 255
208 228 255
208 228 254
208 228 255
208 228 255
209 229 255
208 228 255
208 228 255
208 228 255
208 228 255
208 228 255
208 228 255
208 228 255
208 228 255
208 228 255
208 228 255
208 228 255
208 228 255
208 228 255
208 228 255
207 228 255
207 228 255
207 228 255
207 228 255
207 228 255
207 228 255
207 228 255
207 228 255
207 228 255
207 228 255
207 228 255
207 228 255
207 228 255
207 228 255
207 227 255
207 227 255
207 227 255
207 227 255
206 227 255
206 227 255
206 227 255
206 227 255
206 227 255
206 227 255
206 227 255
206 227 255
206 227 255
206 227 255
206 227 255
206 227 255
206 227 255
206 227 255
206 227 255
206 227 255
206 227 255
205 227 255
205 227 255
205 227 255
205 227 255
205 227 255
205 227 255
205 227 255
205 227 255
205 227 255
205 227 255
205 226 255
205 226 255
205 226 255
205 226 255
205 226 255
205 226 255
205 226 255
204 226 255
204 226 255
204 226 255
204 226 255
204 226 255
204 226 255
204 226 255
204 226 255
204 226 255
204 226 255
204 226 255
204 226 255
204 226 255
204 226 255
204 226 255
204 226 255
204 226 255
204 226 255
203 226 255
203 226 255
203 226 255
203 226 255
203 226 255
203 226 255
203 226 255
203 226 255
203 226 255
203 226 255
203 225 255
203 225 255
203 225 255
203 225 255
203 225 255
203 225 255
203 225 255
203 225 255
203 225 255
203 225 255
203 225 255
203 225 255
203 225 255
202 225 255
202 225 255
202 225 255
202 225 255
202 225 255
202 225 255
202 225 255
202 225 255
202 225 255
202 225 255
202 225 255
202 225 255
202 225 255
202 225 255
202 225 255
202 225 255
202 225 255
202 225 255
202 225 255
202 225 255
202 225 255
202 225 255
202 225 255
202 225 255
202 225 255
202 225 255
202 225 255
202 225 255
202 225 255
202 225 255
202 225 255
202 225 255
202 225 255
202 225 255
202 225 255
202 225 255
202 225 255
202 225 255
202 225 255
202 225 255
202 225 255
202 225 255
202 225 255
202 225 255
202 225 255
202 225 255
202 225 255
202 225 255
202 225 255
202 225 255
202 225 255
202 225 255
202 225 255
202 225 255
202 225 255
202 225 255
202 225 255
202 225 255
202 225 255
202 225 255
202 225 255
202 225 255
202 225 255
202 225 255
202 225 255
202 225 255
203 225 255
203 225 255
203 225 255
203 225 255
203 225 255
203 225 255
203 225 255
203 225 255
203 225 255
203 225 255
203 225 255
203 225 255
203 225 255
203 225 255
203 226 255
203 226 255
203 226 255
203 226 255
203 226 255
203 226 255
203 226 255
203 226 255
203 226 255
204 226 255
204 226 255
204 226 255
204 226 255
204 226 255
204 226 255
204 226 255
204 226 255
204 226 255
204 226 255
204 226 255
204 226 255
204 226 255
204 226 255
204 226 255
204 226 255
204 226 255
204 226 255
205 226 255
205 226 255
205 226 255
205 226 255
205 226 255
205 226 255
205 226 255
205 227 255
205 227 255
205 227 255
205 227 255
205 227 255
205 227 255
205 227 255
205 227 255
205 227 255
205 227 255
206 227 255
206 227 255
206 227 255
206 227 255
206 227 255
206 227 255
206 227 255
206 227 255
206 227 255
206 227 255
206 227 255
206 227 255
206 227 255
206 227 255
206 227 255
206 227 255
206 227 255
207 227 255
207 227 255
207 227 255
207 227 255
207 228 255
207 228 255
207 228 255
207 228 255
207 228 255
207 228 255
207 228 255
207 228 255
207 228 255
207 228 255
207 228 255
207 228 255
207 228 255
207 228 255
208 228 255
208 228 255
208 228 255
208 228 255
208 228 255
208 228 255
208 228 255
208 228 255
208 228 255
208 228 255
208 228 255
208 228 255
207 227 253
204 223 247
196 213 234
198 216 237
190 206 226
182 197 212
193 210 229
182 196 208
179 194 209
178 191 202
182 195 204
183 195 203
173 184 186
179 193 207
172 182 186
178 192 204
179 193 205
185 197 207
182 196 210
190 206 225
197 215 236
204 221 241
205 224 248
207 226 252
209 229 255
209 229 255
209 229 255
209 229 255
210 229 255
210 229 255
210 229 255
210 229 255
210 229 255
210 229 255
210 229 255
210 229 255
210 229 255
210 229 255
210 229 255
210 229 255
210 229 255
210 229 255
210 229 255
210 229 255
210 229 255
210 229 255
210 229 255
210 229 255
210 229 255
210 230 255
210 230 255
210 230 255
211 230 255
211 230 255
211 230 255
211 230 255
211 230 255
211 230 255
211 230 255
211 230 255
211 230 255
211 230 255
211 230 255
211 230 255
211 230 255
211 230 255
211 230 255
211 230 255
211 230 255
211 230 255
211 230 255
211 230 255
211 230 255
211 230 255
211 230 255
211 230 255
210 230 255
210 230 255
210 230 255
210 229 255
210 229 255
210 229 255
210 229 255
210 229 255
210 229 255
210 229 255
210 229 255
210 229 255
210 229 255
210 229 255
210 229 255
210 229 255
210 229 255
210 229 254
210 229 254
210 229 255
210 229 255
209 229 254
210 229 254
209 229 254
208 228 253
210 229 254
210 230 255
208 228 252
209 229 254
209 229 254
208 228 254
207 228 253
208 228 252
209 228 253
207 227 252
208 228 253
207 228 255
209 229 254
207 228 255
207 227 252
206 226 250
205 226 252
207 227 249
208 228 253
209 229 254
209 229 255
207 227 253
207 228 254
208 228 255
208 228 253
208 228 255
210 229 255
209 229 255
208 228 254
208 228 254
208 228 255
208 228 255
208 228 255
208 228 255
208 228 255
208 228 255
208 228 255
208 228 255
208 228 255
207 228 255
207 228 255
207 228 255
207 228 255
207 228 255
207 228 255
207 228 255
207 228 255
207 228 255
207 228 255
207 228 255
207 228 255
207 228 255
207 227 255
207 227 255
207 227 255
207 227 255
207 227 255
206 227 255
206 227 255
206 227 255
206 227 255
206 227 255
206 227 255
206 227 255
206 227 255
206 227 255
206 227 255
206 227 255
206 227 255
206 227 255
206 227 255
206 227 255
206 227 255
206 227 255
205 227 255
205 227 255
205 227 255
205 227 255
205 227 255
205 227 255
205 227 255
205 227 255
205 227 255
205 227 255
205 226 255
205 226 255
205 226 255
205 226 255
205 226 255
205 226 255
205 226 255
204 226 255
204 226 255
204 226 255
204 226 255
204 226 255
204 226 255
204 226 255
204 226 255
204 226 255
204 226 255
204 226 255
204 226 255
204 226 255
204 226 255
204 226 255
204 226 255
204 226 255
204 226 255
204 226 255
203 226 255
203 226 255
203 226 255
203 226 255
203 226 255
203 226 255
203 226 255
203 226 255
203 226 255
203 226 255
203 225 255
203 225 255
203 225 255
203 225 255
203 225 255
203 225 255
203 225 255
203 225 255
203 225 255
203 225 255
203 225 255
203 225 255
203 225 255
203 225 255
203 225 255
202 225 255
202 225 255
202 225 255
202 225 255
202 225 255
202 225 255
202 225 255
202 225 255
202 225 255
202 225 255
202 225 255
202 225 255
202 225 255
202 225 255
202 225 255
202 225 255
202 225 255
202 225 255
202 225 255
202 225 255
202 225 255
202 225 255
202 225 255
202 225 255
202 225 255
202 225 255
202 225 255
202 225 255
202 225 255
202 225 255
202 225 255
202 225 255
202 225 255
202 225 255
202 225 255
202 225 255
202 225 255
202 225 255
202 225 255
202 225 255
202 225 255
202 225 255
202 225 255
202 225 255
202 225 255
202 225 255
202 225 255
202 225 255
202 225 255
202 225 255
202 225 255
202 225 255
203 225 255
203 225 255
203 225 255
203 225 255
203 225 255
203 225 255
203 225 255
203 225 255
203 225 255
203 225 255
203 225 255
203 225 255
203 225 255
203 225 255
203 225 255
203 226 255
203 226 255
203 226 255
203 226 255
203 226 255
203 226 255
203 226 255
203 226 255
203 226 255
203 226 255
204 226 255
204 226 255
204 226 255
204 226 255
204 226 255
204 226 255
204 226 255
204 226 255
204 226 255
204 226 255
204 226 255
204 226 255
204 226 255
204 226 255
204 226 255
204 226 255
204 226 255
204 226 255
204 226 255
205 226 255
205 226 255
205 226 255
205 226 255
205 226 255
205 226 255
205 226 255
205 227 255
205 227 255
205 227 255
205 227 255
205 227 255
205 227 255
205 227 255
205 227 255
205 227 255
205 227 255
206 227 255
206 227 255
206 227 255
206 227 255
206 227 255
206 227 255
206 227 255
206 227 255
206 227 255
206 227 255
206 227 255
206 227 255
206 227 255
206 227 255
206 227 255
206 227 255
206 227 255
207 227 255
207 227 255
207 227 255
207 227 255
207 227 255
207 228 255
207 228 255
207 228 255
207 228 255
207 228 255
207 228 255
207 228 255
207 228 255
207 228 255
207 228 255
207 228 255
207 228 255
207 228 255
208 228 255
208 228 255
208 228 255
208 228 255
208 228 255
208 228 255
208 228 255
207 227 254
193 209 229
191 207 222
181 195 207
150 158 158
165 171 164
150 157 153
137 140 121
130 131 101
121 119 80
121 120 80
124 122 81
132 130 87
136 134 88
132 130 86
126 123 81
130 128 85
132 130 87
140 137 90
132 131 87
137 135 90
132 129 86
120 119 79
127 124 82
132 129 84
110 107 71
133 131 87
133 130 86
134 132 87
139 135 87
131 129 84
134 131 87
127 124 80
138 137 101
142 146 130
153 158 143
162 171 171
174 183 184
181 194 202
189 203 217
196 212 232
206 225 250
210 229 255
210 229 255
210 229 255
210 229 255
210 229 255
210 229 255
210 229 255
210 229 255
210 229 255
210 229 255
210 229 255
210 229 255
210 230 255
210 230 255
210 230 255
211 230 255
211 230 255
211 230 255
211 230 255
211 230 255
211 230 255
211 230 255
211 230 255
211 230 255
211 230 255
211 230 255
211 230 255
211 230 255
211 230 255
211 230 255
211 230 255
211 230 255
211 230 255
211 230 255
211 230 255
211 230 255
211 230 255
211 230 255
211 230 255
211 230 255
211 230 255
211 230 255
211 230 255
211 230 255
211 230 255
211 230 255
211 230 255
210 230 255
210 230 255
210 230 255
210 229 255
210 229 255
210 229 254
210 229 255
210 229 255
210 229 255
210 229 254
210 229 255
209 228 252
208 228 252
207 227 250
209 229 254
209 228 254
208 228 250
209 229 255
208 228 254
207 228 253
206 227 250
206 227 252
205 226 249
206 227 252
207 227 252
206 226 249
206 227 254
205 226 253
205 226 250
207 228 254
204 226 250
205 226 252
207 228 253
205 226 254
205 227 254
205 226 254
206 227 253
205 227 254
205 226 253
204 226 250
204 226 250
205 226 253
205 226 255
205 227 254
206 227 252
205 226 252
206 227 252
206 227 252
206 227 252
208 228 254
207 227 253
206 227 253
208 228 254
209 229 254
208 228 254
208 228 254
208 228 255
208 228 255
208 228 255
208 228 255
208 228 255
208 228 255
208 228 255
207 228 255
207 228 255
207 228 255
207 228 255
207 228 255
207 228 255
207 228 255
207 228 255
207 228 255
207 228 255
207 228 255
207 228 255
207 228 255
207 228 255
207 227 255
207 227 255
207 227 255
207 227 255
206 227 255
206 227 255
206 227 255
206 227 255
206 227 255
206 227 255
206 227 255
206 227 255
206 227 255
206 227 255
206 227 255
206 227 255
206 227 255
206 227 255
206 227 255
206 227 255
206 227 255
205 227 255
205 227 255
205 227 255
205 227 255
205 227 255
205 227 255
205 227 255
205 227 255
205 227 255
205 227 255
205 227 255
205 226 255
205 226 255
205 226 255
205 226 255
205 226 255
205 226 255
205 226 255
204 226 255
204 226 255
204 226 255
204 226 255
204 226 255
204 226 255
204 226 255
204 226 255
204 226 255
204 226 255
204 226 255
204 226 255
204 226 255
204 226 255
204 226 255
204 226 255
204 226 255
204 226 255
204 226 255
204 226 255
203 226 255
203 226 255
203 226 255
203 226 255
203 226 255
203 226 255
203 226 255
203 226 255
203 226 255
203 226 255
203 225 255
203 225 255
203 225 255
203 225 255
203 225 255
203 225 255
203 225 255
203 225 255
203 225 255
203 225 255
203 225 255
203 225 255
203 225 255
203 225 255
203 225 255
203 225 255
203 225 255
203 225 255
203 225 255
203 225 255
202 225 255
202 225 255
202 225 255
202 225 255
202 225 255
202 225 255
202 225 255
202 225 255
202 225 255
202 225 255
202 225 255
202 225 255
202 225 255
202 225 255
202 225 255
202 225 255
202 225 255
202 225 255
202 225 255
202 225 255
202 225 255
202 225 255
202 225 255
202 225 255
202 225 255
202 225 255
202 225 255
202 225 255
202 225 255
202 225 255
202 225 255
202 225 255
202 225 255
203 225 255
203 225 255
203 225 255
203 225 255
203 225 255
203 225 255
203 225 255
203 225 255
203 225 255
203 225 255
203 225 255
203 225 255
203 225 255
203 225 255
203 225 255
203 225 255
203 225 255
203 225 255
203 225 255
203 226 255
203 226 255
203 226 255
203 226 255
203 226 255
203 226 255
203 226 255
203 226 255
203 226 255
203 226 255
204 226 255
204 226 255
204 226 255
204 226 255
204 226 255
204 226 255
204 226 255
204 226 255
204 226 255
204 226 255
204 226 255
204 226 255
204 226 255
204 226 255
204 226 255
204 226 255
204 226 255
204 226 255
204 226 255
204 226 255
205 226 255
205 226 255
205 226 255
205 226 255
205 226 255
205 226 255
205 226 255
205 227 255
205 227 255
205 227 255
205 227 255
205 227 255
205 227 255
205 227 255
205 227 255
205 227 255
205 227 255
205 227 255
206 227 255
206 227 255
206 227 255
206 227 255
206 227 255
206 227 255
206 227 255
206 227 255
206 227 255
206 227 255
206 227 255
206 227 255
206 227 255
206 227 255
206 227 255
206 227 255
206 227 255
207 227 255
207 227 255
207 227 255
207 227 255
207 228 255
207 228 255
207 228 255
207 228 255
207 228 255
207 228 255
207 228 255
207 228 255
207 228 255
207 228 255
207 228 255
207 228 255
207 228 255
207 228 255
208 228 255
208 228 255
208 228 255
208 228 255
205 225 251
187 203 221
174 187 199
170 179 176
157 164 158
136 138 110
127 125 83
133 131 87
131 128 85
138 136 91
127 125 84
134 132 88
130 128 86
138 136 90
139 137 91
137 135 90
140 138 93
132 130 87
133 131 87
134 132 88
147 145 96
137 135 90
134 132 87
139 137 91
143 140 93
139 137 90
136 134 89
132 129 86
130 127 84
148 145 96
132 129 86
134 132 87
141 138 91
132 130 87
134 132 88
128 125 83
145 142 95
137 135 89
138 134 88
131 128 84
137 134 89
140 136 89
135 133 88
136 133 87
132 130 87
132 129 85
128 125 82
135 131 85
137 137 109
148 153 147
165 174 172
179 190 195
187 203 220
204 222 244
210 229 255
210 229 255
210 230 255
210 230 255
210 230 255
211 230 255
211 230 255
211 230 255
211 230 255
211 230 255
211 230 255
211 230 255
211 230 255
211 230 255
211 230 255
211 230 255
211 230 255
211 230 255
211 230 255
211 230 255
211 230 255
211 230 255
211 230 255
211 230 255
211 230 255
211 230 255
211 230 255
211 230 255
211 230 255
211 230 255
211 230 255
211 230 255
211 230 255
211 230 255
211 230 255
211 230 255
211 230 255
211 230 255
211 230 255
211 230 255
211 230 255
211 230 255
210 229 255
210 229 255
212 230 255
210 229 255
210 229 253
209 228 249
209 228 253
209 229 254
208 228 249
207 227 250
209 228 252
209 228 252
207 228 253
206 227 252
207 227 253
208 228 253
208 228 253
206 227 254
206 227 252
206 227 253
206 227 253
205 227 255
205 226 252
206 227 255
206 227 255
206 227 254
206 227 255
206 227 255
204 226 255
204 226 255
204 226 255
204 226 255
205 226 255
205 227 255
204 226 255
203 226 255
203 225 255
203 226 255
204 226 255
204 226 255
204 226 255
205 227 255
203 225 255
202 225 254
205 227 255
205 226 254
204 226 253
205 226 255
205 226 254
205 226 255
205 227 255
204 225 248
205 226 248
207 227 254
206 227 254
205 226 252
206 227 253
207 227 253
206 227 255
207 227 255
209 228 255
208 228 254
208 228 255
208 228 255
208 228 255
208 228 255
207 228 255
207 228 255
207 228 255
207 228 255
207 228 255
207 228 255
207 228 255
207 228 255
207 228 255
207 228 255
207 228 255
207 228 255
207 228 255
207 227 255
207 227 255
207 227 255
207 227 255
207 227 255
206 227 255
206 227 255
206 227 255
206 227 255
206 227 255
206 227 255
206 227 255
206 227 255
206 227 255
206 227 255
206 227 255
206 227 255
206 227 255
206 227 255
206 227 255
206 227 255
206 227 255
205 227 255
205 227 255
205 227 255
205 227 255
205 227 255
205 227 255
205 227 255
205 227 255
205 227 255
205 227 255
205 227 255
205 226 255
205 226 255
205 226 255
205 226 255
205 226 255
205 226 255
205 226 255
204 226 255
204 226 255
204 226 255
204 226 255
204 226 255
204 226 255
204 226 255
204 226 255
204 226 255
204 226 255
204 226 255
204 226 255
204 226 255
204 226 255
204 226 255
204 226 255
204 226 255
204 226 255
204 226 255
204 226 255
204 226 255
203 226 255
203 226 255
203 226 255
203 226 255
203 226 255
203 226 255
203 226 255
203 226 255
203 226 255
203 226 255
203 226 255
203 226 255
203 225 255
203 225 255
203 225 255
203 225 255
203 225 255
203 225 255
203 225 255
203 225 255
203 225 255
203 225 255
203 225 255
203 225 255
203 225 255
203 225 255
203 225 255
203 225 255
203 225 255
203 225 255
203 225 255
203 225 255
203 225 255
203 225 255
203 225 255
203 225 255
203 225 255
203 225 255
203 225 255
203 225 255
203 225 255
203 225 255
203 225 255
203 225 255
203 225 255
203 225 255
203 225 255
203 225 255
203 225 255
203 225 255
203 225 255
203 225 255
203 225 255
203 225 255
203 225 255
203 225 255
203 225 255
203 225 255
203 225 255
203 225 255
203 225 255
203 225 255
203 225 255
203 225 255
203 225 255
203 225 255
203 225 255
203 225 255
203 225 255
203 225 255
203 226 255
203 226 255
203 226 255
203 226 255
203 226 255
203 226 255
203 226 255
203 226 255
203 226 255
203 226 255
203 226 255
203 226 255
204 226 255
204 226 255
204 226 255
204 226 255
204 226 255
204 226 255
204 226 255
204 226 255
204 226 255
204 226 255
204 226 255
204 226 255
204 226 255
204 226 255
204 226 255
204 226 255
204 226 255
204 226 255
204 226 255
204 226 255
204 226 255
205 226 255
205 226 255
205 226 255
205 226 255
205 226 255
205 226 255
205 226 255
205 227 255
205 227 255
205 227 255
205 227 255
205 227 255
205 227 255
205 227 255
205 227 255
205 227 255
205 227 255
205 227 255
206 227 255
206 227 255
206 227 255
206 227 255
206 227 255
206 227 255
206 227 255
206 227 255
206 227 255
206 227 255
206 227 255
206 227 255
206 227 255
206 227 255
206 227 255
206 227 255
206 227 255
207 227 255
207 227 255
207 227 255
207 227 255
207 227 255
207 228 255
207 228 255
207 228 255
207 228 255
207 228 255
207 228 255
207 228 255
207 228 255
207 228 255
207 228 255
207 228 255
207 228 255
207 228 255
208 228 255
208 228 255
208 228 255
200 219 243
189 205 222
165 176 181
163 172 172
142 144 121
126 124 83
131 130 87
130 128 85
131 129 86
125 124 83
132 130 87
130 127 84
141 139 93
131 130 87
132 130 87
138 136 91
134 132 88
130 127 84
130 128 86
134 132 87
138 137 92
130 129 86
131 129 87
142 140 93
136 134 90
130 128 86
140 138 92
138 137 92
137 135 90
139 137 91
141 139 93
134 132 87
132 130 86
137 135 90
142 139 91
142 139 93
138 136 90
134 132 88
151 148 99
140 137 90
139 137 90
132 129 85
127 124 82
139 136 90
142 140 91
138 134 88
127 125 83
136 134 88
130 127 83
137 134 88
132 129 86
139 135 87
135 132 85
128 124 80
135 133 87
130 127 84
130 126 83
132 128 83
125 121 79
130 131 106
150 155 144
174 185 189
187 201 217
199 215 234
211 230 255
211 230 255
211 230 255
211 230 255
211 230 255
211 230 255
211 230 255
211 230 255
211 230 255
211 230 255
211 230 255
211 230 255
211 230 255
211 230 255
211 230 255
211 230 255
211 230 255
211 230 255
211 230 255
211 230 255
211 230 255
211 230 255
211 230 255
211 230 255
211 230 255
211 230 255
211 230 255
211 230 255
211 230 255
211 230 255
211 230 255
211 230 255
211 230 255
211 230 255
209 229 252
211 230 254
210 229 253
210 229 253
211 230 255
210 229 253
208 228 252
208 228 252
207 228 252
208 227 249
208 227 249
207 227 252
208 228 253
207 227 252
207 228 255
208 228 255
207 228 255
207 228 255
206 227 255
206 227 255
205 227 255
204 226 254
205 227 254
205 227 255
204 226 255
203 226 255
204 226 255
204 226 255
204 226 255
203 226 255
204 226 255
203 226 255
202 225 255
203 225 255
202 225 255
202 225 255
203 225 255
203 225 255
201 224 255
201 224 255
202 225 255
202 225 255
202 225 255
202 225 255
201 225 255
202 225 255
201 224 255
202 225 255
201 224 255
202 225 255
202 225 255
203 226 254
203 226 255
205 226 255
205 226 255
203 225 255
203 225 254
203 225 252
203 226 255
205 226 254
204 226 253
205 226 252
205 227 254
204 226 249
208 228 255
207 228 254
207 228 253
207 227 252
208 228 255
208 228 255
208 228 255
208 228 255
208 228 255
207 228 255
207 228 255
207 228 255
207 228 255
207 228 255
207 228 255
207 228 255
207 228 255
207 228 255
207 228 255
207 228 255
207 228 255
207 228 255
207 227 255
207 227 255
207 227 255
207 227 255
206 227 255
206 227 255
206 227 255
206 227 255
206 227 255
206 227 255
206 227 255
206 227 255
206 227 255
206 227 255
206 227 255
206 227 255
206 227 255
206 227 255
206 227 255
206 227 255
206 227 255
206 227 255
205 227 255
205 227 255
205 227 255
205 227 255
205 227 255
205 227 255
205 227 255
205 227 255
205 227 255
205 227 255
205 227 255
205 226 255
205 226 255
205 226 255
205 226 255
205 226 255
205 226 255
205 226 255
205 226 255
204 226 255
204 226 255
204 226 255
204 226 255
204 226 255
204 226 255
204 226 255
204 226 255
204 226 255
204 226 255
204 226 255
204 226 255
204 226 255
204 226 255
204 226 255
204 226 255
204 226 255
204 226 255
204 226 255
204 226 255
204 226 255
204 226 255
203 226 255
203 226 255
203 226 255
203 226 255
203 226 255
203 226 255
203 226 255
203 226 255
203 226 255
203 226 255
203 226 255
203 226 255
203 226 255
203 226 255
203 226 255
203 225 255
203 225 255
203 225 255
203 225 255
203 225 255
203 225 255
203 225 255
203 225 255
203 225 255
203 225 255
203 225 255
203 225 255
203 225 255
203 225 255
203 225 255
203 225 255
203 225 255
203 225 255
203 225 255
203 225 255
203 225 255
203 225 255
203 225 255
203 225 255
203 225 255
203 225 255
203 225 255
203 225 255
203 225 255
203 225 255
203 225 255
203 225 255
203 225 255
203 225 255
203 225 255
203 225 255
203 225 255
203 225 255
203 225 255
203 225 255
203 226 255
203 226 255
203 226 255
203 226 255
203 226 255
203 226 255
203 226 255
203 226 255
203 226 255
203 226 255
203 226 255
203 226 255
203 226 255
203 226 255
203 226 255
204 226 255
204 226 255
204 226 255
204 226 255
204 226 255
204 226 255
204 226 255
204 226 255
204 226 255
204 226 255
204 226 255
204 226 255
204 226 255
204 226 255
204 226 255
204 226 255
204 226 255
204 226 255
204 226 255
204 226 255
204 226 255
204 226 255
205 226 255
205 226 255
205 226 255
205 226 255
205 226 255
205 226 255
205 226 255
205 226 255
205 227 255
205 227 255
205 227 255
205 227 255
205 227 255
205 227 255
205 227 255
205 227 255
205 227 255
205 227 255
205 227 255
206 227 255
206 227 255
206 227 255
206 227 255
206 227 255
206 227 255
206 227 255
206 227 255
206 227 255
206 227 255
206 227 255
206 227 255
206 227 255
206 227 255
206 227 255
206 227 255
206 227 255
206 227 255
207 227 255
207 227 255
207 227 255
207 227 255
207 228 255
207 228 255
207 228 255
207 228 255
207 228 255
207 228 255
207 228 255
207 228 255
207 228 255
207 228 255
207 228 255
207 228 255
207 228 255
207 228 255
208 228 255
207 227 254
198 216 240
179 191 198
160 169 168
138 142 125
133 132 88
130 128 86
139 137 92
127 126 84
135 133 89
146 144 96
141 140 94
129 128 86
136 135 90
144 142 95
135 133 89
138 135 90
127 127 85
145 143 95
137 136 91
137 136 90
134 133 89
140 139 93
141 140 94
151 148 99
144 142 95
150 147 98
135 134 90
138 135 90
147 145 96
144 143 95
133 132 88
139 137 90
132 130 87
133 131 87
134 132 87
146 143 95
146 144 96
147 145 96
139 136 90
137 135 89
132 130 87
148 146 98
140 137 91
146 143 95
141 138 92
140 137 90
134 131 87
133 131 86
145 142 93
132 131 87
137 133 88
140 137 90
141 138 91
133 130 85
136 133 87
135 131 85
130 127 84
130 126 83
139 137 90
132 129 85
129 126 82
135 132 87
140 136 89
135 132 87
128 125 81
131 128 83
133 129 84
134 130 84
138 139 117
159 166 160
188 201 213
200 216 236
210 228 253
211 230 255
211 230 255
211 230 255
211 230 255
211 230 255
211 230 255
211 230 255
211 230 255
211 230 255
211 230 255
211 230 255
211 230 255
211 230 255
212 230 255
212 230 255
212 230 255
212 230 255
211 230 255
211 230 255
211 230 255
211 230 255
211 230 255
211 230 255
211 230 255
211 230 255
211 230 255
210 229 255
212 230 253
211 230 254
211 230 255
209 229 253
208 228 250
209 229 254
208 228 249
208 228 253
208 228 254
207 227 254
208 228 255
208 228 254
207 228 255
207 227 254
207 228 255
206 227 255
206 227 255
205 226 255
205 227 255
205 226 255
205 226 255
203 226 254
204 226 254
202 225 255
204 226 255
203 226 255
203 226 255
203 225 255
203 225 255
202 225 255
202 225 255
201 225 255
201 224 255
201 224 255
200 224 255
200 224 255
200 224 255
200 224 255
200 224 255
200 224 254
200 224 255
199 223 255
201 224 255
200 224 255
200 224 255
200 224 255
200 224 255
200 224 255
199 224 255
200 224 254
198 223 254
199 224 255
199 223 255
201 224 255
200 224 254
201 225 255
202 225 254
201 224 254
201 224 255
203 225 255
202 225 255
203 225 255
202 225 255
202 225 255
203 226 254
204 226 254
205 227 254
205 226 253
204 226 252
204 226 252
206 227 253
207 228 253
207 227 253
207 228 255
208 228 255
208 228 255
208 228 255
208 228 255
207 228 255
207 228 255
207 228 255
207 228 255
207 228 255
207 228 255
207 228 255
207 228 255
207 228 255
207 228 255
207 228 255
207 228 255
207 228 255
207 228 255
207 227 255
207 227 255
207 227 255
207 227 255
206 227 255
206 227 255
206 227 255
206 227 255
206 227 255
206 227 255
206 227 255
206 227 255
206 227 255
206 227 255
206 227 255
206 227 255
206 227 255
206 227 255
206 227 255
206 227 255
206 227 255
206 227 255
205 227 255
205 227 255
205 227 255
205 227 255
205 227 255
205 227 255
205 227 255
205 227 255
205 227 255
205 227 255
205 227 255
205 226 255
205 226 255
205 226 255
205 226 255
205 226 255
205 226 255
205 226 255
205 226 255
204 226 255
204 226 255
204 226 255
204 226 255
204 226 255
204 226 255
204 226 255
204 226 255
204 226 255
204 226 255
204 226 255
204 226 255
204 226 255
204 226 255
204 226 255
204 226 255
204 226 255
204 226 255
204 226 255
204 226 255
204 226 255
204 226 255
204 226 255
204 226 255
204 226 255
204 226 255
203 226 255
203 226 255
203 226 255
203 226 255
203 226 255
203 226 255
203 226 255
203 226 255
203 226 255
203 226 255
203 226 255
203 226 255
203 226 255
203 226 255
203 226 255
203 226 255
203 226 255
203 226 255
203 226 255
203 226 255
203 226 255
203 226 255
203 226 255
203 226 255
203 226 255
203 226 255
203 226 255
203 226 255
203 226 255
203 226 255
203 226 255
203 226 255
203 226 255
203 226 255
203 226 255
203 226 255
203 226 255
203 226 255
203 226 255
203 226 255
203 226 255
203 226 255
203 226 255
203 226 255
203 226 255
203 226 255
203 226 255
203 226 255
203 226 255
203 226 255
203 226 255
203 226 255
203 226 255
203 226 255
203 226 255
204 226 255
204 226 255
204 226 255
204 226 255
204 226 255
204 226 255
204 226 255
204 226 255
204 226 255
204 226 255
204 226 255
204 226 255
204 226 255
204 226 255
204 226 255
204 226 255
204 226 255
204 226 255
204 226 255
204 226 255
204 226 255
204 226 255
204 226 255
204 226 255
204 226 255
205 226 255
205 226 255
205 226 255
205 226 255
205 226 255
205 226 255
205 226 255
205 226 255
205 227 255
205 227 255
205 227 255
205 227 255
205 227 255
205 227 255
205 227 255
205 227 255
205 227 255
205 227 255
205 227 255
206 227 255
206 227 255
206 227 255
206 227 255
206 227 255
206 227 255
206 227 255
206 227 255
206 227 255
206 227 255
206 227 255
206 227 255
206 227 255
206 227 255
206 227 255
206 227 255
206 227 255
206 227 255
207 227 255
207 227 255
207 227 255
207 227 255
207 228 255
207 228 255
207 228 255
207 228 255
207 228 255
207 228 255
207 228 255
207 228 255
207 228 255
207 228 255
207 228 255
207 228 255
207 228 255
207 228 255
208 228 255
208 228 255
202 221 245
177 189 199
166 175 172
150 152 131
139 136 90
127 125 83
135 133 88
125 123 82
123 122 82
137 135 90
134 133 89
142 141 95
143 141 94
140 138 93
136 135 90
140 138 93
129 128 86
134 133 90
143 142 95
144 143 96
140 138 93
133 132 89
140 138 92
142 141 94
142 140 94
147 146 98
133 132 89
143 141 95
135 134 90
139 137 91
140 138 92
134 133 89
141 139 93
144 142 95
145 143 95
149 147 98
143 141 94
142 140 94
125 123 83
139 137 91
145 143 95
141 138 91
137 134 90
139 137 91
141 139 93
138 136 90
134 133 89
150 147 97
147 144 95
138 136 88
137 135 90
123 122 81
147 145 95
149 146 97
137 134 87
142 138 90
130 128 83
147 143 93
136 132 87
146 143 95
143 140 93
139 136 89
145 142 93
151 147 96
136 133 87
130 128 84
134 132 86
144 141 93
136 133 86
141 138 91
137 133 86
131 129 84
145 140 90
126 123 80
132 127 82
145 140 90
144 143 112
172 179 175
178 191 206
208 225 248
211 230 255
211 230 255
211 230 255
211 230 255
211 230 255
211 230 255
212 230 255
212 230 255
212 230 255
212 230 255
212 230 255
212 230 255
212 230 255
212 230 255
212 230 255
212 230 255
212 230 255
212 230 255
211 230 253
212 230 254
211 230 254
208 228 250
209 229 253
210 229 253
210 229 255
209 229 253
209 229 255
208 228 254
209 229 254
209 229 255
207 228 254
208 228 255
207 228 255
206 227 254
207 227 255
206 227 255
204 226 255
206 227 255
205 227 255
205 227 255
204 226 254
204 226 254
204 226 255
202 225 255
203 226 255
203 225 254
202 225 255
203 225 254
202 225 255
201 224 255
201 225 255
201 224 255
200 224 255
200 224 255
200 224 255
200 224 255
199 224 255
199 223 254
199 223 255
199 223 253
199 223 255
198 223 255
198 223 255
199 223 255
198 223 255
198 223 255
198 223 255
197 222 255
198 223 255
198 223 255
198 223 255
196 222 255
198 223 255
197 222 255
197 222 255
197 222 254
199 223 255
198 223 255
197 222 255
197 223 255
198 223 255
200 224 255
199 223 255
199 223 255
200 224 255
201 224 255
200 224 255
200 224 255
201 224 255
201 224 254
203 225 255
202 225 255
203 226 255
203 226 255
203 225 253
203 225 249
205 227 255
206 227 255
206 227 254
208 228 253
208 228 254
208 228 255
208 228 255
208 228 255
208 228 255
208 228 255
207 228 255
207 228 255
207 228 255
207 228 255
207 228 255
207 228 255
207 228 255
207 228 255
207 228 255
207 228 255
207 228 255
207 228 255
207 228 255
207 228 255
207 227 255
207 227 255
207 227 255
207 227 255
206 227 255
206 227 255
206 227 255
206 227 255
206 227 255
206 227 255
206 227 255
206 227 255
206 227 255
206 227 255
206 227 255
206 227 255
206 227 255
206 227 255
206 227 255
206 227 255
206 227 255
206 227 255
205 227 255
205 227 255
205 227 255
205 227 255
205 227 255
205 227 255
205 227 255
205 227 255
205 227 255
205 227 255
205 227 255
205 227 255
205 226 255
205 226 255
205 226 255
205 226 255
205 226 255
205 226 255
205 226 255
205 226 255
205 226 255
204 226 255
204 226 255
204 226 255
204 226 255
204 226 255
204 226 255
204 226 255
204 226 255
204 226 255
204 226 255
204 226 255
204 226 255
204 226 255
204 226 255
204 226 255
204 226 255
204 226 255
204 226 255
204 226 255
204 226 255
204 226 255
204 226 255
204 226 255
204 226 255
204 226 255
204 226 255
204 226 255
204 226 255
204 226 255
204 226 255
203 226 255
203 226 255
203 226 255
203 226 255
203 226 255
203 226 255
203 226 255
203 226 255
203 226 255
203 226 255
203 226 255
203 226 255
203 226 255
203 226 255
203 226 255
203 226 255
203 226 255
203 226 255
203 226 255
203 226 255
203 226 255
203 226 255
203 226 255
203 226 255
203 226 255
203 226 255
203 226 255
203 226 255
203 226 255
203 226 255
203 226 255
203 226 255
203 226 255
203 226 255
203 226 255
204 226 255
204 226 255
204 226 255
204 226 255
204 226 255
204 226 255
204 226 255
204 226 255
204 226 255
204 226 255
204 226 255
204 226 255
204 226 255
204 226 255
204 226 255
204 226 255
204 226 255
204 226 255
204 226 255
204 226 255
204 226 255
204 226 255
204 226 255
204 226 255
204 226 255
204 226 255
204 226 255
204 226 255
204 226 255
204 226 255
205 226 255
205 226 255
205 226 255
205 226 255
205 226 255
205 226 255
205 226 255
205 226 255
205 227 255
205 227 255
205 227 255
205 227 255
205 227 255
205 227 255
205 227 255
205 227 255
205 227 255
205 227 255
205 227 255
206 227 255
206 227 255
206 227 255
206 227 255
206 227 255
206 227 255
206 227 255
206 227 255
206 227 255
206 227 255
206 227 255
206 227 255
206 227 255
206 227 255
206 227 255
206 227 255
206 227 255
206 227 255
206 227 255
207 227 255
207 227 255
207 227 255
207 227 255
207 228 255
207 228 255
207 228 255
207 228 255
207 228 255
207 228 255
207 228 255
207 228 255
207 228 255
207 228 255
207 228 255
207 228 255
207 228 255
207 228 255
208 228 255
208 228 255
207 228 254
202 220 242
169 180 187
153 160 149
124 122 81
123 121 81
141 139 93
131 129 86
142 140 93
132 130 87
138 137 92
130 128 86
136 135 90
137 136 91
136 134 90
142 141 95
145 143 96
139 137 92
141 141 95
142 140 94
143 142 95
144 143 96
139 137 92
143 142 95
146 144 96
143 141 94
141 139 93
141 141 95
144 142 95
145 144 97
148 146 97
140 138 92
143 141 95
140 138 93
145 142 95
144 142 95
152 150 100
142 140 93
139 137 92
140 138 92
149 146 97
136 134 90
142 140 94
149 146 97
150 147 98
138 135 90
148 146 97
136 133 89
145 143 94
136 133 89
151 148 99
149 145 96
145 143 94
147 145 97
142 139 92
141 138 91
137 134 87
141 139 93
142 139 93
147 143 95
141 139 93
139 137 90
145 142 95
140 137 87
144 140 93
143 140 90
144 140 93
140 137 91
125 122 79
140 137 90
141 137 90
127 125 82
137 134 87
130 127 81
140 137 90
137 133 87
134 130 84
137 134 87
148 143 91
141 136 87
145 140 91
135 131 84
128 124 80
130 126 85
153 155 133
174 184 190
193 208 226
212 230 255
212 230 255
212 230 255
212 230 255
212 230 255
212 230 255
212 230 255
212 230 255
212 230 255
212 230 255
212 230 255
212 230 255
212 230 255
211 230 250
212 230 254
211 230 255
210 229 253
210 229 254
209 228 252
209 229 255
208 228 253
209 229 254
209 229 255
208 228 253
209 228 255
208 228 255
207 228 255
207 227 254
206 227 254
208 228 255
206 227 255
205 227 255
205 227 255
204 226 255
204 226 255
205 226 255
204 226 255
202 225 255
203 225 255
203 225 255
201 225 255
202 225 255
202 225 255
201 224 255
200 224 254
200 224 255
200 224 255
200 224 255
199 224 255
199 223 255
199 223 255
199 223 255
199 223 255
198 223 255
198 223 255
197 222 255
197 222 255
197 222 255
197 222 255
196 222 255
197 222 255
197 222 255
196 222 255
197 222 255
196 222 255
196 222 255
196 221 255
196 222 255
196 222 255
196 222 255
196 222 255
195 221 255
195 221 255
196 222 255
195 221 255
197 222 255
196 222 255
196 222 255
197 222 255
196 222 255
197 222 255
197 222 255
197 222 255
198 223 255
198 223 255
198 223 255
198 223 254
200 224 254
200 224 255
199 223 254
202 225 255
201 224 255
202 225 255
203 225 255
203 225 254
204 226 254
204 226 252
205 226 252
206 227 252
208 228 254
207 227 254
208 228 255
208 228 255
208 228 255
208 228 255
208 228 255
208 228 255
207 228 255
207 228 255
207 228 255
207 228 255
207 228 255
207 228 255
207 228 255
207 228 255
207 228 255
207 228 255
207 228 255
207 228 255
207 228 255
207 228 255
207 227 255
207 227 255
207 227 255
207 227 255
206 227 255
206 227 255
206 227 255
206 227 255
206 227 255
206 227 255
206 227 255
206 227 255
206 227 255
206 227 255
206 227 255
206 227 255
206 227 255
206 227 255
206 227 255
206 227 255
206 227 255
206 227 255
206 227 255
205 227 255
205 227 255
205 227 255
205 227 255
205 227 255
205 227 255
205 227 255
205 227 255
205 227 255
205 227 255
205 227 255
205 227 255
205 226 255
205 226 255
205 226 255
205 226 255
205 226 255
205 226 255
205 226 255
205 226 255
205 226 255
204 226 255
204 226 255
204 226 255
204 226 255
204 226 255
204 226 255
204 226 255
204 226 255
204 226 255
204 226 255
204 226 255
204 226 255
204 226 255
204 226 255
204 226 255
204 226 255
204 226 255
204 226 255
204 226 255
204 226 255
204 226 255
204 226 255
204 226 255
204 226 255
204 226 255
204 226 255
204 226 255
204 226 255
204 226 255
204 226 255
204 226 255
204 226 255
204 226 255
204 226 255
204 226 255
204 226 255
204 226 255
204 226 255
204 226 255
204 226 255
204 226 255
204 226 255
204 226 255
204 226 255
204 226 255
204 226 255
204 226 255
204 226 255
204 226 255
204 226 255
204 226 255
204 226 255
204 226 255
204 226 255
204 226 255
204 226 255
204 226 255
204 226 255
204 226 255
204 226 255
204 226 255
204 226 255
204 226 255
204 226 255
204 226 255
204 226 255
204 226 255
204 226 255
204 226 255
204 226 255
204 226 255
204 226 255
204 226 255
204 226 255
204 226 255
204 226 255
204 226 255
204 226 255
204 226 255
204 226 255
204 226 255
204 226 255
204 226 255
204 226 255
205 226 255
205 226 255
205 226 255
205 226 255
205 226 255
205 226 255
205 226 255
205 226 255
205 226 255
205 227 255
205 227 255
205 227 255
205 227 255
205 227 255
205 227 255
205 227 255
205 227 255
205 227 255
205 227 255
205 227 255
205 227 255
206 227 255
206 227 255
206 227 255
206 227 255
206 227 255
206 227 255
206 227 255
206 227 255
206 227 255
206 227 255
206 227 255
206 227 255
206 227 255
206 227 255
206 227 255
206 227 255
206 227 255
206 227 255
206 227 255
207 227 255
207 227 255
207 227 255
207 227 255
207 228 255
207 228 255
207 228 255
207 228 255
207 228 255
207 228 255
207 228 255
207 228 255
207 228 255
207 228 255
207 228 255
207 228 255
207 228 255
207 228 255
208 228 255
208 228 255
208 228 255
208 228 255
190 207 226
166 176 177
145 148 129
134 132 88
136 134 90
139 136 91
138 136 91
137 135 90
132 131 87
140 139 93
133 132 88
133 132 88
141 140 94
151 149 100
136 136 91
127 126 85
136 135 90
145 143 96
139 138 93
140 139 93
146 144 97
147 145 97
133 132 88
135 135 90
145 143 96
137 136 91
140 139 93
135 134 90
147 146 97
135 134 90
143 141 95
136 135 90
145 144 96
151 149 100
136 134 90
149 148 99
137 135 90
147 145 97
149 147 99
142 141 95
140 137 91
141 139 93
144 142 95
139 138 92
135 133 88
143 140 93
152 150 100
143 141 94
140 138 92
145 144 95
145 142 94
150 147 97
142 140 93
132 130 87
139 137 90
145 141 93
141 139 93
156 153 101
143 141 94
147 144 95
140 138 90
147 145 96
146 143 94
140 136 90
143 141 93
142 138 91
150 146 96
142 140 93
141 138 91
140 137 90
143 139 88
138 135 88
136 134 88
131 129 84
143 140 90
134 131 81
131 129 84
138 133 86
152 147 95
139 136 88
138 134 85
127 123 79
137 133 85
125 122 79
137 134 87
131 127 81
141 136 86
134 131 84
127 124 78
141 142 115
176 186 190
195 209 225
211 230 254
212 230 255
212 230 255
212 230 255
212 230 255
212 231 255
213 231 255
212 230 254
211 230 254
210 229 254
211 230 255
210 229 252
209 229 253
210 229 254
210 229 254
210 229 255
209 229 255
209 229 255
208 228 255
207 228 255
208 228 255
208 228 255
206 227 255
207 227 254
206 227 255
205 227 255
204 226 255
204 226 255
204 226 255
204 226 255
203 226 255
203 226 255
203 225 255
202 225 255
203 225 255
201 224 254
201 224 255
200 224 255
200 224 255
200 224 255
200 224 255
199 223 255
199 223 255
199 223 255
198 223 255
199 223 255
198 223 255
197 222 255
197 222 255
197 222 255
197 222 255
196 222 255
196 222 255
197 222 255
196 222 255
195 221 255
196 222 255
195 221 255
195 221 255
195 221 255
195 221 255
195 221 255
194 221 255
194 221 255
194 221 255
194 221 255
195 221 255
194 221 255
194 221 255
194 221 255
193 220 255
194 221 255
195 221 255
194 221 255
194 221 255
194 221 255
194 221 255
195 221 255
195 221 255
194 221 255
195 221 255
195 221 255
197 222 255
195 221 255
197 222 254
197 222 255
197 222 255
200 224 255
198 223 255
200 224 255
199 224 255
202 225 255
202 225 255
201 224 255
203 225 254
204 226 254
204 226 255
204 226 253
203 225 248
206 227 255
208 228 254
208 228 255
208 228 255
208 228 255
208 228 255
208 228 255
208 228 255
208 228 255
207 228 255
207 228 255
207 228 255
207 228 255
207 228 255
207 228 255
207 228 255
207 228 255
207 228 255
207 228 255
207 228 255
207 228 255
207 228 255
207 228 255
207 227 255
207 227 255
207 227 255
207 227 255
206 227 255
206 227 255
206 227 255
206 227 255
206 227 255
206 227 255
206 227 255
206 227 255
206 227 255
206 227 255
206 227 255
206 227 255
206 227 255
206 227 255
206 227 255
206 227 255
206 227 255
206 227 255
206 227 255
205 227 255
205 227 255
205 227 255
205 227 255
205 227 255
205 227 255
205 227 255
205 227 255
205 227 255
205 227 255
205 227 255
205 227 255
205 227 255
205 226 255
205 226 255
205 226 255
205 226 255
205 226 255
205 226 255
205 226 255
205 226 255
205 226 255
205 226 255
205 226 255
204 226 255
204 226 255
204 226 255
204 226 255
204 226 255
204 226 255
204 226 255
204 226 255
204 226 255
204 226 255
204 226 255
204 226 255
204 226 255
204 226 255
204 226 255
204 226 255
204 226 255
204 226 255
204 226 255
204 226 255
204 226 255
204 226 255
204 226 255
204 226 255
204 226 255
204 226 255
204 226 255
204 226 255
204 226 255
204 226 255
204 226 255
204 226 255
204 226 255
204 226 255
204 226 255
204 226 255
204 226 255
204 226 255
204 226 255
204 226 255
204 226 255
204 226 255
204 226 255
204 226 255
204 226 255
204 226 255
204 226 255
204 226 255
204 226 255
204 226 255
204 226 255
204 226 255
204 226 255
204 226 255
204 226 255
204 226 255
204 226 255
204 226 255
204 226 255
204 226 255
204 226 255
204 226 255
204 226 255
204 226 255
204 226 255
204 226 255
204 226 255
204 226 255
204 226 255
204 226 255
205 226 255
205 226 255
205 226 255
205 226 255
205 226 255
205 226 255
205 226 255
205 226 255
205 226 255
205 226 255
205 226 255
205 227 255
205 227 255
205 227 255
205 227 255
205 227 255
205 227 255
205 227 255
205 227 255
205 227 255
205 227 255
205 227 255
205 227 255
205 227 255
206 227 255
206 227 255
206 227 255
206 227 255
206 227 255
206 227 255
206 227 255
206 227 255
206 227 255
206 227 255
206 227 255
206 227 255
206 227 255
206 227 255
206 227 255
206 227 255
206 227 255
206 227 255
206 227 255
207 227 255
207 227 255
207 227 255
207 227 255
207 228 255
207 228 255
207 228 255
207 228 255
207 228 255
207 228 255
207 228 255
207 228 255
207 228 255
207 228 255
207 228 255
207 228 255
207 228 255
207 228 255
208 228 255
208 228 255
208 228 255
208 228 255
208 228 255
202 221 244
168 180 189
148 150 123
144 142 95
133 131 87
133 132 88
128 127 85
138 135 90
135 134 90
132 131 88
139 138 93
147 145 97
135 134 90
149 148 99
145 144 97
145 144 97
144 143 96
137 135 90
142 141 95
134 133 90
146 145 97
144 142 95
145 144 97
145 144 97
140 139 93
142 141 95
154 153 103
139 137 92
145 143 96
142 141 95
146 144 97
143 142 96
147 145 97
147 145 97
148 147 98
144 142 95
141 139 93
145 143 95
140 139 93
144 143 96
142 140 94
141 139 93
152 150 101
148 145 97
155 153 102
156 154 103
147 145 97
138 137 90
146 144 95
141 139 93
142 139 92
145 143 95
148 146 97
150 147 98
140 138 92
146 144 96
139 137 90
150 148 96
148 145 97
153 150 99
149 147 97
133 131 87
145 143 93
135 134 88
142 139 90
150 147 97
135 133 88
137 133 87
144 141 92
142 139 90
138 135 87
151 148 97
144 141 92
155 151 99
140 136 88
140 137 90
147 143 93
142 139 91
145 142 93
145 141 91
135 132 85
142 137 90
141 137 89
142 138 87
135 131 85
129 127 83
135 131 84
139 135 87
134 131 85
134 131 86
135 132 86
134 129 82
130 126 82
133 129 84
138 134 86
142 143 119
175 182 178
200 215 233
212 230 255
211 230 253
211 229 248
210 229 253
212 230 255
211 229 253
208 228 252
210 229 253
208 228 250
209 229 255
210 229 254
210 229 255
209 229 255
209 229 255
207 228 254
207 228 254
208 228 255
207 228 255
206 227 255
206 227 255
206 227 255
206 227 255
204 226 255
204 226 255
203 226 254
203 225 254
203 225 255
201 225 255
202 225 255
202 225 255
201 225 255
201 224 255
201 224 255
201 224 255
199 224 255
199 223 255
199 223 255
198 223 255
198 223 255
198 223 255
198 223 255
197 222 255
196 222 255
197 222 255
196 222 255
196 222 255
196 222 255
196 222 255
195 221 255
195 221 255
195 221 255
194 221 255
194 221 255
193 220 255
193 220 255
194 220 255
193 220 255
193 220 255
193 220 255
193 220 255
193 220 255
193 220 255
193 220 255
193 220 255
192 220 255
192 220 255
192 220 255
193 220 255
192 220 255
192 220 255
192 220 255
192 220 255
193 220 255
192 220 255
193 220 255
193 220 255
194 221 255
193 220 255
194 221 255
194 221 255
194 221 255
195 221 255
195 221 255
195 221 255
196 222 255
196 222 255
196 222 255
197 222 255
198 223 255
199 223 254
200 224 255
201 224 255
201 225 255
202 225 255
202 225 255
202 225 254
203 225 255
206 227 253
205 226 252
206 227 253
207 227 253
207 227 253
208 228 255
208 228 255
208 228 255
208 228 255
208 228 255
208 228 255
208 228 255
207 228 255
207 228 255
207 228 255
207 228 255
207 228 255
207 228 255
207 228 255
207 228 255
207 228 255
207 228 255
207 228 255
207 228 255
207 228 255
207 228 255
207 227 255
207 227 255
207 227 255
207 227 255
206 227 255
206 227 255
206 227 255
206 227 255
206 227 255
206 227 255
206 227 255
206 227 255
206 227 255
206 227 255
206 227 255
206 227 255
206 227 255
206 227 255
206 227 255
206 227 255
206 227 255
206 227 255
206 227 255
206 227 255
206 227 255
205 227 255
205 227 255
205 227 255
205 227 255
205 227 255
205 227 255
205 227 255
205 227 255
205 227 255
205 227 255
205 227 255
205 227 255
205 227 255
205 226 255
205 226 255
205 226 255
205 226 255
205 226 255
205 226 255
205 226 255
205 226 255
205 226 255
205 226 255
205 226 255
205 226 255
204 226 255
204 226 255
204 226 255
204 226 255
204 226 255
204 226 255
204 226 255
204 226 255
204 226 255
204 226 255
204 226 255
204 226 255
204 226 255
204 226 255
204 226 255
204 226 255
204 226 255
204 226 255
204 226 255
204 226 255
204 226 255
204 226 255
204 226 255
204 226 255
204 226 255
204 226 255
204 226 255
204 226 255
204 226 255
204 226 255
204 226 255
204 226 255
204 226 255
204 226 255
204 226 255
204 226 255
204 226 255
204 226 255
204 226 255
204 226 255
204 226 255
204 226 255
204 226 255
204 226 255
204 226 255
204 226 255
204 226 255
204 226 255
204 226 255
204 226 255
204 226 255
204 226 255
204 226 255
204 226 255
204 226 255
204 226 255
205 226 255
205 226 255
205 226 255
205 226 255
205 226 255
205 226 255
205 226 255
205 226 255
205 226 255
205 226 255
205 226 255
205 226 255
205 227 255
205 227 255
205 227 255
205 227 255
205 227 255
205 227 255
205 227 255
205 227 255
205 227 255
205 227 255
205 227 255
205 227 255
205 227 255
205 227 255
206 227 255
206 227 255
206 227 255
206 227 255
206 227 255
206 227 255
206 227 255
206 227 255
206 227 255
206 227 255
206 227 255
206 227 255
206 227 255
206 227 255
206 227 255
206 227 255
206 227 255
206 227 255
206 227 255
207 227 255
207 227 255
207 227 255
207 227 255
207 227 255
207 228 255
207 228 255
207 228 255
207 228 255
207 228 255
207 228 255
207 228 255
207 228 255
207 228 255
207 228 255
207 228 255
207 228 255
207 228 255
207 228 255
208 228 255
208 228 255
208 228 255
208 228 255
208 228 255
208 228 255
206 226 253
180 193 203
147 152 138
129 127 84
133 131 87
129 128 86
128 126 84
138 138 93
134 133 89
141 139 93
140 139 93
139 138 93
148 147 99
135 133 89
144 144 97
135 135 91
139 138 93
143 141 95
143 142 95
154 153 103
144 143 96
138 137 92
146 146 98
145 143 96
141 139 93
148 147 99
140 139 93
147 146 98
150 148 99
150 149 100
143 142 95
141 139 93
156 155 104
146 145 97
152 150 101
149 147 99
146 144 96
156 154 103
155 152 101
151 149 99
145 142 95
143 141 95
147 144 96
141 139 92
156 154 103
146 143 95
142 140 93
146 144 96
150 148 99
145 143 95
140 139 93
145 143 95
143 141 93
148 146 96
149 147 97
153 150 100
142 140 92
151 148 98
147 144 95
154 151 100
150 147 97
146 142 94
152 148 97
138 136 90
145 143 94
146 143 94
152 149 98
151 148 97
139 136 88
153 150 98
142 139 90
147 145 95
149 146 97
135 132 87
144 141 94
140 137 90
138 136 89
148 145 95
149 146 94
147 143 95
140 137 90
143 140 93
150 146 92
146 142 91
137 134 87
140 136 87
131 127 82
145 141 90
131 129 83
144 140 90
142 139 90
143 138 89
142 138 88
134 131 81
138 134 83
136 133 83
125 122 79
148 142 91
133 129 81
130 126 80
128 125 79
151 156 145
211 230 253
210 229 252
209 228 249
209 228 248
210 229 253
211 230 254
210 229 255
209 228 254
210 229 255
209 229 255
208 228 255
208 228 255
207 227 255
207 228 255
207 227 255
207 227 255
205 226 254
204 226 255
204 226 255
205 226 255
204 226 254
203 226 255
203 226 255
203 225 255
201 224 254
202 225 255
201 224 255
201 225 255
201 224 255
200 224 255
200 224 255
199 223 255
199 223 255
199 223 255
198 223 255
198 223 255
198 223 255
197 222 255
197 222 255
197 222 255
196 222 255
196 222 255
196 222 255
195 221 255
195 221 255
194 221 255
195 221 255
194 221 255
193 220 255
194 221 255
193 220 255
193 220 255
193 220 255
193 220 255
193 220 255
192 220 255
192 220 255
192 219 255
192 219 255
192 219 255
192 220 255
190 219 255
192 219 255
190 219 255
191 219 255
191 219 255
191 219 255
190 219 255
191 219 255
191 219 255
191 219 255
191 219 255
191 219 255
192 219 255
191 219 255
192 219 254
191 219 255
192 220 255
192 220 255
192 220 255
194 220 255
193 220 255
193 220 255
194 221 255
194 221 255
195 221 255
195 221 255
196 222 255
196 222 255
196 222 255
198 223 255
198 223 255
199 223 255
199 223 255
201 224 255
202 225 255
202 225 255
204 226 254
203 226 255
204 226 252
206 226 249
206 227 255
208 228 255
207 228 254
208 228 255
208 228 255
208 228 255
208 228 255
208 228 255
208 228 255
208 228 255
208 228 255
207 228 255
207 228 255
207 228 255
207 228 255
207 228 255
207 228 255
207 228 255
207 228 255
207 228 255
207 228 255
207 228 255
207 228 255
207 228 255
207 228 255
207 227 255
207 227 255
207 227 255
207 227 255
207 227 255
206 227 255
206 227 255
206 227 255
206 227 255
206 227 255
206 227 255
206 227 255
206 227 255
206 227 255
206 227 255
206 227 255
206 227 255
206 227 255
206 227 255
206 227 255
206 227 255
206 227 255
206 227 255
206 227 255
206 227 255
206 227 255
205 227 255
205 227 255
205 227 255
205 227 255
205 227 255
205 227 255
205 227 255
205 227 255
205 227 255
205 227 255
205 227 255
205 227 255
205 227 255
205 227 255
205 227 255
205 226 255
205 226 255
205 226 255
205 226 255
205 226 255
205 226 255
205 226 255
205 226 255
205 226 255
205 226 255
205 226 255
205 226 255
205 226 255
205 226 255
205 226 255
205 226 255
204 226 255
204 226 255
204 226 255
204 226 255
204 226 255
204 226 255
204 226 255
204 226 255
204 226 255
204 226 255
204 226 255
204 226 255
204 226 255
204 226 255
204 226 255
204 226 255
204 226 255
204 226 255
204 226 255
204 226 255
204 226 255
204 226 255
204 226 255
204 226 255
204 226 255
204 226 255
204 226 255
204 226 255
204 226 255
204 226 255
204 226 255
204 226 255
204 226 255
205 226 255
204 226 255
205 226 255
205 226 255
205 226 255
205 226 255
205 226 255
205 226 255
205 226 255
205 226 255
205 226 255
205 226 255
205 226 255
205 226 255
205 226 255
205 226 255
205 226 255
205 227 255
205 227 255
205 227 255
205 227 255
205 227 255
205 227 255
205 227 255
205 227 255
205 227 255
205 227 255
205 227 255
205 227 255
205 227 255
205 227 255
205 227 255
206 227 255
206 227 255
206 227 255
206 227 255
206 227 255
206 227 255
206 227 255
206 227 255
206 227 255
206 227 255
206 227 255
206 227 255
206 227 255
206 227 255
206 227 255
206 227 255
206 227 255
206 227 255
206 227 255
206 227 255
206 227 255
207 227 255
207 227 255
207 227 255
207 227 255
207 227 255
207 228 255
207 228 255
207 228 255
207 228 255
207 228 255
207 228 255
207 228 255
207 228 255
207 228 255
207 228 255
207 228 255
207 228 255
207 228 255
207 228 255
208 228 255
208 228 255
208 228 255
208 228 255
208 228 255
208 228 255
208 228 255
208 228 255
196 214 235
174 184 187
131 130 92
130 128 86
129 127 84
131 130 88
137 135 90
134 133 90
143 141 94
139 138 93
139 139 93
142 140 94
137 136 91
146 145 97
139 139 93
140 140 94
143 141 95
147 146 98
145 143 96
142 141 95
140 139 94
150 148 99
142 140 94
148 146 98
148 147 99
140 139 93
152 150 101
146 145 98
141 140 94
145 144 97
144 142 95
144 143 95
142 141 95
148 147 99
150 148 99
144 142 95
157 155 104
149 148 99
153 151 101
152 150 100
149 146 97
148 146 98
144 142 95
136 136 91
147 145 97
153 151 101
143 141 94
141 140 93
143 141 93
144 142 95
142 140 93
151 148 99
150 148 99
153 150 99
151 149 99
141 139 93
151 149 99
153 151 101
145 142 93
134 131 86
152 149 98
149 147 96
147 145 95
145 143 95
150 146 96
154 151 99
141 139 92
143 140 93
151 148 97
144 141 93
144 141 93
145 143 94
147 144 94
151 148 98
152 149 98
149 145 93
144 141 93
143 139 88
145 142 93
138 135 88
136 134 88
151 149 97
147 144 95
140 136 89
139 135 88
132 129 84
140 136 90
142 139 90
149 144 93
137 134 87
140 137 88
148 143 93
138 134 86
130 126 81
136 133 85
133 130 84
139 135 87
142 137 86
143 139 90
132 129 82
135 131 83
133 128 81
120 116 74
134 129 84
210 229 249
209 229 254
210 229 254
210 229 255
210 229 255
210 229 254
209 229 255
209 229 255
208 228 255
209 229 255
207 228 255
207 228 255
206 227 255
205 227 255
205 227 255
204 226 254
205 227 255
203 226 255
204 226 255
203 225 255
202 225 254
203 226 255
201 224 254
201 225 255
202 225 255
200 224 255
200 224 255
200 224 255
200 224 255
199 223 255
199 223 255
198 223 255
198 223 255
198 223 255
197 223 255
197 222 255
197 222 255
196 222 255
196 222 255
195 221 255
195 221 255
194 221 255
194 221 255
194 221 255
194 220 254
194 221 255
193 220 255
193 220 255
193 220 255
193 220 255
192 220 255
192 220 255
191 219 255
192 220 255
191 219 255
191 219 255
191 219 255
190 219 255
191 219 255
190 219 255
190 218 255
190 219 255
190 219 255
190 218 255
190 219 255
189 218 255
189 218 255
190 218 255
189 218 255
190 219 255
189 218 255
190 218 255
189 218 255
189 218 255
190 219 255
189 218 255
190 219 255
190 219 255
190 219 255
190 219 255
191 219 255
191 219 255
191 219 255
192 219 255
192 220 255
193 220 255
192 220 255
193 220 255
194 221 255
194 220 254
195 221 255
195 221 255
197 222 254
197 222 255
198 223 254
199 223 255
201 224 255
201 225 255
202 225 255
202 225 255
205 227 255
205 227 255
205 226 253
207 227 254
208 228 254
208 228 254
208 228 255
208 228 255
208 228 255
208 228 255
208 228 255
208 228 255
208 228 255
208 228 255
208 228 255
208 228 255
207 228 255
207 228 255
207 228 255
207 228 255
207 228 255
207 228 255
207 228 255
207 228 255
207 228 255
207 228 255
207 228 255
207 228 255
207 228 255
207 228 255
207 228 255
207 227 255
207 227 255
207 227 255
207 227 255
207 227 255
206 227 255
206 227 255
206 227 255
206 227 255
206 227 255
206 227 255
206 227 255
206 227 255
206 227 255
206 227 255
206 227 255
206 227 255
206 227 255
206 227 255
206 227 255
206 227 255
206 227 255
206 227 255
206 227 255
206 227 255
206 227 255
206 227 255
205 227 255
205 227 255
205 227 255
205 227 255
205 227 255
205 227 255
205 227 255
205 227 255
205 227 255
205 227 255
205 227 255
205 227 255
205 227 255
205 227 255
205 227 255
205 227 255
205 227 255
205 227 255
205 226 255
205 226 255
205 226 255
205 226 255
205 226 255
205 226 255
205 226 255
205 226 255
205 226 255
205 226 255
205 226 255
205 226 255
205 226 255
205 226 255
205 226 255
205 226 255
205 226 255
205 226 255
205 226 255
205 226 255
205 226 255
205 226 255
205 226 255
205 226 255
205 226 255
205 226 255
205 226 255
205 226 255
205 226 255
205 226 255
205 226 255
205 226 255
205 226 255
205 226 255
205 226 255
205 226 255
205 226 255
205 226 255
205 226 255
205 226 255
205 226 255
205 226 255
205 226 255
205 226 255
205 226 255
205 226 255
205 226 255
205 226 255
205 227 255
205 227 255
205 227 255
205 227 255
205 227 255
205 227 255
205 227 255
205 227 255
205 227 255
205 227 255
205 227 255
205 227 255
205 227 255
205 227 255
205 227 255
205 227 255
205 227 255
205 227 255
206 227 255
206 227 255
206 227 255
206 227 255
206 227 255
206 227 255
206 227 255
206 227 255
206 227 255
206 227 255
206 227 255
206 227 255
206 227 255
206 227 255
206 227 255
206 227 255
206 227 255
206 227 255
206 227 255
206 227 255
206 227 255
206 227 255
207 227 255
207 227 255
207 227 255
207 227 255
207 227 255
207 228 255
207 228 255
207 228 255
207 228 255
207 228 255
207 228 255
207 228 255
207 228 255
207 228 255
207 228 255
207 228 255
207 228 255
207 228 255
207 228 255
207 228 255
208 228 255
208 228 255
208 228 255
208 228 255
208 228 255
208 228 255
208 228 255
208 228 255
208 228 255
206 226 252
184 199 215
145 151 145
131 129 86
136 134 90
134 133 89
130 128 86
142 140 93
143 141 95
141 139 94
147 145 98
135 134 90
141 140 94
138 137 92
143 141 95
142 140 94
152 150 101
139 138 93
142 141 95
143 141 95
149 148 99
153 152 102
139 138 93
145 144 97
145 144 97
147 146 98
144 143 96
142 140 94
143 141 95
145 143 96
150 149 100
145 144 97
146 144 97
153 152 102
151 149 100
147 145 97
149 147 99
153 149 99
149 147 99
148 147 99
144 142 95
150 148 99
149 147 98
152 149 99
146 144 96
151 149 100
153 151 100
148 146 98
147 145 97
151 148 98
145 143 95
158 155 103
146 144 96
146 144 96
148 146 96
154 151 100
150 148 99
151 149 99
146 144 96
151 149 99
146 144 95
154 151 101
147 145 96
143 141 93
155 151 99
149 146 95
149 146 97
153 150 98
147 145 95
144 141 93
142 139 91
150 147 95
150 147 96
148 145 96
141 137 89
153 150 97
156 152 101
152 148 97
150 146 97
150 148 95
147 144 95
152 150 96
148 145 95
151 149 97
151 148 95
144 141 93
141 137 90
148 144 93
142 138 90
150 147 95
148 144 93
148 145 95
142 138 87
140 136 87
151 147 96
133 130 82
140 137 86
134 131 83
143 140 87
136 132 85
150 146 94
139 136 88
142 137 87
135 132 85
141 138 88
130 127 79
132 127 80
211 230 254
212 230 255
210 229 254
210 229 255
208 228 255
208 228 255
209 229 255
207 228 255
207 228 255
207 227 254
207 227 255
206 227 255
206 227 255
205 227 255
204 226 255
204 226 255
204 226 255
203 225 255
202 225 255
203 225 255
202 225 255
201 225 254
201 224 255
200 224 255
201 224 255
200 224 255
200 224 255
199 224 255
199 223 255
198 223 255
198 223 255
198 223 255
197 222 255
197 222 255
196 222 255
196 222 255
196 222 255
195 221 255
195 221 255
195 221 255
194 221 255
194 221 255
194 220 255
193 220 255
193 220 255
192 220 255
192 220 255
192 220 255
192 219 255
191 219 255
191 219 255
191 219 255
191 219 255
191 219 255
190 219 255
189 218 255
190 219 255
189 218 255
189 218 255
189 218 255
189 218 255
189 218 255
189 218 255
189 218 255
189 218 255
188 218 255
188 218 255
188 218 255
188 218 255
188 218 255
188 217 255
188 218 255
188 217 255
188 218 255
189 218 255
188 218 255
189 218 255
189 218 255
189 218 255
189 218 255
189 218 255
189 218 255
190 219 255
190 218 255
190 219 255
191 219 255
191 219 255
191 219 255
192 220 255
192 219 255
193 220 255
194 220 255
194 221 255
195 221 255
196 222 255
196 221 254
198 223 255
197 222 255
199 223 255
200 224 255
202 225 255
202 225 254
204 226 254
206 227 253
204 226 253
208 228 254
207 227 250
208 228 255
208 228 255
208 228 255
208 228 255
208 228 255
208 228 255
208 228 255
208 228 255
208 228 255
208 228 255
208 228 255
208 228 255
208 228 255
208 228 255
207 228 255
207 228 255
207 228 255
207 228 255
207 228 255
207 228 255
207 228 255
207 228 255
207 228 255
207 228 255
207 228 255
207 228 255
207 228 255
207 228 255
207 228 255
207 227 255
207 227 255
207 227 255
207 227 255
207 227 255
206 227 255
206 227 255
206 227 255
206 227 255
206 227 255
206 227 255
206 227 255
206 227 255
206 227 255
206 227 255
206 227 255
206 227 255
206 227 255
206 227 255
206 227 255
206 227 255
206 227 255
206 227 255
206 227 255
206 227 255
206 227 255
206 227 255
206 227 255
205 227 255
205 227 255
205 227 255
205 227 255
205 227 255
205 227 255
205 227 255
205 227 255
205 227 255
205 227 255
205 227 255
205 227 255
205 227 255
205 227 255
205 227 255
205 227 255
205 227 255
205 227 255
205 227 255
205 227 255
205 227 255
205 227 255
205 227 255
205 227 255
205 227 255
205 226 255
205 226 255
205 226 255
205 226 255
205 226 255
205 226 255
205 226 255
205 226 255
205 226 255
205 226 255
205 226 255
205 226 255
205 226 255
205 226 255
205 226 255
205 226 255
205 226 255
205 226 255
205 226 255
205 226 255
205 226 255
205 227 255
205 227 255
205 227 255
205 227 255
205 227 255
205 227 255
205 227 255
205 227 255
205 227 255
205 227 255
205 227 255
205 227 255
205 227 255
205 227 255
205 227 255
205 227 255
205 227 255
205 227 255
205 227 255
205 227 255
205 227 255
205 227 255
205 227 255
205 227 255
205 227 255
205 227 255
206 227 255
206 227 255
206 227 255
206 227 255
206 227 255
206 227 255
206 227 255
206 227 255
206 227 255
206 227 255
206 227 255
206 227 255
206 227 255
206 227 255
206 227 255
206 227 255
206 227 255
206 227 255
206 227 255
206 227 255
206 227 255
206 227 255
206 227 255
207 227 255
207 227 255
207 227 255
207 227 255
207 227 255
207 228 255
207 228 255
207 228 255
207 228 255
207 228 255
207 228 255
207 228 255
207 228 255
207 228 255
207 228 255
207 228 255
207 228 255
207 228 255
207 228 255
207 228 255
208 228 255
208 228 255
208 228 255
208 228 255
208 228 255
208 228 255
208 228 255
208 228 255
208 228 255
208 228 255
208 228 255
208 228 255
206 225 252
176 188 196
144 146 120
124 122 81
126 125 84
142 140 93
135 133 89
137 136 91
144 143 96
147 145 97
142 140 94
145 145 97
144 143 96
142 141 95
149 148 99
137 137 92
142 141 95
141 140 94
148 147 99
148 146 98
143 142 95
140 139 94
140 139 93
149 148 100
152 150 101
155 154 103
151 149 100
143 143 96
150 148 99
146 144 97
143 142 95
139 138 93
144 143 96
148 147 99
142 141 95
152 150 101
150 148 99
154 152 102
145 144 96
143 142 95
150 148 99
148 146 98
149 147 99
156 154 103
150 148 99
156 154 103
153 151 101
155 153 103
157 154 103
149 146 97
147 146 97
154 152 101
151 149 99
150 147 97
142 140 93
145 142 93
153 150 99
157 154 103
144 142 94
151 147 97
149 147 97
149 146 97
150 148 97
153 149 99
145 142 94
148 145 97
151 148 97
154 151 100
151 149 97
147 143 95
146 143 95
150 147 95
161 158 105
151 147 95
154 149 97
153 151 100
153 150 98
156 153 101
151 149 99
154 150 98
145 142 92
146 143 94
151 147 95
153 150 98
146 142 91
148 145 95
144 141 93
150 146 95
150 147 95
148 143 92
147 145 94
148 145 94
138 135 87
147 143 92
136 133 86
137 134 87
148 144 93
148 144 93
138 135 87
140 135 86
132 129 84
141 136 84
133 130 84
139 136 87
144 139 90
146 142 88
143 139 88
142 138 87
144 140 89
210 229 255
209 229 255
209 229 254
209 228 255
209 229 255
207 228 255
207 227 255
207 227 255
206 227 255
206 227 255
205 227 255
205 227 255
205 227 255
204 226 255
204 226 255
203 226 255
203 226 255
202 225 255
202 225 255
202 225 255
202 225 255
201 225 255
200 224 255
200 224 255
200 224 255
199 223 255
199 223 255
198 223 255
198 223 255
198 223 255
197 222 255
197 222 255
196 222 255
196 222 255
196 222 255
195 221 255
195 221 255
195 221 255
194 221 255
194 220 255
193 220 255
193 220 255
193 220 255
193 220 255
192 220 255
192 219 255
192 219 255
192 220 255
191 219 255
191 219 255
191 219 255
190 219 255
190 219 255
190 219 255
190 218 255
189 218 255
189 218 255
189 218 255
189 218 255
189 218 255
188 218 255
188 218 255
188 217 255
188 218 255
188 217 255
187 217 255
188 217 255
187 217 255
187 217 255
187 217 255
187 217 255
187 217 255
187 217 255
187 217 255
187 217 255
187 217 255
187 217 255
187 217 255
188 217 255
187 217 255
188 217 255
188 217 255
188 217 255
188 218 255
188 218 255
189 218 255
189 218 255
189 218 255
190 218 255
190 219 255
191 219 255
191 219 255
192 220 255
192 220 255
194 220 255
194 221 255
195 221 255
196 222 255
197 222 255
197 222 255
199 223 255
200 224 255
201 225 255
201 224 255
203 225 255
204 226 255
203 225 249
206 227 254
208 228 255
208 228 254
209 228 255
208 228 255
208 228 255
208 228 255
208 228 255
208 228 255
208 228 255
208 228 255
208 228 255
208 228 255
208 228 255
208 228 255
208 228 255
208 228 255
208 228 255
207 228 255
207 228 255
207 228 255
207 228 255
207 228 255
207 228 255
207 228 255
207 228 255
207 228 255
207 228 255
207 228 255
207 228 255
207 228 255
207 228 255
207 228 255
207 228 255
207 227 255
207 227 255
207 227 255
207 227 255
207 227 255
206 227 255
206 227 255
206 227 255
206 227 255
206 227 255
206 227 255
206 227 255
206 227 255
206 227 255
206 227 255
206 227 255
206 227 255
206 227 255
206 227 255
206 227 255
206 227 255
206 227 255
206 227 255
206 227 255
206 227 255
206 227 255
206 227 255
206 227 255
206 227 255
206 227 255
206 227 255
206 227 255
205 227 255
205 227 255
205 227 255
205 227 255
205 227 255
205 227 255
205 227 255
205 227 255
205 227 255
205 227 255
205 227 255
205 227 255
205 227 255
205 227 255
205 227 255
205 227 255
205 227 255
205 227 255
205 227 255
205 227 255
205 227 255
205 227 255
205 227 255
205 227 255
205 227 255
204 226 255
198 220 251
199 221 252
203 225 254
205 227 255
205 227 255
205 227 255
205 227 255
205 227 255
205 227 255
205 227 255
205 227 255
205 227 255
205 227 255
205 227 255
205 227 255
205 227 255
205 227 255
205 227 255
205 227 255
205 227 255
205 227 255
205 227 255
205 227 255
205 227 255
205 227 255
205 227 255
205 227 255
205 227 255
206 227 255
206 227 255
206 227 255
206 227 255
206 227 255
206 227 255
206 227 255
206 227 255
206 227 255
206 227 255
206 227 255
206 227 255
206 227 255
206 227 255
206 227 255
206 227 255
206 227 255
206 227 255
206 227 255
206 227 255
206 227 255
206 227 255
206 227 255
206 227 255
206 227 255
206 227 255
206 227 255
207 227 255
207 227 255
207 227 255
207 227 255
207 227 255
207 228 255
207 228 255
207 228 255
207 228 255
207 228 255
207 228 255
207 228 255
207 228 255
207 228 255
207 228 255
207 228 255
207 228 255
207 228 255
207 228 255
207 228 255
207 228 255
208 228 255
208 228 255
208 228 255
208 228 255
208 228 255
208 228 255
208 228 255
208 228 255
208 228 255
208 228 255
208 228 255
208 228 255
208 228 255
208 228 255
202 221 248
176 189 200
134 135 105
130 128 85
131 129 87
138 136 91
138 138 93
132 131 87
141 139 93
144 142 95
145 143 95
144 143 96
147 146 98
136 135 90
130 128 86
152 152 102
140 139 93
145 144 97
149 148 99
151 150 101
135 134 90
152 150 101
152 151 101
145 145 97
144 142 95
154 153 103
144 143 96
151 149 100
146 145 97
144 142 96
155 153 103
156 155 104
146 145 97
145 143 95
158 156 105
148 146 98
150 149 99
151 149 99
155 152 101
145 143 96
152 150 101
148 147 99
155 153 103
158 156 104
150 148 99
156 154 103
158 156 104
152 150 100
154 153 103
160 157 105
149 147 98
159 157 104
154 153 103
149 146 97
158 155 104
152 149 99
155 153 101
152 149 99
148 146 97
152 150 100
154 152 102
148 146 97
151 148 98
145 142 95
155 153 100
152 150 100
144 141 91
153 149 99
147 144 95
155 152 101
152 149 98
153 149 99
147 144 95
149 147 97
151 147 95
152 148 97
153 150 99
152 149 95
150 147 96
155 152 99
157 154 100
152 149 98
142 138 90
149 145 95
152 148 95
154 151 99
149 145 94
142 140 90
150 146 92
151 147 95
154 149 98
150 147 96
142 138 88
154 150 96
147 144 93
147 144 91
143 139 90
147 143 90
144 141 92
153 148 93
148 144 94
144 139 90
144 139 90
137 132 85
139 135 85
150 146 93
153 148 94
145 141 90
151 147 95
128 125 80
135 131 83
210 229 255
210 229 255
208 228 254
207 228 255
208 228 255
207 228 255
207 227 255
207 228 255
206 227 255
205 227 255
204 226 255
205 226 255
204 226 255
204 226 255
203 225 255
203 225 255
202 225 255
203 225 255
201 224 255
201 224 255
201 224 255
201 224 255
200 224 255
199 224 255
199 223 255
198 223 255
198 223 255
198 223 255
197 222 255
197 222 255
197 222 255
196 222 255
196 222 255
196 222 255
196 222 255
195 221 255
195 221 255
194 221 255
194 221 255
193 220 255
193 220 255
193 220 255
192 220 255
192 219 255
192 219 255
192 219 255
191 219 255
191 219 255
190 219 255
190 219 255
190 218 255
190 218 255
189 218 255
189 218 255
188 218 255
189 218 255
188 218 255
188 217 255
188 217 255
187 217 255
187 217 255
187 217 255
187 217 255
187 217 255
186 217 255
186 217 255
186 217 255
186 217 255
186 216 255
186 217 255
186 216 255
186 216 255
186 216 255
186 216 255
186 216 255
186 216 255
186 217 255
186 217 255
186 216 255
186 216 255
186 217 255
186 217 255
186 217 255
186 217 255
187 217 255
187 217 255
188 217 255
188 218 255
188 218 255
188 218 255
189 218 255
189 218 255
190 219 255
191 219 255
191 219 255
191 219 255
193 220 255
194 220 255
195 221 255
196 222 255
196 222 255
197 222 255
199 223 254
199 224 255
201 224 255
202 225 255
203 226 255
204 226 254
206 227 255
205 226 250
205 226 252
209 228 254
208 228 255
208 228 255
208 228 255
208 228 255
208 228 255
208 228 255
208 228 255
208 228 255
208 228 255
208 228 255
208 228 255
208 228 255
208 228 255
208 228 255
208 228 255
208 228 255
208 228 255
208 228 255
207 228 255
207 228 255
207 228 255
207 228 255
207 228 255
207 228 255
207 228 255
207 228 255
207 228 255
207 228 255
207 228 255
207 228 255
207 228 255
207 228 255
207 228 255
207 228 255
207 227 255
207 227 255
207 227 255
207 227 255
207 227 255
207 227 255
206 227 255
206 227 255
206 227 255
206 227 255
206 227 255
206 227 255
206 227 255
206 227 255
206 227 255
206 227 255
206 227 255
206 227 255
206 227 255
206 227 255
206 227 255
206 227 255
206 227 255
206 227 255
206 227 255
206 227 255
206 227 255
206 227 255
206 227 255
206 227 255
206 227 255
206 227 255
206 227 255
206 227 255
206 227 255
206 227 255
206 227 255
206 227 255
205 227 255
205 227 255
205 227 255
205 227 255
205 227 255
204 225 254
184 206 241
173 195 233
145 169 217
130 155 208
128 153 207
88 119 188
67 103 178
62 99 173
62 99 176
62 99 175
62 99 177
62 99 177
62 99 176
76 109 180
107 134 194
100 129 194
130 155 209
142 166 213
167 190 230
190 212 245
205 227 255
205 227 255
205 227 255
205 227 255
205 227 255
206 227 255
206 227 255
206 227 255
206 227 255
206 227 255
206 227 255
206 227 255
206 227 255
206 227 255
206 227 255
206 227 255
206 227 255
206 227 255
206 227 255
206 227 255
206 227 255
206 227 255
206 227 255
206 227 255
206 227 255
206 227 255
206 227 255
206 227 255
206 227 255
206 227 255
206 227 255
206 227 255
206 227 255
206 227 255
206 227 255
206 227 255
206 227 255
206 227 255
207 227 255
207 227 255
207 227 255
207 227 255
207 227 255
207 227 255
207 228 255
207 228 255
207 228 255
207 228 255
207 228 255
207 228 255
207 228 255
207 228 255
207 228 255
207 228 255
207 228 255
207 228 255
207 228 255
207 228 255
207 228 255
207 228 255
208 228 255
208 228 255
208 228 255
208 228 255
208 228 255
208 228 255
208 228 255
208 228 255
208 228 255
208 228 255
208 228 255
208 228 255
208 228 255
208 228 255
208 228 255
208 228 255
208 228 255
203 222 247
181 194 201
134 137 117
129 127 84
137 136 91
140 138 93
132 131 88
132 131 87
147 145 97
147 145 97
139 137 92
141 139 93
140 140 94
128 127 85
137 137 92
147 146 98
147 146 98
150 149 101
152 151 101
141 140 94
151 151 101
144 142 95
142 141 95
152 150 101
138 137 92
155 154 103
152 151 101
143 142 95
141 141 95
142 141 95
152 150 101
144 143 96
147 145 97
152 150 101
149 147 98
147 145 97
160 159 106
154 152 102
150 149 100
152 150 101
156 154 103
156 154 103
152 149 99
150 148 99
147 145 97
157 154 103
150 147 97
152 150 100
160 156 104
154 152 101
159 156 103
149 146 97
150 148 99
150 148 99
154 152 101
156 153 102
158 155 103
154 151 99
151 149 98
157 155 103
147 145 97
154 151 101
149 146 95
152 150 100
162 159 104
159 156 103
153 150 100
156 153 101
146 143 95
149 147 97
146 142 93
150 147 97
151 147 96
152 149 99
151 148 97
148 144 93
152 149 97
151 148 95
154 150 99
153 150 99
153 149 97
159 155 101
150 147 96
155 152 99
144 142 92
153 150 96
155 152 98
140 138 89
154 151 99
149 146 95
134 132 85
149 146 95
150 147 93
151 147 93
143 139 87
151 148 97
151 146 93
144 141 93
155 151 97
141 137 86
140 137 87
142 140 89
141 138 87
147 142 91
144 141 89
136 133 84
145 141 88
140 136 86
142 138 90
142 137 89
146 143 90
147 142 90
139 134 84
209 229 255
209 229 255
208 228 255
208 228 255
206 227 255
207 228 255
206 227 255
206 227 255
205 227 254
204 226 255
204 226 255
204 226 255
203 226 255
203 225 255
204 226 255
201 225 255
202 225 255
201 224 255
201 224 255
200 224 255
200 224 255
199 223 255
199 223 255
199 223 255
198 223 255
198 223 255
198 223 255
197 222 255
197 222 255
197 222 255
196 222 255
195 221 255
195 221 255
195 221 255
195 221 255
194 221 255
194 221 255
193 220 255
193 220 255
193 220 255
192 220 255
192 220 255
192 219 255
191 219 255
191 219 255
191 219 255
190 219 255
190 218 255
190 218 255
189 218 255
189 218 255
189 218 255
188 218 255
188 218 255
188 218 255
188 217 255
187 217 255
187 217 255
187 217 255
187 217 255
187 217 255
186 217 255
186 217 255
186 216 255
186 216 255
186 216 255
186 216 255
185 216 255
185 216 255
185 216 255
185 216 255
185 216 255
185 216 255
185 216 255
185 216 255
185 216 255
185 216 255
185 216 255
185 216 255
185 216 255
185 216 255
185 216 255
185 216 255
185 216 255
186 216 255
186 216 255
187 217 255
186 217 255
187 217 255
187 217 255
187 217 255
188 218 255
189 218 255
188 218 255
189 218 255
190 218 255
191 219 255
191 219 255
192 219 255
193 220 255
194 221 255
195 221 255
195 221 255
197 222 255
198 223 255
199 223 255
200 224 255
202 225 255
204 226 255
204 226 254
205 226 250
206 227 252
207 227 253
208 228 254
209 228 255
208 228 255
208 228 255
208 228 255
208 228 255
208 228 255
208 228 255
208 228 255
208 228 255
208 228 255
208 228 255
208 228 255
208 228 255
208 228 255
208 228 255
208 228 255
208 228 255
208 228 255
208 228 255
208 228 255
208 228 255
207 228 255
207 228 255
207 228 255
207 228 255
207 228 255
207 228 255
207 228 255
207 228 255
207 228 255
207 228 255
207 228 255
207 228 255
207 228 255
207 228 255
207 228 255
207 228 255
207 228 255
207 227 255
207 227 255
207 227 255
207 227 255
207 227 255
207 227 255
206 227 255
206 227 255
206 227 255
206 227 255
206 227 255
206 227 255
206 227 255
206 227 255
206 227 255
206 227 255
206 227 255
206 227 255
206 227 255
206 227 255
206 227 255
206 227 255
206 227 255
206 227 255
206 227 255
206 227 255
206 227 255
206 227 255
206 227 255
206 227 255
206 227 255
206 227 255
206 227 255
202 223 253
177 199 236
153 176 220
117 143 199
68 103 178
62 99 177
63 100 179
62 99 179
62 99 173
63 99 179
62 99 176
62 99 175
63 99 176
62 99 175
62 99 174
62 99 177
62 99 175
62 99 175
61 98 177
62 99 177
62 99 174
63 99 179
62 98 173
62 98 176
62 98 173
79 111 184
109 136 198
145 169 216
180 202 237
205 226 255
206 227 255
206 227 255
206 227 255
206 227 255
206 227 255
206 227 255
206 227 255
206 227 255
206 227 255
206 227 255
206 227 255
206 227 255
206 227 255
206 227 255
206 227 255
206 227 255
206 227 255
206 227 255
206 227 255
206 227 255
206 227 255
206 227 255
206 227 255
206 227 255
206 227 255
206 227 255
206 227 255
207 227 255
207 227 255
207 227 255
207 227 255
207 227 255
207 227 255
207 228 255
207 228 255
207 228 255
207 228 255
207 228 255
207 228 255
207 228 255
207 228 255
207 228 255
207 228 255
207 228 255
207 228 255
207 228 255
207 228 255
207 228 255
207 228 255
207 228 255
208 228 255
208 228 255
208 228 255
208 228 255
208 228 255
208 228 255
208 228 255
208 228 255
208 228 255
208 228 255
208 228 255
208 228 255
208 228 255
208 228 255
208 228 255
208 228 255
208 228 255
208 228 255
208 228 255
208 228 255
208 228 254
174 188 200
136 137 108
143 141 94
143 141 94
125 123 82
137 136 91
129 127 86
131 130 87
134 132 89
134 133 90
140 139 94
138 137 92
142 142 95
139 138 93
143 142 96
147 145 97
140 139 93
138 137 92
141 140 94
140 138 93
139 137 92
159 157 105
146 146 98
150 149 100
148 146 97
142 140 94
154 152 102
151 149 99
148 146 98
145 144 97
152 150 101
150 148 99
160 158 106
148 146 98
144 142 95
151 149 100
150 148 99
157 155 104
156 154 103
159 156 104
145 143 95
153 150 100
153 151 101
151 149 100
158 157 105
161 159 106
156 154 103
155 153 102
147 144 96
151 149 99
161 158 104
155 153 102
152 150 100
156 152 101
156 153 101
151 148 98
161 158 104
156 153 102
156 152 101
149 146 96
155 152 100
152 150 99
147 145 97
155 152 101
146 143 95
154 151 99
151 147 97
153 151 100
160 156 103
152 150 99
156 152 99
151 148 99
153 149 97
158 155 101
160 156 102
151 149 97
153 150 98
150 147 95
152 149 98
148 146 96
159 155 101
157 154 101
153 150 97
146 143 92
155 151 99
149 146 91
147 144 95
150 146 92
148 145 94
151 147 95
149 146 94
153 150 95
148 144 95
152 148 96
154 149 96
146 142 90
146 142 91
136 133 85
145 141 93
148 144 95
145 142 93
144 141 92
152 148 95
145 141 91
141 138 88
147 143 92
138 135 87
145 142 90
143 139 86
147 143 91
148 144 91
148 143 90
134 129 80
141 137 87
208 228 255
208 228 255
207 228 255
206 227 254
206 227 253
206 227 255
206 227 255
205 226 255
205 226 255
204 226 255
204 226 255
204 226 255
204 226 255
202 225 255
202 225 255
201 224 255
201 224 255
201 224 255
200 224 255
200 224 255
200 224 255
199 223 255
199 223 255
198 223 255
198 223 255
197 223 255
197 222 255
197 222 255
196 222 255
196 222 255
195 221 255
195 221 255
195 221 255
194 221 255
194 221 255
194 220 255
193 220 255
193 220 255
193 220 255
192 220 255
192 220 255
192 219 255
191 219 255
191 219 255
190 219 255
190 219 255
190 218 255
190 218 255
189 218 255
189 218 255
189 218 255
188 218 255
188 218 255
188 217 255
188 217 255
187 217 255
187 217 254
189 218 255
190 218 253
190 218 254
190 218 252
191 219 254
189 218 252
189 217 250
190 218 253
189 217 246
189 218 253
190 218 250
189 218 254
190 218 253
189 218 252
188 218 255
188 217 253
188 217 254
186 217 255
186 216 254
185 216 255
184 215 255
184 216 255
184 215 255
184 216 255
184 215 255
184 216 255
184 216 255
185 216 255
185 216 255
185 216 255
185 216 255
185 216 255
185 216 255
186 217 255
187 217 255
186 217 255
188 218 255
188 217 255
188 218 255
189 218 255
190 218 255
190 219 255
191 219 255
192 220 255
193 220 255
193 220 255
194 221 255
196 222 255
196 222 255
197 222 255
199 223 254
200 224 255
202 225 255
203 226 255
205 226 255
204 226 253
207 228 254
208 228 254
209 229 255
209 229 255
209 229 255
209 228 255
209 228 255
208 228 255
208 228 255
208 228 255
208 228 255
208 228 255
208 228 255
208 228 255
208 228 255
208 228 255
208 228 255
208 228 255
208 228 255
208 228 255
208 228 255
208 228 255
208 228 255
208 228 255
208 228 255
208 228 255
208 228 255
208 228 255
207 228 255
207 228 255
207 228 255
207 228 255
207 228 255
207 228 255
207 228 255
207 228 255
207 228 255
207 228 255
207 228 255
207 228 255
207 228 255
207 228 255
207 228 255
207 228 255
207 228 255
207 228 255
207 227 255
207 227 255
207 227 255
207 227 255
207 227 255
207 227 255
207 227 255
206 227 255
206 227 255
206 227 255
206 227 255
206 227 255
206 227 255
206 227 255
206 227 255
206 227 255
206 227 255
206 227 255
206 227 255
206 227 255
206 227 255
206 227 255
206 227 255
198 220 249
178 200 236
124 150 203
73 107 177
62 99 176
62 99 179
62 99 176
62 99 177
62 99 178
62 99 177
62 99 174
63 100 180
62 99 177
62 99 176
62 99 173
62 99 177
61 98 176
61 98 174
62 99 171
62 99 174
62 98 176
63 99 173
62 99 174
62 99 174
62 99 176
62 99 173
62 99 174
61 98 174
61 98 174
62 99 175
62 98 173
62 98 172
68 103 179
123 148 203
165 188 228
203 224 254
206 227 255
206 227 255
206 227 255
206 227 255
206 227 255
206 227 255
206 227 255
206 227 255
206 227 255
206 227 255
206 227 255
206 227 255
206 227 255
206 227 255
206 227 255
206 227 255
207 227 255
207 227 255
207 227 255
207 227 255
207 227 255
207 227 255
207 227 255
207 228 255
207 228 255
207 228 255
207 228 255
207 228 255
207 228 255
207 228 255
207 228 255
207 228 255
207 228 255
207 228 255
207 228 255
207 228 255
207 228 255
207 228 255
207 228 255
207 228 255
207 228 255
208 228 255
208 228 255
208 228 255
208 228 255
208 228 255
208 228 255
208 228 255
208 228 255
208 228 255
208 228 255
208 228 255
208 228 255
208 228 255
208 228 255
208 228 255
208 228 255
208 228 255
208 228 255
208 228 255
208 228 255
208 228 255
209 228 255
209 228 255
209 229 255
209 229 255
187 202 218
138 141 123
123 121 80
133 132 89
128 127 86
134 132 88
141 139 93
137 135 91
139 138 93
136 135 90
133 132 89
142 140 93
154 152 102
144 143 96
144 143 96
145 143 96
141 140 94
152 151 101
152 150 101
156 153 103
155 154 103
149 148 100
143 142 95
148 147 99
153 151 101
144 143 96
146 145 98
148 147 99
151 149 100
148 146 98
153 151 101
146 145 97
161 158 105
156 154 103
156 153 103
155 153 103
152 150 101
155 153 103
146 144 97
159 156 104
149 147 99
163 160 107
157 155 103
153 151 101
152 150 101
158 156 104
162 160 107
152 150 100
157 155 103
155 152 102
163 160 106
159 157 104
154 150 99
155 153 102
158 156 104
156 153 101
155 152 101
161 158 103
162 159 105
156 153 101
156 154 102
161 158 104
153 150 100
154 152 99
157 155 103
165 161 106
147 143 95
153 150 98
157 154 102
156 154 102
143 140 93
154 151 100
152 149 98
153 150 99
157 154 99
159 155 101
157 152 99
153 150 98
157 154 100
163 161 106
157 154 101
151 148 96
160 156 101
156 153 98
155 153 98
162 158 104
152 150 98
152 148 97
154 149 97
152 148 95
149 145 94
150 146 93
145 142 91
149 146 97
146 143 93
154 150 97
154 150 97
150 146 95
151 147 95
147 143 93
146 142 90
150 146 93
147 144 93
147 143 89
150 146 95
157 152 95
147 143 91
142 137 86
146 142 92
145 141 90
142 137 88
149 145 95
144 139 87
143 139 86
135 132 82
145 141 88
208 228 255
207 228 255
207 228 255
207 227 255
205 227 255
205 227 255
205 227 255
204 226 255
204 226 255
203 226 255
203 226 255
203 226 255
202 225 255
202 225 255
201 225 255
201 225 255
201 224 255
200 224 255
200 224 255
200 224 255
199 223 255
199 223 255
199 223 255
198 223 255
197 222 255
197 222 255
197 222 255
196 222 255
196 221 255
196 221 255
195 221 255
195 221 255
194 221 255
194 221 255
193 220 255
193 220 255
193 220 255
192 220 255
192 220 255
192 220 255
192 219 255
191 219 255
191 219 255
190 219 255
190 219 255
190 218 255
189 218 255
189 218 255
190 219 255
191 219 255
191 219 254
193 220 253
196 221 254
195 221 254
196 221 253
197 221 245
198 222 249
196 221 245
194 220 249
193 219 242
195 221 246
195 220 245
196 221 248
195 220 246
196 221 250
195 220 245
196 221 250
196 221 250
196 221 252
194 220 246
193 219 248
193 219 242
195 221 252
192 219 249
195 221 250
193 219 246
193 220 252
191 218 248
193 219 249
190 218 253
189 217 250
187 216 254
187 217 253
185 216 254
184 215 254
184 216 255
184 215 255
184 215 255
184 216 255
185 216 255
185 216 255
185 216 255
186 217 255
186 216 255
187 217 255
187 217 255
187 217 255
188 217 255
189 218 255
189 218 255
190 218 255
191 219 255
192 219 255
192 220 255
194 220 255
194 221 255
196 222 255
197 222 255
198 223 255
200 224 255
201 224 255
202 225 255
205 226 255
205 226 254
206 227 255
207 227 253
210 229 255
209 229 255
209 229 255
209 229 255
209 229 255
209 229 255
209 229 255
209 228 255
208 228 255
208 228 255
208 228 255
208 228 255
208 228 255
208 228 255
208 228 255
208 228 255
208 228 255
208 228 255
208 228 255
208 228 255
208 228 255
208 228 255
208 228 255
208 228 255
208 228 255
208 228 255
208 228 255
208 228 255
208 228 255
208 228 255
207 228 255
207 228 255
207 228 255
207 228 255
207 228 255
207 228 255
207 228 255
207 228 255
207 228 255
207 228 255
207 228 255
207 228 255
207 228 255
207 228 255
207 228 255
207 228 255
207 228 255
207 228 255
207 228 255
207 228 255
207 228 255
207 227 255
207 227 255
207 227 255
207 227 255
207 227 255
207 227 255
207 227 255
207 227 255
206 227 255
206 227 255
206 227 255
206 227 255
206 227 255
173 194 231
136 160 209
76 109 181
62 99 174
63 100 177
62 99 176
62 99 176
62 99 178
61 98 170
62 99 172
62 98 172
63 100 178
61 97 167
62 98 167
62 99 173
62 99 175
62 99 172
62 99 175
62 99 175
62 99 176
63 99 175
61 98 171
63 99 171
62 99 171
62 99 173
63 99 174
62 98 172
63 99 173
61 98 167
62 99 174
62 98 171
62 99 175
62 99 173
62 99 178
62 98 176
62 98 172
61 98 174
76 108 180
139 163 212
191 212 244
206 227 255
206 227 255
206 227 255
206 227 255
207 227 255
207 227 255
207 227 255
207 227 255
207 227 255
207 227 255
207 227 255
207 227 255
207 227 255
207 228 255
207 228 255
207 228 255
207 228 255
207 228 255
207 228 255
207 228 255
207 228 255
207 228 255
207 228 255
207 228 255
207 228 255
207 228 255
207 228 255
207 228 255
207 228 255
207 228 255
207 228 255
207 228 255
207 228 255
207 228 255
208 228 255
208 228 255
208 228 255
208 228 255
208 228 255
208 228 255
208 228 255
208 228 255
208 228 255
208 228 255
208 228 255
208 228 255
208 228 255
208 228 255
208 228 255
208 228 255
208 228 255
208 228 255
208 228 255
208 228 255
208 228 255
208 228 255
209 228 255
209 229 255
209 229 255
209 229 255
209 229 255
209 229 255
200 217 239
155 162 155
131 128 85
130 128 85
144 142 95
139 138 93
135 134 90
146 145 97
142 141 94
137 136 91
135 134 91
148 146 98
140 139 94
148 146 98
143 141 94
141 140 94
138 138 93
143 143 96
154 152 102
149 148 99
147 145 98
147 145 97
146 145 98
152 151 101
153 152 102
155 154 103
154 153 103
152 150 101
149 147 99
153 153 103
151 150 100
146 144 96
156 154 103
150 148 99
157 155 104
151 149 99
149 147 99
156 153 102
152 150 101
150 148 99
154 151 101
159 156 104
152 150 100
154 151 100
157 154 102
149 147 99
154 152 101
159 157 104
158 155 103
160 157 105
156 153 102
159 156 104
157 153 101
150 148 99
162 159 106
155 152 101
164 160 105
161 158 104
161 158 105
154 151 101
157 155 104
162 158 104
156 154 102
157 154 103
156 153 101
153 150 100
153 150 98
157 154 101
149 145 95
149 147 97
153 151 98
154 151 97
150 147 97
151 148 97
155 152 101
150 147 97
157 153 100
164 160 105
154 150 99
160 156 102
158 154 100
161 157 103
146 144 92
153 150 98
157 153 100
154 151 97
153 150 97
156 153 101
151 148 97
151 148 97
146 143 92
152 150 97
150 146 92
148 145 93
154 151 98
144 139 88
150 145 94
147 143 93
151 147 93
154 150 95
144 140 89
147 144 91
163 159 101
153 148 95
158 152 97
152 149 94
147 141 90
148 145 92
146 142 87
147 143 90
150 145 93
143 139 90
140 135 80
147 143 87
141 137 87
148 144 92
137 134 84
149 145 92
207 227 254
207 228 255
206 227 255
206 227 255
206 227 255
205 226 255
204 226 255
204 226 255
204 226 255
203 226 255
203 225 255
203 225 255
202 225 255
202 225 255
201 224 255
201 224 255
200 224 255
200 224 255
199 224 255
199 223 255
199 223 255
198 223 255
198 223 255
198 223 255
197 223 255
197 222 255
196 222 255
196 222 255
196 221 255
195 221 255
195 221 255
195 221 255
194 221 255
194 221 255
193 220 255
193 220 255
192 220 255
192 220 255
192 219 255
192 219 255
191 219 255
191 219 255
190 219 255
190 218 253
194 221 255
194 221 255
195 220 246
195 221 249
198 222 248
196 221 249
196 221 246
197 221 249
197 222 249
197 222 250
197 222 250
199 223 249
195 220 246
196 221 246
196 221 250
197 221 241
196 221 245
197 222 248
197 221 248
198 222 248
196 221 245
197 222 250
197 222 250
195 220 246
195 220 248
196 221 245
195 221 252
197 221 245
197 221 246
194 220 250
196 221 252
195 221 252
196 221 249
193 219 246
194 220 246
196 221 250
192 218 245
195 221 249
193 220 250
192 219 244
192 218 248
190 218 249
188 218 254
187 217 253
185 216 254
184 215 255
184 215 255
184 215 255
184 216 255
185 216 255
185 216 255
186 216 255
186 216 255
186 217 255
187 217 255
188 217 255
188 218 255
189 218 255
190 218 255
191 219 255
191 219 255
192 220 255
193 220 255
195 221 255
195 221 255
197 222 255
198 223 255
199 223 255
201 224 255
202 225 255
204 226 255
205 227 255
206 227 253
207 227 252
209 229 255
209 229 255
209 229 255
209 229 255
209 229 255
209 229 255
209 229 255
209 229 255
209 229 255
209 229 255
209 228 255
208 228 255
208 228 255
208 228 255
208 228 255
208 228 255
208 228 255
208 228 255
208 228 255
208 228 255
208 228 255
208 228 255
208 228 255
208 228 255
208 228 255
208 228 255
208 228 255
208 228 255
208 228 255
208 228 255
208 228 255
208 228 255
208 228 255
208 228 255
208 228 255
207 228 255
207 228 255
207 228 255
207 228 255
207 228 255
207 228 255
207 228 255
207 228 255
207 228 255
207 228 255
207 228 255
207 228 255
207 228 255
207 228 255
207 228 255
207 228 255
207 228 255
207 228 255
207 228 255
207 228 255
207 228 255
207 228 255
207 228 255
207 228 255
201 222 251
163 186 226
113 139 194
62 99 175
62 99 176
63 99 171
62 99 170
62 98 172
62 99 173
62 99 172
62 98 172
62 99 175
63 99 172
62 99 174
62 99 172
62 99 170
62 99 172
62 99 172
62 98 169
62 99 171
62 99 168
62 99 170
62 98 170
61 98 173
61 98 171
62 99 174
62 99 168
63 99 174
62 99 168
62 99 172
63 100 175
62 98 171
62 99 177
61 97 171
61 98 171
63 99 174
62 99 173
62 99 171
62 98 172
61 97 167
62 98 177
62 99 173
61 97 172
106 133 192
168 190 229
205 226 254
207 228 255
207 228 255
207 228 255
207 228 255
207 228 255
207 228 255
207 228 255
207 228 255
207 228 255
207 228 255
207 228 255
207 228 255
207 228 255
207 228 255
207 228 255
207 228 255
207 228 255
207 228 255
207 228 255
207 228 255
207 228 255
207 228 255
207 228 255
207 228 255
208 228 255
208 228 255
208 228 255
208 228 255
208 228 255
208 228 255
208 228 255
208 228 255
208 228 255
208 228 255
208 228 255
208 228 255
208 228 255
208 228 255
208 228 255
208 228 255
208 228 255
208 228 255
208 228 255
208 228 255
208 228 255
208 228 255
208 228 255
209 228 255
209 228 255
209 229 255
209 229 255
209 229 255
209 229 255
209 229 255
209 229 255
209 229 255
209 229 255
208 228 254
161 170 170
133 131 90
132 129 86
145 142 95
136 133 88
140 139 93
144 143 95
137 136 91
146 145 98
142 140 94
137 136 91
147 146 98
143 141 95
150 148 99
146 144 96
147 146 99
148 146 98
144 144 97
150 149 100
148 147 99
150 148 99
147 145 98
156 154 103
153 151 101
151 149 99
152 151 101
153 151 102
155 153 103
152 150 101
153 152 102
149 148 99
144 142 96
162 160 107
153 152 102
155 154 103
156 153 102
153 151 101
157 155 103
152 150 100
157 155 104
155 152 102
158 156 104
158 157 105
162 160 107
156 154 103
154 152 101
155 153 102
156 154 103
160 157 105
161 159 106
154 152 101
162 159 105
157 153 102
156 152 101
164 160 106
159 157 104
161 159 106
160 158 105
163 159 105
146 143 95
162 159 106
156 153 102
158 155 103
151 148 98
149 145 96
159 155 102
164 160 104
158 155 100
158 156 103
162 159 105
158 154 101
150 147 97
164 161 106
153 150 99
156 152 99
156 151 99
157 154 102
162 157 102
159 155 100
152 149 98
158 154 101
158 154 101
156 152 97
155 152 98
153 150 96
158 154 99
157 153 99
156 152 97
160 156 102
154 151 98
155 152 100
157 153 101
156 151 97
149 145 94
149 146 95
149 146 95
153 148 95
156 153 97
145 141 93
155 150 92
142 139 87
153 149 96
150 145 92
151 147 96
154 151 98
148 144 89
153 149 95
162 157 101
148 145 89
152 148 97
139 136 84
145 141 90
151 146 92
147 143 91
148 144 88
141 138 87
145 141 89
144 141 88
150 145 88
207 228 255
206 227 254
206 227 255
206 227 255
205 227 255
205 226 255
204 226 255
204 226 255
203 226 255
203 225 255
203 225 255
202 225 255
202 225 255
201 225 255
201 224 255
200 224 255
200 224 255
200 224 255
199 223 255
199 223 255
198 223 255
198 223 255
198 223 255
197 222 255
197 222 255
196 222 255
196 222 255
196 222 255
195 221 255
195 221 255
195 221 255
194 221 255
194 221 255
193 220 255
193 220 255
193 220 255
192 220 255
192 219 255
192 219 255
192 220 255
194 220 250
196 221 250
197 221 250
197 221 246
198 222 250
198 223 250
199 223 252
199 222 249
198 222 253
199 223 253
198 222 246
198 222 246
199 223 252
199 223 253
197 221 246
199 222 248
197 221 248
197 221 244
197 221 246
198 222 249
197 221 241
197 222 249
198 222 245
195 221 248
198 222 250
198 222 249
199 223 250
197 221 244
197 221 244
198 223 253
196 220 238
198 222 246
195 220 245
195 220 244
194 220 245
197 221 249
195 221 248
195 221 250
196 221 246
194 219 238
196 221 248
193 219 246
194 220 249
194 220 245
195 221 246
195 221 249
196 221 248
195 220 242
196 221 253
194 220 253
190 218 252
188 217 254
187 217 254
184 216 255
184 216 255
184 216 255
185 216 255
186 216 255
186 216 255
186 217 255
186 217 255
187 217 255
188 217 255
189 218 255
190 218 255
191 219 255
191 219 255
193 220 255
194 220 255
195 221 255
196 222 255
197 222 255
200 224 255
199 224 255
201 225 255
203 225 255
205 227 254
206 227 255
207 227 253
209 228 253
209 229 254
209 229 255
209 229 255
209 229 255
209 229 255
209 229 255
209 229 255
209 229 255
209 229 255
209 229 255
209 229 255
209 229 255
209 229 255
209 228 255
209 228 255
208 228 255
208 228 255
208 228 255
208 228 255
208 228 255
208 228 255
208 228 255
208 228 255
208 228 255
208 228 255
208 228 255
208 228 255
208 228 255
208 228 255
208 228 255
208 228 255
208 228 255
208 228 255
208 228 255
208 228 255
208 228 255
208 228 255
208 228 255
208 228 255
208 228 255
207 228 255
207 228 255
207 228 255
207 228 255
207 228 255
207 228 255
207 228 255
207 228 255
207 228 255
207 228 255
207 228 255
207 228 255
207 228 255
207 228 255
207 228 255
206 227 255
165 187 226
100 128 188
62 99 177
62 98 170
62 98 172
62 98 172
63 100 179
62 99 175
62 99 175
62 98 172
62 99 174
62 99 174
63 99 176
63 100 177
62 99 170
63 99 173
62 98 168
62 99 176
62 99 171
62 99 171
62 99 173
61 97 166
62 99 170
62 98 167
62 98 171
61 98 168
62 99 171
63 99 166
61 97 161
62 99 172
62 98 171
62 99 171
61 97 172
62 99 175
62 98 174
61 98 167
62 99 172
61 98 166
62 98 172
62 98 171
61 96 162
61 98 170
62 99 172
62 98 171
62 98 173
62 98 174
98 126 185
164 185 223
207 228 255
207 228 255
207 228 255
207 228 255
207 228 255
207 228 255
207 228 255
207 228 255
207 228 255
207 228 255
207 228 255
207 228 255
207 228 255
207 228 255
207 228 255
207 228 255
208 228 255
208 228 255
208 228 255
208 228 255
208 228 255
208 228 255
208 228 255
208 228 255
208 228 255
208 228 255
208 228 255
208 228 255
208 228 255
208 228 255
208 228 255
208 228 255
208 228 255
208 228 255
208 228 255
208 228 255
208 228 255
208 228 255
208 228 255
208 228 255
208 228 255
209 228 255
209 228 255
209 229 255
209 229 255
209 229 255
209 229 255
209 229 255
209 229 255
209 229 255
209 229 255
209 229 255
209 229 255
209 229 255
209 229 255
198 214 233
140 143 121
131 128 85
127 125 84
130 129 86
144 141 94
139 137 93
146 144 96
146 145 98
144 143 96
142 140 94
141 140 94
148 146 98
140 139 94
135 135 91
141 140 94
148 147 99
140 139 93
151 150 101
153 151 101
148 147 99
155 153 103
150 148 100
152 150 100
158 156 104
148 146 98
150 149 100
150 149 99
153 152 102
151 149 100
150 149 100
145 143 96
144 143 96
144 143 96
156 153 103
152 150 100
151 149 99
155 153 102
164 161 108
157 154 103
155 152 101
151 149 99
148 146 97
159 156 104
158 155 103
149 147 98
155 152 101
165 162 108
153 151 101
155 152 101
155 153 103
152 149 99
163 161 107
159 156 104
160 157 104
160 157 104
167 163 108
159 156 104
162 158 104
163 161 106
159 155 102
158 155 103
162 159 105
157 154 101
161 158 104
159 155 99
166 162 106
160 156 103
162 158 101
162 158 104
152 149 96
162 157 101
160 156 101
155 153 100
152 148 97
157 153 99
154 150 99
155 151 98
154 151 99
161 157 101
151 148 95
158 153 97
148 145 95
155 152 101
153 149 96
147 144 94
152 148 95
150 146 96
158 154 99
159 154 99
152 148 97
157 154 101
152 149 95
152 148 94
159 154 99
157 152 97
155 151 97
157 154 100
149 146 96
151 146 93
153 150 97
149 145 90
152 148 94
138 133 83
150 146 93
150 146 92
146 142 88
150 145 94
150 145 90
144 139 85
148 145 90
147 142 88
153 149 96
147 143 93
143 139 89
157 153 97
135 131 84
152 148 92
145 141 86
147 143 90
148 143 85
207 227 255
206 227 255
205 227 255
205 227 255
205 226 255
204 226 255
204 226 255
203 226 255
203 225 255
203 225 255
202 225 255
202 225 255
201 225 255
201 224 255
201 224 255
200 224 255
200 224 255
199 223 255
199 223 255
199 223 255
198 223 255
198 223 255
197 222 255
197 222 255
197 222 255
196 222 255
196 222 255
195 221 255
195 221 255
195 221 255
194 221 255
194 221 255
194 221 255
193 220 255
193 220 255
193 220 255
196 222 255
195 221 252
198 222 244
199 223 250
200 223 249
200 223 252
197 222 250
200 223 249
201 224 249
200 223 249
197 221 241
198 222 246
198 222 244
198 222 245
198 222 246
198 222 246
200 224 249
197 221 244
199 223 253
197 221 245
198 222 249
199 223 253
198 222 245
198 222 252
200 223 250
199 223 248
197 221 245
200 224 250
199 222 248
199 223 249
198 222 249
199 223 250
196 220 238
198 222 246
197 222 249
200 223 250
198 222 246
201 224 253
197 222 248
199 223 252
197 222 246
196 221 248
200 223 248
196 221 248
197 221 244
195 221 248
197 222 245
196 221 252
195 220 245
196 221 252
194 220 248
195 221 253
194 220 248
197 221 244
194 219 245
194 220 250
195 221 252
191 218 248
190 218 250
186 216 250
184 215 254
184 216 255
185 216 255
185 216 255
186 216 255
186 217 255
187 217 255
188 217 255
188 217 255
189 218 255
190 219 255
191 219 255
191 219 255
193 220 255
194 220 255
194 221 255
196 222 255
198 223 255
200 224 255
200 224 255
201 225 255
204 226 255
205 226 255
206 227 254
207 227 253
208 228 253
209 229 255
209 229 255
209 229 255
209 229 255
209 229 255
209 229 255
209 229 255
209 229 255
209 229 255
209 229 255
209 229 255
209 229 255
209 229 255
209 229 255
209 229 255
209 229 255
209 229 255
209 228 255
209 228 255
208 228 255
208 228 255
208 228 255
208 228 255
208 228 255
208 228 255
208 228 255
208 228 255
208 228 255
208 228 255
208 228 255
208 228 255
208 228 255
208 228 255
208 228 255
208 228 255
208 228 255
208 228 255
208 228 255
208 228 255
208 228 255
208 228 255
208 228 255
208 228 255
208 228 255
208 228 255
208 228 255
208 228 255
207 228 255
207 228 255
207 228 255
207 228 255
207 228 255
173 195 231
108 135 196
63 99 178
62 99 174
62 99 177
62 99 174
62 98 170
62 99 172
63 99 174
63 99 168
62 99 171
63 99 175
62 98 172
63 99 168
62 99 172
61 98 166
62 98 166
62 99 176
62 99 168
62 98 165
63 99 170
61 98 168
63 99 169
62 99 169
62 98 162
62 99 169
62 99 174
62 99 172
62 99 173
62 98 168
61 97 161
62 98 167
63 99 175
62 99 167
62 99 170
62 99 169
61 98 165
62 99 172
62 98 172
61 97 169
61 97 167
62 98 169
61 98 170
62 98 169
62 99 172
62 98 172
62 99 176
62 98 171
63 99 179
61 98 172
92 121 185
171 192 228
207 228 255
207 228 255
207 228 255
207 228 255
207 228 255
208 228 255
208 228 255
208 228 255
208 228 255
208 228 255
208 228 255
208 228 255
208 228 255
208 228 255
208 228 255
208 228 255
208 228 255
208 228 255
208 228 255
208 228 255
208 228 255
208 228 255
208 228 255
208 228 255
208 228 255
208 228 255
208 228 255
208 228 255
208 228 255
208 228 255
208 228 255
208 228 255
208 228 255
209 228 255
209 228 255
209 229 255
209 229 255
209 229 255
209 229 255
209 229 255
209 229 255
209 229 255
209 229 255
209 229 255
209 229 255
209 229 255
209 229 255
209 229 255
209 229 255
209 229 255
209 229 255
209 229 255
180 191 194
143 141 97
120 118 79
126 125 85
133 131 89
143 142 95
134 132 89
138 138 94
144 143 95
141 140 94
146 143 96
152 150 100
146 144 97
141 140 95
148 146 99
146 144 97
152 150 101
154 152 102
151 150 101
154 152 102
150 148 99
149 148 99
153 151 102
156 155 104
153 152 102
155 154 104
156 154 103
155 153 103
145 144 97
151 150 101
157 155 104
150 149 100
152 150 100
144 142 95
157 155 103
157 155 104
160 158 106
156 154 103
157 156 104
159 157 104
157 154 103
164 161 106
160 158 105
156 154 103
162 160 106
153 150 99
160 157 104
158 155 103
161 157 103
158 155 103
161 159 106
163 159 106
159 155 103
168 164 109
156 152 100
156 154 102
156 153 101
161 158 103
150 147 98
158 155 103
158 155 103
164 160 106
163 159 104
158 155 102
150 148 98
150 147 97
160 157 104
159 155 101
159 156 103
164 160 106
154 152 100
155 151 100
147 144 93
153 150 98
159 155 101
161 158 104
157 154 101
157 153 99
165 160 104
162 158 103
161 157 104
156 153 100
155 151 98
161 157 101
156 152 97
158 153 98
153 150 97
156 152 101
162 158 103
151 146 95
158 154 100
157 153 99
162 158 101
152 149 95
140 137 87
160 155 99
159 154 99
152 149 95
159 155 101
161 157 101
151 146 93
157 153 99
153 150 95
147 143 91
154 150 95
153 149 97
160 154 99
154 150 95
149 144 93
146 142 88
152 148 94
158 154 97
153 148 93
153 149 97
155 150 93
154 149 92
159 153 97
154 149 91
147 142 90
150 146 93
145 140 86
140 136 84
206 227 255
206 227 255
205 227 255
205 226 255
205 226 255
204 226 255
204 226 255
203 226 255
203 225 255
203 225 255
202 225 255
202 225 255
201 224 255
201 224 255
201 224 255
200 224 255
199 224 255
199 223 255
199 223 255
198 223 255
198 223 255
198 223 255
197 222 255
197 222 255
197 222 255
196 222 255
196 222 255
195 221 255
195 221 255
195 221 255
194 221 255
194 221 255
194 221 255
195 221 254
197 221 248
198 222 248
200 224 250
201 223 248
200 224 252
198 222 245
200 224 252
198 221 245
199 222 245
200 223 246
199 222 245
199 222 245
201 224 250
199 223 253
201 224 250
199 222 246
198 222 244
200 223 246
199 222 244
198 222 244
202 224 249
198 222 244
199 223 248
199 223 246
198 222 241
196 220 242
195 219 238
196 220 237
198 222 244
197 221 244
196 220 240
195 219 237
196 220 242
196 220 241
193 218 230
195 219 237
197 221 245
193 218 236
195 219 238
196 221 244
193 218 234
193 218 233
193 218 231
194 219 240
196 221 242
194 219 237
193 218 240
196 221 248
198 222 246
195 221 250
197 222 249
195 220 244
196 221 249
198 222 250
195 221 253
194 220 244
194 220 244
194 220 246
194 220 242
195 221 253
194 220 248
194 219 245
193 220 250
192 220 255
189 218 253
186 217 255
185 216 255
185 216 255
186 216 255
186 217 255
187 217 255
188 217 255
188 218 255
189 218 255
190 219 255
191 219 255
192 220 255
193 220 255
194 221 255
196 222 255
197 222 255
198 223 255
200 224 255
201 224 255
202 225 255
205 227 255
206 227 255
206 226 246
210 229 254
209 229 254
209 229 255
209 229 255
209 229 255
209 229 255
209 229 255
209 229 255
209 229 255
209 229 255
209 229 255
209 229 255
209 229 255
209 229 255
209 229 255
209 229 255
209 229 255
209 229 255
209 229 255
209 229 255
209 229 255
209 229 255
209 229 255
209 229 255
209 228 255
209 228 255
208 228 255
208 228 255
208 228 255
208 228 255
208 228 255
208 228 255
208 228 255
208 228 255
208 228 255
208 228 255
208 228 255
208 228 255
208 228 255
208 228 255
208 228 255
208 228 255
208 228 255
208 228 255
208 228 255
208 228 255
208 228 255
208 228 255
208 228 255
208 228 255
194 215 246
125 150 203
62 99 174
61 98 174
62 99 170
62 99 170
62 99 172
62 99 176
62 99 175
63 99 174
62 99 168
63 99 170
62 99 170
62 99 170
63 99 171
62 99 174
62 98 167
61 97 160
62 98 170
62 99 168
62 99 174
62 99 168
62 98 170
62 99 175
61 97 161
61 98 162
63 99 171
61 97 165
62 98 172
62 98 163
62 99 171
63 99 167
62 98 164
62 99 166
62 98 166
63 99 170
62 98 166
62 98 170
62 98 170
62 99 169
61 97 162
61 98 171
62 99 175
61 97 165
62 98 165
62 99 176
63 99 172
61 98 172
62 98 169
63 99 174
61 97 171
60 96 165
61 96 162
62 98 175
123 147 198
198 219 248
208 228 255
208 228 255
208 228 255
208 228 255
208 228 255
208 228 255
208 228 255
208 228 255
208 228 255
208 228 255
208 228 255
208 228 255
208 228 255
208 228 255
208 228 255
208 228 255
208 228 255
208 228 255
208 228 255
208 228 255
208 228 255
208 228 255
208 228 255
208 228 255
209 228 255
209 228 255
209 229 255
209 229 255
209 229 255
209 229 255
209 229 255
209 229 255
209 229 255
209 229 255
209 229 255
209 229 255
209 229 255
209 229 255
209 229 255
209 229 255
209 229 255
209 229 255
209 229 255
209 229 255
209 229 255
209 229 255
209 229 255
209 229 255
203 222 246
156 160 143
138 135 90
137 136 91
140 137 91
139 137 92
135 133 90
129 128 86
140 139 94
123 122 82
135 134 91
147 146 98
134 134 91
143 141 95
154 152 102
142 142 95
146 145 98
154 152 103
145 143 96
141 140 96
155 153 103
150 148 99
150 148 99
151 149 100
149 148 99
154 151 101
148 146 98
150 148 99
151 149 100
154 153 103
151 150 101
154 152 102
157 155 103
156 154 103
152 149 99
158 156 104
161 159 106
161 158 106
160 158 105
156 153 102
151 149 100
152 149 99
164 162 108
161 157 104
158 155 103
156 153 102
159 155 103
159 156 104
163 160 106
163 159 106
160 157 104
160 158 105
157 153 102
165 162 108
156 153 101
160 157 104
162 158 105
163 161 108
162 158 104
157 154 101
159 156 104
165 161 106
162 159 104
158 154 101
158 154 101
158 156 104
159 157 104
164 161 107
162 158 103
158 155 103
161 158 104
163 159 103
161 157 103
160 156 101
157 152 99
152 149 97
161 158 102
161 156 101
156 152 99
157 154 101
157 153 99
154 151 98
163 160 105
150 146 95
157 153 100
153 149 97
156 151 97
158 155 100
159 154 101
158 154 101
159 155 99
156 153 100
157 153 99
154 150 97
159 154 99
151 148 95
154 150 95
155 152 99
149 145 91
161 157 99
151 147 97
160 156 99
138 135 85
154 151 96
155 151 95
153 149 97
157 153 95
157 152 95
153 149 96
148 145 93
149 144 93
153 149 95
155 152 99
146 142 89
149 145 92
149 145 90
147 142 88
154 149 93
155 149 91
144 139 88
144 139 88
146 141 90
156 151 96
142 138 87
206 227 255
206 227 255
205 227 255
205 227 255
204 226 255
204 226 255
204 226 255
203 226 255
202 225 255
202 225 255
202 225 255
201 225 255
201 224 255
201 224 255
200 224 255
200 224 255
199 223 255
199 223 255
199 223 255
198 223 255
198 223 255
198 223 255
197 222 255
197 222 255
196 222 255
196 222 255
195 221 255
195 221 255
195 221 255
195 221 255
195 221 252
199 223 254
200 223 250
199 222 246
202 224 250
200 223 245
199 222 248
199 222 245
200 223 246
199 223 250
202 224 249
201 224 252
201 224 250
201 223 248
200 223 248
199 222 240
200 223 246
200 224 253
201 224 250
201 224 249
201 224 250
200 223 250
199 223 244
200 223 249
198 222 241
197 221 240
196 220 236
196 220 240
197 221 240
198 222 246
197 221 237
196 221 242
198 222 250
195 219 236
196 221 241
198 222 246
197 221 240
195 220 236
196 220 244
197 221 245
196 221 242
194 219 244
195 220 238
194 219 237
196 220 241
197 221 238
196 220 238
195 219 234
195 220 236
193 218 237
196 221 246
194 219 238
194 219 236
193 219 237
195 221 248
193 218 233
196 221 248
194 220 241
197 222 248
197 222 249
195 220 246
196 220 242
195 220 245
196 221 249
194 220 241
194 220 245
196 222 254
196 221 252
192 218 241
192 219 246
192 219 253
187 217 252
185 216 255
185 216 255
186 217 255
186 217 255
187 217 255
188 217 255
189 218 255
189 218 255
191 219 255
191 219 255
193 220 255
194 221 255
195 221 255
197 222 255
198 223 255
199 223 255
200 224 255
202 225 254
203 226 254
206 227 255
206 227 253
208 228 252
209 229 255
210 229 255
210 229 255
210 229 255
210 229 255
210 229 255
209 229 255
209 229 255
209 229 255
209 229 255
209 229 255
209 229 255
209 229 255
209 229 255
209 229 255
209 229 255
209 229 255
209 229 255
209 229 255
209 229 255
209 229 255
209 229 255
209 229 255
209 229 255
209 229 255
209 229 255
209 229 255
209 229 255
209 229 255
209 228 255
208 228 255
208 228 255
208 228 255
208 228 255
208 228 255
208 228 255
208 228 255
208 228 255
208 228 255
208 228 255
208 228 255
208 228 255
208 228 255
208 228 255
208 228 255
208 228 255
206 226 254
162 184 223
64 100 171
63 99 175
62 99 174
62 99 174
62 99 172
63 100 175
63 99 172
61 98 168
62 99 172
62 99 170
62 99 172
60 97 159
63 99 168
62 98 165
61 98 165
62 98 168
62 99 169
62 99 166
62 99 173
62 99 169
62 98 163
61 98 164
61 97 160
63 99 171
62 98 164
62 99 168
61 97 163
62 99 167
61 98 166
62 99 170
62 98 167
62 98 165
63 100 172
61 98 163
62 98 167
63 100 171
62 99 172
62 98 169
62 99 167
61 97 163
63 99 172
62 98 163
62 98 168
61 97 158
61 98 167
62 99 172
62 98 166
61 98 165
62 97 168
62 97 163
62 98 166
62 98 170
61 97 163
62 98 172
62 97 165
72 105 174
153 175 217
208 228 255
208 228 255
208 228 255
208 228 255
208 228 255
208 228 255
208 228 255
208 228 255
208 228 255
208 228 255
208 228 255
208 228 255
208 228 255
208 228 255
208 228 255
208 228 255
208 228 255
209 228 255
209 228 255
209 229 255
209 229 255
209 229 255
209 229 255
209 229 255
209 229 255
209 229 255
209 229 255
209 229 255
209 229 255
209 229 255
209 229 255
209 229 255
209 229 255
209 229 255
209 229 255
209 229 255
209 229 255
209 229 255
209 229 255
209 229 255
209 229 255
210 229 255
210 229 255
210 229 255
210 229 255
210 229 255
178 188 192
131 130 91
138 136 90
136 134 89
135 134 90
137 136 91
141 138 92
129 128 86
147 145 97
137 137 93
145 143 96
143 142 95
145 144 97
149 148 100
150 149 100
145 144 97
148 147 100
144 143 97
150 149 100
148 146 98
147 146 98
148 147 100
148 146 98
156 155 104
148 146 99
150 148 99
155 154 103
154 152 102
152 150 100
148 146 98
146 144 97
160 158 105
158 155 103
159 156 104
165 162 108
159 156 104
164 161 108
157 155 103
153 150 100
162 158 105
154 151 101
157 154 103
156 153 102
158 155 104
161 159 106
161 158 105
160 157 104
156 154 103
155 153 102
158 155 103
165 162 108
164 161 107
166 161 106
164 161 107
162 159 106
161 158 103
164 160 105
164 160 106
162 159 105
164 161 107
164 161 106
161 158 103
160 157 103
166 162 106
158 155 103
161 157 103
165 161 106
166 162 105
160 156 102
157 153 101
168 164 108
156 153 101
163 159 102
162 159 104
160 156 103
159 156 98
160 156 100
159 155 102
163 158 101
164 159 104
155 152 101
151 148 96
160 157 101
161 156 101
155 152 99
159 155 101
162 158 103
154 151 96
156 152 99
153 150 97
150 147 95
161 156 99
159 155 100
153 150 97
157 153 97
160 155 99
150 146 95
160 156 99
158 153 97
151 147 93
158 153 96
161 157 101
155 150 95
161 155 98
155 150 95
155 150 95
150 146 91
152 148 93
148 144 94
154 149 93
150 146 95
159 154 97
149 144 93
154 149 93
146 142 90
149 145 90
145 141 91
156 151 95
148 143 90
147 143 90
156 151 95
147 142 89
145 141 88
142 138 83
140 136 80
206 227 255
205 227 255
205 227 255
204 226 255
204 226 255
203 226 255
203 225 255
203 225 255
202 225 255
202 225 255
202 225 255
201 225 255
201 224 255
200 224 255
200 224 255
200 224 255
199 223 255
199 223 255
199 223 255
198 223 255
198 223 255
198 223 255
197 222 255
197 222 255
196 222 255
196 222 255
196 222 255
197 222 255
198 222 249
202 224 249
202 224 250
202 224 253
201 224 253
200 223 244
201 224 246
201 223 244
201 223 249
201 224 252
200 223 248
202 224 246
201 224 246
201 224 249
200 222 246
200 223 244
201 224 252
203 224 244
200 223 246
200 223 248
199 222 240
199 222 244
197 221 238
197 221 240
197 220 236
198 221 240
198 222 241
198 221 244
199 222 244
197 220 234
197 221 237
197 220 234
197 221 237
198 221 240
198 222 244
198 221 240
200 223 246
200 223 248
196 220 240
199 222 244
198 222 242
197 220 242
200 223 250
197 221 238
198 222 246
198 222 244
196 220 240
196 220 237
196 219 233
197 221 245
197 220 238
197 221 245
197 221 244
194 218 226
196 220 237
198 222 245
195 219 231
194 219 234
195 220 241
196 220 242
195 220 242
195 220 238
194 219 236
196 221 244
196 221 242
197 221 246
198 222 249
196 220 246
194 219 240
195 220 242
194 219 241
193 220 248
194 219 244
195 220 249
192 219 252
190 218 252
186 217 255
186 216 255
186 217 255
187 217 255
187 217 255
188 218 255
189 218 255
191 219 255
191 219 255
192 219 255
193 220 255
194 221 255
196 222 255
197 222 255
199 223 255
200 224 255
202 225 255
203 225 255
205 227 255
205 227 254
208 228 253
209 228 253
210 229 255
210 229 255
210 229 255
210 229 255
210 229 255
210 229 255
210 229 255
210 229 255
210 229 255
210 229 255
209 229 255
209 229 255
209 229 255
209 229 255
209 229 255
209 229 255
209 229 255
209 229 255
209 229 255
209 229 255
209 229 255
209 229 255
209 229 255
209 229 255
209 229 255
209 229 255
209 229 255
209 229 255
209 229 255
209 229 255
209 229 255
209 229 255
209 229 255
209 229 255
209 228 255
209 228 255
208 228 255
208 228 255
208 228 255
208 228 255
208 228 255
208 228 255
208 228 255
192 212 244
114 140 195
62 98 172
61 98 171
62 99 172
62 99 169
61 98 169
61 98 169
62 98 166
62 98 165
61 98 165
62 99 168
62 99 173
63 99 169
62 98 168
62 98 167
61 98 166
61 98 163
62 98 164
63 99 175
62 98 163
63 99 166
61 98 169
62 99 170
62 99 167
61 98 164
62 98 169
62 99 172
61 98 165
62 98 165
62 98 161
62 98 163
62 98 170
62 99 171
63 99 168
62 98 163
62 98 163
62 98 167
62 98 162
62 99 171
62 98 162
62 98 163
62 98 166
62 98 168
61 98 168
62 98 169
62 98 171
61 97 170
63 99 171
61 97 162
62 97 165
62 98 171
62 98 172
61 97 167
62 99 169
61 97 169
60 95 163
61 97 169
62 98 169
61 97 170
119 144 198
197 217 248
208 228 255
208 228 255
208 228 255
208 228 255
208 228 255
208 228 255
209 228 255
209 228 255
209 228 255
209 229 255
209 229 255
209 229 255
209 229 255
209 229 255
209 229 255
209 229 255
209 229 255
209 229 255
209 229 255
209 229 255
209 229 255
209 229 255
209 229 255
209 229 255
209 229 255
209 229 255
209 229 255
209 229 255
209 229 255
209 229 255
209 229 255
209 229 255
209 229 255
210 229 255
210 229 255
210 229 255
210 229 255
210 229 255
210 229 255
210 229 255
210 229 255
210 229 255
208 227 253
156 161 149
126 124 82
133 131 86
139 136 90
131 130 87
139 137 93
142 141 96
139 137 93
131 130 87
145 144 97
145 144 97
134 134 90
149 147 98
149 148 99
149 147 99
145 144 96
140 139 94
144 144 97
146 145 98
153 151 102
151 149 99
142 141 95
157 156 105
150 148 100
151 148 99
161 158 105
156 155 104
151 149 100
158 156 104
151 149 100
158 156 104
151 149 100
161 158 105
163 160 107
163 161 108
159 156 104
155 153 102
157 154 103
157 154 103
159 156 104
160 156 103
160 158 105
156 154 102
164 161 108
163 160 106
160 157 104
160 157 104
159 156 104
159 156 103
165 161 107
167 163 108
158 155 103
160 157 104
164 162 108
151 148 99
162 159 106
165 162 107
153 151 100
159 156 103
162 159 106
156 153 101
159 156 102
158 155 103
157 154 101
163 158 103
161 158 103
160 158 104
167 162 106
170 166 109
163 159 104
156 153 101
165 160 104
165 162 104
156 153 101
168 164 108
155 151 99
164 159 104
161 156 101
157 154 101
158 154 100
157 153 99
162 158 102
163 160 104
157 154 98
160 156 100
161 156 102
164 161 103
162 158 103
161 156 100
159 154 99
158 154 99
156 153 97
158 154 99
157 153 97
156 152 95
156 152 97
156 152 97
152 148 93
160 156 97
161 155 100
158 154 99
155 151 97
157 153 99
156 151 95
155 151 93
155 150 95
162 158 99
155 151 95
153 149 97
147 142 88
145 140 87
156 152 93
152 149 95
156 151 95
156 151 96
155 151 94
154 149 90
142 139 88
152 148 93
148 144 90
152 147 95
144 139 84
156 150 91
131 128 78
148 145 91
143 138 87
206 227 255
205 227 255
205 226 255
204 226 255
204 226 255
203 226 255
203 226 255
203 225 255
202 225 255
202 225 255
202 225 255
201 225 255
201 224 255
200 224 255
200 224 255
200 224 255
199 224 255
199 223 255
199 223 255
199 223 255
198 223 255
198 223 255
197 222 255
197 222 255
196 222 255
197 222 254
201 224 255
202 225 252
202 224 248
200 223 249
200 222 244
204 226 254
202 225 252
201 224 246
201 224 250
202 224 246
201 223 248
202 225 252
202 224 248
199 222 248
202 224 248
202 225 250
201 223 250
203 225 249
202 225 253
200 223 242
198 221 238
196 219 233
198 221 238
197 221 234
198 221 238
199 222 242
198 221 241
197 220 236
199 222 238
200 222 240
199 222 241
197 220 234
200 223 249
200 222 242
200 223 249
200 223 245
200 223 250
198 221 244
197 221 236
199 222 244
198 221 240
199 223 246
199 222 241
198 221 246
199 222 241
200 224 249
199 222 242
199 222 245
198 221 241
198 221 245
196 220 234
199 223 248
198 222 244
199 222 245
198 222 244
198 221 240
197 221 241
196 220 238
198 222 245
198 222 244
195 220 237
195 219 236
196 220 240
195 219 237
196 220 242
195 219 237
195 219 237
195 220 244
195 220 242
196 221 242
197 222 246
196 221 242
196 221 246
194 220 245
195 220 242
195 220 245
195 221 249
195 221 248
196 221 249
192 219 253
189 218 253
186 217 255
186 217 255
187 217 255
189 218 255
189 218 255
190 218 255
190 219 255
191 219 255
193 220 255
194 221 255
195 221 255
197 222 255
198 223 255
200 224 254
201 224 255
202 225 254
205 226 255
207 227 253
208 228 254
209 229 253
210 229 255
210 229 255
210 229 255
210 229 255
210 229 255
210 229 255
210 229 255
210 229 255
210 229 255
210 229 255
210 229 255
210 229 255
210 229 255
210 229 255
210 229 255
210 229 255
209 229 255
209 229 255
209 229 255
209 229 255
209 229 255
209 229 255
209 229 255
209 229 255
209 229 255
209 229 255
209 229 255
209 229 255
209 229 255
209 229 255
209 229 255
209 229 255
209 229 255
209 229 255
209 229 255
209 229 255
209 229 255
209 229 255
209 229 255
209 229 255
209 229 255
174 195 228
84 115 182
62 99 171
62 98 166
62 99 175
62 99 174
62 98 170
62 99 170
62 99 167
63 99 173
62 98 162
63 99 171
62 98 163
63 99 168
62 99 170
62 98 168
62 99 169
62 99 172
62 98 167
62 98 165
62 98 166
62 98 164
62 98 167
62 99 167
61 98 166
62 98 166
62 98 170
63 99 168
63 99 173
62 98 162
61 97 164
63 99 167
63 99 167
61 97 159
62 98 165
61 97 162
61 97 160
61 97 162
62 98 166
62 98 166
61 97 164
61 98 168
62 98 164
62 98 165
62 98 169
60 96 161
61 97 164
62 99 173
62 97 166
61 97 168
62 99 170
62 98 169
62 99 170
61 97 162
62 98 167
61 98 166
62 98 170
62 98 169
61 97 167
61 97 173
61 97 169
62 97 164
73 105 172
173 194 230
209 229 255
209 229 255
209 229 255
209 229 255
209 229 255
209 229 255
209 229 255
209 229 255
209 229 255
209 229 255
209 229 255
209 229 255
209 229 255
209 229 255
209 229 255
209 229 255
209 229 255
209 229 255
209 229 255
209 229 255
209 229 255
209 229 255
209 229 255
209 229 255
209 229 255
209 229 255
210 229 255
210 229 255
210 229 255
210 229 255
210 229 255
210 229 255
210 229 255
210 229 255
210 229 255
210 229 255
210 229 255
210 229 255
210 229 255
210 229 255
201 218 240
148 152 135
136 133 89
130 128 85
131 129 86
140 138 93
139 137 92
144 142 95
134 133 90
142 141 95
141 139 93
135 133 89
148 146 98
143 142 97
142 141 95
145 144 98
138 136 92
151 149 100
149 147 99
147 146 98
153 151 102
153 152 102
151 149 100
147 145 97
158 156 105
145 143 96
157 155 104
142 141 95
159 156 104
149 147 99
159 157 105
156 154 103
153 151 101
153 151 101
161 159 106
162 160 106
161 157 104
153 150 100
157 155 103
161 158 105
161 158 105
163 160 106
159 156 104
161 158 105
163 161 108
161 158 105
165 161 107
163 160 107
159 156 104
163 160 106
155 152 101
158 155 103
167 163 108
162 158 104
160 157 104
163 159 104
160 157 103
164 160 106
160 156 103
161 159 105
159 156 102
168 164 108
158 154 101
160 156 103
163 160 104
164 160 105
169 164 107
167 162 105
165 160 106
160 156 103
167 163 106
162 158 103
165 160 105
165 160 103
153 149 97
158 155 101
165 162 107
160 155 101
168 165 107
158 154 100
161 158 101
164 160 104
157 153 99
161 158 103
159 156 101
157 153 98
156 152 97
158 154 99
166 162 104
152 150 98
154 150 96
162 157 100
160 157 101
161 157 101
161 157 101
155 150 96
154 149 93
154 151 96
159 153 98
157 154 96
162 157 101
150 147 95
158 154 95
153 149 95
156 151 95
152 148 92
153 148 93
151 148 92
166 161 101
155 151 94
150 145 91
159 154 95
153 148 95
152 148 95
155 151 95
147 143 88
156 151 95
145 141 87
153 148 92
148 143 90
154 149 92
146 142 89
160 154 93
153 149 92
146 141 88
147 143 87
149 145 89
152 147 90
206 227 255
205 227 255
205 226 255
204 226 255
204 226 255
203 226 255
203 225 255
203 225 255
202 225 255
202 225 255
202 225 255
201 224 255
201 224 255
201 224 255
200 224 255
200 224 255
199 223 255
199 223 255
199 223 255
198 223 255
198 223 255
198 223 255
197 222 255
199 223 254
199 223 250
201 224 249
202 224 249
202 224 245
201 224 248
202 225 249
203 225 249
200 222 244
201 223 240
203 225 250
203 225 248
202 224 246
202 224 248
202 225 252
202 224 246
205 226 253
201 223 248
200 223 242
200 223 244
198 221 240
196 219 224
199 222 242
198 222 240
197 220 236
199 222 240
198 222 238
199 221 236
200 223 241
199 222 242
199 221 241
200 223 245
200 222 240
199 222 237
201 224 248
199 222 240
200 222 244
199 222 241
202 224 246
199 222 236
201 224 250
202 224 248
197 220 237
201 224 246
198 222 244
202 224 253
201 224 248
200 223 242
198 222 244
201 224 250
200 223 246
200 223 245
197 221 241
200 223 249
198 222 244
198 221 242
199 222 246
199 222 238
198 222 241
200 223 249
198 222 241
195 220 237
198 221 240
195 219 238
199 222 246
198 221 241
198 222 246
197 221 241
196 220 242
196 221 244
195 219 236
196 221 244
196 221 245
196 220 241
194 218 236
196 221 246
198 222 249
197 221 244
194 219 240
198 222 249
197 222 250
197 222 252
193 219 246
194 220 248
192 219 248
189 218 252
187 217 255
187 217 255
188 218 255
189 218 255
189 218 255
191 219 255
192 219 255
193 220 255
194 221 255
195 221 255
196 222 255
198 223 255
200 224 255
201 224 254
203 225 255
204 226 255
207 228 255
207 227 252
210 229 255
210 230 255
210 229 255
210 229 255
210 229 255
210 229 255
210 229 255
210 229 255
210 229 255
210 229 255
210 229 255
210 229 255
210 229 255
210 229 255
210 229 255
210 229 255
210 229 255
210 229 255
210 229 255
210 229 255
210 229 255
210 229 255
209 229 255
209 229 255
209 229 255
209 229 255
209 229 255
209 229 255
209 229 255
209 229 255
209 229 255
209 229 255
209 229 255
209 229 255
209 229 255
209 229 255
209 229 255
209 229 255
209 229 255
208 228 255
157 179 219
61 98 164
62 98 173
62 98 170
62 99 169
62 99 168
61 98 167
62 99 172
62 98 166
62 99 171
62 98 165
62 98 166
61 97 158
62 99 167
62 98 163
62 98 166
62 98 168
63 99 166
62 99 166
63 99 169
62 98 160
62 98 163
62 98 170
62 98 165
62 99 167
62 99 169
63 100 172
62 98 164
61 97 158
62 98 165
62 99 167
61 97 157
61 97 160
62 99 166
62 98 163
62 98 169
60 97 160
62 98 163
62 99 166
63 99 166
62 98 169
61 98 166
61 97 164
62 98 168
63 99 167
62 98 165
61 97 165
62 97 163
63 99 173
61 97 160
62 98 169
62 98 162
62 97 167
62 97 164
63 99 170
63 99 169
61 98 170
63 99 170
61 97 164
61 97 170
61 97 165
61 97 169
61 97 167
61 96 165
65 99 170
151 173 214
208 228 255
209 229 255
209 229 255
209 229 255
209 229 255
209 229 255
209 229 255
209 229 255
209 229 255
209 229 255
209 229 255
209 229 255
209 229 255
209 229 255
209 229 255
209 229 255
209 229 255
209 229 255
210 229 255
210 229 255
210 229 255
210 229 255
210 229 255
210 229 255
210 229 255
210 229 255
210 229 255
210 229 255
210 229 255
210 229 255
210 229 255
210 229 255
210 229 255
210 229 255
210 229 255
210 229 255
210 229 255
210 229 255
193 207 221
137 136 105
135 132 87
133 130 87
126 124 83
137 136 91
140 138 92
151 148 99
140 138 93
138 137 94
135 133 89
132 131 89
152 151 102
148 146 99
144 143 97
153 152 102
149 148 100
151 149 100
149 148 99
152 151 101
157 155 104
149 148 100
157 154 103
157 156 104
156 155 104
151 150 101
159 157 105
155 153 102
154 152 102
154 152 102
157 156 105
155 152 102
161 158 106
155 153 102
160 158 105
157 155 103
159 156 104
158 155 104
156 153 102
162 159 104
162 159 105
163 161 107
156 153 102
161 158 104
157 153 101
167 163 108
161 157 104
163 161 107
159 157 104
164 161 107
165 163 106
168 164 109
165 162 107
163 160 104
164 159 105
162 159 105
165 161 106
163 160 103
167 161 105
161 157 103
163 160 106
164 160 104
164 161 106
163 160 106
165 161 106
164 160 105
162 158 103
164 160 105
161 157 103
166 161 105
161 157 103
159 154 101
156 154 101
159 156 103
168 163 105
162 158 102
157 152 98
158 154 98
163 159 103
166 162 106
156 152 98
163 159 101
166 161 104
165 161 101
157 152 96
158 155 99
162 158 103
164 159 102
157 153 96
163 157 101
158 154 97
166 161 103
161 155 101
165 161 103
161 156 97
154 150 95
154 150 93
161 156 97
155 151 96
153 149 93
158 154 95
159 154 97
160 155 100
153 149 95
155 152 95
156 151 93
155 150 94
147 144 89
164 159 101
159 154 99
161 156 98
150 146 92
155 151 96
159 153 99
158 153 93
158 153 93
160 155 96
147 143 90
160 156 99
148 144 87
159 154 96
156 152 95
153 149 91
159 153 95
153 148 91
152 147 93
149 145 90
145 140 84
145 141 87
205 227 255
205 226 255
205 226 255
204 226 255
204 226 255
203 226 255
203 226 255
203 225 255
202 225 255
202 225 255
201 225 255
201 224 255
201 224 255
201 224 255
200 224 255
200 224 255
199 224 255
199 223 255
199 223 255
198 223 255
198 223 255
199 223 255
200 223 250
203 225 252
203 225 246
204 226 253
203 225 248
203 225 249
203 225 249
203 225 249
202 224 249
202 224 246
204 225 250
203 225 250
202 225 250
203 225 246
203 225 249
205 226 253
202 224 246
200 222 237
199 221 234
201 223 242
200 223 241
199 221 237
199 222 237
200 222 236
202 224 246
201 224 245
199 221 237
199 222 242
201 223 242
201 224 245
199 222 240
200 222 240
202 224 245
201 223 244
200 222 244
201 223 244
199 221 233
202 224 248
201 223 245
203 225 250
201 223 240
199 222 237
201 223 245
202 224 248
202 224 252
201 223 241
200 223 245
201 223 245
198 221 237
201 224 249
201 224 249
200 223 244
203 225 250
199 222 245
200 223 242
200 222 238
200 222 240
198 221 244
200 223 242
200 223 244
199 222 248
199 222 241
199 222 245
199 222 245
199 222 244
196 220 236
198 221 240
199 222 244
199 222 245
197 221 240
199 222 246
198 222 244
196 220 241
197 221 241
196 220 242
196 220 238
195 219 241
194 219 240
194 220 242
196 221 248
198 222 249
200 223 249
198 223 255
196 221 250
197 222 249
196 221 248
196 221 252
194 220 249
190 218 252
187 217 255
188 217 255
189 218 255
189 218 255
190 219 255
192 219 255
193 220 255
194 221 255
195 221 255
196 222 255
198 223 255
199 223 255
200 224 255
203 226 255
204 226 255
207 228 255
208 228 253
209 228 250
210 229 255
210 230 255
210 230 255
210 230 255
210 229 255
210 229 255
210 229 255
210 229 255
210 229 255
210 229 255
210 229 255
210 229 255
210 229 255
210 229 255
210 229 255
210 229 255
210 229 255
210 229 255
210 229 255
210 229 255
210 229 255
210 229 255
210 229 255
210 229 255
210 229 255
210 229 255
210 229 255
210 229 255
209 229 255
209 229 255
209 229 255
209 229 255
209 229 255
209 229 255
209 229 255
209 229 255
203 223 252
132 155 204
62 99 171
63 99 168
61 98 168
61 98 164
61 98 165
62 98 169
61 98 169
62 98 166
63 99 164
62 98 165
62 98 164
63 99 174
62 98 165
61 98 166
61 98 162
63 99 166
62 98 163
62 99 166
62 99 170
62 98 159
62 99 170
63 99 170
63 99 173
62 98 167
63 99 172
61 97 152
61 98 161
62 98 167
62 98 157
61 97 155
62 98 164
62 98 162
61 98 163
61 97 162
62 98 166
62 98 166
61 97 163
62 98 165
61 97 156
63 99 171
62 98 163
61 97 163
61 97 166
61 97 160
61 97 159
62 99 169
62 98 169
61 98 164
61 97 161
62 98 163
60 96 153
62 98 165
62 98 163
62 98 163
61 97 164
62 98 167
61 97 164
62 98 168
62 97 163
62 97 164
61 96 164
60 95 159
60 95 159
61 96 166
59 94 161
60 96 167
133 156 202
207 227 254
209 229 255
209 229 255
209 229 255
209 229 255
209 229 255
209 229 255
209 229 255
209 229 255
210 229 255
210 229 255
210 229 255
210 229 255
210 229 255
210 229 255
210 229 255
210 229 255
210 229 255
210 229 255
210 229 255
210 229 255
210 229 255
210 229 255
210 229 255
210 229 255
210 229 255
210 229 255
210 229 255
210 229 255
210 229 255
210 229 255
210 229 255
210 229 255
210 230 255
210 230 255
211 230 255
186 198 207
133 132 98
126 124 83
130 128 85
131 129 87
133 131 88
136 134 90
134 133 89
134 133 91
133 132 89
143 142 97
134 133 90
138 137 93
137 137 94
143 142 95
146 144 97
147 145 97
146 144 97
141 140 94
151 150 101
152 150 100
155 154 103
152 150 102
149 147 99
149 148 100
155 154 103
150 147 98
157 154 103
157 154 103
156 155 104
147 145 98
152 149 100
165 161 106
166 163 108
151 149 100
160 158 105
161 158 105
163 160 106
160 157 104
160 158 105
157 154 103
163 160 106
162 158 104
154 151 101
168 165 109
160 157 103
159 155 103
162 159 105
165 162 108
163 160 107
166 163 108
158 154 102
163 159 104
163 160 106
166 162 108
159 156 101
166 162 106
162 159 105
161 158 104
161 157 103
163 159 103
167 163 107
166 161 104
156 152 100
162 157 101
170 164 107
165 161 104
160 157 104
164 160 103
165 161 103
162 159 105
159 154 99
164 160 103
162 158 102
161 157 101
159 155 101
164 161 105
170 165 106
168 165 108
162 158 102
166 161 104
155 152 97
167 163 106
163 159 104
160 156 101
162 158 101
161 157 100
166 161 103
155 151 95
163 158 101
160 156 101
161 157 101
159 155 99
165 160 101
159 153 97
162 157 99
152 148 94
154 149 95
156 151 94
164 159 100
158 153 97
155 151 97
153 149 93
157 153 98
154 151 94
158 155 102
164 159 101
156 152 95
155 150 92
159 155 95
150 145 90
158 154 97
153 147 92
162 157 99
160 155 98
156 151 91
156 150 95
156 150 93
157 152 94
148 145 90
158 153 93
154 149 92
157 152 95
148 144 90
142 137 87
147 143 90
152 148 91
146 141 86
151 147 90
146 141 87
205 227 255
205 227 255
204 226 255
204 226 255
204 226 255
203 226 255
203 226 255
203 225 255
203 225 255
202 225 255
202 225 255
201 225 255
201 224 255
201 224 255
200 224 255
200 224 255
200 224 255
199 223 255
199 223 255
200 224 254
201 224 248
204 226 250
204 226 254
205 226 253
204 225 250
203 225 253
204 226 249
204 226 253
204 226 253
204 225 246
204 225 245
205 226 252
205 226 250
204 225 246
203 225 245
203 225 248
203 225 249
200 222 240
200 223 245
200 222 240
201 223 244
201 224 245
200 222 233
202 224 248
202 224 246
202 224 246
202 224 244
201 223 241
202 224 245
198 221 231
201 223 241
202 224 246
200 222 241
203 225 249
201 223 242
202 224 245
199 221 234
202 224 244
200 222 242
199 221 241
200 222 241
199 222 240
201 223 240
200 222 240
203 225 249
200 223 244
202 224 246
202 224 246
202 224 246
200 222 244
203 225 249
199 222 242
202 225 250
202 224 245
202 224 249
201 224 249
201 223 241
200 222 238
200 223 245
198 221 238
201 223 244
200 222 242
202 224 250
201 223 250
200 223 246
199 222 242
200 223 248
199 222 244
200 222 242
199 222 244
199 222 245
200 223 249
196 220 234
199 222 241
199 222 244
196 220 242
198 222 246
198 221 242
197 221 240
196 220 242
197 221 244
195 219 240
196 220 241
195 220 241
198 222 248
197 221 245
198 222 246
196 221 249
198 223 253
196 221 250
195 220 245
194 220 249
190 219 253
188 217 255
189 218 255
189 218 255
190 219 255
192 219 255
192 220 255
194 221 255
195 221 255
196 222 255
197 222 255
199 223 255
202 225 255
202 225 255
205 226 255
206 227 255
207 228 254
210 229 255
210 229 253
211 230 255
211 230 255
211 230 255
211 230 255
211 230 255
211 230 255
210 230 255
210 230 255
210 230 255
210 229 255
210 229 255
210 229 255
210 229 255
210 229 255
210 229 255
210 229 255
210 229 255
210 229 255
210 229 255
210 229 255
210 229 255
210 229 255
210 229 255
210 229 255
210 229 255
210 229 255
210 229 255
210 229 255
210 229 255
210 229 255
210 229 255
210 229 255
210 229 255
199 219 248
105 131 184
62 98 169
62 98 164
62 99 168
61 97 159
62 98 168
63 99 173
61 98 163
61 98 163
63 99 165
62 98 165
62 98 162
62 98 161
61 98 162
62 98 162
62 99 166
62 98 164
62 98 166
63 99 173
62 98 162
61 97 154
62 98 162
61 98 164
61 98 166
62 98 160
61 98 160
62 98 158
62 98 158
62 98 165
62 98 158
62 98 159
62 98 158
62 98 165
62 98 161
63 99 172
62 98 160
62 99 168
62 98 167
62 97 152
62 98 167
62 98 159
62 98 165
61 98 163
62 98 163
62 98 170
61 97 160
62 98 163
61 97 164
60 97 162
62 98 166
63 99 167
61 97 161
62 98 164
62 98 162
61 97 159
61 97 165
62 98 167
61 97 160
62 98 165
63 99 170
61 97 162
61 97 164
61 96 163
61 96 161
62 97 168
61 97 161
61 98 170
61 96 168
60 95 165
112 136 189
203 222 250
210 229 255
210 229 255
210 229 255
210 229 255
210 229 255
210 229 255
210 229 255
210 229 255
210 229 255
210 229 255
210 229 255
210 229 255
210 229 255
210 229 255
210 229 255
210 229 255
210 229 255
210 229 255
210 229 255
210 229 255
210 229 255
210 229 255
210 229 255
210 229 255
210 230 255
210 230 255
210 230 255
211 230 255
211 230 255
211 230 255
211 230 255
211 230 255
211 230 255
180 192 200
126 123 82
133 132 88
131 128 86
130 128 86
123 121 81
151 149 99
143 140 94
143 142 96
132 131 89
132 132 89
141 140 95
147 147 100
139 138 94
144 143 97
140 140 95
149 148 101
152 151 101
148 147 99
143 142 96
150 149 100
151 149 100
151 149 100
153 151 102
156 154 104
157 155 104
156 153 102
151 150 101
157 156 103
151 150 100
157 154 103
160 157 104
156 153 101
152 151 102
158 155 103
157 154 102
161 159 105
157 154 102
156 154 104
166 163 109
160 157 103
165 161 106
161 158 105
165 161 106
159 155 103
162 158 104
158 155 101
165 161 106
161 157 104
164 161 108
172 168 109
158 155 102
165 162 106
160 156 101
166 163 107
164 160 104
164 160 107
164 161 107
162 159 104
162 159 104
162 159 103
163 159 104
166 162 104
170 165 108
167 162 106
158 155 101
168 164 107
164 160 105
168 163 106
170 167 110
162 158 102
166 161 104
166 162 106
156 153 101
163 159 103
166 161 103
168 163 104
163 160 104
169 165 105
163 158 103
160 155 101
166 161 104
169 165 104
162 157 101
167 162 103
162 158 102
162 158 102
165 160 103
162 158 99
161 156 97
156 152 96
160 157 101
159 155 99
163 159 100
159 154 99
159 153 96
161 157 99
160 155 99
168 164 104
158 154 97
155 150 96
163 158 101
161 156 98
168 162 102
158 154 97
155 151 95
154 150 94
161 156 97
155 150 93
160 156 99
160 156 96
157 152 93
162 158 98
161 157 99
157 152 93
152 147 95
153 147 91
155 150 92
155 150 95
140 135 84
151 146 88
155 150 92
147 143 86
156 151 95
154 150 90
146 142 86
155 151 94
148 143 90
154 149 92
160 155 98
154 149 92
205 227 255
205 227 255
205 226 255
204 226 255
204 226 255
204 226 255
203 226 255
203 225 255
202 225 255
202 225 255
202 225 255
201 225 255
201 225 255
201 224 255
200 224 255
200 224 255
200 224 255
200 224 255
201 224 253
204 226 252
204 226 252
205 226 252
203 225 245
204 226 250
204 226 249
205 226 248
204 225 249
204 226 250
206 227 253
202 224 246
204 226 250
203 225 250
207 227 252
204 226 250
203 224 244
200 222 234
202 223 241
201 223 240
200 222 242
201 223 237
203 225 246
201 223 241
202 224 244
201 224 244
202 224 241
202 224 244
197 219 226
202 224 241
201 223 240
201 222 238
203 225 246
202 224 244
202 224 242
201 224 244
203 225 249
204 225 250
204 225 249
202 223 245
203 225 248
203 224 249
201 223 238
202 223 241
199 221 237
201 223 245
201 223 245
203 225 246
202 224 248
202 224 248
203 225 249
203 225 248
203 224 250
204 226 250
202 224 245
201 223 242
202 224 242
201 224 246
201 224 248
199 221 241
202 224 246
204 225 250
201 223 240
202 225 249
202 224 248
201 223 246
201 224 248
201 224 248
202 225 252
202 224 248
201 224 249
198 221 241
200 223 242
200 223 246
199 222 240
200 223 245
202 224 252
200 222 241
200 223 246
199 223 244
198 222 246
198 222 248
197 220 234
197 221 242
199 223 249
195 219 236
196 221 241
196 220 241
197 222 248
198 222 249
199 223 248
198 222 249
198 222 249
197 222 254
196 221 252
193 220 248
189 218 255
189 218 255
189 218 255
191 219 255
192 219 255
192 220 255
194 221 255
195 221 255
196 222 255
198 223 255
200 224 255
201 224 255
203 226 255
204 226 255
205 227 254
208 228 254
210 229 254
211 230 255
211 230 255
211 230 255
211 230 255
211 230 255
211 230 255
211 230 255
211 230 255
211 230 255
211 230 255
211 230 255
211 230 255
211 230 255
210 230 255
210 230 255
210 230 255
210 229 255
210 229 255
210 229 255
210 229 255
210 229 255
210 229 255
210 229 255
210 229 255
210 229 255
210 229 255
210 229 255
210 229 255
210 229 255
210 229 255
210 229 255
210 229 255
198 218 248
107 133 186
62 98 171
61 98 168
63 99 166
62 98 166
62 98 164
62 98 163
62 98 162
63 99 170
62 98 167
63 99 169
63 99 169
61 97 156
63 99 164
63 99 164
62 98 164
63 99 170
62 99 164
63 100 173
62 98 169
61 97 159
62 98 161
62 98 164
63 99 164
62 98 169
61 97 159
62 98 161
62 99 168
61 97 161
63 99 164
62 99 166
62 98 164
62 97 163
62 98 164
61 97 161
62 98 161
61 97 159
61 97 161
63 99 171
62 98 157
63 99 165
61 97 162
61 98 158
63 99 169
61 97 156
61 97 164
62 98 161
62 98 165
61 97 159
62 98 164
63 99 168
62 99 171
63 99 169
61 97 157
62 98 165
62 98 164
62 97 165
61 97 163
61 96 154
61 97 168
62 99 171
61 97 163
62 98 166
61 96 163
61 97 164
60 95 162
60 96 166
61 97 162
60 95 156
61 96 162
60 95 166
96 122 176
199 219 248
210 229 255
210 229 255
210 229 255
210 229 255
210 229 255
210 229 255
210 229 255
210 229 255
210 229 255
210 229 255
210 229 255
210 229 255
210 229 255
210 229 255
210 229 255
210 229 255
210 230 255
210 230 255
210 230 255
211 230 255
211 230 255
211 230 255
211 230 255
211 230 255
211 230 255
211 230 255
211 230 255
211 230 255
211 230 255
211 230 255
211 230 255
162 170 170
128 125 83
135 133 87
134 132 88
141 139 93
126 125 84
135 134 91
136 136 93
141 139 93
141 140 95
131 130 89
140 139 94
146 145 98
137 137 94
145 144 97
147 146 99
141 140 94
152 150 101
147 147 100
151 149 101
148 147 100
158 156 104
152 149 100
143 142 97
144 143 95
150 149 101
150 148 100
153 152 103
158 156 104
160 158 105
149 147 99
158 156 104
155 153 102
160 157 104
163 160 107
160 158 104
162 160 107
167 163 108
154 152 101
164 161 107
159 157 103
164 161 106
161 158 104
162 160 106
163 159 105
164 160 105
164 160 105
167 163 108
168 164 109
162 158 103
161 157 104
163 160 105
166 163 107
168 164 108
168 165 109
171 167 110
166 162 105
163 159 103
166 162 107
166 161 102
164 159 103
167 163 105
168 164 106
168 163 104
169 165 108
165 161 104
173 168 109
170 165 108
166 162 106
167 163 104
160 156 98
167 162 105
168 164 104
157 153 98
166 162 103
168 163 104
170 165 105
166 161 104
169 164 105
160 156 101
164 159 102
165 161 103
161 157 102
164 159 102
158 154 99
160 156 99
166 161 104
164 160 103
162 158 99
164 160 102
164 160 103
160 155 95
165 159 101
164 159 101
160 155 97
153 149 95
160 155 101
165 159 100
162 158 101
161 157 99
156 153 95
160 155 98
161 157 101
168 162 103
156 151 96
159 154 97
157 153 96
166 162 105
156 153 97
162 157 99
160 155 99
157 153 93
156 152 95
156 152 93
161 156 97
159 154 96
153 148 90
152 148 93
150 145 90
156 151 93
155 150 93
152 149 92
151 147 91
147 143 88
155 151 93
166 160 99
146 142 91
152 146 90
154 150 94
150 145 88
157 151 95
150 145 89
205 227 255
205 227 255
205 226 255
204 226 255
204 226 255
204 226 255
203 226 255
203 225 255
202 225 255
202 225 255
202 225 255
202 225 255
202 225 255
201 224 255
201 224 255
200 224 255
202 225 254
204 225 248
204 225 250
203 225 245
204 226 252
204 225 246
206 227 252
205 226 250
206 226 248
203 224 245
207 227 254
206 227 252
206 226 252
205 226 252
206 226 250
206 226 249
204 225 249
202 224 245
201 223 238
202 224 244
202 224 241
203 225 246
203 224 244
203 224 241
203 224 246
202 223 240
204 225 246
201 223 237
205 226 249
203 225 245
201 222 241
203 225 244
204 225 248
202 224 246
202 224 242
204 226 252
203 225 245
204 225 246
204 225 246
204 225 246
203 224 246
202 223 242
204 225 252
202 224 244
202 224 245
204 225 245
203 224 244
203 225 246
204 225 248
202 224 240
202 224 246
203 225 246
204 225 248
203 225 246
202 224 246
204 225 248
201 223 240
200 222 237
202 224 242
203 224 244
203 225 246
202 224 249
203 225 250
202 224 248
199 221 241
203 225 246
202 224 248
202 224 245
201 223 242
200 222 241
201 223 244
199 222 242
201 223 250
202 224 248
202 224 248
199 222 234
201 224 248
200 223 245
200 223 245
201 223 245
201 224 250
199 222 245
201 223 245
200 223 245
200 223 248
198 222 242
199 222 242
198 221 242
195 219 237
196 221 241
197 221 241
196 220 234
197 220 237
199 223 248
199 222 248
197 221 245
198 222 249
197 221 249
196 221 250
192 219 249
189 218 255
190 218 255
191 219 255
192 219 255
193 220 255
193 220 255
195 221 255
196 222 255
198 223 255
200 224 255
202 225 255
202 225 254
204 226 255
206 227 255
208 228 255
209 228 252
210 230 255
211 230 255
211 230 255
211 230 255
211 230 255
211 230 255
211 230 255
211 230 255
211 230 255
211 230 255
211 230 255
211 230 255
211 230 255
211 230 255
211 230 255
211 230 255
211 230 255
211 230 255
211 230 255
211 230 255
210 230 255
210 230 255
210 230 255
210 229 255
210 229 255
210 229 255
210 229 255
210 229 255
210 229 255
210 229 255
203 223 249
93 122 188
62 98 163
61 98 167
61 98 164
62 98 164
62 99 170
61 97 164
62 98 161
62 98 164
62 99 172
63 99 163
62 97 161
62 99 170
62 98 163
62 99 166
62 98 163
61 97 161
61 98 167
62 98 166
62 98 162
62 98 165
61 97 154
62 98 162
63 99 168
62 98 161
61 97 162
61 98 163
62 98 161
62 99 166
61 97 161
62 99 168
62 98 162
62 98 163
62 98 163
62 98 163
61 96 154
61 97 153
62 98 162
61 97 154
63 99 166
62 98 165
62 98 166
63 99 166
63 99 170
62 98 166
62 98 162
62 98 164
60 96 154
61 97 160
62 97 160
61 97 158
62 97 156
61 96 155
62 98 166
62 98 163
62 97 159
62 98 166
60 96 159
61 97 164
62 97 160
61 97 165
62 99 169
61 97 159
61 96 162
61 96 163
62 97 163
62 98 163
63 99 171
61 96 164
61 96 160
60 95 159
61 95 163
61 96 164
108 133 184
202 222 249
210 229 255
210 229 255
210 229 255
210 229 255
210 229 255
210 229 255
210 230 255
210 230 255
210 230 255
210 230 255
211 230 255
211 230 255
211 230 255
211 230 255
211 230 255
211 230 255
211 230 255
211 230 255
211 230 255
211 230 255
211 230 255
211 230 255
211 230 255
211 230 255
211 230 255
211 230 255
211 230 255
211 230 255
211 230 255
171 180 182
133 129 85
133 130 86
131 130 87
125 122 82
131 129 86
139 137 93
131 130 89
144 143 97
143 142 96
137 137 94
143 141 94
146 145 99
130 129 88
150 148 100
150 148 100
150 148 100
142 140 94
151 150 102
145 144 97
148 147 97
154 152 103
154 152 101
152 151 101
144 143 96
153 151 101
159 156 104
157 155 103
154 152 102
156 154 103
155 153 103
150 148 100
162 159 105
156 153 101
161 158 105
152 149 99
158 156 103
152 151 101
163 160 106
161 159 105
162 159 105
164 161 104
155 153 102
156 153 102
163 160 105
164 161 107
162 160 106
166 163 108
166 162 107
165 162 107
165 160 104
171 166 108
170 165 108
164 160 103
170 165 106
165 160 103
171 167 109
166 163 104
166 162 104
170 166 108
166 162 105
167 164 106
162 159 103
162 159 103
164 161 106
161 157 103
169 164 108
168 164 107
168 163 104
163 159 102
167 162 106
162 157 101
167 163 103
173 168 108
166 162 104
165 161 105
165 161 102
167 161 103
170 164 105
167 163 104
163 159 101
163 159 101
168 164 104
166 161 104
161 157 99
164 160 101
165 161 100
162 158 101
157 154 97
164 160 100
163 159 101
159 153 97
169 164 103
163 159 101
161 157 99
170 165 106
168 163 105
160 155 98
167 162 102
159 154 97
156 153 93
164 158 99
155 151 96
160 155 95
155 151 97
161 155 99
162 157 97
161 156 98
163 158 99
168 162 99
165 160 101
152 148 93
155 150 91
160 156 97
159 155 97
154 148 87
160 154 97
158 153 95
159 154 96
154 150 93
155 150 93
158 153 95
153 148 93
150 145 91
160 155 96
167 162 103
150 146 89
152 147 93
156 150 93
137 133 81
151 145 88
160 155 93
155 149 95
206 227 255
205 227 255
205 226 255
204 226 255
204 226 255
204 226 255
203 226 255
203 225 255
203 225 255
203 225 255
202 225 255
202 225 255
201 225 255
201 224 255
201 225 255
203 225 252
205 226 252
204 225 245
205 226 250
202 224 242
207 228 253
205 226 252
205 226 250
207 227 249
206 227 253
206 226 248
206 226 250
206 226 249
205 226 253
206 227 252
204 224 241
200 222 236
200 222 236
202 224 241
201 222 233
203 224 240
204 225 244
202 224 244
203 224 242
203 225 248
202 224 245
203 224 241
203 224 244
202 223 241
205 226 249
201 222 240
204 226 248
204 225 242
204 225 244
202 223 240
205 226 249
203 225 245
205 226 249
203 225 245
204 225 249
205 226 250
201 223 234
204 225 245
204 225 246
204 226 249
202 224 244
203 224 244
203 225 245
203 225 246
203 224 245
203 225 249
203 224 245
203 224 244
204 225 246
205 226 250
202 224 244
206 227 253
205 226 252
203 225 248
205 226 250
204 226 249
203 224 242
201 223 241
203 224 245
201 223 246
201 223 244
203 225 248
204 225 248
201 224 244
201 224 245
203 225 250
204 225 250
202 224 241
203 225 246
200 222 242
200 222 236
201 223 245
202 224 245
201 223 245
201 223 241
202 225 250
201 223 245
201 223 245
201 224 248
200 223 246
201 224 248
199 222 237
199 223 248
201 224 249
199 222 245
199 222 244
198 222 244
196 221 240
198 222 242
196 220 237
199 222 246
200 223 244
198 221 246
198 222 246
198 222 246
197 222 246
196 222 253
191 219 255
190 219 255
191 219 255
192 220 255
193 220 255
194 221 255
195 221 255
196 222 255
198 223 255
198 223 255
200 224 255
203 225 255
205 226 255
206 227 255
209 229 255
210 229 253
211 230 254
211 230 255
211 230 255
211 230 255
211 230 255
211 230 255
211 230 255
211 230 255
211 230 255
211 230 255
211 230 255
211 230 255
211 230 255
211 230 255
211 230 255
211 230 255
211 230 255
211 230 255
211 230 255
211 230 255
211 230 255
211 230 255
211 230 255
211 230 255
211 230 255
211 230 255
211 230 255
211 230 255
204 223 251
106 132 189
62 98 171
63 99 172
61 98 164
61 97 158
62 98 167
62 98 167
62 98 162
62 98 166
62 98 163
63 99 167
62 99 165
60 96 154
62 99 169
62 98 165
62 98 167
62 98 162
62 98 164
62 98 160
62 98 161
61 97 152
61 97 160
62 98 167
61 97 162
62 98 161
61 97 163
63 99 162
61 97 155
62 98 159
62 98 165
63 98 161
62 98 168
63 99 163
62 98 164
62 98 160
61 96 159
63 99 163
62 98 160
62 98 167
62 98 165
62 98 157
62 98 157
63 99 168
62 98 163
63 99 163
62 97 159
61 97 165
61 96 155
61 97 161
61 97 156
62 97 163
62 98 164
61 96 155
61 96 154
62 97 165
62 98 162
63 99 165
61 97 160
62 97 160
62 98 165
60 95 161
61 97 159
62 98 160
60 96 162
62 98 161
60 95 158
61 97 160
61 97 161
61 97 165
61 97 164
61 96 162
60 94 158
60 95 158
59 92 156
61 96 165
108 133 180
205 224 250
211 230 255
211 230 255
211 230 255
211 230 255
211 230 255
211 230 255
211 230 255
211 230 255
211 230 255
211 230 255
211 230 255
211 230 255
211 230 255
211 230 255
211 230 255
211 230 255
211 230 255
211 230 255
211 230 255
211 230 255
211 230 255
211 230 255
211 230 255
211 230 255
211 230 255
211 230 255
211 230 254
169 180 187
128 124 82
128 126 84
128 126 85
132 131 88
124 124 85
139 137 93
149 147 99
148 147 100
140 138 93
142 142 97
146 145 98
133 132 90
147 145 99
142 141 96
142 141 95
149 148 101
146 145 98
149 148 100
150 149 100
144 143 97
148 147 98
152 150 100
152 150 99
152 151 103
155 154 103
152 151 103
154 152 102
156 154 104
159 156 103
153 152 103
162 160 108
155 153 101
160 158 104
159 157 104
162 158 105
167 163 108
159 157 106
153 151 101
164 162 106
162 158 103
161 159 105
166 163 109
164 160 104
155 152 102
167 164 108
163 160 106
161 158 105
163 159 105
166 163 107
163 159 104
158 153 100
169 165 108
167 162 105
170 165 109
168 163 104
163 159 103
170 167 108
168 163 105
164 161 103
162 158 103
169 165 107
165 160 103
173 168 110
167 162 104
160 156 99
168 164 105
175 169 109
171 168 110
162 158 103
159 155 99
169 164 103
167 162 104
165 161 99
164 159 101
170 166 106
165 160 105
162 158 101
163 159 99
166 161 101
166 161 103
165 161 103
164 159 100
169 163 102
164 161 100
164 159 102
168 164 104
165 160 101
163 158 102
165 159 98
168 162 104
165 160 102
159 155 92
160 156 101
157 152 96
165 161 101
156 151 95
163 158 100
157 152 96
165 159 102
159 156 101
161 156 99
158 154 97
162 157 99
163 158 97
165 160 100
157 153 94
165 159 101
161 156 97
160 155 93
158 154 96
153 148 94
161 156 97
162 157 95
160 155 97
157 152 93
155 151 93
151 146 88
156 153 95
152 147 90
157 152 96
158 153 96
158 153 95
156 152 95
160 154 94
146 141 83
154 149 93
154 148 93
155 150 92
153 148 90
155 149 92
151 146 90
164 158 98
143 140 80
206 227 255
205 227 255
205 227 255
205 226 255
204 226 255
204 226 255
204 226 255
203 226 255
203 225 255
203 225 255
202 225 255
202 225 255
202 225 255
201 223 250
206 227 253
207 227 254
206 227 252
206 227 252
206 227 252
205 226 249
206 226 249
205 226 245
204 225 244
207 227 249
207 227 250
205 226 248
207 227 250
206 226 248
203 224 242
200 222 233
203 224 244
202 224 238
202 223 241
202 223 237
203 224 242
204 225 242
202 223 238
204 225 246
205 226 249
205 226 249
204 225 244
202 224 240
205 226 246
205 225 245
202 223 238
204 225 244
204 225 248
203 225 244
204 224 241
204 225 242
204 225 244
204 225 246
204 225 245
204 225 245
203 224 245
207 227 252
203 224 245
204 225 248
203 224 240
204 225 245
202 223 240
203 224 246
204 225 245
204 225 242
201 222 240
203 224 241
204 225 245
204 225 242
203 224 244
204 225 245
203 225 246
204 224 246
201 222 240
206 227 252
204 225 245
203 224 244
204 225 246
202 224 241
203 224 248
206 227 253
204 225 244
202 223 240
204 225 246
204 225 248
204 226 249
204 225 246
204 225 249
204 225 248
201 223 238
202 224 242
201 223 241
201 223 244
203 225 252
203 225 249
202 224 248
202 224 249
201 224 248
203 225 250
202 224 244
201 223 240
202 224 246
201 223 244
200 222 241
198 221 238
199 222 240
200 223 250
197 220 234
198 221 241
199 223 252
196 220 236
196 220 238
195 219 233
198 222 242
199 222 248
199 223 249
198 222 252
198 222 246
198 222 249
194 220 254
190 219 255
192 219 255
193 220 255
193 220 255
194 221 255
196 222 255
197 222 255
199 223 255
200 224 255
202 225 255
202 225 254
205 226 255
207 228 255
209 229 254
210 229 253
211 230 254
212 230 255
212 230 255
212 230 255
212 230 255
211 230 255
211 230 255
211 230 255
211 230 255
211 230 255
211 230 255
211 230 255
211 230 255
211 230 255
211 230 255
211 230 255
211 230 255
211 230 255
211 230 255
211 230 255
211 230 255
211 230 255
211 230 255
211 230 255
211 230 255
211 230 255
210 229 255
121 145 193
62 98 164
62 99 167
62 98 165
62 98 166
61 97 158
62 99 169
61 98 161
62 99 165
62 99 163
62 98 159
62 99 167
62 98 161
63 99 164
62 98 161
63 99 169
62 98 162
61 97 162
62 98 162
62 97 157
62 98 159
61 97 159
62 98 160
62 98 161
61 97 154
62 98 167
62 98 157
61 97 154
62 98 162
61 98 164
61 96 151
62 98 164
62 98 158
63 99 166
62 98 165
62 98 165
63 99 165
63 99 166
62 98 156
62 98 165
61 97 162
62 98 160
62 98 159
61 97 161
62 98 166
62 99 167
62 98 157
62 98 162
60 96 153
62 98 164
62 98 165
61 97 161
62 98 163
62 98 160
61 97 158
61 96 154
61 97 160
61 97 163
61 97 162
62 97 158
61 97 158
62 97 164
62 97 159
61 97 165
62 97 161
62 98 165
61 96 162
61 96 164
62 98 162
60 95 153
60 94 158
60 95 156
60 94 159
62 97 162
60 93 153
61 95 160
59 93 159
106 131 183
208 227 253
211 230 255
211 230 255
211 230 255
211 230 255
211 230 255
211 230 255
211 230 255
211 230 255
211 230 255
211 230 255
211 230 255
211 230 255
211 230 255
211 230 255
211 230 255
211 230 255
211 230 255
211 230 255
211 230 255
211 230 255
211 230 255
212 230 255
212 230 255
212 230 255
212 230 255
171 181 187
130 127 84
123 121 80
144 142 95
133 131 88
133 132 89
127 126 86
137 136 93
127 127 87
129 128 87
141 140 95
144 143 98
146 145 99
137 137 94
145 144 97
145 144 97
136 135 93
142 141 96
145 145 99
152 150 101
148 146 99
145 144 97
147 145 97
143 142 96
149 148 100
147 146 99
148 145 98
153 150 100
154 153 104
161 158 106
154 152 101
157 154 102
164 161 106
155 153 103
156 154 104
153 151 100
157 155 103
163 159 104
157 153 101
158 156 103
161 158 103
167 163 107
164 161 107
165 162 104
163 160 105
167 164 107
158 155 101
163 159 104
167 164 107
163 160 104
160 157 102
166 163 106
171 167 108
167 163 107
166 162 105
165 160 103
170 165 105
169 165 105
167 163 105
166 163 105
167 162 106
169 164 103
166 162 106
167 163 105
165 161 102
166 162 105
172 168 109
165 161 103
169 163 104
169 164 106
172 166 108
167 162 106
168 163 107
167 162 106
169 164 106
169 164 103
163 160 103
167 162 102
165 161 102
169 163 102
160 155 97
164 160 101
171 166 108
160 156 99
167 162 103
165 161 102
168 164 105
161 157 95
167 161 103
164 159 102
166 162 101
167 162 103
164 160 99
165 159 100
168 162 101
161 157 99
163 158 98
162 158 100
164 159 101
168 163 101
160 156 99
158 154 95
164 158 97
163 158 98
157 152 97
162 156 93
159 154 96
157 152 95
161 155 96
163 158 99
161 157 98
158 153 96
158 153 94
155 150 89
162 157 97
158 154 96
164 158 99
157 153 96
160 156 96
157 154 97
159 154 98
156 152 94
154 150 90
158 153 97
157 153 96
150 145 90
158 152 93
147 142 87
155 149 91
157 152 90
151 145 89
162 155 95
151 146 88
151 146 89
160 154 97
206 227 255
206 227 255
205 227 255
205 226 255
204 226 255
204 226 255
204 226 255
204 226 255
203 226 255
203 225 255
202 225 255
203 225 255
204 225 252
207 227 252
206 227 250
207 227 249
207 227 249
207 227 252
205 226 245
203 224 240
205 226 246
206 226 246
206 226 248
207 227 249
208 228 250
207 228 252
206 226 244
200 222 230
204 225 244
204 225 242
203 224 240
204 225 244
202 223 240
204 224 240
205 226 245
205 225 249
204 225 241
206 226 248
205 226 249
205 225 248
204 224 241
205 226 249
203 223 238
204 225 244
202 223 244
204 225 241
205 226 248
203 223 241
206 227 248
204 225 246
206 226 248
204 225 244
206 227 249
206 226 249
204 225 246
203 224 242
204 225 242
205 226 246
205 225 249
205 225 245
206 226 249
205 226 246
203 224 241
206 226 250
205 226 248
203 224 241
204 225 242
205 226 250
203 224 237
205 225 245
206 226 246
204 225 248
206 226 246
205 225 246
205 225 246
206 226 248
204 225 245
204 225 246
202 224 238
202 223 240
204 225 250
205 226 249
203 224 246
204 225 245
204 225 246
204 226 248
204 225 248
205 226 255
201 223 244
203 225 246
203 225 249
204 226 253
201 223 242
201 223 241
204 225 249
203 224 242
203 225 248
203 225 249
202 224 245
201 223 244
201 223 240
201 223 240
202 224 246
201 223 249
201 223 246
201 223 244
201 224 248
199 222 238
200 223 245
198 221 241
200 223 245
196 220 234
199 223 250
200 223 250
198 221 237
199 222 244
198 222 248
200 224 252
201 224 250
196 221 248
192 219 254
192 220 255
193 220 255
193 220 255
195 221 255
196 222 255
197 222 255
199 223 255
200 224 255
202 225 255
204 226 255
206 227 255
206 227 255
208 228 253
210 229 254
213 231 255
212 230 255
212 230 255
212 230 255
212 230 255
212 230 255
212 230 255
212 230 255
212 230 255
212 230 255
212 230 255
212 230 255
212 230 255
211 230 255
211 230 255
211 230 255
211 230 255
211 230 255
211 230 255
211 230 255
211 230 255
211 230 255
211 230 255
211 230 255
211 230 255
142 164 211
62 99 168
61 98 164
61 98 161
62 99 165
62 98 158
62 98 159
62 99 170
62 98 163
63 99 166
62 98 166
61 96 153
62 99 167
62 98 166
61 97 157
62 98 163
62 98 159
63 99 167
62 98 159
62 98 159
63 99 165
62 98 155
62 98 158
62 98 163
62 98 165
63 99 165
62 98 160
62 98 161
62 98 160
61 98 159
61 97 156
63 99 164
62 98 158
62 98 159
63 98 162
60 96 152
62 98 164
62 98 160
62 98 163
61 97 156
62 98 159
62 98 157
62 99 167
62 98 164
63 99 163
61 97 153
61 97 160
62 98 164
62 98 163
61 97 158
62 98 163
61 97 154
62 98 162
60 96 157
62 98 162
61 97 157
61 96 158
61 97 162
62 97 159
61 97 158
61 96 154
61 96 157
61 97 158
61 96 160
61 97 161
62 97 160
62 97 160
61 96 154
62 97 161
60 94 154
60 95 155
61 95 159
60 94 150
61 95 157
59 93 161
62 96 159
61 96 161
59 93 150
60 94 157
134 157 203
211 230 255
211 230 255
211 230 255
211 230 255
211 230 255
211 230 255
211 230 255
211 230 255
211 230 255
211 230 255
211 230 255
211 230 255
212 230 255
212 230 255
212 230 255
212 230 255
212 230 255
212 230 255
212 230 255
212 230 255
212 230 255
212 230 255
212 230 255
212 230 255
175 187 197
126 124 81
142 139 92
133 130 87
126 125 85
126 126 86
140 137 92
137 135 91
134 133 90
145 143 97
140 138 94
134 134 91
140 140 95
129 128 87
137 138 94
148 146 99
139 139 95
146 145 97
142 141 97
144 143 97
151 150 102
150 149 101
149 148 100
144 143 96
152 150 102
147 145 97
150 149 100
153 151 101
156 154 104
150 148 98
155 153 101
159 157 105
155 153 103
160 157 104
164 160 105
156 153 102
161 157 103
161 158 104
161 158 104
158 155 103
157 154 101
162 158 104
162 159 105
166 162 108
159 156 102
170 166 107
168 164 107
169 165 107
164 160 104
164 160 105
161 158 103
169 164 106
164 160 105
169 166 108
165 160 103
161 157 100
171 166 108
167 163 104
171 166 106
167 163 104
168 163 105
167 163 104
166 162 105
164 160 103
163 159 102
171 166 106
166 162 104
171 166 109
162 158 101
164 160 104
174 168 108
168 164 106
166 161 100
168 164 103
167 163 105
167 162 104
172 166 107
165 161 102
170 164 104
167 162 103
163 158 101
166 161 103
166 162 102
168 163 105
167 162 101
164 159 103
169 164 103
166 160 100
164 159 101
167 162 102
165 160 101
169 163 102
166 161 99
167 162 104
157 153 96
168 162 102
162 158 101
166 161 99
164 159 101
170 164 103
157 153 96
163 158 97
162 157 95
165 160 100
166 161 102
160 155 95
162 158 96
156 151 93
158 153 95
166 160 100
157 151 95
161 156 95
161 156 92
155 150 88
163 158 97
161 156 95
154 149 91
155 150 91
153 149 93
156 151 95
156 151 94
159 154 93
155 150 91
158 152 92
153 148 93
166 160 99
157 152 93
170 164 102
159 153 90
147 142 83
155 149 88
159 153 93
169 163 102
152 147 90
151 146 86
153 148 90
206 227 255
205 227 255
205 227 255
205 227 255
205 226 255
204 226 255
204 226 255
204 226 255
204 226 255
203 226 255
203 226 255
207 227 252
206 226 249
207 227 252
205 225 248
207 227 248
206 227 250
206 227 249
207 227 252
206 226 245
206 226 245
208 228 253
206 227 249
207 228 252
206 226 245
205 225 241
203 224 241
202 223 237
204 225 242
204 225 241
204 225 241
202 223 237
204 224 242
204 225 242
204 224 237
205 225 244
206 226 248
206 227 250
204 224 244
205 225 246
205 226 245
206 226 248
206 226 248
207 227 252
205 225 245
205 226 242
206 226 246
206 226 249
206 226 249
205 226 245
205 226 249
204 225 241
205 226 245
204 224 240
204 225 245
206 226 249
206 226 248
205 225 246
205 225 248
206 227 252
204 225 248
203 224 241
206 226 246
204 224 242
206 227 252
204 225 244
206 227 252
205 225 242
204 224 245
207 227 250
204 224 245
204 225 246
205 225 246
206 227 253
204 224 242
206 227 248
206 226 244
204 225 241
206 226 246
205 226 248
203 223 241
206 227 254
206 227 252
204 225 249
205 225 246
205 225 245
203 224 246
205 225 248
204 225 249
204 225 245
203 225 246
203 225 246
204 226 250
204 225 249
204 225 248
203 224 242
203 224 244
202 224 242
204 226 250
204 225 246
201 223 240
203 225 250
202 224 248
202 224 244
203 225 248
202 224 249
200 222 241
201 223 240
201 223 244
198 221 234
201 224 248
198 222 240
198 221 237
198 221 236
198 222 242
200 223 248
200 223 248
201 223 245
199 222 245
198 222 245
199 223 249
193 220 255
192 220 255
193 220 255
194 221 255
196 222 255
196 222 255
197 222 255
199 224 255
201 224 255
203 225 255
204 226 255
205 227 255
208 228 255
209 229 254
210 229 253
211 230 254
212 230 255
212 230 255
212 230 255
212 230 255
212 230 255
212 230 255
212 230 255
212 230 255
212 230 255
212 230 255
212 230 255
212 230 255
212 230 255
212 230 255
212 230 255
212 230 255
212 230 255
212 230 255
212 230 255
212 230 255
211 230 255
211 230 255
159 180 216
62 98 162
62 99 168
61 97 164
61 97 165
63 99 168
61 97 160
61 98 161
62 98 165
63 99 171
62 98 162
62 98 159
62 98 161
63 99 164
61 98 162
62 98 161
63 99 167
62 98 160
62 98 156
62 98 157
62 98 160
62 98 160
61 97 155
62 98 164
61 97 155
62 98 160
62 98 161
61 96 151
62 98 164
62 98 160
62 98 160
62 98 160
62 98 161
62 98 163
61 97 155
63 98 161
62 98 157
63 99 163
62 98 157
62 98 163
60 96 147
62 98 160
60 96 147
61 97 158
61 97 152
61 97 159
61 97 153
62 98 160
61 97 156
62 97 153
61 97 153
61 97 155
62 98 162
61 97 159
63 98 163
62 97 155
61 97 159
62 97 155
61 97 162
61 96 153
62 97 160
61 97 158
62 98 162
62 97 162
62 97 159
62 98 165
63 99 169
63 99 168
60 93 154
61 95 152
61 97 162
61 97 161
61 94 151
62 96 159
61 95 159
61 97 166
60 96 161
61 95 155
59 92 151
59 92 155
59 93 158
172 191 226
211 230 255
211 230 255
212 230 255
212 230 255
212 230 255
212 230 255
212 230 255
212 230 255
212 230 255
212 230 255
212 230 255
212 230 255
212 230 255
212 230 255
212 230 255
212 230 255
212 230 255
212 230 255
212 230 255
212 230 255
212 230 255
212 230 255
187 201 213
128 126 85
143 141 94
123 122 83
130 128 84
131 130 88
129 128 87
136 135 91
138 136 92
140 139 94
129 129 89
142 141 95
139 138 94
134 133 91
151 149 101
143 141 95
140 141 97
151 149 100
141 141 96
149 148 100
138 138 95
151 149 100
144 143 95
153 150 101
151 149 100
144 143 96
148 145 96
156 154 102
155 153 103
152 150 100
151 150 100
157 155 103
143 142 96
156 154 101
156 153 103
156 153 102
159 155 102
164 161 106
164 161 104
163 159 104
163 160 106
164 160 105
164 160 107
163 160 104
164 160 104
161 158 103
166 163 104
166 162 106
165 161 105
162 159 103
167 163 104
167 164 109
166 162 103
173 168 108
168 163 106
172 168 109
170 165 106
170 166 105
168 163 103
174 168 110
167 163 104
170 166 107
171 165 105
172 167 108
164 161 103
165 161 104
169 164 104
170 165 106
171 166 107
167 162 105
170 165 104
171 166 108
166 162 100
166 161 101
168 162 104
168 164 106
173 168 106
168 164 104
166 161 102
170 165 104
169 164 104
164 161 103
170 165 106
172 167 105
168 162 101
162 158 100
163 158 100
167 162 101
171 165 104
163 158 99
168 163 101
170 164 103
166 161 99
169 162 100
168 162 103
161 156 97
168 163 103
165 160 98
165 160 102
160 156 96
170 165 103
169 164 100
165 159 101
163 159 95
156 152 93
162 157 98
169 162 102
162 157 96
163 158 94
163 158 99
158 153 94
160 153 97
166 160 98
161 156 100
166 161 101
161 157 97
160 156 97
158 153 96
158 154 95
158 154 93
161 156 97
168 161 98
156 151 95
154 150 90
161 155 96
161 156 95
161 156 95
156 151 90
161 156 93
153 147 89
152 148 90
160 155 94
159 153 95
156 151 92
157 152 97
152 147 85
158 153 91
206 227 255
206 227 255
205 227 255
205 227 255
205 227 255
205 226 255
204 226 255
204 226 255
204 226 255
202 223 250
206 227 249
206 226 250
205 226 245
207 227 249
208 228 252
208 228 250
207 227 246
206 226 245
208 228 250
207 227 246
208 228 250
207 227 250
209 229 253
207 227 250
205 226 245
204 225 245
203 224 240
203 223 236
203 224 236
205 226 246
206 226 246
202 223 238
206 226 241
203 224 238
206 227 248
204 224 244
203 223 240
206 226 242
206 226 245
205 225 242
205 226 245
206 226 244
206 227 248
207 227 250
206 227 246
204 225 241
205 225 244
203 223 242
204 225 242
205 225 245
205 226 244
204 225 242
207 227 246
205 226 241
207 227 250
206 226 244
207 227 250
208 228 252
202 223 237
206 226 249
206 226 246
205 226 246
205 226 248
207 227 248
204 225 248
206 226 245
203 224 240
206 226 246
204 225 246
205 225 244
205 226 249
206 227 248
203 225 248
204 225 244
202 223 238
204 225 244
205 225 244
205 226 245
207 227 249
206 226 248
204 225 249
205 226 250
206 226 245
206 226 248
207 227 252
205 226 248
206 226 246
205 226 246
204 225 246
205 226 248
206 226 249
205 226 250
203 224 248
204 225 244
202 223 240
204 226 249
205 226 250
204 225 244
203 224 240
203 225 248
203 225 246
201 223 236
203 225 246
202 224 245
202 224 246
201 223 244
203 225 250
200 222 241
201 224 244
201 223 242
201 224 246
202 224 249
200 223 241
199 222 237
201 224 249
198 221 238
197 221 236
202 224 252
201 224 248
201 224 248
200 223 249
199 223 246
195 221 255
193 220 255
194 221 255
195 221 255
196 222 255
197 222 255
199 223 255
200 224 255
201 224 255
203 225 255
204 226 254
206 227 255
208 228 255
211 230 255
210 229 250
213 231 255
212 231 255
212 231 255
212 231 255
212 231 255
212 231 255
212 230 255
212 230 255
212 230 255
212 230 255
212 230 255
212 230 255
212 230 255
212 230 255
212 230 255
212 230 255
212 230 255
212 230 255
212 230 255
212 230 255
212 230 255
193 212 241
64 100 169
61 97 160
62 99 169
62 98 160
62 98 159
62 98 163
60 96 153
62 97 157
62 98 159
62 98 162
62 98 165
62 98 160
61 97 156
61 98 167
62 98 158
61 97 157
62 98 162
62 98 163
62 98 159
61 97 153
63 99 164
62 98 158
61 97 158
62 98 155
62 98 163
61 96 155
61 97 151
62 98 162
61 98 161
63 99 162
62 98 164
61 97 157
62 98 165
61 97 153
62 98 159
61 97 159
61 97 158
61 96 150
61 96 150
60 96 150
61 97 155
62 98 160
61 97 157
62 98 160
62 98 167
62 97 158
61 97 155
61 96 156
63 98 158
62 98 159
62 98 161
62 98 160
62 97 158
62 98 159
61 96 155
63 99 168
62 98 166
62 98 161
62 98 164
61 96 155
62 97 154
61 97 160
62 97 160
62 97 155
61 97 158
61 97 161
61 96 158
61 97 157
60 95 156
60 95 154
61 97 161
61 96 156
61 96 160
61 96 156
59 93 151
60 94 153
61 95 161
60 95 155
60 95 160
59 93 156
59 92 153
59 92 149
183 202 231
212 230 255
212 230 255
212 230 255
212 230 255
212 230 255
212 230 255
212 230 255
212 230 255
212 230 255
212 230 255
212 230 255
212 230 255
212 230 255
212 230 255
212 230 255
212 231 255
212 231 255
212 231 255
212 231 255
212 231 255
188 202 217
132 130 91
121 119 81
134 132 89
127 126 86
130 128 87
141 139 92
137 136 92
136 136 93
139 138 94
130 131 91
134 133 90
138 137 93
131 130 89
128 129 89
142 142 97
143 142 96
141 139 95
141 141 97
147 145 98
147 146 99
142 142 96
140 139 94
153 150 99
149 147 99
150 148 100
146 145 96
155 152 102
155 153 102
145 144 95
161 158 104
147 146 98
150 149 98
158 155 103
158 156 103
153 151 99
156 153 101
164 161 107
161 158 105
163 158 103
160 157 104
166 162 108
165 161 107
168 164 108
163 159 104
162 159 101
167 163 106
164 160 105
167 164 106
168 163 106
167 163 105
171 167 108
164 161 105
170 166 107
166 162 105
163 159 101
171 166 107
169 165 106
168 163 106
168 165 105
166 162 103
169 165 108
167 163 104
173 168 106
167 162 104
167 163 104
171 166 108
176 169 108
165 160 101
165 161 103
171 165 105
169 164 103
169 163 101
167 162 101
164 159 102
169 164 103
166 161 102
169 163 103
168 163 101
162 158 100
167 162 101
165 160 102
171 166 104
166 161 102
170 166 105
170 165 106
168 162 101
168 163 103
167 161 98
163 158 101
169 164 105
166 161 101
164 159 97
168 163 101
162 158 99
166 160 101
166 161 103
163 159 100
166 161 99
168 163 104
164 160 100
161 155 96
163 159 99
167 162 101
157 153 98
164 159 97
161 155 97
162 157 95
163 158 97
168 162 100
162 157 96
162 157 97
159 154 93
168 163 100
159 153 95
157 152 91
161 155 92
154 148 91
153 148 88
158 153 92
159 155 99
158 153 92
164 159 97
161 156 97
163 158 99
163 157 100
160 155 98
163 157 96
151 146 86
155 149 90
157 153 93
160 155 94
156 151 90
158 152 90
156 151 94
161 156 96
147 144 87
158 153 93
206 227 255
206 227 255
206 227 255
205 227 255
205 227 255
205 227 255
205 226 255
204 226 255
204 226 253
208 228 250
207 227 249
208 227 252
207 227 249
208 228 252
206 226 248
208 227 250
208 228 252
210 229 254
209 228 252
208 227 248
208 228 250
209 229 253
206 226 245
204 224 233
204 224 241
202 223 233
205 225 242
206 226 246
205 225 240
204 224 238
206 226 246
207 227 249
205 225 241
205 225 238
206 226 246
207 227 246
204 224 242
206 226 245
207 227 245
205 225 240
204 224 240
208 228 249
208 228 250
207 227 244
205 225 241
206 226 246
204 224 237
205 225 242
207 227 250
208 228 250
204 224 240
207 227 246
207 227 246
210 229 254
207 227 248
208 228 252
207 227 245
207 227 246
206 226 246
208 227 250
205 225 242
207 226 249
206 226 244
206 226 245
207 228 253
207 227 250
204 225 241
207 227 248
207 227 249
206 226 246
206 226 246
208 228 253
207 227 250
207 227 249
205 225 248
204 225 245
206 226 248
205 225 248
205 225 240
206 227 252
205 226 244
205 225 244
202 223 241
206 226 248
206 226 245
206 227 249
205 226 249
205 225 245
205 226 248
204 225 246
203 224 241
205 226 250
205 226 246
206 226 249
206 226 248
205 225 244
204 225 242
203 225 248
205 226 250
203 224 245
204 225 245
204 225 246
202 223 244
204 225 249
200 222 238
204 225 248
201 223 242
203 225 246
201 223 242
202 225 252
202 224 246
202 224 245
203 225 250
201 224 246
200 222 241
200 223 241
199 222 237
199 222 240
200 223 242
203 225 249
202 224 246
201 224 249
201 224 252
199 223 255
194 221 255
194 221 255
196 222 255
196 222 255
198 223 255
199 223 255
200 224 255
202 225 255
204 226 255
205 227 255
207 228 255
209 229 255
210 230 255
212 231 255
213 231 255
213 231 255
213 231 255
213 231 255
212 231 255
212 231 255
212 231 255
212 231 255
212 231 255
212 231 255
212 231 255
212 231 255
212 231 255
212 231 255
212 230 255
212 230 255
212 230 255
212 230 255
212 230 255
205 224 250
84 115 176
61 98 162
61 97 161
62 99 170
61 97 160
61 97 155
61 97 160
62 98 162
62 98 164
62 98 160
61 97 157
63 99 164
62 98 157
62 98 164
61 97 155
62 98 161
62 98 160
62 98 164
61 97 154
62 98 160
61 96 150
61 97 151
62 98 160
62 97 151
62 98 157
61 97 159
62 97 151
61 97 157
62 98 162
61 97 149
62 98 157
63 99 162
62 98 158
63 99 167
62 98 158
62 98 164
61 97 153
61 97 159
62 97 155
63 99 162
61 97 155
62 98 157
62 97 150
62 98 154
62 98 160
62 97 159
61 96 150
62 97 156
62 97 157
62 97 157
62 98 163
61 97 160
62 97 153
61 97 158
62 98 161
62 98 160
61 96 157
62 98 159
62 97 162
60 96 149
61 96 156
62 97 159
62 97 159
61 96 153
61 98 160
62 98 159
61 96 158
61 95 147
61 95 153
61 96 154
60 95 156
60 95 147
62 97 158
60 95 154
60 95 153
60 95 157
61 96 159
60 94 146
60 94 154
59 92 147
59 92 152
59 93 155
59 93 157
90 116 173
204 222 248
212 230 255
212 230 255
212 230 255
212 230 255
212 231 255
212 231 255
212 231 255
212 231 255
212 231 255
212 231 255
212 231 255
212 231 255
212 231 255
212 231 255
212 231 255
213 231 255
213 231 255
213 231 255
202 219 240
133 134 105
124 122 81
141 139 94
135 133 89
128 126 86
127 126 86
133 132 91
132 131 89
134 134 91
131 131 90
135 135 93
133 133 91
136 134 92
136 136 94
139 139 96
142 142 97
138 136 93
143 142 97
145 144 97
138 137 93
146 145 97
154 152 103
152 149 99
146 145 98
152 150 101
147 145 99
149 148 99
152 150 101
160 157 104
158 155 103
156 153 103
152 150 99
157 155 102
159 156 103
160 156 103
159 156 104
168 164 108
162 158 103
162 158 103
164 161 107
157 155 101
165 161 104
164 160 106
165 161 105
165 161 104
168 164 108
167 163 108
169 166 110
166 162 104
167 162 105
165 162 104
168 165 106
167 162 104
166 162 106
167 163 105
163 158 101
167 162 104
163 160 103
170 165 108
162 158 100
170 165 105
172 165 106
173 168 108
167 163 102
172 167 108
170 166 105
171 166 103
169 164 104
171 166 104
164 160 99
169 165 105
168 163 104
175 169 106
170 165 106
171 166 102
162 157 96
167 162 104
171 166 104
170 165 104
168 163 103
168 163 102
172 167 103
174 169 106
170 164 104
166 161 98
171 165 105
168 163 102
168 163 100
167 163 102
167 162 101
163 158 95
164 159 97
167 161 98
165 160 101
162 158 98
161 156 100
164 160 97
163 159 99
165 160 100
163 158 97
163 159 96
163 158 96
166 160 98
161 156 95
155 151 95
164 158 99
167 161 97
161 156 94
163 159 99
166 160 99
160 155 93
156 151 94
160 155 94
163 158 99
156 152 93
165 159 99
160 156 97
154 149 90
157 152 93
162 157 95
165 160 96
154 149 90
157 152 93
154 149 89
160 153 88
152 147 86
161 156 94
156 150 90
159 154 92
156 151 93
158 152 93
159 155 90
153 147 86
152 147 86
162 158 96
156 152 91
150 145 85
157 150 89
207 227 255
206 227 255
206 227 255
206 227 255
206 227 255
205 227 255
205 227 255
207 227 253
208 228 250
208 228 250
209 228 252
208 228 252
208 228 248
208 228 252
208 227 249
207 227 248
208 228 248
207 227 248
209 228 253
207 226 244
209 228 252
209 228 250
206 226 244
206 226 241
206 226 242
206 226 242
204 225 241
206 226 242
207 227 248
206 226 242
206 226 245
206 226 244
206 226 240
207 227 249
206 226 244
206 226 244
207 227 246
208 227 246
208 227 248
206 226 244
207 226 246
205 225 240
208 227 249
208 228 250
203 222 240
207 226 246
207 227 245
205 226 242
208 227 248
207 226 246
207 227 246
207 226 245
208 228 249
205 225 244
207 227 248
206 226 245
206 225 242
206 226 244
206 226 248
206 226 242
206 226 246
207 226 241
204 223 238
203 223 240
203 223 240
207 226 244
207 226 245
208 227 246
206 226 249
207 227 250
206 226 246
203 223 240
205 225 244
205 225 245
203 223 238
206 227 246
209 228 252
207 227 248
207 227 249
207 227 250
206 226 245
205 225 246
208 228 252
205 225 244
207 227 248
207 227 253
206 226 245
204 225 245
207 227 250
205 226 248
206 227 249
205 225 246
205 226 245
206 226 249
207 227 250
204 225 245
206 227 250
204 225 241
206 226 250
205 226 246
205 225 244
206 226 250
204 224 244
205 226 248
205 226 250
204 225 246
204 225 245
204 225 246
202 223 244
205 226 254
202 224 244
203 224 244
201 223 240
202 224 242
200 222 240
200 222 238
201 223 245
200 222 242
199 222 237
201 224 246
203 225 245
201 224 248
201 224 246
200 223 245
197 222 252
194 221 255
195 221 255
196 222 255
197 222 255
199 223 255
200 224 255
201 224 255
202 225 255
205 227 255
207 228 255
207 228 255
210 229 255
211 230 254
212 230 254
213 231 255
213 231 255
213 231 255
213 231 255
213 231 255
213 231 255
213 231 255
213 231 255
213 231 255
213 231 255
213 231 255
213 231 255
213 231 255
213 231 255
212 231 255
212 231 255
212 231 255
212 231 255
126 149 194
61 97 157
62 98 162
62 98 166
63 99 165
61 97 158
62 98 165
62 98 160
61 97 154
62 98 164
62 97 157
62 98 164
61 97 155
62 98 156
62 98 160
62 98 160
61 97 161
62 98 161
61 96 152
61 98 163
62 98 159
62 97 153
62 98 165
61 97 152
61 97 156
62 97 157
61 97 151
62 98 162
62 98 164
62 98 166
61 97 157
62 98 162
62 97 162
62 98 155
61 97 155
62 98 159
62 98 162
62 97 157
61 96 150
61 98 158
62 98 159
61 96 151
61 97 153
60 96 157
62 98 162
62 98 157
62 98 159
61 97 159
61 97 150
62 97 158
61 96 156
61 96 153
62 98 164
62 97 156
62 98 160
62 97 155
62 98 163
61 97 160
62 97 158
61 96 152
62 98 163
62 98 160
62 98 160
61 96 162
61 96 150
61 96 162
61 96 151
61 96 153
61 96 154
62 97 161
61 95 155
61 96 158
61 96 162
60 96 155
60 95 159
61 96 162
59 92 152
61 95 152
60 94 155
60 95 154
60 93 155
61 95 159
61 97 165
58 92 151
60 94 157
126 147 188
212 231 255
212 231 255
212 231 255
212 231 255
212 231 255
213 231 255
213 231 255
213 231 255
213 231 255
213 231 255
213 231 255
213 231 255
213 231 255
213 231 255
213 231 255
213 231 255
213 231 255
213 231 255
145 150 140
122 120 81
135 133 89
135 134 90
128 127 87
137 135 91
118 118 81
128 128 88
128 128 88
130 129 87
131 130 89
133 133 91
129 130 90
134 134 92
139 139 94
136 136 93
143 142 97
144 143 96
138 138 95
143 142 94
144 144 97
157 155 103
148 147 98
144 144 97
142 140 93
153 151 100
152 150 100
155 154 104
148 147 98
150 149 100
156 153 102
149 147 99
153 152 101
154 152 102
162 159 103
164 159 103
157 155 99
156 153 99
168 164 108
164 161 104
158 155 102
165 161 106
163 159 103
164 160 104
166 162 105
168 164 108
161 157 102
165 161 104
169 164 104
162 159 105
170 165 106
170 166 106
168 164 101
168 165 108
167 162 103
164 160 104
168 163 104
166 161 99
173 168 108
164 160 100
171 166 107
170 165 106
172 167 107
168 163 102
168 163 103
169 165 105
166 162 106
172 166 106
168 163 104
174 169 106
172 167 103
171 166 104
172 167 106
171 166 103
170 165 102
169 164 104
172 167 105
165 161 100
167 162 97
167 162 100
163 159 99
165 161 100
173 167 104
168 164 103
168 164 103
167 163 104
165 159 96
168 163 104
171 166 105
169 163 99
170 165 103
165 158 98
159 155 97
170 165 104
169 165 103
166 162 98
165 159 98
165 161 98
163 157 97
175 169 104
167 162 101
166 161 103
173 168 105
171 164 101
160 155 96
165 160 95
171 165 103
167 162 98
164 159 96
162 158 97
165 160 99
164 159 95
160 155 94
161 155 95
159 154 93
161 156 92
159 154 93
162 158 97
162 156 95
160 156 93
159 155 91
162 157 95
155 149 87
163 157 94
152 147 87
163 157 96
158 152 90
153 148 83
157 152 89
158 152 93
164 158 97
156 151 85
161 156 95
151 146 87
157 153 92
151 146 88
149 144 82
146 141 86
160 155 95
207 228 255
207 227 255
206 227 255
206 227 255
206 227 255
206 227 255
206 227 248
208 228 253
207 227 245
209 229 252
209 228 248
209 228 252
209 228 249
211 230 255
208 227 249
208 228 249
209 228 249
207 226 244
207 227 249
208 228 248
208 228 249
206 226 242
205 225 236
208 228 250
206 226 241
206 226 244
207 226 246
205 225 238
205 225 241
207 227 246
204 224 240
208 227 245
205 225 240
207 227 248
207 226 241
206 226 245
206 226 244
207 226 241
209 228 249
207 227 246
208 227 246
207 227 245
207 226 244
207 227 249
208 227 245
207 227 246
209 228 252
209 228 250
206 225 241
208 227 246
208 227 250
206 226 248
209 228 249
208 228 249
207 226 245
206 226 246
208 227 245
208 228 249
208 227 246
206 226 242
206 226 245
209 228 250
207 226 246
209 228 253
208 227 248
207 227 246
206 225 245
208 227 248
206 226 245
206 226 249
207 226 245
207 226 245
208 228 253
206 226 246
207 227 246
208 227 250
208 227 248
206 225 246
208 227 248
207 227 248
206 226 244
206 226 244
206 226 242
206 225 242
207 227 248
206 227 250
206 226 249
207 227 246
208 228 252
208 228 250
207 228 253
207 227 246
207 227 246
206 226 246
206 226 248
204 224 240
207 227 250
206 226 245
206 226 248
206 226 248
205 226 250
205 225 246
206 227 249
206 227 250
205 226 246
205 225 248
204 225 245
204 225 246
206 226 249
203 224 245
204 225 244
204 226 250
204 225 248
201 223 238
202 224 244
203 225 246
201 223 241
200 222 240
201 223 238
200 222 240
200 223 242
203 225 250
201 223 244
202 224 250
201 224 249
200 224 254
195 221 255
196 222 255
197 222 255
198 223 255
199 223 255
200 224 255
202 225 255
203 226 255
205 227 255
207 228 255
208 228 255
211 230 255
212 230 254
211 230 253
213 231 255
213 231 255
213 231 255
213 231 255
213 231 255
213 231 255
213 231 255
213 231 255
213 231 255
213 231 255
213 231 255
213 231 255
213 231 255
213 231 255
213 231 255
213 231 255
180 199 233
61 97 160
61 97 162
62 98 159
61 97 157
61 98 158
63 99 168
62 98 163
62 98 160
63 99 164
62 97 154
62 98 159
62 98 164
62 98 160
61 97 155
63 98 160
61 97 159
62 98 157
62 99 164
62 98 159
60 96 156
61 96 151
62 98 167
61 97 155
62 98 161
61 97 159
61 97 157
62 97 160
62 98 159
62 98 155
63 99 164
61 97 158
61 97 156
61 97 158
61 97 152
62 98 156
62 98 160
62 97 154
61 97 154
60 96 152
61 97 154
62 97 158
61 97 154
61 97 156
62 98 160
62 97 151
62 97 151
62 98 153
61 97 153
61 97 154
61 97 156
63 99 160
62 98 159
62 98 159
62 97 160
61 96 150
61 97 158
62 98 158
61 95 147
61 96 149
61 97 162
61 96 152
60 94 143
61 96 152
60 94 149
61 97 152
61 96 156
60 95 155
62 97 160
61 95 150
61 95 152
60 94 151
61 96 154
60 95 152
60 94 145
62 97 159
60 95 160
60 93 151
60 95 152
61 96 158
60 95 157
60 96 161
59 92 146
59 92 149
59 92 156
58 92 147
61 96 162
177 196 228
213 231 255
213 231 255
213 231 255
213 231 255
213 231 255
213 231 255
213 231 255
213 231 255
213 231 255
213 231 255
213 231 255
213 231 255
213 231 255
213 231 255
213 231 255
213 231 255
173 183 187
123 121 79
129 128 85
136 135 91
126 126 86
125 124 84
129 128 88
131 130 89
121 121 83
135 133 91
120 121 84
130 130 88
127 127 86
133 133 90
136 135 92
139 139 94
130 130 88
137 137 94
145 143 97
147 146 99
146 145 98
143 142 96
147 146 98
150 149 99
149 148 100
147 145 95
157 155 104
155 153 101
150 148 99
153 151 103
153 150 98
154 152 101
150 148 98
152 150 100
162 159 104
152 150 99
158 155 101
159 156 104
161 157 103
165 162 105
148 145 94
169 165 108
165 160 104
164 160 103
161 159 104
163 159 102
171 168 109
165 162 105
163 159 103
163 159 102
169 165 107
171 167 107
166 161 105
168 163 106
167 163 104
165 161 104
172 167 109
169 165 105
165 161 103
168 164 105
174 169 110
167 163 104
170 165 104
170 166 106
172 166 105
167 164 104
168 162 99
169 164 105
169 164 103
172 167 107
173 168 107
173 168 105
169 164 100
167 162 103
171 166 106
173 168 104
172 167 104
167 162 102
166 161 101
166 162 99
172 166 103
171 166 101
168 163 101
171 165 102
170 164 101
166 161 101
170 164 102
164 159 97
167 163 101
165 160 98
168 162 95
173 167 106
173 168 107
174 168 107
171 165 102
166 161 97
171 164 100
170 165 102
168 162 102
170 165 103
165 158 96
168 163 101
170 165 102
167 161 96
162 157 94
167 162 98
166 161 101
168 163 97
163 158 98
164 159 91
165 159 99
160 155 94
166 160 97
159 155 94
162 156 94
164 159 98
163 157 95
166 160 97
162 157 93
170 164 101
163 157 96
157 153 87
163 158 93
161 155 94
163 158 94
157 152 93
165 159 98
155 151 90
169 162 99
158 152 93
163 157 93
162 156 96
157 152 89
167 161 95
157 151 88
159 153 92
157 151 87
155 151 90
156 150 91
159 153 90
207 228 255
207 228 255
207 227 255
207 227 255
206 227 255
207 227 252
210 229 253
209 228 250
210 229 253
210 229 253
210 229 252
208 228 250
208 227 242
210 229 250
208 228 246
209 228 249
210 229 254
208 227 246
210 228 249
206 226 246
207 227 244
204 224 233
206 226 240
206 226 241
205 225 240
208 227 245
206 226 240
207 227 244
207 227 244
206 226 246
207 226 242
207 227 244
207 226 241
205 225 238
207 226 246
207 226 246
208 228 246
206 226 245
208 228 248
208 227 245
207 227 246
210 229 252
210 229 252
210 229 252
205 225 244
209 229 253
209 228 249
206 226 244
206 225 241
207 226 242
207 227 246
208 228 249
209 228 252
208 227 246
208 227 249
207 226 242
209 228 245
208 227 248
210 229 254
206 225 246
207 227 245
208 227 250
206 226 242
206 225 246
208 227 246
208 227 246
207 226 244
207 226 242
207 227 245
207 227 245
208 228 249
204 223 241
208 227 246
207 227 246
203 223 238
205 225 241
209 228 250
207 226 246
208 227 249
208 227 246
204 223 240
207 226 246
208 227 249
207 227 249
208 228 249
207 226 244
206 226 248
207 226 242
207 226 246
207 226 246
207 226 242
208 228 252
205 225 241
207 227 248
206 226 245
207 227 246
207 227 246
206 226 248
207 227 253
204 225 242
204 225 242
207 228 252
204 225 242
208 228 253
206 226 242
204 224 240
205 226 246
206 226 249
205 225 246
205 226 249
206 227 253
205 225 245
203 224 241
201 223 241
205 226 250
204 225 248
203 224 242
201 223 238
201 222 234
202 224 245
200 222 237
201 223 241
203 225 245
204 226 254
203 225 249
201 224 249
198 222 245
196 222 255
197 222 255
198 223 255
199 223 255
200 224 255
202 225 255
203 225 255
204 226 255
206 227 255
207 228 255
209 229 255
212 230 255
213 231 254
213 231 254
213 231 255
213 231 255
213 231 255
213 231 255
213 231 255
213 231 255
213 231 255
213 231 255
213 231 255
213 231 255
213 231 255
213 231 255
213 231 255
213 231 255
207 225 251
92 120 176
62 98 165
61 97 159
62 98 157
61 97 157
62 98 159
62 98 167
60 96 151
62 97 153
62 97 157
61 97 152
61 97 155
62 98 159
62 98 160
62 97 155
60 96 148
61 97 153
62 97 157
62 98 157
62 97 160
62 97 158
62 97 161
62 98 159
62 97 157
61 97 151
61 96 151
62 98 154
62 97 158
61 97 149
62 98 158
61 97 147
62 97 152
62 98 158
61 96 147
62 98 157
61 97 153
61 96 148
62 98 161
61 97 150
60 96 148
62 98 156
61 97 153
62 97 152
62 98 160
62 97 154
61 96 156
61 97 150
63 98 158
63 98 155
61 97 153
61 96 154
62 97 154
63 98 159
61 96 156
62 98 159
62 97 157
61 96 148
62 97 154
61 97 155
62 97 156
61 96 152
62 97 153
62 97 157
62 98 164
61 96 152
60 95 144
61 97 156
59 94 149
60 94 143
61 96 160
60 96 149
61 97 152
61 96 155
60 94 146
62 96 158
61 96 158
62 97 161
60 94 156
61 96 158
61 95 150
60 95 146
61 96 163
60 95 154
60 94 156
60 94 152
60 94 156
59 91 143
102 124 165
206 224 248
213 231 255
213 231 255
213 231 255
213 231 255
213 231 255
213 231 255
213 231 255
213 231 255
213 231 255
213 231 255
213 231 255
213 231 255
213 231 255
213 231 255
192 206 223
117 115 75
138 135 90
120 119 79
119 120 85
121 121 83
122 122 84
129 129 89
133 132 91
132 132 91
127 128 89
130 130 89
133 134 93
129 129 89
127 128 90
133 133 91
134 133 91
141 141 96
139 138 94
141 141 98
140 140 95
146 144 98
148 147 99
141 140 96
150 149 100
145 143 95
149 147 99
154 151 101
153 150 99
153 152 101
152 151 102
156 152 97
155 152 99
160 157 103
156 153 101
164 160 103
164 160 105
156 153 98
155 152 99
162 159 103
161 157 100
163 159 104
167 163 106
162 158 102
166 162 104
166 163 103
168 163 104
167 162 103
166 162 103
170 165 104
165 160 103
170 166 107
167 163 103
174 168 106
164 159 100
162 159 101
168 164 104
165 161 103
171 166 107
171 165 105
170 165 104
167 162 103
169 165 106
167 162 100
168 163 103
172 166 99
174 169 105
167 162 100
170 166 105
170 165 105
168 163 103
172 167 105
176 170 108
170 165 102
175 170 107
171 165 101
173 167 103
170 166 103
167 162 99
171 166 104
174 168 104
173 167 105
172 166 101
167 161 99
171 165 102
168 163 99
165 160 99
170 164 101
173 167 103
167 162 97
170 164 102
169 164 101
171 165 104
173 167 105
165 159 99
172 167 107
167 162 101
169 164 101
163 158 93
165 160 95
169 164 99
163 158 95
166 161 98
166 160 98
168 162 97
169 164 100
164 158 96
161 156 94
167 162 99
164 159 97
164 159 99
163 157 91
160 155 91
165 159 95
163 158 94
164 159 93
166 160 98
158 153 93
165 160 101
165 160 95
164 158 95
163 159 97
164 157 94
164 158 99
164 158 93
155 150 87
171 165 102
159 153 91
157 152 90
155 150 93
160 154 92
159 154 92
162 156 95
151 145 87
160 153 91
160 154 95
154 149 84
150 145 87
161 155 95
158 153 93
158 152 91
208 228 255
207 228 255
207 228 255
207 228 255
208 227 253
208 227 250
209 228 250
208 228 248
209 228 250
210 229 252
209 228 245
208 227 246
210 229 250
209 228 248
208 227 245
210 228 246
209 228 245
210 229 253
211 229 252
206 226 238
207 226 240
207 226 244
208 228 246
206 226 238
207 226 245
208 227 241
207 227 244
208 227 248
207 227 244
206 225 242
207 226 240
206 226 245
208 228 246
208 227 246
208 227 245
206 226 245
208 227 244
207 226 245
209 228 245
210 228 252
206 225 242
207 226 245
208 227 244
208 228 249
209 228 246
210 228 249
207 226 242
210 229 252
207 227 246
210 229 250
210 228 249
208 227 244
207 226 246
209 228 249
210 228 253
209 228 246
205 225 237
205 224 238
205 224 240
209 228 248
210 229 252
208 227 245
210 229 249
207 226 242
205 224 238
210 229 252
208 227 248
206 225 241
207 226 244
206 226 246
206 225 237
207 226 240
207 227 242
207 226 241
209 228 249
208 227 245
208 227 248
208 227 248
208 227 249
209 228 249
207 227 248
208 227 245
207 226 242
207 226 246
205 225 241
208 227 245
208 227 248
205 225 241
208 227 246
206 226 249
207 227 249
208 227 244
208 227 250
208 228 249
206 226 240
208 228 249
208 227 246
208 228 252
204 224 238
208 227 248
206 226 244
206 226 249
206 226 245
206 226 245
207 227 252
206 226 246
205 226 248
204 225 241
206 227 249
204 225 242
206 226 248
204 224 238
205 225 245
204 225 241
204 225 242
204 225 241
202 224 241
202 224 244
204 225 248
203 224 246
201 223 240
201 223 240
202 224 244
204 226 250
204 226 250
202 224 244
204 225 252
201 224 253
197 222 255
198 223 255
199 223 255
200 224 255
201 224 255
203 225 255
203 226 255
205 227 255
207 228 255
209 229 255
211 230 255
212 230 255
214 231 255
214 231 255
214 231 255
214 231 255
214 231 255
214 231 255
214 231 255
213 231 255
213 231 255
213 231 255
213 231 255
213 231 255
213 231 255
213 231 255
213 231 255
159 180 216
62 98 158
62 98 161
61 97 160
62 98 163
61 97 159
63 99 160
61 97 159
62 98 158
62 98 158
62 98 153
63 99 167
61 96 154
61 97 155
62 98 160
62 98 158
62 98 158
62 98 154
62 97 153
61 97 152
63 98 155
62 97 153
60 96 148
61 96 149
62 97 156
62 98 156
62 98 159
62 98 156
61 97 156
61 97 158
62 97 155
62 97 158
62 97 154
62 98 157
61 96 147
61 96 152
60 96 145
62 98 157
62 98 157
62 97 151
61 97 151
62 98 160
61 97 153
61 97 156
61 96 151
62 98 160
61 96 151
62 97 155
61 97 149
61 96 142
61 97 160
61 96 150
62 97 155
61 96 153
61 96 152
62 98 158
61 96 152
61 97 152
62 97 152
62 98 159
61 96 152
61 97 157
61 97 154
59 94 143
61 96 153
62 98 165
62 97 150
62 97 155
60 95 150
62 97 156
60 95 150
61 96 155
61 96 154
61 96 151
62 97 157
60 95 150
60 95 151
60 95 152
61 96 153
61 95 153
60 94 150
60 95 153
60 94 150
60 93 151
61 94 155
58 92 149
60 93 150
59 92 145
55 86 136
157 175 206
213 231 255
213 231 255
213 231 255
213 231 255
213 231 255
213 231 255
213 231 255
213 231 255
214 231 255
214 231 255
214 231 255
214 231 255
214 231 255
211 228 251
136 135 107
124 122 81
116 115 78
118 117 80
124 123 85
117 117 80
134 133 91
127 127 88
133 133 92
125 125 86
130 130 88
120 121 85
131 131 91
139 140 97
136 137 94
134 134 93
141 141 96
131 131 90
137 137 93
144 142 94
141 140 95
147 145 99
146 145 97
147 144 94
149 149 100
149 147 100
158 155 104
153 151 101
155 152 101
154 151 99
152 149 100
149 147 98
157 154 100
152 150 99
154 151 99
158 156 102
161 159 106
155 152 99
166 162 106
165 161 104
163 159 102
161 157 103
159 156 100
164 160 102
160 156 100
167 163 107
166 162 104
166 161 105
169 163 105
162 158 101
165 161 105
165 161 104
170 165 105
169 164 104
166 162 101
168 163 104
170 165 104
175 168 103
172 166 103
168 164 102
170 165 100
167 162 104
172 166 102
172 167 103
168 164 103
167 162 102
175 169 106
170 165 105
174 168 104
173 167 105
171 166 106
169 163 101
174 168 105
173 167 104
171 166 103
168 163 100
175 168 104
169 165 101
171 166 101
172 166 102
170 165 99
168 162 99
169 163 99
173 167 101
173 168 103
172 167 103
170 165 104
169 162 99
163 158 96
167 162 100
173 166 103
168 162 98
159 154 90
168 162 100
169 163 100
170 164 101
170 164 101
170 165 98
165 159 100
168 162 100
172 165 103
168 162 97
172 166 103
172 166 98
163 157 95
161 155 93
172 167 103
162 157 97
164 158 95
164 159 98
164 159 95
162 156 97
158 153 93
166 160 94
158 153 93
162 156 89
167 162 94
163 159 95
157 152 90
159 154 93
155 150 93
156 151 93
159 155 93
165 160 97
159 153 95
165 159 95
161 155 93
163 159 97
159 154 95
161 155 94
161 156 92
160 154 95
158 152 92
159 153 94
161 156 95
160 155 92
162 157 95
163 157 93
159 152 88
149 145 83
149 144 86
208 228 255
208 228 255
207 228 255
208 227 252
210 229 252
209 228 252
210 229 250
210 229 250
210 229 254
210 229 252
211 229 250
211 229 252
210 229 252
211 230 253
210 229 252
210 229 252
211 229 250
211 229 250
206 225 241
206 226 240
207 227 241
207 226 241
209 228 245
207 227 242
209 228 246
209 228 249
209 228 246
208 228 245
207 226 242
208 227 242
210 228 249
208 227 242
209 228 249
210 229 249
207 226 241
209 227 246
208 227 241
207 226 240
210 229 250
208 227 246
209 228 248
209 228 248
208 227 246
208 228 245
208 227 242
207 226 242
210 228 249
205 225 238
209 227 249
207 226 244
208 227 248
210 229 250
209 228 248
208 227 245
210 229 250
208 227 244
209 228 248
209 228 249
208 227 246
209 228 246
209 228 249
208 227 246
208 227 248
208 227 245
207 226 244
208 227 245
205 224 242
207 226 244
209 227 248
207 226 246
209 228 252
209 228 249
208 227 248
209 228 248
210 229 253
208 227 246
209 228 249
208 227 246
209 228 250
206 225 241
207 227 246
208 227 248
208 226 245
206 224 242
208 228 249
206 226 248
208 227 244
209 228 248
206 226 242
208 228 249
207 226 249
206 225 245
208 227 244
208 227 245
207 226 245
206 226 242
209 228 246
204 224 238
208 227 249
208 227 248
209 229 254
206 226 248
209 229 253
209 228 253
207 227 249
206 226 248
208 228 253
206 226 244
206 226 245
207 227 249
207 227 252
207 227 250
206 226 244
207 227 253
205 226 244
204 225 241
201 222 233
203 225 242
203 224 241
202 223 236
203 225 242
205 226 250
203 224 244
203 224 244
205 226 249
204 225 246
204 226 253
204 226 250
200 224 252
198 223 255
199 223 255
200 224 255
201 224 255
202 225 255
203 225 255
205 226 255
206 227 255
207 228 254
209 229 255
210 230 255
213 231 254
213 231 254
214 231 255
214 231 255
214 231 255
214 231 255
214 231 255
214 231 255
214 231 255
214 231 255
214 231 255
214 231 255
214 231 255
214 231 255
194 212 239
74 106 169
61 97 158
61 97 161
61 97 157
62 98 165
62 97 157
61 98 161
60 96 151
62 97 162
62 98 159
61 97 156
61 96 157
62 98 161
61 97 154
61 97 148
61 97 152
60 95 140
62 98 166
62 98 154
61 96 154
61 97 148
62 98 159
62 97 157
62 98 160
62 98 153
62 98 155
62 98 161
62 97 155
61 97 156
61 97 148
61 97 153
62 98 157
62 97 154
62 98 152
62 98 160
62 97 156
61 96 149
62 98 160
61 97 151
62 98 151
61 97 151
61 97 153
62 97 155
61 97 155
61 96 149
62 98 153
63 98 158
60 96 150
61 97 150
61 97 153
62 98 161
62 98 162
62 98 158
61 97 159
62 98 160
61 96 150
60 95 138
62 98 161
61 96 153
61 96 154
62 98 154
60 95 149
62 97 152
61 97 155
62 97 157
60 95 149
61 97 155
59 95 150
60 95 148
62 98 158
60 94 145
61 96 158
60 95 147
62 97 159
60 95 152
62 97 160
61 96 155
60 94 152
61 96 155
61 96 153
60 94 147
60 94 151
59 92 146
59 92 142
59 93 148
59 93 150
58 91 149
59 93 156
59 91 144
71 101 156
197 215 243
214 231 255
214 231 255
214 231 255
214 231 255
214 231 255
214 231 255
214 231 255
214 231 255
214 231 255
214 231 255
214 231 255
214 231 255
161 169 168
129 126 83
130 127 84
121 119 79
120 121 84
123 123 84
126 127 87
129 128 87
122 123 87
114 115 81
126 126 87
119 120 83
124 125 88
117 119 83
133 133 90
129 130 89
132 131 90
143 142 96
149 148 102
139 138 91
137 137 93
138 138 95
140 140 96
138 138 93
145 144 96
134 134 90
143 142 96
145 144 97
150 149 101
156 154 101
156 153 101
157 154 100
150 148 98
157 154 102
158 154 100
154 151 96
161 157 103
163 159 106
162 158 101
157 154 101
165 161 104
167 163 105
161 159 102
164 160 103
167 163 105
165 161 104
163 159 98
169 164 104
167 162 102
166 162 103
165 161 102
171 166 106
169 165 102
169 163 103
165 161 104
173 167 104
169 164 102
169 165 103
166 161 97
169 164 104
168 164 100
170 165 103
170 165 102
177 171 109
168 163 103
167 162 101
169 165 103
169 164 99
171 166 105
170 165 102
174 169 102
172 167 103
169 164 100
173 168 105
169 164 98
168 164 101
171 165 103
168 162 99
173 168 103
168 162 99
172 166 103
172 167 104
166 161 95
172 166 103
165 160 97
173 168 105
170 164 100
171 166 99
171 165 101
173 166 101
169 163 100
170 164 102
171 165 99
169 164 99
169 164 101
167 162 99
167 162 99
167 162 98
167 161 98
168 163 96
164 159 97
165 159 93
164 160 94
171 165 101
167 162 99
163 158 97
167 162 97
164 158 95
163 158 94
163 159 95
165 160 97
162 156 90
170 164 99
166 161 101
161 156 93
163 158 90
167 161 97
160 153 93
169 162 96
164 159 93
158 153 90
166 160 99
161 157 94
156 152 89
162 156 93
161 156 93
161 156 94
160 155 91
166 160 94
160 154 90
159 154 89
155 149 87
159 154 90
165 158 96
159 153 90
164 157 93
165 160 99
158 152 92
158 153 89
163 158 90
151 146 86
161 155 88
208 228 255
208 228 255
209 229 254
212 230 255
210 229 250
210 229 253
211 229 250
210 229 249
210 229 248
210 228 246
209 228 246
210 229 249
210 229 248
209 228 245
211 229 250
212 230 252
211 230 253
209 228 246
206 226 237
209 228 246
206 226 240
209 228 248
209 228 248
208 227 244
205 224 236
207 226 244
210 228 248
209 227 242
207 226 242
209 228 244
209 228 245
207 226 240
208 227 245
209 228 246
209 228 245
209 227 244
211 229 250
208 227 241
210 228 250
209 227 245
210 228 248
209 228 245
210 228 250
211 229 249
209 228 245
210 228 246
207 226 240
208 227 245
209 228 245
210 229 250
210 229 249
208 227 245
209 228 250
209 227 246
210 228 248
208 226 244
210 229 250
209 227 245
209 227 248
210 228 250
211 229 250
208 227 242
208 227 246
211 229 250
210 229 252
208 227 245
210 229 249
208 227 245
210 229 250
210 229 249
211 229 250
209 228 250
208 227 246
209 228 246
212 230 254
209 228 246
207 226 241
205 224 237
208 227 246
207 226 244
210 229 250
208 226 246
209 228 250
209 228 248
209 228 246
208 227 246
207 226 244
209 227 248
208 228 249
208 227 249
209 228 250
208 228 248
209 228 249
209 228 246
208 227 245
208 227 245
208 227 245
206 225 242
208 228 249
207 227 248
208 227 249
207 227 246
207 226 242
207 226 244
208 227 245
208 227 248
205 225 240
206 225 240
207 227 246
207 227 250
206 226 242
207 227 250
206 226 249
208 228 253
206 226 245
206 226 246
206 227 249
206 227 249
204 225 246
205 225 245
203 224 237
204 225 245
202 223 238
202 224 242
203 225 246
205 226 248
204 225 249
202 224 244
205 226 250
201 224 252
199 223 255
200 224 255
201 224 255
202 225 255
203 226 255
204 226 255
206 227 255
208 228 255
208 228 255
210 229 255
212 231 255
213 231 255
214 232 255
214 232 255
214 232 255
214 232 255
214 232 255
214 232 255
214 232 255
214 232 255
214 231 255
214 231 255
214 231 255
214 231 255
150 171 211
61 97 161
61 97 157
61 97 156
60 96 156
62 97 158
61 97 159
61 97 154
61 97 159
62 97 157
61 97 156
62 98 159
61 96 153
61 97 152
62 98 158
61 97 149
62 97 155
62 98 158
62 98 156
62 97 155
61 96 147
61 97 156
62 98 160
62 98 162
61 97 155
62 97 156
61 96 148
62 97 155
61 97 155
62 98 160
62 97 151
61 96 148
62 98 159
62 97 150
62 98 154
61 96 144
61 96 152
62 98 156
62 98 159
61 97 152
62 98 158
60 95 148
61 97 152
61 97 149
62 97 152
63 98 158
61 97 151
60 96 148
62 98 161
61 96 145
62 97 157
61 96 149
60 95 158
61 97 153
61 97 156
62 97 157
62 98 155
62 97 152
61 96 151
61 97 152
61 96 147
62 98 163
62 97 160
62 97 145
60 95 149
61 96 150
61 96 147
61 97 150
61 95 154
60 95 149
60 95 148
61 96 152
61 96 156
59 93 140
61 96 155
61 95 151
61 96 151
60 96 154
61 95 149
61 95 157
61 96 151
60 95 153
60 94 144
59 92 148
60 93 150
57 89 132
60 93 150
59 93 150
59 92 149
56 88 138
55 86 138
135 154 187
214 231 255
214 231 255
214 231 255
214 231 255
214 232 255
214 232 255
214 232 255
214 232 255
214 232 255
214 232 255
214 232 255
198 213 230
117 115 76
121 119 81
110 109 74
115 113 78
128 127 86
115 116 81
120 121 84
124 125 88
117 118 82
121 120 83
128 129 90
129 129 89
136 137 95
125 124 85
133 134 93
127 128 90
137 137 92
141 140 93
136 135 92
138 138 92
138 137 90
130 130 86
140 139 96
142 142 96
148 147 98
157 154 104
148 146 96
153 152 100
150 148 98
150 147 96
155 153 100
154 151 95
157 154 101
162 159 103
157 154 100
155 153 98
155 153 97
154 151 99
157 154 100
163 160 105
159 155 100
159 156 102
169 164 105
162 159 104
168 164 105
160 157 101
164 159 99
168 164 104
170 164 103
166 162 101
168 163 101
166 162 102
172 167 107
168 164 98
172 167 104
163 159 97
173 168 104
170 166 102
172 166 104
172 167 104
170 165 103
173 167 104
171 167 104
168 163 104
171 166 102
168 163 101
167 163 103
174 169 106
172 166 100
173 167 102
164 160 98
170 164 102
172 167 101
171 166 101
169 164 105
170 165 99
171 165 102
170 165 102
171 165 100
174 169 102
162 157 95
174 169 103
173 168 102
169 164 96
174 167 100
169 163 101
173 166 102
168 163 95
172 165 102
170 166 101
171 165 99
158 154 94
173 167 98
170 164 103
171 165 97
170 164 99
169 164 95
166 160 97
163 159 97
167 162 97
172 166 101
169 164 99
168 162 95
169 163 97
166 161 99
166 160 97
164 159 95
165 160 97
172 166 95
171 165 99
158 153 92
167 162 93
169 164 102
167 161 96
163 157 93
162 157 96
166 160 95
164 159 93
163 157 88
161 156 95
162 156 93
162 157 96
167 161 97
163 156 94
156 149 90
159 152 93
164 158 92
163 158 94
162 157 93
158 152 89
165 160 94
160 154 93
158 152 89
152 147 81
153 148 84
147 143 85
161 153 92
151 147 85
158 152 91
160 155 93
166 160 95
158 152 90
209 229 255
208 227 253
210 228 253
211 229 252
212 230 254
210 229 248
211 229 252
211 229 248
211 229 249
212 230 254
212 230 253
212 230 250
210 229 249
211 229 249
212 230 253
211 230 253
211 229 248
210 229 250
207 227 241
207 226 238
206 226 236
209 228 248
208 227 242
210 229 249
206 225 237
209 227 245
210 229 250
208 227 240
210 228 246
211 229 250
207 225 237
208 227 244
212 230 253
209 228 245
207 226 242
210 229 249
208 226 246
211 229 249
207 226 245
210 228 249
210 229 250
209 228 246
210 229 246
207 226 242
208 227 244
208 227 244
211 229 252
208 227 245
208 226 244
211 229 252
210 228 248
210 229 248
210 228 246
209 228 246
209 228 248
210 229 250
209 228 248
207 226 241
209 227 245
206 225 245
207 226 241
211 229 252
209 228 246
209 227 244
209 227 250
211 230 253
210 229 250
208 227 246
209 227 248
211 229 252
209 228 249
208 227 244
209 227 248
206 225 241
207 226 241
211 229 252
210 228 248
210 229 252
210 229 249
209 227 248
207 226 241
209 228 245
209 227 249
208 227 244
206 225 245
210 228 248
206 225 240
209 228 250
208 227 245
207 226 244
207 226 242
207 227 245
208 227 246
210 228 246
206 226 244
207 226 238
206 225 238
209 228 249
209 228 250
210 229 253
209 228 249
208 228 249
209 228 248
209 228 250
208 227 246
206 226 242
206 226 242
208 227 246
206 226 242
203 224 234
204 224 237
206 226 244
206 226 246
207 227 248
205 225 244
207 227 249
207 227 248
204 224 241
207 227 250
207 227 249
205 226 244
205 225 244
205 226 246
204 225 245
201 222 231
204 225 244
206 226 246
205 226 252
205 226 252
203 225 246
200 224 254
200 224 255
201 224 255
202 225 255
203 225 255
204 226 255
205 227 255
207 228 255
208 228 255
209 229 255
211 230 254
213 231 255
213 231 254
214 232 255
214 232 255
214 232 255
214 232 255
214 232 255
214 232 255
214 232 255
214 232 255
214 232 255
214 232 255
199 217 244
62 98 165
61 96 149
62 98 159
61 97 157
62 99 163
62 98 159
62 98 158
62 97 159
61 97 154
61 97 150
62 98 156
61 97 153
62 98 159
61 97 147
62 98 157
62 98 157
61 97 159
62 98 160
61 97 148
62 98 159
62 97 154
61 97 152
62 98 157
60 96 143
62 98 154
61 97 153
61 96 148
62 98 154
60 96 145
62 97 155
62 98 151
62 98 159
61 97 150
60 96 152
61 96 148
61 97 155
61 97 156
62 98 158
62 98 158
61 96 148
62 98 152
61 97 153
61 97 149
61 96 149
62 98 154
61 97 154
62 98 155
61 96 152
61 97 155
62 98 159
62 97 148
61 97 155
61 97 148
60 95 143
62 98 165
61 96 150
61 96 143
63 99 162
62 97 155
61 97 155
63 98 163
62 97 158
61 96 148
61 96 149
62 97 153
62 97 156
61 96 148
61 96 149
61 96 148
61 96 148
61 97 151
60 95 147
60 95 148
61 95 150
61 95 152
61 95 153
61 96 157
60 93 145
60 94 155
60 94 148
60 93 147
60 94 149
60 94 153
60 93 148
60 93 148
60 93 146
58 91 145
57 90 142
59 92 151
56 87 140
58 91 146
54 84 136
190 208 236
214 232 255
214 232 255
214 232 255
214 232 255
214 232 255
214 232 255
214 232 255
214 232 255
214 232 255
214 232 255
149 152 134
122 119 78
116 115 75
114 114 79
118 118 82
112 113 79
114 116 81
117 117 82
118 119 82
130 130 89
115 117 81
134 133 91
120 121 84
124 125 88
127 128 88
134 135 92
134 134 90
133 133 90
114 115 80
135 135 94
143 142 96
144 143 95
141 140 93
134 134 89
144 143 96
132 132 87
152 150 101
152 150 99
150 149 97
144 143 96
155 153 100
151 149 100
149 146 97
155 151 97
155 152 98
157 153 98
156 154 102
156 153 97
155 153 100
157 153 101
162 159 99
159 155 97
168 163 102
159 156 101
164 161 104
166 162 102
171 165 105
167 162 102
166 161 100
163 158 100
165 160 97
164 160 103
169 164 102
167 162 100
168 162 103
166 162 101
172 166 103
167 163 101
170 165 100
168 163 101
172 166 102
167 162 100
170 165 102
170 165 101
176 170 104
174 167 104
170 165 99
169 164 101
174 167 101
171 166 100
172 167 104
172 167 101
171 165 100
174 167 101
169 163 101
177 170 104
170 165 99
171 165 101
170 165 97
172 166 102
169 163 98
169 164 103
169 164 101
174 168 104
169 163 97
172 166 99
169 164 99
171 165 101
171 166 99
172 166 99
172 168 101
170 164 97
163 158 95
172 166 100
167 162 96
169 163 100
169 164 100
171 165 96
169 163 100
168 162 99
169 163 101
165 159 96
172 166 100
172 166 103
168 163 96
167 162 97
171 165 100
169 163 97
167 160 98
165 159 92
166 160 96
165 160 99
172 165 98
160 155 93
163 158 95
162 157 90
165 159 95
165 160 90
163 157 90
157 152 89
161 155 90
165 158 92
165 159 91
161 156 88
162 156 93
161 156 90
157 152 87
160 155 93
156 151 88
160 155 89
159 154 91
160 154 90
164 158 90
159 152 90
155 150 89
154 149 86
164 158 96
150 144 84
148 143 79
161 154 90
166 160 93
160 154 92
155 151 84
209 229 255
211 230 254
212 231 254
212 230 253
210 229 249
211 229 249
213 231 254
212 230 253
212 230 254
212 230 253
212 230 252
212 230 252
212 230 250
211 229 249
212 230 250
212 230 249
209 228 244
208 227 242
209 227 242
208 227 240
210 228 246
208 227 238
209 227 244
206 225 237
209 227 240
209 227 244
209 227 242
211 230 249
211 229 249
207 225 241
208 226 241
211 229 249
207 225 240
208 227 241
210 229 249
210 229 246
206 225 240
211 229 249
208 227 241
210 228 244
211 229 249
210 229 246
212 230 252
209 227 244
212 230 252
210 228 242
209 228 246
210 229 246
209 227 245
210 229 248
208 226 241
212 230 252
210 229 249
210 228 248
210 228 246
210 228 249
211 230 250
210 228 248
210 228 249
210 229 250
209 228 244
211 229 248
204 223 238
208 227 240
210 229 248
207 226 242
209 228 249
211 230 253
209 227 249
207 226 244
208 226 244
208 226 246
211 229 250
209 227 250
208 227 248
210 228 248
210 228 250
209 227 248
208 227 244
209 227 248
210 229 250
211 229 249
209 228 248
210 228 246
208 226 245
211 229 249
208 227 250
210 229 253
209 227 245
208 227 244
209 228 245
208 227 242
207 226 242
207 226 248
210 229 250
209 228 248
208 227 246
210 229 249
206 225 240
210 229 252
207 227 249
208 227 246
209 228 249
209 228 250
210 229 255
208 227 246
210 229 254
208 227 248
208 227 245
208 227 246
207 227 245
208 227 249
209 228 250
207 227 248
208 228 248
204 225 241
205 225 242
205 226 244
208 227 249
208 227 248
206 226 244
205 225 245
205 225 242
205 225 245
204 225 244
203 224 241
204 225 242
206 226 249
205 226 248
206 227 254
206 227 255
200 224 254
201 224 255
202 225 255
203 225 255
204 226 255
205 227 255
206 227 255
207 228 255
210 229 255
211 230 255
212 231 255
214 231 255
215 232 255
215 232 255
215 232 255
215 232 255
215 232 255
215 232 255
215 232 255
215 232 255
215 232 255
215 232 255
131 153 195
61 96 149
61 97 156
62 98 164
61 96 157
62 97 153
62 98 159
63 98 162
61 97 151
61 97 151
62 98 154
62 98 156
61 97 153
62 98 157
61 96 153
62 98 159
61 97 154
61 96 148
61 97 147
61 97 149
61 97 153
61 97 153
61 96 145
62 97 153
61 97 145
63 98 161
62 97 155
61 97 151
61 97 151
61 97 153
62 98 159
61 97 155
60 96 150
62 97 149
62 97 149
61 97 151
62 98 159
62 98 160
62 97 150
62 98 159
61 96 151
61 97 150
60 95 139
60 96 154
61 97 149
62 97 150
61 97 145
61 96 152
62 98 157
61 96 150
62 97 152
62 97 156
62 98 155
61 96 148
61 97 152
61 96 151
62 97 156
62 97 155
61 97 152
61 96 153
62 97 154
60 95 148
60 94 138
61 96 145
61 96 146
61 96 148
61 96 154
63 98 162
61 96 146
61 95 145
62 97 157
61 97 155
60 94 151
61 96 151
60 95 146
61 96 155
60 95 148
61 96 153
61 95 147
60 94 145
61 96 152
60 94 155
61 95 147
60 93 148
60 94 148
58 91 144
59 91 141
60 93 147
59 92 145
59 92 151
59 92 154
58 91 143
57 88 144
145 163 194
215 232 255
215 232 255
215 232 255
215 232 255
215 232 255
215 232 255
215 232 255
215 232 255
215 232 255
187 200 212
131 128 83
112 111 72
116 114 77
104 105 74
110 111 79
113 113 79
120 120 83
120 121 86
117 119 83
135 135 93
132 132 92
120 121 85
111 114 82
130 131 91
133 134 92
122 123 87
131 131 91
123 124 85
120 121 82
135 136 94
127 128 86
140 139 93
138 138 91
144 143 94
147 145 96
144 143 96
146 144 94
153 151 99
144 142 92
148 146 94
147 145 96
151 149 99
159 155 100
153 151 98
142 141 91
154 151 98
164 159 102
154 151 98
156 153 100
158 155 97
164 160 102
159 155 98
166 162 105
159 155 99
166 161 101
161 157 99
161 158 100
166 162 103
167 163 104
166 162 101
168 165 106
169 164 103
170 165 102
170 165 104
174 168 105
166 161 100
170 165 105
171 166 104
167 164 100
170 164 98
171 164 101
168 162 99
167 162 100
169 164 103
170 166 102
165 161 99
174 168 104
169 164 98
170 165 96
173 168 103
168 163 99
171 166 101
168 162 98
169 164 101
174 168 103
171 166 101
167 163 97
170 165 100
169 163 98
173 167 101
172 167 102
171 164 95
168 162 99
174 167 101
175 170 101
172 167 101
170 164 100
168 163 97
175 168 102
171 166 100
169 164 99
170 163 95
170 165 100
165 160 95
171 165 99
171 165 100
166 160 99
168 162 95
170 165 99
165 160 96
172 166 101
167 162 95
169 164 101
163 158 93
167 161 97
174 167 99
167 161 95
163 157 95
155 150 87
164 159 95
164 158 96
165 158 95
164 158 95
167 161 99
164 159 93
163 157 92
164 158 95
157 151 91
167 161 94
162 156 95
164 159 93
162 157 93
162 157 90
169 164 97
163 158 93
161 155 93
165 160 93
159 154 90
165 160 97
164 158 91
155 150 87
160 154 88
157 152 88
161 154 92
162 156 87
162 158 91
158 153 93
159 154 90
162 156 95
157 152 90
155 150 93
160 155 90
158 153 89
211 229 252
213 231 254
212 230 252
213 230 252
211 229 249
212 230 249
212 230 250
211 229 248
212 230 249
211 229 246
212 230 252
213 230 252
212 230 250
211 229 252
211 229 248
212 230 249
208 226 236
208 227 240
210 228 242
209 227 241
209 227 242
210 228 245
209 228 242
211 229 248
210 228 242
208 227 240
210 229 249
209 228 241
208 226 242
209 227 244
208 227 242
210 229 246
211 229 249
209 228 242
211 229 249
210 229 245
211 229 248
209 227 242
209 227 242
211 229 248
208 226 238
210 228 246
211 229 248
211 229 248
213 230 252
212 229 248
211 229 249
212 230 252
212 230 250
211 229 248
212 230 252
211 229 249
209 227 245
211 229 249
207 226 238
210 228 249
212 230 252
209 227 246
211 229 249
209 227 245
208 227 244
211 229 248
209 227 248
211 229 252
209 227 248
211 229 249
208 226 244
208 226 241
212 230 253
208 226 241
208 226 246
210 228 249
211 230 252
209 227 246
210 228 245
211 228 248
212 230 253
212 230 252
209 228 246
209 227 248
209 227 245
208 226 244
210 228 245
211 230 250
207 226 245
211 229 252
208 226 245
211 229 250
211 229 249
210 228 249
208 227 242
209 228 245
210 228 246
209 227 244
208 227 246
208 227 240
210 228 252
210 229 249
210 229 249
211 229 250
210 228 248
210 229 249
208 227 245
209 228 252
210 229 250
209 228 248
210 229 250
210 229 252
209 229 252
210 229 253
208 227 246
207 226 241
207 226 245
209 228 248
206 226 241
208 227 246
208 227 249
209 228 252
206 226 240
206 225 242
209 228 250
205 225 241
204 224 238
205 225 242
205 225 244
205 225 241
204 224 238
206 226 248
205 225 249
205 226 248
203 223 247
202 224 252
197 220 252
203 225 255
203 226 255
204 226 255
205 227 255
207 227 255
208 228 255
209 229 255
210 229 254
212 230 255
214 231 255
214 231 253
215 232 255
215 232 255
215 232 255
215 232 255
215 232 255
215 232 255
215 232 255
215 232 255
208 225 250
71 104 162
62 98 162
62 98 157
62 98 158
60 95 145
63 99 169
62 97 150
60 95 139
61 96 152
61 97 150
60 95 144
62 98 158
60 96 148
61 96 152
61 97 153
62 98 159
61 97 152
62 98 152
61 96 150
61 97 151
62 97 152
62 97 151
61 96 142
61 97 151
61 97 153
61 96 148
62 97 152
62 98 157
61 97 152
61 96 147
62 97 152
60 95 137
61 97 150
61 97 156
60 95 144
60 95 142
60 95 144
61 97 153
62 98 158
61 97 150
61 97 151
62 97 151
62 97 150
61 95 140
61 96 150
61 96 148
61 97 149
62 98 159
60 95 139
62 98 154
62 98 156
62 97 155
62 98 155
61 96 145
61 97 148
61 97 148
61 97 144
61 96 149
61 97 154
62 97 160
62 97 149
61 96 151
61 97 153
61 96 152
61 96 153
61 96 149
61 96 150
62 97 157
61 96 147
60 95 149
61 97 159
60 95 152
61 96 151
61 96 153
61 96 150
60 94 143
59 92 142
59 93 142
61 96 159
59 93 143
59 93 139
61 95 152
60 93 148
57 91 133
59 94 146
59 92 142
59 93 143
59 92 143
59 92 141
58 90 143
58 90 144
57 89 141
57 88 137
70 99 153
200 217 241
215 232 255
215 232 255
215 232 255
215 232 255
215 232 255
215 232 255
215 232 255
212 229 252
132 134 117
116 114 75
109 109 75
122 122 83
117 118 83
115 115 79
111 113 80
111 112 79
99 101 73
110 111 78
109 110 75
110 112 80
121 121 84
116 117 81
126 127 89
136 136 93
124 126 88
126 127 89
135 135 92
133 133 91
137 137 92
135 135 93
136 136 91
133 133 89
143 142 95
143 141 93
148 145 95
149 147 96
155 152 97
151 149 97
141 140 89
152 150 95
154 151 95
156 153 98
152 150 99
159 156 100
152 150 96
159 156 101
163 159 102
168 163 105
156 153 94
164 161 104
161 158 101
165 161 101
158 155 96
165 161 103
167 162 99
166 161 99
164 159 98
170 165 105
166 162 101
159 156 97
164 160 96
165 162 99
165 161 103
165 161 100
164 159 98
164 160 100
172 167 103
170 166 105
171 166 103
171 165 103
172 166 102
169 164 103
169 164 99
170 165 101
172 167 103
171 166 104
174 168 105
171 166 104
172 166 101
171 166 103
171 165 102
168 163 97
175 169 104
172 167 99
169 164 101
175 168 104
174 167 102
171 165 99
175 168 103
169 164 93
174 168 100
176 168 104
172 167 98
172 167 102
168 163 99
170 165 99
171 166 97
168 162 95
172 165 100
168 162 99
174 167 103
173 167 103
168 163 97
171 165 99
172 165 94
165 160 95
167 162 95
175 168 101
171 164 97
166 160 93
168 162 95
168 163 97
171 165 102
174 168 103
167 161 96
163 158 88
165 160 94
164 159 97
164 158 96
167 161 95
166 160 94
168 161 97
166 160 93
161 156 88
162 157 91
162 157 93
166 160 95
162 156 88
167 162 93
159 154 90
161 155 86
163 157 95
165 159 93
163 158 93
153 148 84
166 159 95
165 159 95
164 158 94
160 154 89
162 156 89
164 159 95
161 155 92
152 147 91
162 156 93
165 159 95
155 149 84
159 154 90
158 152 88
153 147 83
153 148 85
155 150 87
159 153 90
213 231 254
213 230 254
212 230 250
212 230 252
213 231 252
212 230 252
211 229 249
213 231 253
212 230 252
212 229 248
212 230 250
211 229 248
211 229 248
212 230 249
211 229 245
209 227 240
208 226 237
211 229 249
210 229 248
209 227 244
208 226 237
211 229 246
209 227 242
210 227 246
209 227 240
210 228 244
211 229 250
211 229 250
211 229 248
207 225 241
212 229 248
210 228 242
210 228 245
212 230 248
209 227 242
209 227 242
211 230 249
213 231 252
211 229 244
210 228 246
212 230 250
208 227 238
213 231 253
210 228 245
208 227 241
210 228 242
211 229 248
210 228 245
212 229 248
212 230 250
212 230 250
211 229 249
208 226 245
208 226 242
209 228 248
210 228 245
210 228 241
211 229 248
211 229 252
209 227 245
210 228 245
211 229 246
211 229 249
210 228 246
209 227 244
211 229 246
211 229 246
211 228 245
210 229 246
209 227 242
209 227 242
209 227 244
211 229 249
211 230 249
210 228 245
207 226 241
210 228 252
210 228 246
211 229 249
209 227 248
211 229 248
208 226 248
209 227 241
211 230 252
208 226 244
209 227 249
211 229 250
210 228 248
211 229 248
208 227 248
208 227 245
210 229 248
210 228 246
208 226 242
210 229 248
210 229 248
210 229 250
212 230 250
210 228 245
209 228 248
211 229 250
210 229 250
210 229 249
210 229 250
211 229 250
210 229 249
209 228 245
210 228 245
209 228 248
210 229 250
207 226 240
210 229 250
208 227 245
209 228 248
209 228 245
207 226 240
208 227 242
208 227 245
209 228 249
209 228 250
208 227 246
205 225 238
204 225 238
206 226 244
206 226 245
206 226 242
205 225 243
200 221 233
207 227 245
203 223 246
205 225 248
205 225 249
200 222 250
194 217 250
198 220 250
201 223 252
204 226 255
207 227 255
207 228 255
209 229 255
210 230 255
211 230 255
214 231 255
214 232 254
216 232 255
215 232 255
215 232 255
215 232 255
215 232 255
215 232 255
215 232 255
215 232 255
159 179 211
61 97 160
61 97 158
62 98 159
61 97 157
60 96 149
60 96 154
60 96 149
61 96 150
61 96 145
62 98 156
61 97 154
61 97 149
61 97 149
61 97 149
62 97 157
60 95 141
62 97 152
61 97 155
62 97 155
62 97 150
61 97 153
61 97 147
61 96 150
62 97 155
62 97 151
61 97 155
61 96 148
61 97 154
61 96 149
62 98 154
60 96 150
60 95 139
60 96 143
60 96 151
62 97 155
61 96 149
62 98 155
61 96 148
62 97 155
62 97 153
61 97 151
62 98 154
62 97 159
61 96 143
61 97 152
62 98 154
61 97 150
60 95 142
62 98 153
61 96 152
61 97 151
61 96 149
61 97 149
61 96 151
61 96 150
61 96 146
61 97 145
61 96 153
60 95 147
61 96 157
61 97 149
61 96 146
60 95 139
60 95 142
61 96 154
61 96 142
61 96 148
60 96 150
62 96 156
60 95 146
60 95 149
61 96 150
61 96 149
61 96 145
60 94 145
60 94 146
60 94 143
59 92 136
60 93 140
59 93 138
59 92 142
61 95 146
59 92 142
61 96 151
59 93 143
59 93 153
59 92 142
60 94 151
56 87 130
55 86 132
58 89 136
57 89 140
58 89 137
57 88 144
141 160 193
215 232 255
215 232 255
215 232 255
215 232 255
215 232 255
215 232 255
215 232 255
180 191 202
116 114 75
118 117 79
104 103 70
101 103 74
115 115 80
107 109 76
105 107 76
108 111 78
112 114 81
105 107 76
107 109 78
110 113 80
114 116 83
109 111 79
111 113 79
125 125 87
117 119 84
122 123 84
120 122 85
125 126 84
119 121 82
143 142 95
132 131 85
129 128 84
155 152 99
150 148 98
137 137 93
146 143 92
146 145 94
147 146 94
145 144 94
145 143 88
152 150 95
152 150 96
154 151 97
154 151 92
153 149 97
157 155 97
155 153 100
159 155 97
162 158 98
158 156 101
164 160 103
162 158 99
163 160 103
161 157 101
164 159 99
163 159 100
160 158 95
162 158 97
165 161 102
164 160 96
170 164 103
168 163 102
171 165 105
164 159 99
161 158 96
169 164 104
171 166 102
169 164 103
172 166 100
168 162 100
169 164 100
173 168 103
173 168 103
173 168 103
170 164 99
170 165 101
172 166 99
170 165 100
173 167 101
172 167 103
173 167 102
171 165 95
175 169 103
171 165 101
172 167 102
175 168 100
172 167 100
172 167 103
172 166 97
172 165 98
170 165 100
171 165 99
173 167 98
169 164 99
172 167 101
171 166 99
169 164 96
174 168 101
167 161 95
171 165 96
169 163 95
172 164 96
171 166 98
174 168 103
168 162 93
170 164 98
169 164 101
173 167 99
173 167 99
170 164 97
168 162 98
170 164 98
172 165 100
172 166 99
170 164 95
171 164 98
167 162 100
168 162 95
163 158 91
168 162 95
164 158 94
164 158 93
167 161 96
164 158 90
169 163 96
171 165 98
166 160 97
165 158 93
161 156 91
162 157 92
164 159 92
160 155 91
160 154 90
162 155 93
166 160 97
157 152 87
161 155 90
164 158 92
161 155 90
168 162 95
165 158 93
155 149 83
163 157 90
157 151 85
154 149 80
151 147 87
156 150 85
156 150 87
150 145 82
149 144 83
155 149 86
148 143 84
212 230 252
213 231 253
211 230 249
212 230 252
213 231 252
211 229 248
213 231 254
213 230 249
213 231 253
213 231 250
213 231 253
213 231 253
213 231 250
214 231 252
211 229 248
209 227 238
209 227 237
211 229 246
212 230 248
209 227 240
211 228 242
211 229 248
209 227 238
211 229 246
212 230 250
210 227 244
209 227 240
211 229 246
209 227 240
210 228 245
210 228 246
211 229 246
209 227 242
209 227 244
211 229 245
209 227 244
210 228 241
211 229 245
214 232 255
210 228 242
209 228 240
213 230 250
212 229 249
214 231 253
212 230 250
211 229 248
209 227 245
212 229 250
208 226 244
214 231 254
209 227 241
212 230 252
212 230 246
212 230 250
211 229 249
207 225 241
212 230 249
210 227 248
210 228 244
210 228 250
211 229 248
211 229 245
210 228 242
210 228 249
208 226 244
213 230 249
210 228 248
211 229 249
213 231 253
209 227 242
206 224 242
212 230 252
211 228 249
208 226 242
212 230 250
210 227 248
214 231 255
212 230 249
210 228 248
211 229 252
211 229 249
209 227 244
210 228 246
211 228 248
208 226 244
210 228 248
209 227 242
210 228 248
209 227 242
210 228 240
209 227 248
211 229 245
210 228 249
212 230 253
211 230 252
211 230 250
210 228 245
209 227 242
211 229 248
210 228 246
211 229 250
209 228 245
207 226 240
209 228 246
211 229 250
209 228 244
211 229 249
208 227 240
210 228 246
210 229 249
209 228 245
211 229 250
209 228 248
209 228 246
209 228 245
207 226 238
210 228 248
208 227 245
209 228 249
208 227 246
209 228 248
207 227 242
207 227 245
207 227 245
205 225 244
203 223 237
203 223 239
200 220 237
200 220 236
204 223 242
205 225 246
201 221 243
202 223 247
199 221 252
198 220 251
198 220 251
198 219 248
204 225 253
208 228 255
208 228 255
210 229 255
211 230 255
213 231 255
215 232 255
215 232 255
216 232 255
216 232 255
216 232 255
216 232 255
215 232 255
215 232 255
211 228 251
105 130 178
61 97 158
61 97 154
61 97 151
61 97 153
61 96 151
61 97 155
61 96 147
61 96 143
61 96 150
62 97 158
61 96 148
62 97 153
61 96 148
61 97 156
62 98 156
61 96 148
62 97 151
62 98 151
62 98 157
61 97 157
62 98 153
62 97 153
61 97 156
61 97 151
61 97 149
62 97 151
61 96 152
60 95 142
61 96 145
61 97 153
61 97 149
60 95 142
61 97 149
61 97 151
61 97 152
62 97 153
62 98 152
61 97 149
62 98 157
62 97 153
62 98 155
62 97 148
60 96 145
60 96 144
61 96 149
61 96 148
62 98 156
61 96 148
61 96 144
61 96 143
61 96 141
61 97 148
61 97 147
62 97 150
62 97 154
60 94 136
61 96 147
60 95 145
61 96 149
61 96 152
62 97 151
60 94 145
62 97 159
61 96 151
61 96 142
61 95 144
61 96 150
62 96 151
62 98 160
62 97 152
61 95 142
60 95 148
60 94 145
61 95 145
60 95 144
61 95 145
59 93 143
60 96 143
60 94 147
59 93 141
59 93 144
59 93 145
60 94 148
60 92 142
58 90 130
59 92 136
60 94 153
60 94 155
58 90 140
59 91 144
59 91 146
57 89 140
56 87 135
56 87 131
106 128 167
211 228 252
215 232 255
215 232 255
216 232 255
216 232 255
216 232 255
214 231 254
131 134 115
116 113 76
114 113 73
107 108 73
104 105 74
102 103 72
114 115 81
99 101 70
114 117 82
104 107 76
104 106 75
116 118 83
131 132 91
120 121 83
118 119 83
118 120 86
126 126 86
128 129 89
122 122 85
129 129 87
130 130 88
136 135 89
129 128 82
125 126 87
144 142 93
135 135 90
143 142 91
144 143 96
145 143 91
153 150 100
142 141 92
156 153 99
152 150 96
159 157 102
151 148 97
154 152 99
156 152 99
150 147 95
159 156 101
157 154 99
155 150 95
159 156 98
150 148 92
157 154 100
160 156 96
161 157 97
159 156 99
166 161 98
167 162 102
166 161 99
162 158 98
171 166 104
163 158 95
171 166 102
164 159 97
166 162 96
167 162 98
164 160 96
168 164 99
166 162 100
170 165 100
174 168 103
174 169 103
174 168 104
170 166 100
171 165 100
171 166 102
173 167 103
172 167 101
169 164 103
167 163 98
173 168 103
172 166 103
170 165 101
172 165 98
174 168 101
171 166 99
173 167 102
173 168 103
169 163 102
174 168 104
170 165 96
175 169 102
175 170 103
169 164 95
171 165 93
173 166 99
169 163 95
170 164 96
169 163 99
170 163 95
173 167 102
169 164 93
168 162 95
170 165 93
172 166 99
171 165 97
167 162 90
164 158 93
169 163 97
175 169 104
167 162 97
171 164 96
170 164 99
165 159 94
166 160 95
162 157 93
166 161 93
168 162 97
172 166 99
171 165 99
161 156 91
168 161 92
162 157 93
166 159 96
172 165 98
168 161 93
166 159 95
166 160 91
164 159 90
162 156 93
171 165 97
167 162 98
159 153 92
166 160 91
163 158 93
161 155 92
165 159 95
162 155 90
163 157 93
161 155 88
158 153 90
159 153 87
166 160 92
156 151 88
160 155 90
156 150 84
163 157 93
153 148 82
155 149 84
156 151 90
165 159 93
150 144 84
159 152 87
156 151 84
213 230 249
212 229 246
214 231 249
214 231 254
212 230 250
213 230 252
214 231 254
214 231 252
213 230 249
214 231 253
213 231 249
213 231 250
215 232 254
212 230 248
211 229 246
208 227 236
211 229 242
210 228 244
209 227 240
212 230 249
206 225 233
210 228 241
209 227 238
211 228 247
208 227 238
209 226 240
211 229 245
212 229 249
209 227 242
211 229 246
212 229 246
212 229 252
211 229 245
212 229 251
212 229 245
210 228 244
209 227 236
212 229 246
211 229 244
214 231 253
212 229 245
211 229 242
212 230 249
211 229 244
213 230 249
213 231 253
212 229 249
209 227 245
211 229 245
213 231 252
213 230 250
212 229 249
213 230 250
208 225 238
211 229 246
211 228 246
211 229 249
209 227 245
211 229 246
213 230 250
210 228 248
213 231 254
212 230 252
207 224 242
211 229 250
211 229 249
214 231 254
212 229 249
208 225 245
210 227 248
211 228 245
207 225 240
212 229 250
210 228 249
212 229 252
210 228 244
212 230 248
207 225 242
212 230 250
211 228 248
209 227 246
210 228 248
212 229 250
212 230 248
212 229 246
210 228 244
211 229 250
209 227 241
210 228 245
210 229 245
206 224 238
212 230 250
211 229 249
210 228 246
209 228 241
212 229 248
212 230 250
212 229 250
210 228 244
212 230 252
210 228 242
210 229 248
211 229 249
211 229 250
208 226 242
210 228 245
208 227 244
209 228 245
210 229 248
209 228 244
209 228 245
210 229 248
211 229 252
209 228 248
209 228 244
210 228 246
211 229 250
208 227 242
208 227 244
208 227 241
208 227 244
208 227 245
210 228 252
204 223 244
202 222 243
202 222 241
200 220 233
200 220 236
204 224 242
204 223 242
204 223 244
204 224 245
205 225 246
201 222 250
199 221 252
202 224 252
200 221 252
200 221 250
195 216 245
207 227 254
210 229 255
211 230 255
212 230 255
214 231 255
215 232 254
216 232 254
216 233 255
216 233 255
216 233 255
216 232 255
216 232 255
178 196 227
61 97 156
60 95 147
62 98 164
61 97 155
62 98 162
61 97 150
62 98 161
61 96 149
61 96 145
61 96 151
61 96 151
59 94 137
62 97 151
61 96 152
62 98 157
61 96 150
62 97 157
61 97 148
62 97 151
61 97 158
61 97 145
62 97 154
61 96 150
59 94 142
62 98 150
61 97 155
61 97 150
62 97 151
61 97 153
61 96 147
61 97 155
60 96 151
61 97 150
62 98 152
62 97 152
63 98 160
62 97 156
61 96 145
62 97 149
62 98 161
60 96 147
61 96 153
60 95 140
61 96 144
61 97 150
61 96 147
61 96 145
62 97 152
60 94 142
61 96 144
61 97 151
60 95 149
60 95 147
62 98 156
60 96 147
61 96 147
60 95 142
61 96 148
61 97 150
62 97 153
62 97 154
62 97 152
61 96 141
59 94 146
61 97 153
60 94 149
61 96 149
61 96 143
60 95 150
61 96 141
61 96 146
61 95 144
61 96 150
60 95 146
60 94 143
61 95 150
60 95 144
60 94 147
59 93 139
61 95 149
59 93 143
60 93 141
61 96 156
62 96 156
59 92 140
61 95 157
58 91 136
59 92 146
60 93 149
58 90 143
58 91 137
57 89 135
58 90 140
57 89 141
57 88 135
54 84 131
182 199 225
216 232 255
216 232 255
216 233 255
216 233 255
216 233 255
188 201 213
120 118 73
121 119 79
107 107 74
119 119 80
105 106 73
97 98 68
108 109 75
105 107 75
94 97 71
105 107 76
113 115 83
112 113 79
111 112 77
121 121 84
102 105 74
111 114 80
115 116 79
131 132 89
127 128 87
125 126 87
128 128 86
135 135 91
133 132 85
137 135 88
138 138 90
137 135 87
137 136 86
138 138 92
149 147 96
145 143 93
149 147 94
152 149 95
152 151 96
147 145 90
145 143 94
148 146 92
150 147 91
154 151 94
157 154 97
159 155 100
155 152 94
162 158 98
166 161 101
161 157 101
155 152 94
159 154 93
160 157 98
166 160 96
156 154 92
161 157 98
165 161 98
163 158 96
166 162 100
168 163 101
168 163 98
172 166 102
169 163 98
174 168 103
167 162 100
173 167 101
166 162 95
172 167 104
166 161 99
173 167 98
171 166 98
172 166 102
173 168 101
175 169 98
172 166 96
172 166 99
175 169 104
172 166 99
175 169 107
173 167 100
175 168 101
172 165 101
177 170 102
170 165 100
173 168 103
170 165 98
173 167 102
174 168 101
173 166 100
173 167 100
171 165 99
169 164 99
172 166 99
173 167 101
172 166 97
170 165 93
170 165 93
168 162 94
163 159 91
169 163 93
165 159 90
167 161 88
173 167 100
174 168 97
172 166 97
168 161 93
169 163 96
168 162 97
170 163 94
162 156 91
172 165 98
164 158 95
165 160 93
165 161 93
163 157 90
170 163 99
161 156 90
160 155 94
166 160 96
166 160 95
164 159 93
160 154 85
167 161 93
165 159 90
164 158 93
170 164 95
165 159 97
157 152 86
164 158 90
162 156 87
160 154 90
168 162 90
160 153 88
164 158 95
154 148 81
158 152 87
160 155 90
162 155 90
157 151 84
153 147 80
162 157 90
157 152 84
158 153 88
163 156 90
165 159 92
161 155 88
169 162 93
161 156 90
154 149 82
148 143 81
158 151 86
214 231 254
214 231 250
213 231 253
214 231 252
213 231 250
212 230 249
213 230 249
215 232 254
214 231 252
212 230 249
212 230 249
212 229 248
213 230 249
213 230 249
210 228 242
211 228 245
212 230 248
210 228 240
211 228 241
211 229 241
209 227 240
212 230 248
210 228 241
212 230 246
211 228 244
210 227 242
210 228 242
210 228 241
211 229 242
212 229 245
211 229 244
213 230 248
213 230 249
213 230 249
210 228 243
211 229 244
212 229 244
209 227 241
213 231 250
213 231 249
213 230 250
212 230 246
211 228 248
210 228 248
209 227 242
210 228 242
212 229 249
212 230 252
212 230 249
213 230 249
208 225 241
211 229 244
210 228 242
206 224 240
210 228 245
212 229 252
211 228 248
211 228 245
212 229 244
210 227 248
212 229 249
212 229 245
211 228 246
212 229 248
213 231 252
211 229 244
211 229 250
211 228 244
211 229 246
211 228 246
211 229 249
210 228 246
210 228 245
211 229 248
209 227 244
210 228 248
212 230 252
209 227 245
209 227 241
210 228 244
210 227 244
209 227 244
209 227 244
212 230 249
212 229 250
211 229 246
213 230 250
209 227 246
211 228 245
211 229 246
212 230 249
211 229 246
211 229 245
211 229 248
211 229 245
213 231 253
213 231 254
211 229 248
210 228 248
211 229 244
210 228 244
210 229 246
210 228 245
211 229 248
212 230 250
211 229 249
213 230 250
210 229 248
211 230 252
210 228 245
208 227 238
211 229 250
211 229 249
210 228 248
210 228 248
212 230 250
208 227 242
211 230 250
210 229 246
211 230 252
207 225 246
206 225 242
197 216 240
200 219 237
204 223 243
206 225 245
200 220 241
200 219 237
199 219 236
203 222 242
203 222 246
206 225 249
203 223 242
206 226 248
203 224 252
202 223 252
202 223 252
202 222 252
202 223 252
199 219 248
204 224 252
211 230 255
213 231 255
214 231 255
215 232 254
216 232 253
216 233 255
216 233 255
216 233 255
216 233 255
216 233 255
146 167 203
61 96 151
62 98 154
61 97 151
62 98 158
61 96 156
61 97 149
62 97 151
60 95 142
61 97 155
62 98 153
62 97 154
61 97 151
60 95 148
62 98 159
61 96 153
61 96 156
62 97 144
62 98 150
62 97 152
61 96 152
61 97 155
61 97 152
61 97 148
61 97 148
60 96 150
62 98 150
62 97 156
61 97 149
60 96 144
61 97 153
61 96 139
61 96 144
61 96 151
61 96 144
61 96 151
60 96 148
61 96 150
60 94 136
62 97 149
60 95 143
59 94 139
61 96 147
60 95 142
60 95 139
62 97 152
62 97 150
62 97 155
62 98 152
61 96 147
61 96 148
61 97 150
61 96 150
60 95 140
61 96 153
60 95 143
61 97 151
61 96 147
61 96 149
62 97 155
61 96 151
58 92 131
61 96 150
59 94 141
60 94 137
61 96 147
61 96 147
61 96 149
61 96 150
60 95 144
61 96 150
60 94 133
61 97 152
59 93 140
61 96 151
59 92 132
60 94 147
60 94 142
60 95 141
60 94 140
61 96 151
59 93 143
61 94 140
59 92 143
59 92 144
59 92 141
61 95 144
58 91 137
60 94 147
58 90 136
60 94 149
55 86 130
58 90 134
57 87 132
58 90 142
53 82 125
52 82 121
121 139 170
216 233 255
216 233 255
216 233 255
216 233 255
216 233 255
146 152 144
110 108 71
100 100 68
103 105 75
102 103 70
94 95 67
99 102 73
100 102 71
99 103 76
105 107 74
92 95 68
112 115 82
112 114 80
108 111 78
102 105 73
122 123 84
118 119 82
122 122 82
121 122 86
120 120 84
125 125 83
129 130 88
131 132 86
138 137 90
134 134 90
145 144 94
138 137 90
137 137 87
140 138 88
143 141 91
141 139 91
150 147 95
153 151 96
153 150 95
149 147 93
148 145 90
145 143 93
154 151 96
156 153 100
154 151 96
159 154 94
158 154 98
164 160 96
157 154 96
159 155 95
158 155 98
163 159 97
163 159 98
164 160 95
163 160 96
164 160 98
170 165 104
163 159 97
165 160 94
166 162 96
164 160 96
162 158 92
167 162 99
170 165 101
167 163 100
171 165 97
172 166 100
171 164 98
168 163 95
168 164 99
170 165 94
173 167 102
167 163 97
171 165 98
171 165 98
173 168 102
173 166 98
173 167 101
173 167 101
173 166 100
166 161 93
172 167 98
172 166 97
168 163 93
175 168 103
173 167 101
172 165 95
169 163 92
173 167 95
172 166 96
172 165 98
171 166 100
172 166 100
174 168 98
173 167 98
173 166 95
166 160 90
168 163 97
174 167 101
168 161 93
164 158 91
172 166 98
171 165 96
169 163 95
173 166 97
171 165 97
173 166 98
161 156 87
169 163 93
169 163 91
167 160 92
167 161 93
164 159 93
167 162 95
167 161 93
164 158 90
165 158 92
166 160 93
165 159 92
161 156 80
169 163 97
164 158 89
163 156 90
162 157 90
168 162 95
161 155 89
163 158 89
156 151 86
165 159 90
168 162 92
164 159 90
164 158 87
165 159 92
159 153 87
162 156 90
158 153 87
162 156 87
158 152 90
160 154 87
161 155 89
162 155 89
160 154 93
162 156 90
164 157 91
159 153 87
158 153 90
159 153 90
157 152 88
152 146 86
159 153 90
162 156 88
215 232 254
214 231 248
214 231 252
215 232 255
214 231 250
212 230 244
215 232 253
215 232 253
214 231 250
213 229 250
213 230 248
215 232 252
215 232 254
214 231 250
212 230 248
211 228 242
211 229 242
211 228 242
210 227 240
213 230 249
212 230 245
209 227 238
212 229 244
213 231 248
213 230 246
212 230 245
209 226 242
213 230 249
212 229 245
213 230 246
212 229 244
212 229 245
212 229 248
211 228 244
214 231 249
212 229 245
214 231 252
210 227 240
213 230 246
211 228 245
211 229 245
212 229 246
212 230 248
214 231 250
212 229 248
209 227 242
213 230 248
214 231 252
211 228 246
212 229 246
209 226 245
212 229 249
213 230 252
212 229 246
211 229 248
213 230 248
213 230 252
212 229 248
211 228 246
210 228 245
215 232 254
211 228 244
213 230 250
209 227 245
214 231 252
211 229 249
211 228 244
209 227 248
213 231 253
213 230 249
212 230 250
212 229 249
213 230 250
210 227 245
212 229 246
208 226 242
213 230 253
208 226 240
209 227 240
212 229 246
212 230 250
212 230 245
212 230 252
209 227 240
214 231 253
213 230 249
214 232 254
214 232 254
207 224 244
209 227 242
211 228 250
211 229 248
212 230 245
209 228 245
212 230 249
211 229 246
211 229 244
212 230 249
211 229 248
214 231 253
213 231 253
210 228 244
212 230 249
210 228 240
212 229 248
210 228 244
212 230 249
211 229 248
211 229 246
208 227 240
211 229 249
209 227 242
211 229 248
211 229 245
213 230 250
211 229 246
209 228 242
212 230 253
210 228 249
206 225 239
206 224 242
199 218 239
198 217 237
202 220 237
203 222 238
204 223 241
201 220 236
199 218 240
197 217 238
197 216 238
200 219 241
202 221 241
201 220 240
206 225 246
205 225 251
204 225 254
204 225 252
202 222 251
199 219 247
204 223 250
205 224 251
204 222 250
212 231 255
213 231 255
214 231 254
216 233 255
216 233 255
216 233 255
216 233 255
216 233 255
212 229 252
64 99 156
61 97 157
60 96 145
61 97 153
61 96 151
62 97 155
62 98 154
62 98 150
61 96 154
62 98 157
60 95 141
62 98 159
61 96 141
61 96 150
61 97 151
62 98 156
60 96 143
61 97 145
60 95 143
61 97 156
61 97 154
61 96 145
61 96 148
61 96 153
59 94 136
61 96 148
61 96 149
61 96 144
62 97 148
61 96 148
61 97 149
61 96 144
60 95 145
61 97 153
61 95 137
61 96 144
60 95 139
60 95 142
62 97 155
62 97 154
60 94 142
62 97 152
61 96 145
60 96 150
62 98 153
60 96 137
61 96 153
61 96 147
61 96 151
62 97 149
61 96 146
62 97 152
61 96 145
59 94 137
62 98 157
60 95 143
61 96 145
61 96 148
61 96 145
61 96 150
61 96 148
60 95 140
61 96 144
61 95 150
60 96 148
60 95 140
60 94 149
59 93 139
61 96 150
62 97 154
60 95 140
59 94 135
59 94 129
61 95 144
61 96 150
61 96 147
61 96 151
60 94 141
61 95 147
61 95 150
59 92 138
60 94 142
59 94 139
61 95 146
59 92 136
59 93 139
58 91 146
58 91 137
59 92 139
60 94 145
57 90 136
58 89 130
58 90 145
56 88 138
58 90 145
57 89 145
55 84 131
58 83 125
213 230 254
216 233 255
216 233 255
216 233 255
196 210 225
108 106 69
114 114 77
97 97 66
98 98 67
102 102 69
99 101 71
99 102 73
92 95 70
105 109 78
92 95 66
95 98 70
106 108 74
99 102 74
110 111 76
110 111 77
103 106 75
120 121 82
117 118 80
118 119 80
122 123 84
119 120 82
130 130 82
133 132 89
128 129 85
138 137 87
137 136 90
144 142 96
145 143 93
130 130 84
142 140 92
139 137 92
142 142 94
148 144 91
150 147 93
148 145 94
152 150 97
150 148 92
153 150 97
154 150 90
158 154 97
147 144 91
155 152 96
160 156 94
157 153 94
160 156 91
161 157 95
158 155 94
159 156 98
162 158 100
167 162 98
166 161 97
167 163 100
166 162 99
161 156 97
170 164 103
168 162 97
171 165 100
170 165 101
167 162 101
164 160 96
170 164 99
172 165 98
172 167 103
177 170 100
174 169 99
175 168 102
168 162 94
172 166 98
172 166 99
172 167 101
172 166 97
172 167 101
172 166 100
173 167 94
175 169 101
173 166 99
168 164 95
173 167 95
170 164 97
169 164 97
169 162 95
172 166 98
173 167 98
173 167 99
170 164 96
171 164 97
170 164 99
174 168 101
169 164 101
171 165 97
172 166 96
172 166 96
169 163 95
177 170 104
170 164 91
167 160 94
172 166 95
167 161 90
169 162 93
166 161 92
168 162 98
166 160 90
170 164 97
168 161 91
170 165 97
164 157 89
169 162 93
167 162 91
170 163 93
160 155 87
169 163 95
167 160 92
166 161 93
170 163 96
164 159 86
164 159 88
168 162 89
166 160 91
165 159 95
166 159 95
169 163 96
158 154 84
161 155 87
165 158 93
161 155 78
167 161 92
162 157 91
167 161 97
160 155 85
165 159 89
162 157 87
158 152 84
159 155 90
155 150 84
163 156 89
153 147 80
163 156 90
167 160 93
163 157 93
159 153 86
155 150 81
157 151 87
154 148 84
160 154 88
153 147 82
156 150 86
216 232 255
214 231 252
215 231 253
215 232 252
214 230 249
215 232 253
214 231 250
215 232 253
213 230 248
215 232 252
215 232 253
214 231 250
215 232 252
212 229 244
212 230 246
209 227 237
210 227 234
212 229 242
211 228 238
213 230 246
213 230 246
213 230 248
214 231 250
213 230 250
211 228 244
211 228 244
209 227 242
212 229 246
213 230 246
214 231 250
214 231 248
213 230 248
214 231 249
215 231 252
214 231 250
214 231 249
209 227 241
211 229 244
213 230 246
214 231 252
212 229 245
213 230 248
214 231 252
212 229 244
213 230 245
211 228 244
213 231 248
213 230 250
212 229 248
213 230 249
213 229 252
213 230 248
211 228 245
212 229 248
213 230 248
212 229 246
212 229 250
209 226 244
210 227 241
212 229 248
209 226 242
209 226 246
213 230 250
213 229 249
210 227 241
213 230 253
212 229 249
212 229 248
206 223 241
212 229 250
212 229 248
213 230 250
211 228 249
210 228 248
213 230 250
212 229 246
208 226 242
212 230 248
210 227 244
211 228 246
210 227 244
214 231 249
211 228 248
211 229 246
210 228 242
210 228 241
212 230 250
209 226 242
211 229 242
213 230 248
214 231 252
212 229 246
213 230 248
213 230 250
212 229 249
213 230 250
212 230 248
212 229 242
212 230 249
211 229 246
209 227 244
211 228 242
214 231 252
211 229 248
210 228 246
211 228 248
212 229 246
210 228 245
212 230 246
213 230 250
211 229 246
211 229 244
212 230 250
210 228 242
212 230 250
211 229 246
211 229 247
207 225 240
210 228 248
208 226 244
206 224 243
207 225 244
197 216 236
201 219 241
202 220 244
205 223 242
201 220 239
201 220 237
196 215 229
201 220 240
199 218 236
205 224 244
196 215 235
201 220 244
201 220 243
204 224 250
201 221 251
201 222 251
203 223 251
204 224 252
206 225 252
201 220 248
208 226 252
214 231 255
215 232 255
216 233 255
216 232 253
217 233 255
217 233 255
217 233 255
178 196 224
61 96 148
59 95 145
61 97 155
60 96 143
61 96 141
61 97 149
62 97 152
60 96 141
62 97 148
61 97 150
60 95 149
61 97 151
60 95 141
61 97 151
61 96 147
61 96 148
61 97 148
60 95 142
61 96 148
61 96 148
60 94 143
60 96 143
62 97 152
62 97 148
61 96 143
59 95 139
62 97 151
61 97 149
61 96 141
61 97 155
62 98 159
61 96 144
61 97 149
62 98 150
60 95 135
61 96 148
62 97 159
62 97 149
60 96 140
61 95 142
62 97 152
61 96 148
61 96 143
61 96 140
60 96 142
61 96 140
61 96 150
61 96 140
60 95 147
61 96 148
59 94 145
61 96 148
60 95 140
62 97 155
59 94 135
61 97 148
61 95 144
59 94 134
62 97 153
60 95 145
60 95 146
60 95 142
61 95 141
61 96 147
61 96 143
60 94 137
60 94 137
60 95 139
60 95 142
61 95 150
60 95 140
61 97 152
60 95 141
61 96 148
60 95 146
61 96 148
60 95 150
60 95 143
60 94 144
59 93 137
60 93 145
60 94 137
59 93 135
60 94 146
58 91 145
60 95 145
58 89 130
58 91 138
57 88 126
59 92 148
60 94 148
58 90 138
58 90 138
58 90 137
57 88 141
57 88 135
55 84 128
53 82 131
176 192 214
217 233 255
217 233 255
217 233 255
163 172 172
95 94 60
96 96 66
105 104 70
113 113 77
98 100 70
101 104 75
87 90 65
94 97 70
83 87 63
101 103 74
98 101 72
97 101 72
118 120 83
111 112 79
105 107 75
114 116 80
113 114 75
109 112 77
116 117 79
117 118 81
117 119 82
133 132 86
136 135 90
128 127 84
135 135 90
137 136 89
132 131 88
137 135 84
142 141 92
140 139 90
142 141 91
140 138 88
145 143 91
142 141 92
151 149 95
155 151 94
153 151 96
153 150 89
154 151 91
157 154 95
162 159 99
162 158 95
159 155 93
165 161 97
158 154 94
167 163 100
165 161 99
164 159 99
162 158 96
165 160 96
172 166 100
160 156 91
162 158 95
167 162 96
169 164 98
167 163 98
167 163 96
166 161 96
167 162 97
172 167 98
168 163 93
161 157 92
170 164 101
171 165 97
174 167 98
171 165 91
172 167 99
171 167 100
173 167 102
175 168 99
168 163 96
170 165 96
173 167 98
166 161 89
173 166 97
174 168 97
172 166 97
172 166 99
169 164 95
169 163 91
171 165 95
174 168 101
169 163 97
172 165 95
173 167 97
174 167 95
169 164 97
173 166 96
171 165 95
167 161 92
173 165 93
171 165 96
168 163 95
167 162 93
171 164 96
171 165 93
173 166 97
169 162 95
171 165 98
172 166 97
167 161 90
168 160 88
167 162 93
164 157 89
171 165 95
168 162 95
168 161 93
166 160 92
169 162 95
173 167 97
169 163 95
169 163 95
165 159 90
164 158 92
162 157 90
163 157 87
169 163 91
163 157 90
161 156 87
160 154 87
164 158 92
159 154 87
167 161 93
164 158 87
170 163 93
165 159 90
161 155 93
160 155 89
164 158 93
165 160 93
169 163 96
164 158 94
155 150 82
164 157 92
154 149 84
159 153 91
160 153 89
156 151 83
159 154 86
160 154 85
156 150 80
157 151 87
154 150 81
163 156 85
157 152 85
158 152 86
215 231 250
215 232 254
215 232 252
214 231 253
214 231 250
215 232 253
214 231 250
214 231 252
215 232 250
215 232 252
213 230 245
213 230 249
215 231 250
213 230 244
213 230 248
213 230 245
212 229 244
211 228 240
215 232 252
214 231 252
214 231 250
212 229 244
213 230 248
212 229 246
212 229 246
212 230 246
212 229 245
215 232 252
212 229 245
213 230 246
211 228 246
214 231 248
212 229 245
213 230 248
211 228 242
212 229 244
214 231 249
213 230 248
211 228 245
211 228 246
213 230 245
214 231 250
212 229 245
213 230 246
215 231 250
214 231 249
213 230 248
209 226 244
213 230 245
213 230 244
213 230 246
209 226 241
214 231 252
210 227 242
212 229 249
210 226 245
210 227 244
211 227 245
212 228 249
211 227 246
212 229 248
213 229 249
214 230 250
214 231 252
210 227 242
211 228 248
211 228 245
213 230 246
211 228 248
211 228 246
211 227 248
213 230 248
210 227 241
209 226 241
214 231 253
209 227 242
212 229 248
212 229 248
212 229 246
211 228 244
212 229 246
212 229 248
211 228 244
212 229 241
212 229 248
213 230 250
212 230 248
213 230 250
211 228 245
213 231 250
211 228 244
212 229 245
213 230 250
211 229 244
210 228 242
213 230 246
214 231 253
209 227 244
212 229 246
214 231 250
213 230 248
211 229 245
212 229 248
212 229 249
213 231 250
212 230 246
212 230 248
211 229 245
212 229 244
212 230 250
214 231 253
211 229 245
214 231 252
212 229 246
209 227 241
212 230 246
209 227 243
209 227 246
205 223 239
204 222 244
205 223 241
203 221 240
199 217 238
204 222 244
201 219 235
204 222 240
194 213 232
203 221 242
200 218 235
196 215 225
206 225 240
202 221 240
200 218 239
202 220 244
202 221 245
201 220 242
201 222 248
202 222 250
207 226 254
205 224 250
200 219 246
196 215 245
194 213 241
211 229 254
215 232 255
215 232 254
217 233 255
217 233 255
217 233 255
217 233 255
146 167 201
61 97 154
61 97 151
61 96 152
60 96 148
60 96 147
61 96 148
61 97 157
59 94 133
60 95 140
60 95 142
61 97 148
60 95 135
61 96 145
61 97 152
61 96 147
62 97 153
61 97 150
61 96 142
61 97 156
62 97 147
63 98 152
61 96 144
61 96 151
60 95 143
62 97 152
61 97 141
61 96 152
61 96 144
61 97 145
61 96 147
62 97 154
61 96 149
60 95 144
60 96 137
61 96 141
60 95 134
60 95 144
61 96 147
61 97 151
61 96 143
61 96 147
62 97 149
62 97 151
61 97 148
60 94 140
60 95 142
62 98 152
60 95 140
61 97 147
61 96 147
60 95 140
62 98 154
60 95 143
60 95 140
61 96 148
61 96 148
61 95 145
61 95 145
60 95 143
59 94 138
60 94 140
61 97 148
61 96 145
59 94 137
58 92 142
61 96 147
60 94 138
61 95 142
61 95 142
60 94 144
60 94 140
62 97 155
61 96 154
61 95 145
60 94 135
60 95 147
61 96 154
59 93 132
61 95 141
61 95 148
60 94 143
59 93 141
60 95 147
58 92 138
59 93 139
59 92 147
59 93 140
60 93 146
59 93 140
58 90 136
58 90 131
59 91 140
57 89 140
58 90 142
56 87 130
55 85 126
55 86 131
56 86 131
148 166 195
217 233 255
217 233 255
216 232 254
145 147 124
110 108 73
109 108 70
96 98 67
84 86 59
101 102 70
83 86 61
82 86 62
99 101 71
93 97 70
86 90 65
102 106 75
92 96 69
103 105 75
106 108 74
107 109 76
103 106 74
105 107 73
115 116 78
116 118 80
128 128 86
120 121 82
130 129 85
137 136 91
131 131 87
130 129 86
136 136 89
143 141 90
138 137 86
138 138 87
141 138 87
141 139 86
145 143 94
156 153 96
147 145 87
143 142 88
151 148 91
149 147 91
154 151 93
147 144 87
154 152 93
154 151 90
155 152 95
163 159 96
153 150 90
157 154 95
165 161 96
157 154 92
156 153 91
166 162 98
164 160 99
169 163 100
167 162 96
173 168 105
169 164 96
164 159 91
165 160 97
171 166 99
174 167 103
172 166 98
162 157 90
168 163 98
170 164 94
173 167 98
162 158 89
171 165 93
171 165 96
174 168 101
171 165 97
169 164 100
169 163 95
175 168 100
175 168 98
169 163 95
172 166 98
174 168 97
173 167 97
173 167 97
172 165 97
172 166 95
171 165 95
177 170 99
172 166 95
172 166 97
168 162 94
167 162 90
165 160 89
170 164 93
171 165 96
169 163 97
172 165 99
168 163 93
166 160 89
174 168 98
166 160 88
164 158 89
175 168 96
168 162 93
170 164 89
168 162 92
172 165 95
173 167 93
163 157 89
161 156 90
164 159 88
168 162 89
168 162 97
168 162 89
170 164 94
174 167 101
166 160 93
171 164 95
166 160 92
167 160 93
167 161 87
166 160 91
164 158 88
166 161 90
170 164 97
158 153 84
168 161 91
167 161 93
167 160 90
161 155 84
172 165 95
166 159 91
162 156 90
163 157 93
158 153 86
159 154 84
163 158 87
157 151 86
163 156 90
162 155 89
163 157 87
160 154 86
159 153 85
151 146 87
163 156 87
165 158 88
153 147 82
159 153 89
154 149 82
158 152 84
159 152 87
162 155 81
158 152 85
216 232 252
215 231 251
214 231 250
215 232 250
216 232 254
215 231 249
216 232 253
216 233 253
215 232 254
214 231 246
213 230 246
215 232 252
216 232 252
213 230 244
213 230 246
213 230 244
213 230 244
213 230 246
214 231 249
212 229 245
214 231 248
212 229 246
211 228 238
212 229 245
213 230 249
212 229 244
212 229 245
213 230 250
211 228 237
214 231 246
214 231 246
214 231 246
215 232 253
212 229 241
212 229 244
215 232 252
213 229 245
213 230 246
211 228 241
214 230 245
215 232 252
213 230 246
212 229 246
213 230 249
211 227 246
211 227 241
213 230 250
215 231 250
215 231 252
214 231 252
212 228 245
208 225 240
213 229 248
209 226 241
214 231 252
211 227 246
213 229 250
214 231 250
210 227 246
214 231 249
211 227 245
214 230 252
214 230 252
209 226 245
212 228 249
210 227 245
211 228 248
214 231 250
212 229 245
212 229 248
213 230 249
211 228 244
211 228 244
213 229 246
212 229 245
213 230 249
208 225 240
213 230 250
212 229 246
212 229 246
212 229 245
212 229 245
214 231 250
215 232 254
213 230 248
214 230 250
212 230 248
212 229 246
212 229 248
214 231 252
212 229 245
212 229 245
210 227 240
214 231 249
212 229 244
213 230 248
212 229 245
216 232 254
210 227 242
211 228 244
213 230 248
213 230 246
212 230 245
212 229 245
210 227 240
214 231 252
215 232 253
211 229 242
213 231 250
213 230 249
211 229 244
213 230 249
212 230 246
212 229 249
212 230 250
209 227 244
210 227 245
210 228 244
211 229 248
206 223 236
207 224 242
208 226 243
203 221 242
208 226 246
207 225 247
202 220 242
192 210 227
201 219 240
202 220 235
204 222 242
199 218 232
204 222 239
203 221 244
207 225 248
203 221 243
207 225 248
174 194 227
206 226 253
207 227 254
202 221 248
205 223 250
205 224 250
204 222 248
205 223 247
214 231 254
216 233 255
216 232 252
217 233 255
217 233 255
217 233 255
87 115 165
60 96 153
62 97 156
61 96 145
60 95 147
61 96 151
61 96 151
61 97 156
62 97 152
62 97 148
60 95 144
60 96 144
60 96 145
61 96 144
60 95 144
61 96 141
62 98 155
61 96 147
60 95 137
60 96 145
60 95 144
61 96 143
61 96 142
61 96 143
61 96 148
61 96 145
61 97 145
60 95 139
61 96 136
60 95 148
62 97 151
61 97 148
62 97 149
61 95 139
61 96 145
62 97 151
60 95 134
61 96 143
62 97 150
61 97 152
61 97 153
62 98 156
61 96 139
60 95 139
61 96 148
62 97 149
61 96 148
61 96 150
61 96 143
61 96 153
61 96 141
61 97 145
60 95 143
62 98 151
61 96 148
61 96 145
60 94 131
60 95 137
61 96 142
60 94 136
61 96 149
61 96 150
62 97 150
61 96 149
62 97 151
62 96 158
59 92 128
61 96 148
61 95 141
60 94 134
60 94 140
60 95 143
60 95 145
60 95 141
60 94 140
60 95 141
59 92 146
59 93 140
60 95 146
62 96 152
59 92 138
60 93 140
59 93 145
61 95 141
60 94 146
58 91 126
59 93 138
60 93 143
58 91 139
59 92 145
59 93 140
58 89 130
57 88 129
57 89 137
59 93 150
56 88 137
56 85 124
52 80 113
54 83 129
101 120 147
217 233 255
217 233 255
200 213 226
102 101 65
91 92 62
96 96 65
93 95 66
79 82 60
86 89 65
80 83 59
78 83 61
85 89 65
92 96 67
92 94 68
98 101 72
92 96 69
106 108 77
108 110 78
110 112 76
102 105 73
124 124 82
120 120 80
133 132 84
116 117 79
121 123 83
128 128 86
122 123 79
130 131 85
138 136 88
132 131 85
128 127 81
141 140 88
143 141 89
150 148 94
145 143 89
141 140 89
152 149 93
139 137 86
149 146 88
146 144 86
157 154 98
143 141 83
148 146 92
153 150 92
160 156 94
158 155 94
160 156 91
152 149 90
157 153 88
162 158 99
167 162 96
170 164 96
160 156 91
164 159 95
161 157 91
166 161 101
166 162 95
167 163 96
164 160 98
170 164 98
167 162 93
170 165 96
168 162 98
166 161 93
168 163 93
173 168 101
172 166 96
166 160 90
166 161 91
172 166 98
168 163 93
171 166 98
169 164 93
172 165 99
174 167 99
169 164 90
173 167 97
172 166 92
169 163 97
171 165 93
173 167 97
170 165 90
171 164 95
174 167 97
172 166 96
175 168 97
175 168 102
169 163 90
171 165 97
169 163 93
174 168 97
169 163 92
171 165 98
168 162 93
173 165 94
174 168 98
165 161 88
168 162 93
166 159 91
172 166 96
170 163 90
168 163 91
171 166 100
175 168 103
171 164 93
165 160 90
164 159 87
169 163 91
168 162 95
166 160 93
168 162 90
168 162 89
168 162 89
162 157 84
165 159 87
167 162 92
168 162 87
165 159 91
169 162 93
170 163 90
164 157 90
168 161 96
166 160 90
167 160 90
171 164 96
162 156 87
161 155 86
170 165 95
164 157 91
163 158 90
162 156 86
165 158 93
164 158 90
169 162 93
163 157 92
159 154 85
162 155 85
153 148 80
159 153 84
161 155 84
156 150 80
158 152 84
160 154 88
162 156 87
150 144 76
158 152 88
154 147 83
153 146 80
156 150 87
158 153 84
216 233 253
215 232 249
215 232 249
216 232 252
217 233 253
216 232 253
216 232 252
216 232 252
217 233 254
215 232 250
215 231 249
216 232 252
214 230 245
216 232 250
213 230 245
213 230 244
213 230 245
213 230 242
211 229 238
213 230 244
217 233 254
213 230 245
213 230 244
213 230 244
215 231 249
214 230 248
215 232 250
215 231 248
213 230 246
215 231 249
212 229 243
215 231 249
212 229 244
214 231 246
211 228 240
213 230 244
213 230 244
216 232 253
214 231 246
213 230 244
213 229 244
211 227 245
215 232 252
216 232 252
214 231 248
212 228 244
213 229 249
215 231 250
216 232 253
210 226 244
207 224 238
211 228 246
216 232 252
213 229 248
211 228 242
211 227 246
215 231 252
213 229 250
213 230 246
211 228 246
210 226 245
208 224 242
208 224 244
212 229 249
210 226 248
210 227 246
211 228 246
209 226 245
211 227 248
212 228 245
214 231 250
212 228 248
209 225 245
215 232 253
214 230 248
207 224 242
214 231 249
210 226 242
214 231 252
213 229 246
213 230 249
213 229 246
213 230 250
212 229 245
212 229 244
213 230 244
215 231 249
211 228 242
212 229 244
214 231 249
214 231 249
213 230 246
212 229 242
213 230 249
213 230 249
210 227 244
212 229 242
214 231 249
212 229 242
213 230 246
214 231 250
213 230 248
212 229 242
213 230 248
212 229 242
213 230 248
213 230 246
214 231 248
213 230 249
213 231 249
211 229 242
214 231 248
212 230 245
211 228 238
214 231 252
214 231 250
213 230 250
207 225 246
211 228 244
202 220 236
209 226 243
208 225 242
202 220 241
201 218 232
209 226 248
206 224 238
206 223 244
206 224 241
207 225 242
204 223 239
203 221 237
203 221 239
205 223 246
202 220 239
205 223 248
205 223 243
157 177 214
175 196 227
203 222 250
207 226 252
210 228 254
205 223 249
202 220 244
203 221 246
208 226 250
216 233 255
217 233 255
217 233 255
218 234 255
200 216 240
60 96 147
62 98 156
61 96 150
61 96 147
60 96 145
60 95 141
62 98 157
60 95 147
61 96 142
62 97 154
60 95 143
61 96 140
62 97 143
60 95 140
59 94 134
61 96 145
61 96 144
60 95 144
61 96 139
61 96 144
62 97 148
62 98 153
61 97 151
61 96 141
61 97 149
62 97 151
60 95 144
61 96 145
61 96 147
61 96 148
60 95 140
61 97 152
61 96 141
60 95 134
61 96 147
61 96 145
61 97 142
61 96 147
60 94 129
62 97 149
62 97 148
62 97 151
61 96 145
60 95 140
59 94 137
61 97 144
63 98 161
61 96 144
61 96 142
61 96 144
62 97 153
61 97 150
61 96 152
60 95 140
58 93 134
61 96 142
60 95 145
61 96 144
62 97 148
60 95 139
62 97 151
61 96 145
61 96 141
59 93 133
60 95 145
61 96 154
61 96 144
61 95 147
61 96 145
61 96 142
61 95 136
62 96 149
60 95 145
61 95 149
61 96 147
60 95 147
60 95 147
60 94 148
60 95 141
60 94 134
59 93 141
59 93 128
60 94 137
58 90 123
61 94 147
58 92 137
60 93 145
60 94 142
58 90 129
59 92 142
58 91 141
58 90 140
58 91 139
59 90 134
55 86 131
56 87 121
54 84 128
56 86 122
54 84 125
53 81 118
202 218 240
218 234 255
172 182 186
107 106 65
98 97 62
100 99 67
95 97 68
71 74 55
76 80 60
88 90 64
89 93 67
91 93 64
84 88 65
92 97 70
94 97 66
92 96 69
90 94 67
112 115 80
105 107 72
104 107 73
117 118 77
109 111 74
114 115 76
117 118 73
120 120 78
121 123 82
133 132 84
128 128 81
127 127 77
136 136 85
133 132 87
133 133 85
143 140 87
150 147 93
148 146 89
147 145 89
142 141 90
151 148 92
144 142 92
147 145 93
143 141 87
152 149 93
147 145 85
147 144 89
160 155 94
164 159 95
162 158 95
157 152 89
154 151 92
157 153 90
159 154 89
162 158 93
165 160 94
166 162 97
165 161 94
169 164 100
167 162 98
167 161 92
167 162 93
166 161 97
165 160 95
168 162 91
172 166 99
170 165 97
168 164 97
170 164 98
169 163 98
172 167 95
171 165 95
172 165 96
170 164 95
172 167 99
171 165 94
171 165 95
169 164 96
172 166 97
173 166 97
174 168 99
173 167 99
176 169 103
170 164 91
173 168 97
172 166 94
173 166 94
172 166 96
168 162 86
173 167 96
170 163 95
172 166 95
174 168 95
169 163 93
174 168 97
173 166 93
175 168 95
173 167 96
172 166 94
172 166 95
171 165 93
166 161 84
172 164 93
169 162 90
166 161 88
168 162 86
171 164 94
171 164 97
171 165 92
169 162 93
173 166 97
166 159 92
171 164 93
169 163 94
171 164 95
165 160 95
162 156 87
170 163 93
166 159 91
161 156 89
164 158 90
166 160 93
166 159 87
165 159 90
169 162 91
162 157 88
172 165 96
157 152 84
161 154 89
163 158 91
164 158 93
164 158 91
159 154 84
164 158 90
165 159 91
164 157 89
167 160 89
162 156 90
166 159 88
159 154 86
162 156 85
153 148 79
164 158 86
166 160 89
161 154 84
156 150 87
169 162 90
161 154 89
162 156 91
160 153 89
154 149 80
157 151 85
152 146 80
216 233 252
216 233 253
215 232 249
215 232 250
216 232 250
217 233 255
215 231 251
216 232 250
217 233 253
216 233 252
215 231 249
214 230 246
217 233 253
216 232 249
215 231 246
214 231 246
213 230 245
210 227 238
214 230 244
216 232 250
215 231 248
214 230 245
212 229 242
211 228 241
214 231 246
212 228 242
212 229 242
212 229 247
216 232 250
216 232 252
214 230 244
215 231 248
214 231 249
214 230 245
216 232 250
214 231 248
214 231 246
215 232 249
215 232 249
215 231 250
213 229 249
213 230 241
212 228 244
215 232 249
214 231 249
212 229 245
213 229 244
214 231 245
212 229 242
214 230 248
217 233 255
212 228 245
215 231 250
214 230 249
211 227 245
211 227 248
209 226 246
210 227 247
212 228 250
212 228 249
210 227 248
210 226 246
210 226 246
216 232 254
215 231 253
207 223 242
213 228 249
211 227 246
211 227 246
212 228 250
213 229 246
211 227 245
212 229 246
207 224 237
213 229 246
213 230 249
211 228 248
213 230 248
208 224 241
214 230 248
215 232 250
215 231 249
213 230 246
212 228 242
213 229 245
214 230 249
213 229 248
214 231 249
215 231 249
214 231 246
213 229 244
213 230 242
215 232 254
215 231 249
212 229 240
214 230 250
213 229 245
213 230 246
212 229 242
212 229 242
215 231 252
214 231 250
214 231 249
213 230 248
215 231 250
212 229 241
213 230 246
213 230 244
213 230 245
214 231 252
212 229 242
215 232 253
213 230 245
210 227 245
209 226 242
210 227 244
212 229 246
212 229 249
207 225 241
207 224 244
205 222 239
206 223 243
204 222 234
204 222 236
203 221 241
206 223 239
201 219 235
204 221 238
204 222 240
210 228 243
203 221 239
201 219 228
202 219 241
208 225 242
209 227 251
207 225 247
193 211 236
84 114 169
193 213 242
207 225 250
207 225 250
203 221 247
205 223 248
202 220 243
196 213 240
215 232 255
217 233 255
217 233 255
218 234 255
174 192 222
59 94 132
60 95 144
59 94 142
61 96 148
60 96 137
60 95 137
61 97 143
61 96 144
62 97 153
62 97 151
60 95 139
61 96 144
60 95 147
61 96 151
61 97 154
61 96 144
61 96 149
60 96 143
60 96 140
60 95 140
60 95 134
62 97 151
61 97 151
62 98 151
62 98 150
61 96 147
61 96 145
60 95 136
62 98 154
60 94 137
61 96 149
61 96 145
63 98 151
61 96 142
61 96 147
61 97 143
61 96 143
60 95 145
60 95 141
62 98 155
60 95 137
61 96 143
61 96 150
61 97 143
61 96 145
60 95 145
61 96 144
61 96 148
60 95 140
61 96 142
61 95 144
60 94 138
60 95 136
62 97 150
60 95 138
61 97 147
61 96 148
61 96 145
60 95 139
59 94 134
60 95 140
61 96 147
62 97 148
60 95 140
61 96 152
61 95 149
62 96 154
63 98 154
59 93 130
59 93 132
60 94 135
60 94 136
61 95 145
60 94 145
59 93 136
59 92 139
61 96 142
60 94 137
58 92 133
60 93 140
62 97 153
59 93 134
59 92 137
60 94 134
59 93 135
59 92 140
59 93 142
58 90 140
60 94 147
60 93 139
57 88 129
60 93 141
58 90 134
56 87 123
56 88 130
55 86 128
56 87 130
54 82 119
54 83 126
51 78 115
174 190 212
218 234 255
131 135 127
109 108 71
73 74 52
80 81 53
83 85 61
73 77 55
81 85 60
91 94 66
78 83 59
82 86 63
85 89 65
85 88 63
83 86 62
86 91 65
98 100 68
103 106 74
101 103 69
102 105 71
98 101 69
121 121 81
117 118 77
133 132 87
119 121 81
133 133 88
129 129 78
116 116 76
133 133 86
137 136 84
133 132 83
139 137 87
146 143 88
152 148 93
138 136 82
143 141 90
153 150 91
144 141 89
148 144 89
147 146 85
151 149 92
153 149 87
155 152 91
158 153 94
157 153 89
155 152 87
155 151 88
152 149 90
160 156 89
163 158 91
162 157 93
162 157 89
166 161 94
166 160 94
162 159 93
165 161 96
168 162 98
165 161 94
171 165 97
167 161 93
165 160 91
168 163 95
172 166 101
171 166 98
170 164 94
173 167 96
166 161 91
167 162 93
171 164 93
169 163 90
174 168 97
169 163 95
171 165 97
176 169 103
172 166 94
169 163 91
173 167 92
168 163 89
172 166 97
171 165 93
169 164 91
168 162 92
169 163 93
172 166 94
170 165 95
177 170 99
173 167 99
174 167 96
171 164 90
167 162 90
177 170 97
175 168 101
172 166 95
167 161 88
171 165 95
172 165 90
170 164 94
170 164 95
174 167 97
171 164 90
170 164 93
171 164 91
169 163 91
169 164 90
169 163 94
166 159 90
168 162 86
172 165 93
169 162 95
166 160 93
169 163 90
170 163 93
170 163 87
164 157 88
163 157 90
166 159 93
167 161 90
168 161 93
167 161 92
163 158 90
171 164 93
170 163 90
166 160 90
168 161 94
163 156 82
160 154 80
158 152 84
165 159 88
163 158 87
162 155 86
168 162 93
164 158 91
158 152 84
164 158 87
157 152 84
166 160 90
160 154 84
165 160 86
160 154 85
163 156 87
154 148 82
159 153 88
153 148 84
168 162 93
160 154 84
156 151 80
158 153 81
163 156 86
159 153 84
159 153 88
216 232 252
217 233 254
217 233 254
215 231 248
217 233 252
217 233 252
217 233 253
218 234 255
218 234 255
217 233 254
217 233 252
216 232 250
218 233 255
215 231 249
218 233 254
212 228 238
215 232 249
213 230 241
215 231 248
213 229 242
216 232 249
213 230 244
215 231 245
214 231 248
215 231 246
216 232 250
213 230 241
215 231 249
215 231 245
215 232 249
215 231 246
214 231 246
214 231 245
216 232 250
215 231 248
213 229 244
213 230 241
215 232 249
214 231 246
213 229 244
216 232 252
213 229 245
215 232 248
210 227 240
214 230 242
215 231 246
214 231 248
214 230 244
213 230 245
212 228 246
213 229 246
215 231 252
216 232 253
209 225 240
215 231 252
214 230 250
213 229 251
209 225 245
207 223 241
208 224 244
209 225 246
214 230 252
213 228 250
212 228 249
214 230 252
207 224 244
210 226 246
215 231 253
214 230 250
210 226 245
212 228 246
206 222 238
211 227 246
209 226 241
210 226 245
214 230 252
214 230 249
214 230 249
212 228 246
214 231 249
211 228 244
214 231 249
213 229 245
213 230 246
213 229 245
212 228 244
215 231 252
214 230 246
214 231 248
216 232 252
213 229 245
215 232 249
212 229 241
215 232 252
211 228 242
215 232 250
215 232 253
213 229 245
212 229 245
212 229 242
213 230 245
214 231 250
214 231 246
215 231 249
213 230 244
214 231 248
214 231 246
213 230 246
214 231 248
213 230 249
214 230 250
213 230 248
212 229 246
210 227 242
212 228 250
209 226 242
210 227 244
208 225 244
201 218 238
207 224 239
203 220 240
200 217 234
206 223 242
207 224 244
208 225 241
210 227 244
202 220 230
206 223 236
205 223 236
207 225 240
205 223 238
205 223 241
204 221 242
204 222 238
206 223 244
210 227 248
201 219 242
107 131 173
114 138 177
200 219 244
207 225 251
207 225 250
200 218 243
197 214 240
200 218 243
210 227 250
217 233 255
218 234 255
218 234 255
149 169 202
60 95 147
60 96 145
60 95 143
59 94 139
60 96 149
59 94 136
60 94 131
60 94 143
61 96 149
60 95 145
60 95 145
60 96 145
62 97 148
61 97 154
59 94 135
61 96 144
61 96 144
60 95 135
61 96 145
61 96 145
60 94 144
62 97 148
61 96 143
61 97 144
61 97 150
61 96 147
60 95 140
61 96 143
61 96 141
59 93 133
60 94 143
60 96 142
61 96 139
61 96 142
60 95 142
61 96 142
61 96 142
61 96 142
60 95 137
61 96 153
60 96 145
60 95 145
60 95 143
62 97 153
60 95 140
60 95 149
60 95 137
61 95 144
61 96 141
61 97 147
61 96 144
61 97 149
60 96 141
62 97 151
60 95 141
60 95 141
60 95 143
61 95 143
61 96 147
61 96 142
61 97 154
60 95 149
62 98 154
61 96 141
61 96 145
61 96 144
61 95 144
60 94 136
60 94 139
61 95 142
59 93 134
60 95 145
60 94 136
60 94 143
58 92 137
62 96 147
61 96 146
58 92 133
59 94 139
60 94 143
59 93 150
59 93 147
61 94 145
59 91 126
59 93 147
59 92 142
58 91 125
58 90 128
58 91 138
59 92 138
57 89 123
59 92 147
59 93 140
58 90 132
55 86 120
54 85 123
56 86 130
55 84 122
54 84 123
54 82 121
144 160 181
216 231 252
112 111 77
91 90 58
99 99 68
78 79 55
77 78 52
71 75 55
77 80 57
72 76 54
84 87 63
74 80 58
92 95 67
91 95 68
93 97 68
90 93 64
95 99 69
105 108 74
107 110 74
101 104 73
112 115 77
109 111 75
121 121 83
120 121 80
121 122 81
124 124 82
123 124 81
131 130 85
139 137 85
136 135 85
139 137 87
133 132 81
145 143 86
131 131 80
139 137 85
144 143 89
148 146 87
146 143 87
148 145 87
144 142 88
140 138 77
157 153 94
149 146 89
156 153 93
151 148 86
156 151 85
160 156 90
160 156 93
158 154 94
154 151 94
164 160 96
158 154 93
172 166 102
160 156 93
162 157 93
163 159 92
168 161 88
168 163 96
167 162 96
165 160 93
167 161 95
170 164 93
170 165 101
170 165 99
168 163 95
172 167 96
167 162 88
175 168 99
168 162 91
166 161 86
169 164 94
172 166 91
170 165 95
171 164 97
174 167 97
168 162 89
167 162 88
175 168 94
172 165 93
167 162 94
168 163 89
175 169 99
171 165 92
171 164 90
168 163 87
171 166 97
170 163 92
167 160 89
171 164 93
168 162 89
176 169 100
167 161 90
174 167 98
169 163 91
167 161 86
170 164 93
171 165 94
168 163 92
169 164 91
162 158 86
171 165 93
173 166 93
165 160 88
172 165 93
173 166 93
165 159 87
168 162 91
166 161 89
167 161 88
166 160 92
165 158 89
164 158 90
169 163 95
163 158 87
165 159 86
160 155 84
163 158 86
166 160 92
166 161 94
167 161 89
156 151 84
165 159 92
163 156 88
160 155 84
166 160 87
168 161 93
167 161 88
164 159 86
164 157 93
169 161 91
161 155 85
158 153 84
159 154 84
164 158 85
160 154 84
161 153 87
160 154 84
163 157 84
157 151 84
154 148 86
162 156 84
164 157 87
154 148 82
164 158 87
159 153 81
162 156 89
163 156 87
162 156 87
159 153 84
149 144 75
218 234 255
218 234 254
217 233 253
218 233 253
217 233 254
218 234 254
218 234 254
218 234 255
218 234 254
217 233 252
218 234 255
216 232 248
214 231 242
216 232 249
217 232 250
217 233 252
213 230 242
216 232 249
215 231 250
214 230 245
215 232 248
214 230 245
215 231 247
215 231 246
214 230 246
214 230 245
215 231 248
215 231 248
214 231 246
215 231 248
216 232 249
212 229 240
214 231 244
213 230 241
215 231 252
216 232 249
217 233 253
213 229 240
215 231 246
216 232 249
216 232 249
216 232 249
217 233 253
218 233 254
214 230 248
216 232 249
216 231 249
217 233 252
213 229 246
215 231 246
216 232 250
216 232 252
212 228 245
212 228 247
216 232 252
208 224 242
213 229 250
209 225 246
210 226 247
213 228 249
212 228 250
212 227 248
213 229 250
208 224 244
211 226 248
212 227 249
206 221 240
211 227 248
211 227 248
209 225 245
212 228 248
213 229 248
213 229 248
212 229 245
213 230 244
215 231 252
211 227 245
215 231 250
214 231 250
215 231 250
212 228 245
215 231 250
215 231 249
212 229 242
213 229 245
215 231 246
216 232 252
214 231 250
213 230 244
212 229 240
215 231 249
215 231 252
216 232 252
215 232 249
214 230 245
214 231 246
214 231 249
213 230 244
216 232 252
213 229 244
214 231 246
215 231 249
214 231 245
215 231 248
214 230 242
214 231 249
213 229 241
216 232 250
211 228 240
211 228 237
213 230 245
214 230 248
211 227 244
206 223 236
213 230 241
213 229 250
208 224 242
207 224 236
204 221 242
210 226 248
206 223 238
208 225 241
208 225 244
206 223 238
208 225 243
206 223 239
208 225 240
202 220 236
203 221 234
204 222 238
210 227 242
202 220 236
205 222 241
204 221 242
205 222 242
207 224 243
210 226 251
158 178 211
64 98 147
148 169 201
206 223 249
204 222 247
205 222 247
203 221 246
202 218 241
196 213 239
218 233 255
218 234 255
218 234 255
111 134 169
61 96 155
60 94 143
60 95 145
59 94 134
60 95 141
60 95 143
60 95 145
61 96 139
61 96 144
62 97 152
60 95 142
60 95 142
62 97 150
60 95 142
62 97 154
60 95 142
61 97 148
61 96 140
60 96 141
60 95 143
61 96 144
61 96 144
61 96 142
61 96 143
61 96 143
60 95 139
60 95 137
60 95 137
60 95 141
60 96 140
62 97 148
61 97 148
62 98 150
61 96 148
61 96 151
61 96 145
61 96 144
60 94 134
60 94 129
62 97 147
61 96 149
61 96 143
60 95 144
61 96 139
60 95 143
60 95 141
61 96 149
61 96 145
60 94 140
61 96 145
61 96 144
60 94 134
60 95 140
60 95 135
60 95 141
61 95 140
60 94 141
62 97 151
60 94 136
60 95 139
60 94 131
61 97 150
62 97 149
61 96 149
60 95 140
59 94 136
59 94 129
60 95 140
60 94 133
60 93 137
60 95 138
60 95 136
61 96 152
60 93 138
59 93 137
60 96 149
60 94 144
60 95 141
60 94 144
60 94 145
60 94 140
57 90 126
59 93 133
58 91 127
61 94 142
58 90 127
60 93 133
60 93 139
58 92 137
58 91 130
60 93 143
57 89 124
58 90 140
57 89 131
58 90 135
58 89 129
56 88 138
54 82 111
52 80 112
52 79 112
114 131 156
198 211 226
92 91 59
78 80 53
81 82 56
81 81 56
65 68 48
65 69 50
77 80 56
73 76 52
75 80 58
74 80 57
84 89 64
91 93 63
90 95 67
95 99 70
96 99 70
85 90 63
109 111 75
109 111 77
115 116 77
107 109 70
109 111 73
119 120 79
123 122 79
125 124 79
117 117 79
138 136 86
125 125 79
125 125 80
131 130 83
137 135 83
140 137 84
140 138 87
141 139 80
143 142 87
146 143 88
145 142 87
141 139 83
140 138 84
151 148 89
153 149 90
165 160 93
163 158 94
149 147 86
153 150 92
159 155 89
162 157 94
160 156 91
156 153 92
164 159 93
164 160 98
163 158 93
162 156 87
157 154 84
161 157 92
157 153 89
163 159 91
172 166 95
166 161 91
168 162 94
170 164 95
162 158 91
167 162 91
168 163 95
168 162 91
171 165 96
168 162 93
164 159 84
166 161 94
167 162 91
172 166 97
174 167 98
172 166 100
169 163 94
165 159 90
170 164 92
174 167 95
170 164 92
170 164 91
170 165 96
175 168 94
171 165 91
174 168 95
164 158 82
172 166 94
175 168 93
166 161 88
171 165 94
170 164 95
171 165 93
173 166 90
172 165 97
168 162 85
173 166 92
165 159 84
170 164 91
171 164 90
174 167 95
171 164 90
169 161 90
166 160 89
169 163 89
171 164 91
170 163 94
163 157 88
164 159 85
167 161 91
167 162 87
165 158 88
165 159 86
163 158 83
165 159 87
168 162 90
164 159 84
168 162 86
170 163 90
171 165 90
164 158 89
167 161 90
169 162 92
162 156 80
166 160 87
165 159 90
157 151 79
159 153 79
165 159 92
164 158 85
164 157 81
160 154 83
161 155 84
168 162 94
162 156 83
160 154 81
158 151 84
161 155 91
160 154 84
164 158 87
165 160 90
160 154 84
162 155 86
166 160 87
162 156 81
166 159 93
159 153 87
150 145 70
163 156 84
163 157 86
159 153 84
162 156 81
217 233 252
218 234 254
219 234 255
218 234 254
217 233 250
217 232 249
219 234 255
217 233 250
218 234 253
217 233 252
219 234 255
218 234 254
218 233 253
217 233 250
217 232 250
217 233 252
218 233 253
216 232 248
216 232 246
215 231 245
214 230 246
215 231 245
215 231 246
212 228 240
215 231 244
216 232 246
214 230 244
214 230 242
215 231 248
216 232 250
215 231 245
214 230 244
215 231 246
215 231 244
215 231 246
216 232 248
215 231 245
217 233 250
213 230 241
217 233 250
217 233 252
216 232 250
217 233 250
212 229 241
215 231 246
217 232 249
214 230 241
214 230 244
210 226 241
216 231 249
212 227 245
212 228 244
214 230 250
214 230 250
214 230 248
210 226 248
210 226 246
211 227 248
212 228 248
212 228 249
208 224 245
212 228 249
212 228 249
210 225 246
208 224 244
210 225 245
217 233 254
213 229 250
213 229 250
212 227 248
216 232 253
212 228 247
211 227 246
213 229 246
216 231 250
214 230 248
211 227 241
212 228 242
214 230 248
213 228 246
213 229 244
211 228 240
214 230 248
216 231 253
214 230 248
214 231 244
213 229 244
215 231 249
217 233 252
214 230 246
215 231 250
217 233 253
217 233 252
215 231 248
215 232 248
213 230 242
216 232 250
214 231 244
217 233 254
214 230 242
214 231 245
213 229 245
216 232 252
213 230 241
217 233 254
215 232 249
216 232 249
215 231 252
212 229 240
214 231 248
215 231 250
209 226 238
206 223 236
211 227 241
212 228 246
212 228 242
211 228 242
208 224 244
212 228 247
212 228 248
206 222 238
209 225 239
213 229 246
209 226 238
205 222 238
203 220 238
204 222 238
213 229 248
206 223 238
210 227 243
209 226 242
210 227 241
209 225 242
204 221 244
208 225 247
208 224 246
208 225 247
176 194 220
73 104 155
95 121 158
206 224 248
204 221 246
207 225 248
208 225 246
201 218 242
196 213 239
213 229 251
218 234 255
219 234 255
77 107 151
59 94 137
61 96 145
60 94 147
61 96 143
60 95 137
62 98 159
61 96 147
61 96 145
60 94 144
60 95 148
61 97 144
61 96 140
61 96 143
59 94 134
61 97 145
61 96 145
61 96 142
60 94 135
62 97 152
61 95 131
61 96 144
60 95 141
62 97 150
60 94 135
59 94 136
60 95 144
62 97 152
61 96 142
61 97 148
61 96 140
61 96 150
61 96 143
61 96 145
60 95 141
61 97 151
61 97 147
60 95 141
60 95 137
62 97 155
61 97 151
61 96 149
60 95 145
61 96 143
61 96 150
60 94 130
59 93 133
60 94 134
60 95 134
59 94 128
62 97 148
60 94 129
60 94 136
60 95 141
61 96 143
60 95 136
60 94 141
60 94 135
61 96 140
61 96 143
61 95 140
61 95 141
61 96 143
59 94 140
60 95 143
61 95 140
60 94 139
61 97 148
60 94 134
61 96 148
60 94 138
59 93 140
59 93 136
61 95 141
60 94 140
60 94 139
59 92 120
59 94 137
59 92 138
60 95 139
59 92 137
59 91 133
58 92 135
59 93 135
61 94 144
59 93 141
61 95 144
59 92 133
59 91 132
58 91 127
57 89 134
58 91 135
56 88 126
55 86 120
58 89 136
57 89 126
58 89 129
54 83 123
55 84 125
55 85 130
52 81 121
47 71 97
173 183 191
97 95 55
83 83 53
71 72 46
56 60 40
68 72 52
63 67 47
72 78 58
69 74 56
72 77 55
67 71 51
52 60 47
77 80 55
83 88 62
94 96 65
88 91 63
91 94 65
99 104 73
92 95 64
120 121 79
105 107 74
105 107 65
115 115 77
117 117 74
120 121 79
120 120 77
130 127 79
131 130 83
133 131 81
125 126 75
141 138 86
139 137 86
139 137 84
142 140 84
140 139 81
142 141 84
148 145 89
150 147 87
154 150 88
150 146 88
148 145 89
159 155 90
151 148 91
157 153 92
152 148 87
154 150 86
157 152 89
156 152 86
160 155 91
158 153 89
157 153 84
164 159 90
161 158 95
164 158 93
167 162 97
165 160 94
167 162 93
164 159 91
161 156 93
169 163 89
170 164 97
169 164 88
166 161 92
170 164 93
172 166 95
166 162 94
170 163 93
173 166 97
169 164 87
172 166 97
170 164 93
171 165 90
165 160 84
173 166 97
170 165 92
172 166 94
172 165 95
171 165 91
173 166 94
175 168 99
176 168 95
171 164 92
172 166 90
172 166 92
173 167 95
170 163 91
171 165 90
172 165 90
176 169 98
171 164 89
175 168 95
172 165 90
173 166 95
172 165 90
169 162 86
168 162 89
173 166 95
169 163 93
168 162 90
172 165 94
172 165 96
170 163 94
172 166 90
174 166 96
164 159 85
171 164 90
168 161 89
164 158 86
170 163 95
166 160 90
169 162 90
170 164 91
163 157 90
168 161 87
168 161 88
164 157 83
168 161 88
160 155 84
167 160 81
165 159 89
167 160 88
166 160 90
165 160 90
162 156 82
168 161 86
166 160 90
168 162 93
163 157 84
165 158 86
167 161 91
164 158 86
157 151 83
157 151 80
160 153 80
162 155 87
160 153 82
156 151 80
165 159 92
160 154 81
160 154 84
151 146 74
159 154 84
155 149 80
160 154 80
157 151 84
158 153 80
155 150 80
164 157 91
154 149 80
219 234 255
218 233 253
218 234 253
219 234 255
218 234 254
218 234 254
218 233 253
218 234 254
218 234 254
219 234 255
219 234 254
219 234 254
219 234 255
217 233 250
218 233 252
217 233 254
218 233 252
216 232 248
218 233 252
216 232 248
215 230 245
215 231 242
215 231 245
216 232 246
216 232 248
216 232 246
216 232 248
215 231 246
214 230 243
215 231 246
217 232 252
215 231 244
216 232 246
216 232 248
217 232 249
215 231 245
216 232 248
215 231 244
215 231 245
216 232 248
212 229 237
215 231 246
217 233 250
213 229 241
217 233 250
216 232 248
217 232 252
214 230 244
217 233 250
215 231 250
217 232 252
213 228 245
212 228 246
214 229 246
205 220 240
211 227 248
216 232 253
209 225 246
211 227 247
212 228 250
215 231 253
207 223 244
212 227 249
211 227 247
209 225 244
208 224 244
215 231 252
210 225 246
206 222 242
205 221 241
215 231 252
214 229 249
212 228 248
218 233 253
214 230 246
212 228 244
213 230 245
215 231 249
214 230 246
215 231 248
215 231 250
216 232 250
214 230 241
215 231 249
215 231 245
211 228 240
216 232 250
216 232 248
213 229 241
215 231 246
215 231 246
214 230 245
213 229 240
217 233 252
216 232 248
214 231 245
215 231 246
216 232 249
215 232 248
213 229 244
216 232 248
215 231 245
216 232 249
217 233 252
215 231 246
213 230 240
213 230 244
215 231 248
215 232 250
216 232 250
213 230 244
212 228 240
210 226 244
214 230 246
213 229 245
215 231 244
205 221 237
210 226 242
206 223 240
209 225 238
197 214 233
203 220 231
206 223 238
207 224 232
207 223 243
201 219 228
208 225 243
207 224 236
205 222 237
207 224 236
207 223 241
206 223 232
207 224 244
206 223 237
209 225 248
205 221 243
210 227 248
204 220 242
88 115 158
73 104 158
159 178 208
209 226 250
207 224 248
205 222 245
206 222 247
202 219 244
205 221 244
219 234 255
204 220 242
60 95 144
60 96 140
61 96 145
61 96 149
61 96 145
61 96 140
60 96 149
61 96 151
61 96 142
60 95 140
61 97 145
61 96 140
61 96 143
60 95 135
59 93 136
61 95 134
60 95 131
62 97 153
60 95 135
61 96 144
62 97 149
61 95 144
61 96 136
59 93 133
59 94 131
61 97 145
61 96 134
60 95 143
61 95 135
61 96 140
61 95 136
59 94 125
61 97 150
60 95 148
61 96 140
59 93 135
61 96 137
61 96 142
60 95 142
60 96 140
61 95 141
62 97 153
60 95 141
60 95 141
61 97 148
61 96 143
59 94 129
61 96 145
60 95 141
61 96 139
59 93 130
61 96 147
60 95 141
60 95 141
60 94 140
61 96 151
60 95 137
60 95 140
60 95 139
61 96 142
61 96 142
60 94 134
60 95 142
61 96 145
61 95 142
61 96 143
62 96 150
59 93 133
59 93 134
59 93 126
59 93 133
61 96 142
61 96 145
59 93 139
60 95 141
59 94 132
59 92 135
61 95 139
60 94 141
60 94 138
59 93 139
59 93 132
59 92 136
60 94 145
59 93 141
60 93 134
60 94 144
58 91 134
58 92 137
56 89 123
58 90 133
57 88 126
57 89 125
57 88 123
59 92 136
58 91 134
56 87 124
57 89 132
57 88 124
56 85 125
53 82 117
49 75 102
134 141 137
81 80 46
78 79 50
74 75 50
76 78 52
60 63 45
51 58 45
57 63 47
53 60 44
66 73 55
60 68 52
76 81 59
78 84 62
82 87 60
91 94 62
86 90 65
88 92 62
91 94 63
98 101 62
98 100 69
107 107 72
109 111 72
117 118 74
118 119 79
119 120 73
123 123 77
117 118 76
121 121 78
136 134 80
123 123 76
133 132 83
142 140 84
138 136 79
134 134 82
135 135 87
138 136 82
140 138 84
145 143 86
146 143 86
142 141 83
147 145 85
144 142 82
159 155 92
158 154 91
153 149 89
156 152 88
161 156 91
155 152 86
161 156 91
158 155 87
164 159 95
164 159 88
160 156 91
162 157 86
161 156 87
161 157 87
164 158 85
164 159 84
170 164 96
163 158 89
167 161 91
170 163 91
169 163 91
163 159 83
163 159 90
168 162 92
172 165 92
170 164 95
171 164 89
172 166 92
170 164 86
171 165 91
175 168 93
171 164 91
172 166 95
168 162 89
173 166 94
169 163 89
172 164 92
169 163 89
169 163 88
171 165 92
172 166 93
173 167 96
173 166 95
171 164 91
169 163 88
166 160 86
171 164 89
167 162 89
176 168 99
171 164 91
170 164 86
173 166 95
170 163 89
167 161 87
169 163 90
170 163 88
173 165 93
168 161 87
169 163 89
172 166 90
171 164 87
169 162 84
171 164 90
167 160 87
166 160 89
168 162 82
165 159 87
165 160 84
167 161 84
168 162 85
166 159 85
169 163 87
171 163 93
163 157 87
165 159 86
159 153 78
161 156 82
161 155 84
165 158 85
165 158 86
165 158 84
165 158 87
163 157 82
157 151 80
159 154 80
165 159 90
168 161 87
164 158 85
165 160 98
164 157 84
163 157 87
162 157 84
167 160 90
157 151 84
166 159 86
163 158 90
161 155 84
171 164 93
161 155 82
162 156 87
161 155 86
161 153 84
163 157 90
153 148 78
158 152 79
160 153 88
156 150 83
219 234 255
219 234 255
219 234 255
219 234 254
219 234 254
219 234 255
218 234 255
219 234 254
218 234 253
218 233 255
219 235 255
219 234 254
219 234 254
219 234 254
219 234 255
219 234 254
219 235 255
219 234 254
217 233 250
218 234 253
217 233 252
217 232 250
216 231 248
217 232 248
214 230 244
218 233 252
216 232 246
216 232 248
217 233 249
216 231 245
216 231 246
216 232 244
216 232 246
217 232 248
214 230 241
217 233 249
217 233 249
217 232 248
217 232 248
217 232 250
217 233 249
217 233 250
216 232 246
214 230 241
215 231 245
218 233 250
216 231 248
216 232 248
217 233 253
214 230 244
215 230 249
216 232 251
217 233 252
210 226 246
213 228 249
210 225 244
210 226 247
213 228 250
213 228 249
212 228 248
215 230 251
213 228 248
209 225 246
214 229 250
215 230 250
214 229 249
213 228 249
214 229 250
214 229 249
216 231 253
212 228 249
214 229 250
216 231 252
212 228 246
215 231 248
214 229 246
211 227 240
216 231 249
217 232 252
218 234 254
216 232 245
216 231 248
211 227 236
217 232 248
215 231 245
215 230 246
217 233 253
215 231 242
216 231 248
215 231 246
216 231 245
217 233 250
216 232 248
215 231 245
215 231 244
215 231 245
216 232 249
216 232 248
215 231 242
215 231 245
215 232 246
217 233 249
213 229 236
215 231 244
215 231 245
216 232 245
218 234 254
216 232 248
215 231 248
215 231 246
214 230 244
210 226 241
213 229 244
212 228 247
215 231 251
214 230 244
209 225 242
206 222 240
205 221 236
206 223 236
209 225 241
206 223 233
210 226 243
207 224 240
207 223 241
208 225 244
204 220 240
207 223 236
206 223 238
204 221 233
205 221 236
209 225 244
211 227 244
202 218 236
206 222 244
207 223 244
209 225 246
207 224 245
120 142 172
62 95 145
125 147 184
208 225 248
206 223 246
209 225 248
209 226 248
198 214 238
200 216 239
219 234 255
199 215 239
60 95 144
60 96 142
60 95 131
60 95 139
61 96 140
60 95 143
61 96 145
59 94 134
60 94 133
62 97 145
61 97 152
60 95 142
61 96 140
59 94 140
61 97 147
62 97 153
60 94 135
60 95 131
61 97 143
61 97 145
62 97 150
61 96 144
62 97 148
62 97 140
61 96 143
61 96 140
62 98 152
61 95 139
61 96 143
61 96 144
59 94 131
60 95 145
61 96 149
61 96 142
61 96 135
61 96 142
60 95 134
62 97 154
60 94 134
61 96 143
59 94 139
61 96 144
61 96 147
60 95 133
60 95 142
60 95 140
60 94 131
61 96 141
60 95 137
60 95 143
61 96 142
60 94 137
61 96 140
60 95 140
61 97 149
60 95 139
60 94 131
60 95 142
60 94 134
61 96 141
61 96 142
60 95 138
60 94 140
60 94 142
59 94 137
60 95 137
58 92 126
59 94 133
59 93 135
59 93 133
60 95 140
61 96 149
60 94 143
61 95 144
59 93 133
60 94 136
62 97 150
61 95 144
58 92 133
62 96 141
57 91 134
59 92 128
59 92 129
57 90 121
60 93 138
59 92 132
58 92 135
57 89 130
59 92 137
59 92 137
59 93 140
59 92 132
57 89 128
56 88 126
57 88 128
55 85 121
55 85 123
53 82 117
52 81 115
50 78 108
52 81 124
49 75 101
105 109 87
82 81 51
78 80 55
76 76 48
48 53 41
48 52 37
51 56 40
64 70 49
57 65 50
61 68 52
62 69 52
56 62 44
68 74 54
81 84 57
80 85 60
105 108 73
104 106 69
106 107 70
105 107 73
93 95 57
108 109 68
119 119 74
111 112 71
122 122 82
122 122 77
118 120 75
132 131 79
130 129 78
128 127 80
136 135 83
136 135 79
136 134 77
130 129 82
143 141 82
132 130 77
142 139 83
146 144 86
149 146 85
153 149 87
144 140 81
152 148 85
150 147 89
155 151 88
153 149 82
155 151 84
161 157 91
160 155 87
155 151 85
154 150 85
156 152 86
166 160 89
164 158 90
160 156 91
170 164 94
161 156 83
158 154 85
171 165 98
168 162 89
162 158 89
169 163 91
165 159 93
171 165 93
161 156 82
171 166 91
169 164 90
164 158 81
170 164 94
171 165 95
167 162 91
169 163 89
169 162 93
171 164 89
166 161 92
172 166 93
171 165 91
172 165 92
169 164 96
169 164 91
176 168 95
173 166 90
173 167 94
174 168 97
171 165 93
168 162 90
169 164 90
166 160 81
170 164 85
171 165 90
168 162 83
169 163 88
170 164 93
169 163 91
167 162 87
169 163 87
168 162 88
170 164 90
167 161 90
167 161 88
165 159 87
171 164 89
171 164 89
168 160 84
167 161 88
166 160 84
170 163 94
170 164 89
169 161 86
170 164 88
163 158 84
168 161 87
166 160 90
170 163 89
166 159 86
167 161 86
173 165 93
169 162 92
163 157 87
160 155 80
168 161 88
166 159 85
162 156 84
165 159 87
167 160 88
162 155 86
168 160 88
153 148 76
166 160 85
162 156 89
164 157 86
159 153 84
165 158 87
163 156 80
162 155 88
161 155 80
157 151 82
155 149 79
162 155 84
158 151 82
161 156 84
154 148 80
151 146 69
153 148 80
158 153 83
157 151 80
157 151 84
161 155 84
149 143 77
150 145 81
154 148 75
220 235 255
220 235 255
219 235 255
220 235 255
220 235 255
220 235 255
220 235 255
220 235 255
219 234 254
219 234 254
220 235 255
220 235 255
219 234 253
220 235 255
217 233 253
219 234 254
219 234 254
220 235 255
219 234 254
218 233 254
220 235 255
218 233 253
218 233 252
219 235 255
219 234 254
218 234 252
216 232 248
217 233 252
216 232 248
218 233 249
217 233 250
218 233 250
217 233 248
218 233 252
216 232 246
217 233 248
216 231 244
215 231 242
217 233 248
217 233 249
216 231 244
218 233 250
216 232 244
215 231 242
218 233 252
218 234 252
215 231 246
217 232 250
217 232 249
213 228 244
217 233 251
214 230 248
210 226 249
212 227 248
215 231 252
211 226 247
210 225 246
213 228 248
211 226 247
210 225 248
211 226 248
210 225 246
211 226 248
211 226 248
214 229 250
207 222 243
215 230 251
211 226 247
215 230 251
213 228 248
213 229 251
216 231 252
214 229 250
215 230 250
218 234 253
214 229 247
216 231 249
218 234 253
217 233 249
215 230 244
217 232 246
216 231 246
216 232 246
218 233 252
217 232 249
217 233 249
216 232 249
216 231 246
215 231 244
217 233 250
217 233 249
216 231 249
216 232 248
217 233 249
216 232 245
218 233 252
216 232 246
217 233 250
216 232 246
216 232 248
215 231 246
217 232 249
216 231 248
216 232 246
216 231 248
217 232 249
216 232 245
216 232 246
216 232 245
216 232 248
214 230 242
209 225 238
218 233 252
208 224 240
214 229 245
209 225 242
211 227 241
212 227 247
207 223 240
208 224 242
211 227 241
207 223 243
205 221 236
209 225 242
206 222 237
210 226 238
202 219 233
209 225 241
207 223 236
211 226 248
207 223 240
211 227 246
207 223 245
211 227 248
201 217 236
209 225 246
212 228 248
206 222 245
124 146 182
69 101 149
71 103 157
203 219 245
210 227 250
211 227 249
199 216 240
203 218 241
194 211 233
217 232 254
191 208 230
61 96 150
60 95 139
61 96 140
60 94 135
61 96 141
61 96 144
61 96 142
60 96 145
60 95 136
61 96 135
61 97 151
60 95 141
61 97 152
59 93 126
61 96 140
60 95 141
61 95 137
61 96 143
60 95 141
62 97 144
60 95 147
60 94 137
59 93 128
60 95 143
60 96 136
61 96 137
61 96 141
60 95 144
61 96 142
60 95 135
60 95 140
61 97 141
61 96 140
59 94 131
61 96 137
60 95 139
61 96 139
61 96 144
61 96 143
59 94 130
61 96 143
60 95 133
59 94 130
61 97 147
61 95 145
60 95 135
61 96 139
60 95 144
60 95 136
61 96 142
60 94 126
60 95 137
60 95 140
60 94 141
61 96 148
60 94 136
61 95 136
60 95 135
61 96 148
59 93 121
60 95 140
60 95 135
61 95 143
61 95 142
59 94 131
60 94 134
60 94 141
59 93 134
60 95 136
61 96 150
60 94 140
60 95 146
61 96 144
61 94 142
60 94 132
60 94 145
61 95 131
59 93 133
60 94 139
60 94 144
59 93 139
60 94 133
60 93 140
58 92 128
59 91 130
59 93 145
57 90 132
57 90 124
59 93 143
57 90 128
56 88 126
58 90 133
59 91 127
57 88 122
58 90 126
59 90 130
55 86 130
55 84 113
53 82 121
50 77 104
53 81 116
50 77 107
82 86 63
85 84 46
63 64 42
72 73 47
48 53 37
61 63 42
51 57 43
58 62 44
62 67 49
51 58 41
67 71 51
67 75 53
63 69 51
80 83 56
82 86 59
88 92 61
83 87 59
100 102 66
96 99 57
108 109 66
105 107 64
107 108 66
110 112 66
109 110 69
130 129 80
121 121 71
117 118 73
122 123 79
128 128 78
137 134 82
133 132 82
133 131 78
138 135 80
145 141 83
127 126 68
144 142 80
141 139 79
146 143 85
139 137 79
150 146 87
142 140 81
145 143 83
147 145 82
153 149 83
151 147 82
152 149 86
159 155 86
153 150 84
162 158 92
159 155 89
160 155 90
163 157 86
162 157 87
161 157 89
157 152 83
157 152 79
160 155 87
165 160 84
163 158 86
159 155 82
164 159 86
166 160 83
164 159 86
167 161 86
165 160 91
163 158 87
169 163 95
166 161 86
167 161 93
170 164 87
168 162 88
170 164 91
173 166 93
171 165 89
170 165 94
170 164 90
170 164 91
168 162 90
170 163 89
173 166 93
169 163 89
169 162 88
174 166 90
168 162 90
172 166 87
165 159 79
174 167 93
168 163 85
171 165 89
169 163 86
172 166 90
163 159 83
165 159 78
169 163 89
169 164 87
169 162 93
164 158 83
165 160 87
170 163 86
164 159 88
166 161 84
168 162 89
165 160 79
169 162 85
165 159 89
169 162 90
169 164 89
163 158 82
170 163 80
163 157 83
164 157 87
166 159 85
164 158 86
170 164 89
168 162 87
167 160 84
166 160 85
164 157 86
167 160 89
167 160 91
160 155 87
166 161 87
163 157 84
167 160 87
162 157 86
170 162 86
163 156 84
161 154 90
160 154 84
156 151 74
164 157 81
158 153 81
158 153 80
161 155 84
158 152 81
161 155 82
168 161 90
157 150 77
158 153 78
153 148 78
155 150 79
163 157 85
163 156 87
163 157 90
158 152 79
154 148 73
158 152 74
151 144 76
158 151 81
220 235 255
220 235 255
220 235 255
220 235 255
220 235 255
220 235 255
220 235 255
219 234 254
219 234 255
220 235 255
220 235 255
220 235 255
219 234 255
220 235 255
219 234 254
220 235 255
220 235 255
220 235 255
218 233 254
218 233 253
218 233 254
220 235 255
219 234 254
219 234 255
219 234 255
220 235 255
219 234 254
220 235 254
220 235 254
219 234 253
220 235 255
218 233 250
216 231 248
215 231 244
217 233 248
218 233 250
219 234 252
216 232 244
216 232 246
217 232 245
217 233 248
218 233 249
217 232 245
218 234 252
218 233 249
216 232 245
218 233 248
213 228 246
214 229 246
213 229 246
215 231 248
214 229 250
210 226 246
212 228 249
210 226 246
212 228 249
212 227 248
215 230 251
207 222 242
218 233 254
213 229 250
214 230 251
211 227 248
208 223 243
210 225 246
209 224 246
211 226 246
216 231 251
212 227 248
213 228 249
212 228 248
212 228 248
214 229 250
210 226 246
212 227 246
218 233 250
217 232 248
215 231 246
217 233 248
213 229 238
215 231 244
216 232 245
218 233 250
217 232 249
218 234 252
218 233 250
217 232 246
215 231 242
218 233 250
216 232 246
216 232 244
217 233 249
218 233 249
218 233 250
216 231 248
216 231 245
217 232 248
218 233 250
215 231 245
216 231 244
217 232 246
218 233 252
216 232 245
218 233 250
217 232 246
217 232 248
217 233 248
217 232 248
217 233 249
215 231 246
216 231 250
215 231 244
209 224 238
217 232 250
216 231 249
211 225 237
210 226 242
214 230 242
213 229 244
213 228 244
205 221 234
212 228 239
209 225 239
208 224 238
206 222 238
211 227 244
205 221 238
209 225 242
213 228 244
208 224 240
211 227 248
214 229 248
212 228 248
202 217 239
213 228 249
212 228 248
210 225 246
211 226 248
157 176 204
71 101 133
76 107 163
180 197 223
211 227 250
214 230 252
209 225 246
203 219 242
199 215 241
214 229 250
162 180 207
60 95 139
59 93 134
60 95 129
60 95 139
60 94 129
60 95 137
61 96 146
60 95 136
60 95 143
60 95 139
60 95 141
60 95 144
61 96 144
60 95 141
60 96 140
61 96 143
60 95 136
61 96 141
60 95 143
61 95 137
60 95 133
61 96 141
60 95 140
61 96 147
60 95 140
61 96 150
62 97 140
59 94 133
60 95 135
59 94 134
60 95 135
60 95 130
60 95 136
59 94 140
60 95 136
59 94 140
60 95 136
59 93 128
60 95 137
61 96 144
59 94 121
60 95 140
60 95 133
61 96 144
61 96 140
60 95 136
60 95 137
60 95 136
60 95 141
60 94 135
59 94 133
60 95 136
59 94 130
60 95 139
60 94 134
59 93 129
60 94 128
60 94 139
59 93 130
60 95 143
59 94 137
60 94 128
59 93 131
60 95 142
59 93 134
60 95 140
59 93 131
60 94 132
60 94 135
60 95 135
60 95 142
62 97 147
59 93 128
59 93 142
57 90 128
59 92 137
59 93 129
58 91 130
60 94 146
59 92 131
58 91 132
57 90 134
58 91 144
58 91 129
58 91 130
58 91 126
58 92 138
55 87 114
58 92 132
57 90 133
55 87 123
57 88 121
58 91 130
59 93 142
57 89 135
58 90 132
58 90 131
55 85 125
53 82 117
54 84 119
51 78 102
49 75 103
87 90 68
86 85 52
58 59 38
57 59 41
50 55 39
46 52 36
64 66 43
59 63 43
51 58 41
55 62 45
64 69 48
75 80 56
79 84 58
82 85 57
74 79 51
85 89 63
97 99 62
86 90 64
89 93 59
103 104 66
113 113 71
112 113 68
116 117 71
113 115 72
111 112 66
118 118 74
119 119 69
116 118 72
123 122 69
137 134 80
126 126 73
132 131 76
131 129 73
133 131 73
139 136 80
137 136 80
148 144 85
141 140 78
154 150 87
148 145 78
142 140 84
148 145 82
154 150 81
155 151 88
150 147 81
153 149 82
155 151 82
153 150 87
154 150 83
162 157 83
161 156 88
164 158 88
155 150 81
167 160 92
163 158 82
157 153 81
163 158 86
164 159 88
166 160 91
166 160 90
169 163 93
169 162 89
167 160 84
170 163 91
172 165 93
167 161 83
171 164 88
172 166 93
164 159 79
166 161 86
167 162 89
170 164 88
171 164 91
164 159 83
173 166 89
167 162 87
174 167 93
171 165 89
168 162 89
167 162 82
172 166 93
173 166 90
169 163 90
169 164 86
174 167 91
171 164 95
168 162 86
169 163 88
172 165 86
170 164 90
171 164 90
165 159 83
168 161 84
176 169 97
170 163 85
170 164 87
167 161 86
168 162 87
166 160 84
171 164 84
169 163 88
171 165 88
172 165 92
171 165 85
163 158 82
166 160 86
166 159 86
166 159 84
166 160 90
172 165 93
163 156 85
160 155 85
162 156 83
160 155 81
164 158 82
164 159 84
172 164 88
165 158 86
161 155 80
171 164 87
157 152 82
164 157 81
166 161 84
161 155 85
161 154 79
167 161 86
162 156 88
161 155 81
168 162 89
165 158 83
162 154 85
158 152 84
158 152 76
159 153 80
155 150 77
165 157 87
157 151 77
164 157 81
161 154 83
165 158 86
162 156 88
166 159 90
156 150 80
153 146 78
161 155 84
158 152 79
154 149 80
161 155 80
158 152 81
219 234 255
219 234 255
220 235 255
220 235 255
220 235 255
220 235 255
220 235 255
220 235 255
220 235 255
220 235 255
220 235 255
220 235 255
220 235 255
220 235 255
219 234 255
219 234 255
219 234 255
220 235 255
220 235 255
220 235 255
218 233 254
220 235 255
220 235 255
219 234 254
219 234 254
219 234 254
219 234 254
220 235 255
220 235 255
220 235 255
220 235 255
219 234 254
219 234 255
220 235 255
221 235 255
220 235 255
220 235 255
220 235 255
219 234 252
219 234 253
219 234 250
220 235 254
218 234 250
218 233 248
217 232 246
218 233 249
215 230 246
215 230 248
218 233 252
219 234 252
216 231 250
211 226 244
212 227 248
213 228 247
215 230 250
214 229 250
216 231 252
216 231 252
215 230 250
212 227 248
213 228 249
214 229 249
214 229 248
216 231 252
208 223 244
213 228 248
218 233 253
208 223 243
213 228 248
216 231 252
213 228 248
215 230 250
211 226 248
208 223 244
214 229 250
214 230 248
218 233 250
215 231 242
218 233 249
216 232 245
215 231 240
216 231 242
215 231 241
218 233 250
217 233 246
217 232 246
217 233 248
218 233 249
217 232 245
217 232 246
216 231 245
218 233 249
214 230 238
218 233 249
217 232 245
217 233 248
218 233 249
218 233 249
218 233 248
216 231 242
218 233 250
217 233 248
217 232 245
216 232 244
216 232 242
216 232 245
218 233 249
215 230 240
215 231 243
213 229 244
208 224 233
213 229 244
215 230 244
211 227 240
205 220 231
207 223 232
207 223 237
207 223 234
211 227 242
203 220 229
212 227 242
215 231 248
210 226 244
214 229 246
211 226 242
209 224 243
206 222 240
211 226 248
215 230 251
208 224 244
209 225 245
211 227 247
206 222 246
205 221 241
208 223 244
211 227 249
214 229 251
211 226 248
168 185 210
65 97 129
67 100 149
154 173 202
209 224 246
209 224 245
207 222 244
206 222 244
203 219 242
208 224 245
157 175 202
59 93 140
59 94 133
59 94 145
60 95 147
60 96 143
60 95 149
61 96 150
60 95 135
60 95 136
60 95 137
59 94 134
59 93 129
60 95 140
61 96 140
58 92 130
60 95 136
60 95 137
60 95 140
62 97 149
60 95 140
60 95 133
59 95 137
60 96 133
60 96 140
62 97 154
60 95 137
60 95 134
60 95 131
60 95 141
60 95 137
61 96 136
59 94 128
62 97 145
60 94 129
59 93 136
60 94 139
60 95 133
60 95 135
60 95 136
61 96 139
60 95 140
59 93 124
60 94 129
60 96 140
61 95 142
61 95 137
60 95 140
59 94 135
61 97 142
60 95 133
60 95 139
59 93 134
59 94 134
59 94 136
60 95 133
60 95 131
58 91 136
61 95 141
61 96 140
60 95 139
59 93 130
60 95 138
59 93 130
60 94 134
61 96 139
59 93 134
59 93 132
59 93 134
60 94 135
60 95 135
60 94 139
60 94 133
60 95 146
59 93 125
59 93 132
58 91 130
61 95 139
59 93 133
59 93 142
60 93 145
60 93 139
60 94 142
59 92 135
59 92 132
57 89 125
60 93 140
58 89 125
58 92 130
57 89 121
58 91 125
56 88 127
58 91 127
58 91 137
58 90 131
57 89 131
56 87 118
55 85 120
54 84 123
55 83 107
51 78 102
49 75 100
49 75 100
70 77 73
78 77 44
61 62 37
45 49 26
64 65 44
48 54 38
51 57 42
57 63 44
66 71 50
53 60 45
66 70 47
63 69 48
87 91 59
81 84 54
72 77 53
85 88 53
81 85 54
94 96 61
102 105 68
112 114 76
101 103 65
109 109 68
108 109 69
106 107 63
122 122 69
126 124 71
125 124 68
128 128 77
126 124 73
126 125 74
137 135 78
133 132 78
135 133 76
140 137 79
138 136 82
148 145 88
147 144 85
142 141 84
142 140 81
146 143 83
151 148 86
151 147 81
149 145 81
146 143 81
149 146 81
152 148 78
153 149 85
150 146 76
154 150 78
146 143 83
158 154 79
160 155 92
161 157 87
158 153 84
159 155 85
164 158 87
154 150 78
156 152 77
170 164 95
166 160 86
169 163 89
164 158 86
169 162 86
162 157 85
162 156 85
167 161 82
170 163 82
164 159 88
163 158 83
167 160 89
167 161 84
167 161 89
167 161 89
170 163 90
166 160 85
172 165 92
168 163 87
171 165 92
174 167 90
172 166 94
172 165 85
172 165 90
168 162 87
172 164 87
168 163 89
172 165 91
172 165 93
171 165 88
173 165 93
167 161 87
173 166 89
170 164 87
168 162 80
167 161 84
170 163 88
169 162 84
168 161 87
170 164 84
168 162 87
169 163 84
164 158 78
171 164 90
171 164 88
167 161 84
169 162 93
166 159 85
165 159 87
166 160 80
165 159 83
167 161 85
173 166 93
166 160 80
165 158 86
172 165 92
165 158 84
170 162 87
161 156 81
165 158 85
174 166 98
169 163 90
164 158 84
161 154 81
152 147 75
165 158 83
164 157 84
166 160 84
163 157 84
160 154 81
156 150 73
159 152 80
165 158 91
154 148 80
160 154 83
165 158 82
164 156 85
154 148 78
158 152 84
156 150 82
162 156 86
160 154 79
162 156 80
162 155 87
163 156 87
159 153 84
153 147 79
164 157 81
154 148 75
157 150 80
155 148 75
221 235 255
221 235 255
221 235 255
221 235 255
221 235 255
221 235 255
221 235 255
221 235 255
220 234 255
221 235 255
221 235 255
221 235 255
221 235 255
221 235 255
221 235 255
221 235 255
221 235 255
221 235 255
221 235 255
220 234 255
221 235 255
220 234 254
220 234 255
220 234 254
221 235 255
221 235 255
221 235 255
220 234 255
221 235 255
220 234 255
221 235 255
221 235 255
221 235 255
221 235 255
221 235 255
221 235 255
221 235 255
221 235 255
221 235 255
221 235 255
221 235 255
221 235 255
221 235 255
221 235 255
221 235 255
221 235 255
220 234 254
220 234 254
218 233 254
218 233 254
213 228 250
217 232 252
212 227 246
216 231 251
215 230 250
207 222 241
213 228 250
217 232 252
213 228 249
216 231 251
213 228 249
210 225 243
211 226 247
215 230 252
212 227 248
209 224 245
217 232 253
214 229 250
213 228 248
209 224 244
217 232 252
214 229 248
210 225 244
214 229 248
210 225 244
217 232 253
219 234 252
218 233 249
220 235 254
217 232 246
219 234 252
219 234 252
218 233 248
219 234 250
218 233 248
218 233 249
220 235 254
218 233 246
219 234 250
219 234 250
220 234 253
220 234 252
218 233 248
218 233 248
218 233 249
219 234 250
219 234 253
218 233 248
219 234 250
218 233 246
219 234 250
218 233 249
218 233 249
219 233 250
219 234 250
217 232 245
219 234 250
219 234 252
219 234 252
217 231 245
212 227 245
216 232 248
216 231 250
213 228 248
206 221 235
217 231 249
210 225 244
216 231 252
216 231 250
216 231 251
214 229 250
213 228 249
210 225 247
208 223 246
212 227 248
209 224 243
213 228 250
217 232 252
210 225 246
211 226 248
215 230 252
210 225 247
216 231 252
214 229 250
215 230 252
204 220 243
208 223 244
213 228 248
168 185 211
65 96 136
64 98 145
138 158 192
210 226 248
214 229 251
214 229 250
207 222 244
196 212 234
206 221 241
160 178 204
60 95 141
60 94 140
60 95 145
59 94 121
61 96 141
61 96 137
60 95 136
59 94 131
60 94 135
60 94 129
61 96 142
60 95 136
60 94 140
60 95 136
61 96 141
61 96 142
59 93 131
59 94 125
61 97 141
60 95 130
60 95 141
59 94 133
61 96 140
61 96 142
60 95 140
60 95 141
60 95 140
59 94 135
60 95 133
61 96 137
60 95 140
62 97 145
59 93 125
61 95 145
60 95 143
60 95 137
61 96 137
59 92 122
60 95 134
61 95 137
61 96 142
61 95 139
61 96 136
60 94 130
59 94 128
60 95 140
60 95 142
60 95 147
61 96 139
60 94 133
60 95 140
60 95 135
60 94 133
61 96 141
59 94 137
58 92 133
61 95 140
60 95 150
59 93 129
61 96 148
59 94 130
60 94 136
60 94 138
59 93 139
60 95 145
60 93 131
59 93 133
60 94 128
60 94 135
60 94 137
60 94 136
61 95 141
61 96 140
61 96 144
59 93 127
59 93 128
58 92 127
59 92 136
58 91 128
59 92 132
58 92 130
60 93 134
60 95 139
58 91 132
59 93 140
58 91 132
59 92 130
58 91 127
56 88 125
58 90 124
57 89 116
56 88 129
56 88 120
59 91 128
54 85 113
55 85 121
54 85 111
55 85 118
55 84 116
55 84 109
50 77 103
50 76 113
67 78 78
84 82 48
67 68 42
41 45 30
48 51 34
49 54 37
39 45 33
55 60 39
49 56 39
63 68 46
58 63 41
59 66 45
71 76 52
74 79 56
89 93 60
70 75 49
97 100 64
84 87 57
91 94 60
92 94 61
103 104 65
103 105 64
106 106 63
118 118 69
107 107 62
121 120 70
115 116 73
131 130 70
133 131 73
122 121 72
135 134 76
132 129 73
135 133 80
132 130 71
135 133 74
144 141 82
139 137 81
146 143 83
146 143 78
140 137 76
150 146 84
155 150 80
149 146 82
138 136 66
150 146 81
160 155 90
156 152 82
152 147 81
154 150 80
151 147 79
159 155 85
157 153 88
160 155 86
161 156 83
163 157 83
164 158 86
161 156 88
159 154 80
162 157 84
159 155 79
170 164 95
165 160 86
167 161 89
163 158 79
168 163 91
165 160 85
165 160 85
167 161 84
165 159 85
168 161 82
169 162 87
167 162 83
167 162 88
168 163 88
165 160 84
170 164 84
170 164 88
172 166 94
171 164 91
170 163 87
171 164 83
165 160 82
170 164 85
164 159 78
168 162 87
166 161 83
168 162 82
171 165 88
167 161 86
171 164 83
165 160 82
170 164 84
172 165 92
167 160 86
170 163 85
169 163 85
164 158 79
169 162 87
166 159 81
171 164 90
171 164 86
169 162 87
159 154 80
167 161 84
167 161 84
162 158 77
173 165 91
169 161 87
166 160 83
161 155 79
166 159 82
170 163 91
162 156 84
165 160 84
164 158 80
163 157 83
159 153 84
167 160 81
165 159 82
167 161 83
167 160 84
159 153 73
163 157 81
160 154 80
163 156 79
161 155 80
161 154 86
166 160 86
164 157 85
166 159 79
162 156 82
167 160 86
160 154 81
159 153 80
159 153 79
164 158 83
158 152 80
162 155 80
155 149 80
167 160 85
161 154 81
161 154 80
164 157 84
157 151 78
158 152 82
158 150 84
156 149 81
151 145 67
158 152 80
221 235 255
221 235 255
221 235 255
221 235 255
221 235 255
220 234 255
221 235 255
221 235 255
221 235 255
221 235 255
221 235 255
220 234 254
221 235 255
220 234 255
221 235 255
221 235 255
221 235 255
220 234 254
221 235 255
220 234 255
220 234 255
221 235 255
221 235 255
221 235 255
221 235 255
221 235 255
220 234 254
221 235 255
221 235 255
221 235 255
221 235 255
221 235 255
221 235 255
221 235 255
221 235 255
221 235 255
221 235 255
221 235 255
221 235 255
221 235 255
221 235 255
221 235 255
221 235 255
221 235 255
221 235 255
220 234 255
218 232 252
217 231 251
219 233 254
219 233 254
218 232 253
217 231 252
212 227 248
214 228 249
214 228 248
216 230 250
212 227 248
219 233 254
216 230 250
210 225 244
213 228 248
215 229 248
218 232 253
209 224 246
217 231 252
215 230 250
210 225 249
212 227 249
210 225 245
213 228 248
215 229 250
216 230 250
219 233 253
219 233 253
214 229 248
214 228 249
221 235 255
221 235 255
221 235 255
221 235 255
221 235 255
221 235 255
221 235 255
221 235 255
221 235 255
221 235 255
221 235 255
221 235 255
221 235 255
221 235 255
221 235 255
221 235 255
221 235 255
221 235 255
221 235 255
221 235 255
221 235 255
221 235 255
221 235 255
221 235 255
221 235 255
221 235 255
221 235 255
221 235 255
221 235 255
221 235 255
221 235 255
220 234 255
221 235 255
217 231 252
215 229 247
217 232 253
216 230 251
217 231 252
216 230 248
214 228 247
218 232 252
211 226 247
205 220 240
208 223 244
217 231 252
210 225 246
213 227 248
212 226 248
209 224 245
211 226 248
216 230 252
216 230 250
216 230 250
216 230 251
210 225 245
214 229 249
208 223 244
215 230 250
210 225 246
208 223 245
213 228 250
209 224 246
180 196 218
70 102 150
66 98 133
115 136 171
213 228 249
214 229 250
205 220 241
207 222 242
194 210 231
207 222 244
156 174 195
60 95 137
61 95 133
60 95 141
61 96 147
59 94 137
59 94 129
60 95 135
60 95 136
59 94 134
60 94 130
60 94 124
61 96 139
61 97 142
59 93 129
62 97 152
60 95 140
59 94 128
61 95 140
61 97 150
60 95 142
60 95 139
60 95 141
61 96 141
60 95 134
59 94 128
60 94 143
61 96 143
59 93 131
61 96 139
62 97 145
59 93 129
59 93 135
59 94 136
60 94 140
61 96 149
59 93 134
61 96 141
61 96 143
59 94 126
60 94 130
59 94 126
60 95 139
60 95 135
61 96 142
60 94 125
60 95 142
58 92 128
61 95 139
61 96 143
61 97 148
60 94 137
61 95 142
61 96 141
61 96 143
59 94 135
60 95 142
60 95 141
61 96 140
62 96 144
60 94 139
60 94 133
59 93 125
60 94 139
61 95 139
59 93 131
60 94 131
58 92 131
59 93 135
59 93 136
60 94 133
59 93 131
62 96 142
59 93 121
59 92 132
59 93 133
60 94 131
59 92 133
58 90 123
59 93 134
60 93 137
57 90 125
59 92 128
60 94 140
60 94 134
56 88 123
59 92 132
58 90 119
59 93 137
57 91 125
57 89 124
59 92 141
57 90 134
57 88 115
56 87 121
55 86 118
56 86 122
55 86 124
52 82 118
53 82 110
54 83 119
53 81 109
52 78 115
64 73 64
63 63 36
59 61 36
59 60 33
47 52 34
34 40 31
48 54 38
49 54 35
54 61 40
60 64 40
58 63 44
71 75 49
69 74 45
73 76 46
64 70 41
79 83 52
76 80 49
96 98 61
100 103 61
97 100 60
110 110 68
96 98 61
109 111 67
121 121 66
112 113 64
108 110 68
109 108 61
116 115 64
132 130 75
122 120 68
135 133 77
131 129 74
134 132 80
132 131 72
137 134 75
143 140 83
139 137 72
135 132 66
144 142 76
153 149 84
148 144 78
150 146 84
153 148 78
148 145 79
158 153 85
151 147 84
155 151 84
151 147 77
155 150 83
153 148 78
158 153 78
160 155 86
158 152 84
160 155 86
158 154 80
158 154 79
163 157 88
172 164 92
163 157 81
167 161 88
163 158 86
164 158 85
163 158 82
169 162 86
171 164 91
164 159 85
169 162 87
166 161 84
164 158 86
165 159 84
168 162 94
164 158 81
166 160 82
168 161 82
171 165 87
167 161 79
166 161 83
174 167 90
164 159 78
169 164 83
172 165 90
172 165 86
169 163 87
169 162 81
171 164 84
166 161 80
164 159 80
170 163 87
171 163 84
170 163 90
173 166 87
167 162 84
171 163 87
170 163 86
170 163 82
166 159 78
166 161 86
169 163 87
166 160 84
168 161 85
169 161 89
170 164 89
164 157 84
166 160 84
168 162 91
168 161 86
170 163 88
165 158 87
164 158 82
163 157 76
165 159 76
163 157 84
169 162 87
162 156 84
166 160 85
165 159 80
160 154 76
159 153 83
164 158 87
166 160 79
164 157 84
165 159 84
157 152 79
161 155 78
159 154 79
160 154 84
164 158 82
162 156 80
164 158 84
169 163 85
162 156 81
159 153 85
158 151 80
165 159 88
164 158 83
162 156 83
153 148 73
161 155 80
158 153 81
156 150 80
156 150 78
162 155 78
158 152 82
155 149 81
154 149 73
164 158 82
158 151 84
156 150 76
155 150 71
221 236 255
221 236 255
221 236 255
221 236 255
221 236 255
221 236 255
221 236 255
220 235 254
221 236 255
221 236 255
221 236 255
220 235 255
220 234 254
221 236 255
221 236 255
221 236 255
221 236 255
221 236 255
221 236 255
221 236 255
221 236 255
221 236 255
221 236 255
220 235 254
220 234 254
221 236 255
221 236 255
220 234 254
219 234 254
221 236 255
221 236 255
221 236 255
221 236 255
221 236 255
221 236 255
221 236 255
221 236 255
221 236 255
221 236 255
221 236 255
221 236 255
221 236 255
221 236 255
221 236 255
221 236 255
219 233 253
217 232 252
217 231 251
220 235 255
218 233 252
209 223 242
216 231 252
211 226 247
215 229 250
215 230 250
211 226 246
219 233 254
216 230 250
210 224 244
215 230 251
216 230 250
218 233 253
217 232 252
218 233 252
218 232 252
214 229 250
215 230 250
213 227 247
217 231 252
215 229 250
218 233 253
216 230 251
218 232 252
215 229 250
216 231 252
214 228 249
218 233 253
220 235 255
221 236 255
221 236 255
221 236 255
221 236 255
221 236 255
221 236 255
221 236 255
221 236 255
221 236 255
221 236 255
221 236 255
221 236 255
221 236 255
221 236 255
221 236 255
221 236 255
221 236 255
221 236 255
221 236 255
221 236 255
221 236 255
221 236 255
221 236 255
221 236 255
221 236 255
221 236 255
221 236 255
221 236 255
221 236 255
221 236 255
221 236 255
220 235 255
218 232 250
215 230 250
218 233 253
212 227 248
216 229 247
214 228 248
209 223 244
215 229 248
211 225 244
209 224 246
213 227 248
215 229 249
214 229 249
213 228 249
216 231 252
212 226 245
210 224 244
213 227 248
211 225 246
216 231 251
216 231 250
213 228 249
214 229 249
215 229 250
214 228 249
214 229 249
211 225 246
215 230 251
175 192 215
70 101 140
66 98 143
109 132 153
216 231 252
210 225 243
201 216 239
213 228 248
203 218 237
202 217 234
144 163 192
59 94 133
61 96 140
60 94 137
59 93 142
59 94 133
59 93 126
61 96 137
60 96 140
57 91 126
60 95 140
58 92 124
60 94 139
59 94 129
61 96 143
61 96 135
61 96 142
60 95 131
60 94 128
60 95 135
60 95 139
61 95 134
60 95 144
58 92 128
59 94 120
59 94 124
59 94 124
59 93 128
60 95 129
60 95 136
60 95 128
61 96 143
60 95 137
59 94 130
59 93 122
60 94 135
59 93 124
60 95 136
61 96 142
60 94 129
60 95 142
60 95 143
59 94 133
60 95 140
60 94 137
60 94 128
60 94 124
61 96 142
59 93 128
60 94 136
61 96 148
61 96 142
60 94 130
60 95 141
62 97 148
62 97 147
60 95 139
60 94 137
58 92 118
59 94 128
61 95 134
62 96 141
60 95 140
59 94 128
59 94 140
60 95 141
58 92 124
59 93 131
59 93 135
60 94 138
59 93 130
60 94 149
58 92 120
59 92 133
56 89 130
59 92 124
58 91 122
60 94 136
58 90 116
58 91 121
58 92 129
59 92 130
58 91 131
59 92 142
59 92 132
58 91 125
55 86 117
59 93 137
57 89 121
58 91 119
58 90 129
57 89 128
55 87 118
58 90 132
57 89 132
57 89 130
56 87 117
56 87 131
56 86 127
56 87 130
50 77 105
52 79 110
48 74 97
59 70 70
62 60 34
54 56 38
58 60 39
54 56 30
41 47 30
41 48 36
50 54 32
51 56 34
46 53 37
53 61 45
61 66 43
66 72 47
67 72 48
80 83 51
71 75 48
73 80 58
99 101 61
86 89 56
88 91 55
89 92 59
112 112 66
100 102 60
116 116 62
113 113 66
119 119 70
113 114 67
130 128 76
126 124 63
131 130 77
133 131 74
131 130 71
125 125 66
138 136 77
143 140 77
135 132 75
147 144 79
134 133 71
139 137 71
132 131 73
143 141 77
145 142 79
146 142 77
144 140 76
152 148 79
146 143 80
154 149 86
154 149 83
153 149 79
160 154 82
158 154 84
166 159 90
153 150 80
160 155 85
161 156 84
162 157 82
163 158 82
163 157 86
165 160 83
163 157 84
159 153 78
167 161 89
167 161 84
165 159 87
165 159 88
170 163 89
164 159 83
163 157 84
170 163 88
172 165 90
172 165 84
166 160 78
167 161 80
166 160 82
169 163 85
172 166 88
167 162 81
168 163 84
171 164 87
167 160 79
172 165 87
163 157 83
171 163 90
168 161 85
168 161 83
167 161 87
167 163 87
173 166 90
171 164 84
164 159 80
172 164 86
169 162 88
169 162 83
168 162 81
168 161 84
171 163 84
173 166 89
176 167 92
166 159 81
171 164 89
166 159 81
166 160 86
165 159 82
169 162 87
166 160 85
163 156 77
169 161 89
168 163 80
164 158 83
162 156 85
162 156 78
170 163 85
166 159 84
163 157 83
166 159 84
162 156 80
165 159 80
158 153 77
162 156 80
163 158 82
155 150 70
163 156 82
163 157 86
157 151 71
163 157 85
161 155 84
161 155 78
157 151 75
168 160 84
154 148 71
167 160 90
161 155 82
161 155 74
161 155 84
163 156 80
165 159 86
156 149 83
158 153 78
161 155 77
156 150 79
163 156 86
157 150 80
157 151 76
161 154 80
154 148 78
159 152 81
157 152 78
151 145 74
153 147 81
222 236 255
220 235 255
221 235 255
222 236 255
222 236 255
221 236 255
222 236 255
220 235 254
220 235 255
221 236 255
221 235 255
222 236 255
221 235 255
222 236 255
222 236 255
221 236 255
220 235 255
221 236 255
221 235 255
222 236 255
222 236 255
221 236 255
220 235 255
222 236 255
220 235 255
220 235 255
222 236 255
221 236 255
220 235 255
219 234 254
221 235 255
222 236 255
222 236 255
222 236 255
221 236 255
221 236 255
222 236 255
221 236 255
222 236 255
221 236 255
222 236 255
221 236 255
221 236 255
221 236 255
221 236 255
219 234 254
219 234 254
218 233 253
222 236 255
216 231 252
210 225 245
213 228 248
217 232 252
214 229 249
217 232 252
215 230 250
213 228 249
216 231 250
211 226 245
216 231 252
219 233 253
216 231 251
216 231 251
216 231 250
215 230 251
216 231 252
212 227 248
213 227 249
214 229 249
213 228 248
218 233 252
214 228 249
214 229 249
217 232 252
215 230 250
213 228 249
218 233 252
221 236 255
220 235 255
221 236 255
221 236 255
222 236 255
222 236 255
221 236 255
221 236 255
221 236 255
221 236 255
222 236 255
221 236 255
222 236 255
221 235 254
221 236 255
222 236 255
221 236 255
221 236 255
222 236 255
220 235 253
221 236 255
221 236 255
221 236 255
221 236 255
221 236 255
222 236 255
221 236 255
221 235 254
221 236 255
222 236 255
220 235 254
220 234 253
221 235 254
215 229 249
219 234 254
216 230 250
218 233 253
212 226 246
219 233 252
214 229 250
211 226 246
212 227 246
212 227 247
210 225 246
215 230 250
218 233 253
211 225 246
215 230 250
215 230 249
213 228 248
213 228 248
210 225 246
216 231 252
211 225 245
212 227 247
210 225 246
216 230 251
212 227 246
209 224 245
213 228 248
211 226 247
180 196 217
72 102 140
64 97 133
122 143 171
216 230 250
215 229 249
209 223 243
203 218 240
201 216 237
207 222 243
155 172 201
58 92 118
60 95 141
58 93 126
60 94 140
59 93 129
60 95 141
59 94 128
60 94 130
61 95 137
60 95 131
58 92 128
60 94 134
60 94 135
60 94 130
61 95 137
61 95 136
60 95 133
61 95 135
61 96 140
59 94 126
59 94 134
61 95 135
59 94 131
61 96 145
59 93 135
61 95 134
60 95 140
60 95 140
61 95 134
61 96 135
60 95 136
60 95 130
61 96 140
60 95 133
60 95 140
58 92 130
59 93 128
59 94 129
60 95 135
59 94 130
59 93 130
60 95 133
59 93 131
60 94 131
60 94 137
60 95 135
61 95 144
60 94 131
58 92 125
61 96 145
60 95 142
59 93 124
60 95 140
59 93 118
60 94 130
60 95 131
61 95 131
60 94 128
58 92 118
58 92 125
59 92 121
59 93 136
60 94 134
59 93 131
60 94 135
60 94 135
60 94 141
60 95 137
59 93 130
59 93 126
59 93 127
58 90 118
59 92 127
59 93 139
59 93 135
60 93 142
58 91 123
60 93 142
60 94 134
58 91 124
58 92 134
59 93 128
59 92 132
60 93 135
58 92 134
58 92 133
57 89 127
57 88 128
58 91 119
57 89 124
59 92 136
58 90 131
56 88 116
56 86 119
59 91 133
57 89 125
55 86 128
51 79 108
56 87 114
50 77 106
51 78 103
47 72 90
71 78 70
65 65 33
61 61 29
44 47 22
54 56 32
39 45 32
36 43 27
35 41 26
57 62 39
47 53 36
59 65 35
64 70 44
75 79 44
68 74 46
58 64 45
75 79 47
86 88 51
93 94 52
100 101 59
96 98 58
111 111 68
109 109 62
101 102 59
107 109 62
115 114 68
113 113 61
121 121 72
123 122 66
129 126 67
120 120 62
129 127 69
119 118 63
130 128 67
124 123 66
139 137 74
145 141 79
143 140 77
136 134 75
141 138 74
141 139 77
142 139 71
154 150 85
158 153 85
149 146 79
155 150 81
156 151 81
146 142 74
157 151 85
151 148 72
153 149 79
158 153 88
158 154 85
155 150 78
164 158 84
163 158 83
161 156 86
154 150 73
162 157 77
166 160 87
161 155 77
166 160 78
161 156 83
161 156 76
165 159 78
165 159 83
163 158 79
167 162 86
169 163 85
168 162 87
169 163 86
164 158 80
171 165 89
165 159 78
171 164 87
170 163 84
171 164 85
162 157 81
166 160 83
164 158 78
175 167 96
167 161 83
165 159 75
170 164 84
171 164 87
167 161 80
169 163 85
171 164 86
167 160 77
170 163 86
172 164 87
169 162 84
167 161 83
168 162 84
173 165 90
167 161 82
168 161 85
166 159 81
170 163 85
168 162 85
169 162 87
169 162 86
166 159 85
163 157 75
169 162 88
165 159 84
159 153 75
168 160 90
165 158 80
169 162 87
166 159 84
166 160 84
162 156 76
167 161 84
169 162 86
161 154 80
162 156 80
166 160 84
170 162 81
158 153 75
161 154 80
158 152 78
162 156 80
168 161 86
166 159 86
165 157 84
168 161 84
163 156 86
159 154 80
165 157 78
159 152 80
169 161 83
163 157 80
161 155 76
161 155 80
157 151 75
161 156 80
161 154 80
154 149 79
161 154 76
156 150 79
165 158 82
161 156 84
155 149 75
159 153 79
153 148 78
157 150 79
150 144 75
159 151 79
152 145 77
222 236 255
222 236 255
222 236 255
222 236 255
222 236 255
221 235 254
221 235 255
222 236 255
222 236 255
222 236 255
221 235 255
222 236 255
222 236 255
222 236 255
221 235 255
222 236 255
222 236 255
220 234 253
222 236 255
222 236 255
222 236 255
221 235 255
222 236 255
222 236 255
220 234 253
222 236 255
221 235 255
222 236 255
222 236 255
222 236 255
220 234 254
222 236 255
222 236 255
222 236 255
222 236 255
222 236 255
222 236 255
222 236 255
222 236 255
222 236 255
222 236 255
222 236 255
222 236 255
222 236 255
222 236 255
222 236 255
214 229 247
218 232 252
220 234 254
220 234 254
214 228 248
210 225 244
213 227 248
215 229 250
210 225 246
212 227 247
212 227 249
219 233 252
211 226 247
214 229 249
213 228 247
210 225 246
220 234 254
217 232 252
215 229 250
215 230 249
217 232 250
216 230 252
214 228 246
214 228 248
217 231 250
217 231 252
219 234 253
216 230 250
216 230 248
217 231 251
221 235 255
222 236 255
221 236 254
221 236 254
222 236 255
222 236 255
221 235 254
222 236 255
221 235 253
222 236 255
222 236 255
222 236 255
222 236 255
222 236 255
222 236 255
222 236 255
221 235 254
222 236 255
222 236 255
221 235 254
221 235 254
221 236 254
222 236 255
222 236 255
222 236 255
221 235 253
222 236 255
222 236 255
222 236 255
222 236 255
222 236 255
222 236 255
221 235 255
222 235 254
218 232 252
220 234 253
217 231 250
214 229 248
211 225 244
212 225 243
218 232 251
210 224 244
217 231 250
212 227 247
212 227 246
214 229 250
213 228 248
214 229 248
212 227 248
215 230 250
214 228 250
217 231 251
210 225 246
214 228 248
215 229 248
217 231 252
212 226 246
218 232 251
212 226 246
216 230 250
217 231 251
217 231 251
171 187 208
70 101 147
69 99 146
140 158 177
213 227 247
209 223 243
208 223 242
208 223 244
200 215 236
210 225 247
139 158 179
59 93 125
59 94 131
59 93 129
61 96 150
60 94 136
61 95 136
61 96 142
60 94 138
60 94 133
59 94 130
59 94 134
60 95 131
59 94 133
58 93 128
60 94 121
60 95 136
60 94 133
59 94 135
59 94 133
59 93 125
60 94 135
60 95 137
60 94 140
61 95 131
61 96 141
60 94 134
60 95 135
61 96 142
60 95 133
60 94 131
60 94 139
61 96 151
60 94 136
61 95 137
61 96 142
60 95 137
60 94 130
59 93 124
60 94 130
59 93 129
60 94 133
60 95 135
60 94 133
61 97 141
59 93 137
60 94 137
59 94 130
59 94 131
60 95 144
60 94 137
61 97 143
60 95 136
59 93 129
60 94 134
60 94 134
61 96 137
60 95 136
59 93 134
59 93 121
57 90 122
60 94 133
60 94 132
59 93 132
59 93 130
61 96 145
61 95 140
59 94 133
59 93 134
58 92 123
59 93 130
60 93 131
59 93 133
58 91 128
60 93 137
58 91 121
58 92 132
59 93 138
59 92 125
57 90 118
60 93 139
59 92 130
57 90 118
58 91 128
58 91 137
58 91 131
58 91 129
58 91 126
58 90 125
58 91 130
56 87 112
57 89 121
57 89 127
56 88 126
55 86 111
56 86 115
55 85 114
55 85 119
54 84 120
53 81 108
52 80 98
48 73 87
52 79 109
69 76 75
59 58 26
60 61 35
35 38 23
41 45 23
43 47 25
46 52 34
47 53 30
54 59 39
49 53 32
55 61 36
62 66 33
66 72 44
63 70 46
75 79 50
76 79 42
74 79 47
93 95 56
93 95 54
100 102 58
94 97 58
100 102 58
113 113 62
98 100 57
103 104 58
116 116 64
119 119 68
125 123 72
130 128 73
110 111 59
116 116 63
127 125 67
130 129 70
138 135 77
133 131 74
136 134 68
135 133 67
139 136 74
139 136 75
145 141 81
141 138 71
136 133 71
153 148 81
142 140 71
151 147 78
138 136 72
152 148 78
154 148 81
155 151 80
147 143 74
156 152 84
153 149 72
148 145 73
151 147 75
157 152 74
154 150 70
163 157 80
160 155 80
163 157 77
170 163 83
166 160 82
168 161 89
162 156 80
161 156 76
163 158 89
161 156 80
163 157 79
163 157 73
165 159 80
170 163 87
167 161 85
166 160 87
167 161 84
164 159 76
167 161 84
169 163 88
172 165 91
169 163 87
167 161 89
170 163 84
162 157 75
168 162 78
172 165 86
169 162 84
167 160 82
163 158 79
168 162 83
165 160 80
171 165 85
170 164 87
173 165 89
169 162 84
170 163 85
165 160 80
164 159 79
169 162 86
165 159 77
170 163 85
167 160 80
166 159 80
166 161 81
165 158 78
173 166 84
174 166 88
157 152 75
168 161 80
166 160 80
166 161 77
165 160 80
160 154 79
165 159 80
167 160 85
161 155 80
163 157 76
166 159 83
168 161 82
162 155 76
162 157 80
165 159 82
165 159 84
165 158 85
162 156 76
170 162 87
158 152 72
160 154 75
158 152 76
159 154 76
168 161 84
159 152 81
159 152 84
163 157 82
167 161 82
165 159 83
162 156 84
158 151 81
160 154 79
156 150 79
158 152 76
158 152 76
157 150 72
158 152 75
162 156 84
159 153 73
162 155 80
163 156 77
155 149 75
160 154 83
156 149 75
152 146 76
222 236 255
222 236 255
222 236 255
222 236 255
222 236 255
221 235 254
222 236 255
222 236 255
222 236 255
222 236 255
221 235 255
222 236 255
222 236 255
222 236 255
222 236 255
222 236 255
221 235 255
221 235 255
221 235 254
220 234 254
222 236 255
221 235 254
220 234 254
222 236 255
222 236 255
222 236 255
221 235 255
222 236 255
222 236 255
222 236 255
221 235 255
222 236 255
222 236 255
222 236 255
222 236 255
222 236 255
222 236 255
222 236 255
222 236 255
222 236 255
222 236 255
222 236 255
222 236 255
222 236 255
222 236 255
222 236 255
219 233 253
218 232 252
219 233 254
220 234 254
220 234 254
218 232 252
215 229 248
210 225 244
209 224 244
216 230 250
218 232 251
217 231 250
219 233 252
217 231 250
215 229 249
215 229 248
220 234 252
214 228 245
218 232 251
214 228 248
219 233 252
216 230 247
218 232 252
211 225 245
216 230 248
213 227 244
217 231 251
211 226 242
213 227 243
216 231 246
221 235 253
221 235 250
220 234 250
220 234 250
219 234 248
222 236 255
220 234 249
221 236 254
219 234 249
222 236 255
219 234 248
221 235 253
218 233 244
221 235 253
221 235 253
218 233 244
219 233 245
219 234 248
220 235 250
220 235 252
220 234 249
220 234 250
218 233 245
219 234 248
219 234 248
218 233 244
217 232 242
220 234 250
219 234 248
221 235 252
220 234 249
217 232 245
218 233 245
220 235 252
218 232 250
216 231 249
213 228 248
220 234 250
215 229 248
216 230 247
210 225 248
214 228 247
210 225 244
213 227 248
210 225 246
217 231 251
218 232 251
211 225 244
212 226 246
216 230 249
219 233 254
216 230 250
214 228 248
217 231 251
220 234 254
214 228 246
212 226 244
218 232 252
214 228 246
212 226 246
214 228 249
221 235 254
172 188 205
68 98 126
75 104 137
159 176 198
219 233 251
213 227 246
204 219 239
212 226 246
198 213 234
209 223 243
160 177 201
59 93 135
60 94 137
60 94 133
59 94 129
59 94 124
59 94 128
59 93 128
58 92 131
59 94 136
59 94 130
60 94 131
60 94 131
60 95 134
59 94 131
58 92 130
61 96 145
62 97 148
59 93 124
60 95 131
60 95 139
59 93 120
60 95 135
60 94 130
60 95 142
60 94 133
60 95 130
59 94 134
60 94 133
60 94 133
59 94 133
60 94 136
61 96 137
60 94 141
59 93 126
60 95 137
58 92 125
59 93 126
60 95 140
59 93 113
60 94 136
59 92 125
60 94 130
60 95 140
60 94 130
60 94 137
60 94 131
59 93 129
61 96 142
60 95 137
60 94 136
59 93 134
61 95 133
59 92 124
59 93 117
60 94 135
60 95 137
60 94 139
59 93 125
60 94 122
60 94 137
60 94 131
58 92 124
59 93 135
61 96 140
59 94 139
59 94 126
60 94 134
58 91 119
59 92 131
58 92 125
58 92 123
60 94 129
61 95 136
60 93 133
59 93 133
57 90 121
59 93 136
59 93 126
59 93 137
59 92 131
58 91 129
57 91 116
58 91 123
58 91 119
59 93 128
58 91 127
59 92 132
59 92 125
55 87 117
59 92 123
57 88 124
56 86 118
58 90 124
55 85 109
56 87 130
55 84 116
54 84 111
53 82 116
52 79 108
52 81 108
49 74 87
45 68 81
73 78 62
66 65 26
60 62 29
46 48 20
47 50 24
29 34 17
42 48 27
35 42 27
33 41 25
60 64 38
61 65 30
45 52 32
62 66 34
76 79 40
65 72 42
71 76 50
75 78 50
82 85 50
96 98 56
102 103 56
97 99 55
105 107 56
120 119 64
110 110 57
110 112 66
108 109 64
107 108 59
110 110 63
124 123 65
116 115 64
133 131 70
132 131 66
124 122 71
134 133 73
137 134 69
134 133 67
138 136 69
144 141 74
148 144 76
140 137 77
144 141 77
140 138 70
144 140 75
145 141 75
152 148 80
146 143 73
149 145 80
152 148 74
156 151 75
160 155 79
159 154 79
154 149 73
149 145 75
157 153 82
149 145 70
159 154 78
162 156 85
166 159 86
168 163 84
163 159 86
161 156 78
165 158 84
166 159 84
165 159 82
168 160 81
164 158 77
160 155 83
170 163 83
168 162 87
165 160 81
167 160 88
162 156 74
171 164 83
165 160 82
165 160 80
166 160 73
168 161 81
175 168 93
168 162 86
170 164 85
165 159 78
165 158 86
168 161 81
169 162 81
168 162 82
166 160 82
167 161 79
170 163 87
167 161 81
169 163 81
169 162 82
167 160 79
168 161 80
165 159 80
167 160 87
168 162 86
165 160 81
167 160 85
169 162 85
165 158 79
162 155 81
167 160 83
162 156 78
162 157 73
165 159 80
164 159 80
169 162 82
165 159 81
161 156 79
161 154 76
163 156 80
162 155 79
164 158 80
164 157 78
165 158 78
165 159 87
160 154 81
161 155 80
164 158 87
160 153 78
164 156 84
160 154 80
167 160 85
159 151 75
160 153 78
165 159 84
160 154 73
163 156 81
161 155 79
157 151 74
155 149 73
163 156 86
162 155 86
163 157 84
161 154 81
160 153 74
152 146 67
154 148 76
155 149 75
155 149 72
156 150 74
153 147 74
160 154 79
157 152 76
162 156 81
156 150 75
151 145 68
151 145 75
161 154 81
222 236 255
223 236 255
222 236 255
221 235 255
222 236 255
222 236 255
222 236 255
222 236 255
222 236 255
222 236 255
222 236 255
223 236 255
222 236 255
223 236 255
222 236 255
221 235 255
222 236 255
222 236 255
222 236 255
221 235 255
221 235 254
222 236 255
221 235 255
222 236 255
222 236 255
222 236 255
220 234 254
223 236 255
220 234 254
221 235 254
221 235 255
222 236 255
222 236 255
221 235 254
222 236 255
222 236 255
222 236 255
222 236 254
221 235 253
221 235 250
222 236 255
222 236 254
221 235 250
221 235 253
221 235 252
219 234 249
219 234 249
220 234 249
216 230 240
221 235 255
215 230 240
211 226 244
209 223 238
217 231 244
210 225 238
215 229 244
212 226 240
207 222 238
215 230 242
217 231 248
214 228 244
214 229 236
214 228 246
211 226 239
210 225 237
213 228 240
210 225 239
214 228 239
207 222 229
209 224 239
216 230 245
212 227 238
208 223 233
212 227 239
215 229 241
218 232 244
219 233 244
220 234 249
217 231 238
218 233 245
218 233 244
220 234 250
220 234 249
218 233 245
220 235 250
220 234 249
217 231 238
219 234 246
217 232 238
217 232 240
219 233 245
219 234 248
220 235 250
218 233 245
220 234 249
219 234 248
220 235 250
218 233 244
221 235 253
219 233 245
218 233 244
217 232 241
220 234 249
219 234 248
220 235 250
218 232 242
219 234 248
217 232 242
219 234 248
221 235 252
214 228 238
216 230 245
213 227 242
218 232 251
214 228 241
217 231 251
212 226 246
210 224 243
217 231 250
215 229 248
206 221 240
215 229 248
217 231 252
214 228 246
213 227 246
215 229 248
215 229 249
213 227 246
213 227 246
214 228 246
217 231 250
208 222 243
215 229 247
215 228 247
220 234 253
215 228 247
219 233 252
211 225 241
164 181 193
78 105 124
69 99 129
181 197 209
219 232 252
218 231 250
213 226 244
210 224 244
209 223 242
214 228 247
176 193 214
57 91 122
59 93 130
59 93 129
59 94 131
58 92 129
59 93 122
60 95 143
59 93 122
59 93 129
59 92 128
61 95 142
60 95 134
61 96 140
58 92 126
61 96 143
60 95 129
59 93 130
59 93 128
61 96 139
60 95 140
59 93 136
59 93 129
60 94 131
60 95 133
61 96 143
60 95 136
60 95 131
60 95 130
60 94 125
58 93 120
59 94 136
60 94 135
60 94 133
60 95 139
60 95 137
60 95 130
61 95 130
60 95 128
60 95 133
59 93 125
60 95 136
60 95 135
60 94 134
59 94 129
59 93 130
59 94 117
59 93 128
60 95 134
60 94 129
59 93 131
60 94 134
58 91 122
62 97 151
58 92 124
59 92 125
61 95 136
60 94 139
60 94 131
60 95 135
60 94 130
60 95 136
59 93 121
60 94 134
58 92 128
59 93 136
59 93 139
59 93 133
58 93 126
59 93 129
60 94 136
59 92 128
59 92 131
60 94 135
61 95 137
59 93 126
59 93 130
57 89 117
60 95 134
60 93 137
57 90 124
59 92 128
55 87 106
58 92 129
58 90 117
57 90 115
59 92 133
58 92 135
56 88 115
59 92 129
57 88 121
56 87 118
56 87 120
56 88 124
56 86 115
56 87 128
54 83 112
54 84 120
53 82 110
52 80 92
52 81 109
49 74 96
47 72 94
55 62 56
61 60 27
55 54 23
53 52 21
38 41 16
44 46 20
44 47 23
43 48 22
52 56 30
41 49 33
46 51 31
53 60 38
59 63 33
61 67 43
71 77 49
89 91 50
78 81 45
81 86 48
84 87 46
103 104 60
87 89 45
95 97 54
104 105 60
104 105 55
115 116 65
106 105 58
110 110 59
125 123 62
123 121 60
115 115 62
120 118 58
133 131 68
130 128 63
134 132 63
140 137 68
138 135 71
135 133 73
131 129 62
140 136 71
153 148 78
144 141 71
148 145 71
146 142 74
145 141 69
152 147 77
146 141 74
156 151 74
156 151 78
157 152 77
161 156 80
153 148 76
155 151 78
160 154 75
158 153 81
157 152 78
160 155 77
157 151 72
160 155 82
166 160 86
162 156 77
161 156 80
159 154 74
159 154 75
164 157 80
166 159 86
164 158 75
160 155 77
164 158 80
165 159 86
166 160 80
165 159 82
163 157 81
163 158 83
171 164 86
165 159 79
167 161 80
163 157 78
166 160 82
166 160 77
165 159 78
166 160 84
171 163 86
163 158 73
168 162 82
165 159 79
168 161 84
164 158 80
166 159 78
167 160 84
170 163 83
160 155 68
162 156 76
170 164 84
166 160 76
168 162 82
168 160 81
162 157 79
162 157 78
166 160 81
170 163 87
165 159 78
165 158 77
167 160 87
164 158 79
163 157 81
162 156 76
167 159 85
164 158 78
164 159 75
160 155 79
161 155 75
159 153 68
161 155 74
162 155 81
164 157 80
163 157 76
165 160 80
166 160 84
161 155 81
166 160 85
159 153 78
166 160 81
154 149 69
165 158 80
161 154 84
156 150 74
164 157 79
158 152 78
155 149 69
160 153 77
162 155 78
157 151 75
166 159 81
157 151 79
159 153 75
156 150 77
161 154 79
153 147 71
158 151 77
150 145 66
160 153 77
154 147 76
160 152 79
162 155 81
153 146 74
155 150 75
162 154 81
157 151 78
153 146 78
223 236 255
223 236 255
223 236 255
222 236 255
223 236 255
223 236 255
223 237 255
223 236 255
223 236 255
223 236 255
223 236 255
223 236 255
223 236 255
222 235 254
223 236 255
222 236 254
222 235 254
221 235 254
222 235 253
222 236 253
222 236 254
221 235 252
221 235 252
221 235 250
219 233 248
222 236 253
221 235 252
220 234 251
220 235 249
219 233 249
221 235 252
222 236 254
221 235 250
218 233 242
222 236 253
219 233 245
220 234 249
220 234 248
220 234 248
220 234 249
220 234 248
220 234 248
220 234 249
220 234 249
219 234 246
218 232 242
219 234 246
214 229 236
217 231 247
215 230 234
214 229 240
216 230 246
211 226 238
213 227 240
216 231 242
208 223 237
209 224 235
211 226 236
211 225 236
212 226 239
210 225 238
210 225 236
212 227 233
212 227 236
216 230 244
207 222 229
211 226 240
209 224 238
214 228 242
211 225 244
213 227 242
217 231 240
215 229 238
213 228 238
215 229 238
219 233 245
219 234 246
218 233 242
219 234 248
218 233 244
217 232 240
218 233 245
216 231 237
218 233 244
218 232 241
216 231 237
219 234 246
221 235 250
218 233 245
217 232 241
217 232 240
218 233 242
219 234 248
216 231 240
219 234 249
219 233 248
219 234 246
221 235 250
220 235 250
219 233 248
218 232 242
219 233 245
223 237 255
219 234 246
218 232 244
220 234 249
215 230 234
219 233 244
219 233 242
218 233 245
216 231 240
214 229 243
221 235 252
214 228 241
222 236 253
216 229 247
215 229 249
210 224 244
210 224 243
217 231 250
212 226 244
216 230 250
217 230 249
212 226 246
216 230 250
217 230 251
218 232 251
215 228 245
210 224 243
217 231 249
217 231 251
215 229 248
218 232 251
215 229 248
215 229 242
202 218 210
195 213 173
181 201 144
124 146 136
71 101 133
64 94 119
162 185 57
177 198 97
192 209 197
216 229 247
209 222 242
205 219 241
221 235 251
183 199 222
57 91 122
59 93 126
59 94 137
59 94 133
59 93 128
59 94 135
59 94 129
60 95 134
59 94 135
60 94 124
58 92 121
59 94 133
59 94 130
59 94 137
61 96 139
59 93 132
60 95 140
60 94 126
61 96 136
59 93 131
61 96 139
60 94 135
61 96 142
60 94 126
60 95 139
59 94 128
59 93 126
59 93 126
58 92 126
60 94 125
58 92 122
60 94 133
60 94 130
60 94 133
59 92 129
59 93 129
60 95 135
59 93 121
58 92 120
57 91 121
59 93 133
59 94 128
60 95 143
60 95 137
60 95 135
59 94 130
60 94 137
59 93 125
58 92 128
58 92 125
60 94 130
60 94 131
60 95 134
61 95 141
58 91 124
58 92 125
60 94 130
60 94 126
60 95 135
58 92 116
59 92 134
59 94 129
59 94 133
61 95 137
59 93 127
59 93 126
60 94 133
59 93 130
58 92 128
59 92 125
59 92 131
59 92 121
60 94 133
55 88 110
59 92 135
58 91 134
58 92 126
59 92 134
59 92 127
57 90 123
59 93 123
59 93 135
58 92 128
59 93 135
58 91 125
58 92 134
59 92 131
56 89 116
56 87 117
55 86 119
57 89 121
57 89 127
56 87 126
55 85 104
53 83 111
56 86 113
55 86 114
55 85 119
53 81 105
54 83 122
52 79 104
47 71 82
77 79 59
73 73 34
62 63 25
66 65 29
41 43 18
49 51 23
46 49 20
42 50 28
44 49 23
56 60 30
49 56 26
51 57 30
63 69 39
59 65 31
59 63 32
81 83 48
90 92 51
79 83 47
95 96 49
87 90 51
99 101 56
104 106 61
93 95 53
113 112 58
115 114 56
112 111 58
113 112 61
108 109 59
122 120 59
126 123 67
132 130 73
130 127 64
131 128 67
134 132 65
135 132 62
128 126 68
121 120 62
137 135 77
146 143 75
129 128 65
138 135 66
147 144 73
147 142 70
143 139 70
151 147 72
149 147 70
155 150 79
154 150 76
154 148 81
151 147 73
166 160 82
154 150 75
152 148 72
157 152 70
155 151 75
157 150 78
154 150 74
154 149 77
164 158 79
166 159 81
153 150 74
159 155 75
160 155 75
164 158 80
162 156 78
161 155 74
162 157 75
160 155 77
164 158 80
163 158 75
169 162 84
157 152 68
163 158 70
163 157 78
164 157 78
166 160 84
167 160 87
165 160 80
167 161 85
166 159 77
171 164 84
167 160 77
162 157 72
166 159 72
161 156 70
165 160 79
167 160 82
162 156 80
169 163 81
167 160 83
167 159 79
165 159 79
164 157 77
169 162 78
165 158 80
166 159 79
167 160 80
170 163 80
169 162 84
167 160 80
165 159 84
170 162 80
166 159 79
162 156 70
168 162 75
168 162 83
169 162 81
156 151 74
163 157 80
159 152 74
163 157 74
164 157 79
161 154 75
164 158 78
162 156 78
161 154 80
163 157 76
164 157 84
157 151 78
158 152 74
159 152 77
160 153 77
160 154 78
160 154 78
164 158 76
167 160 89
171 163 85
161 155 73
157 151 79
163 156 80
159 153 78
158 152 78
162 155 82
166 160 82
155 149 70
159 153 75
158 151 80
154 147 77
159 153 78
157 150 78
157 151 79
160 153 78
156 150 72
161 153 82
156 150 76
157 151 80
153 147 71
149 142 75
158 151 77
223 237 255
223 236 255
223 237 255
222 236 253
222 236 253
222 236 255
222 235 250
221 235 249
222 236 254
220 234 246
221 235 250
220 234 248
219 234 245
218 233 244
220 234 248
220 234 246
221 235 250
220 234 249
216 230 239
218 233 242
221 235 249
217 232 243
218 233 242
219 234 246
217 232 240
221 235 250
220 234 246
220 234 248
220 234 246
219 233 245
219 233 244
220 234 248
220 234 248
219 234 245
220 234 248
217 232 240
219 233 245
220 235 249
220 234 248
217 232 242
220 234 248
218 233 244
220 234 249
219 233 245
219 234 246
220 234 248
221 235 252
217 232 242
218 232 244
218 232 248
215 230 238
215 229 242
212 227 238
213 227 242
216 230 238
213 227 242
213 227 239
214 229 240
217 232 238
212 226 237
210 225 236
214 228 240
211 225 236
217 232 242
216 230 241
210 225 235
215 229 238
213 228 237
212 227 240
213 227 247
212 227 239
208 223 240
217 231 246
216 231 240
216 230 244
218 233 244
219 234 245
218 232 241
217 232 241
218 233 242
218 232 244
220 234 249
220 234 248
219 234 248
219 233 245
216 231 238
219 234 245
219 233 244
221 235 252
219 234 246
218 233 244
218 233 244
218 233 248
219 233 245
221 235 250
221 234 249
219 233 244
218 233 244
219 233 246
221 235 250
216 231 237
220 234 248
219 233 245
220 234 248
219 234 245
220 234 249
219 233 246
217 232 241
218 233 242
219 233 245
214 228 238
215 229 242
212 226 241
218 232 249
215 229 242
219 233 249
211 225 246
216 229 247
209 223 240
218 232 252
218 232 251
218 232 250
216 230 250
215 228 248
213 227 246
215 229 246
215 229 247
216 230 248
205 219 239
217 231 250
211 225 238
207 223 214
192 211 177
184 204 137
176 198 108
175 197 99
179 201 120
183 204 131
91 117 115
63 95 120
105 130 99
171 194 74
166 189 54
172 195 62
175 195 147
207 221 237
203 218 232
210 226 215
204 218 238
57 91 117
57 91 126
59 93 124
58 92 126
59 93 128
59 93 125
59 93 126
57 91 124
60 94 135
60 95 136
59 93 124
59 93 133
60 95 141
60 95 126
58 93 124
60 95 135
59 93 126
60 94 129
60 94 137
59 93 128
59 93 133
60 95 134
60 94 129
59 94 134
61 96 133
58 93 124
60 94 140
60 94 133
60 94 131
60 94 131
60 95 136
60 95 128
59 94 126
61 96 143
60 94 133
59 93 124
59 93 124
59 94 131
60 95 139
59 94 125
59 93 129
60 94 128
60 95 143
60 94 129
60 95 135
58 92 118
59 93 125
59 93 120
58 92 122
60 94 131
59 94 128
60 94 134
59 93 134
60 94 133
60 95 142
60 94 136
60 94 133
59 93 126
57 91 108
60 95 135
60 94 133
60 94 131
57 91 125
59 93 120
59 93 129
58 92 123
60 95 135
58 92 124
59 93 128
59 93 125
58 92 130
59 94 135
56 89 122
59 92 128
59 93 133
56 90 114
58 91 129
60 94 138
57 89 113
59 92 125
59 93 138
57 90 115
58 91 130
55 87 120
57 90 118
58 91 118
58 90 130
57 89 115
56 88 114
58 90 128
56 87 117
57 89 121
55 86 113
55 85 113
56 86 121
56 87 128
54 82 102
54 84 111
54 85 115
49 76 101
48 72 87
45 68 84
85 88 60
76 74 33
55 56 21
48 49 24
50 53 22
41 44 20
42 46 19
31 38 21
40 48 23
38 45 26
62 67 39
60 65 33
65 69 38
64 67 28
71 75 33
71 76 42
79 81 46
85 86 45
83 85 42
93 93 50
90 92 53
94 96 51
109 109 56
110 109 56
109 108 56
116 113 59
121 119 54
104 104 54
114 114 58
110 110 53
129 127 66
117 115 59
136 133 73
133 131 58
138 134 67
127 125 65
129 126 59
141 138 74
139 135 64
130 128 57
153 148 76
141 138 68
139 136 75
143 140 72
142 139 70
155 150 76
146 143 70
152 148 71
152 147 76
150 145 68
151 146 70
150 146 73
160 154 75
156 151 74
148 144 69
157 151 72
158 153 73
152 148 74
156 151 74
162 156 75
164 158 78
157 151 76
163 158 82
164 158 85
160 155 78
163 158 80
158 152 68
163 156 76
160 155 76
166 160 76
158 153 71
165 159 75
165 158 81
164 158 76
166 160 77
167 161 73
163 158 74
163 157 77
167 161 80
173 166 86
168 161 79
167 161 78
165 159 79
167 160 80
167 159 77
168 161 78
162 157 68
168 161 81
161 155 76
163 157 75
167 161 75
167 161 79
170 164 86
168 161 77
170 163 81
171 164 83
162 156 70
165 158 76
165 158 79
165 159 78
165 159 79
162 155 73
166 160 82
166 161 74
158 152 75
164 158 78
165 158 80
163 157 76
165 159 83
161 155 77
163 157 78
164 158 75
163 157 74
165 158 80
166 158 72
161 153 75
162 157 80
162 155 80
163 156 77
163 158 75
162 156 76
164 158 80
167 160 84
158 152 72
165 159 84
158 152 71
162 156 76
160 153 77
164 158 77
160 153 80
159 153 74
158 151 73
164 157 81
161 154 82
161 154 82
154 148 73
153 148 74
159 153 80
150 146 64
150 144 73
152 147 68
164 157 84
160 152 76
156 149 77
153 148 75
154 148 71
156 150 75
157 151 71
153 148 72
219 233 241
221 235 248
217 232 238
219 233 242
217 231 236
218 233 241
221 235 249
217 232 238
218 232 242
221 235 250
219 233 244
219 233 241
221 235 248
221 235 248
220 234 246
220 234 246
218 232 244
220 234 246
220 234 248
218 232 242
216 231 236
221 235 250
219 233 244
218 233 244
218 232 243
218 232 243
215 230 238
217 231 237
221 235 249
218 232 244
220 234 246
220 234 246
218 232 243
215 230 239
220 234 245
220 235 249
220 234 245
220 234 248
219 234 245
220 234 246
218 233 242
221 235 250
220 234 246
217 232 241
219 233 244
220 234 245
219 234 245
220 234 248
217 231 245
211 226 240
216 230 233
215 230 241
214 229 242
216 230 250
209 224 234
216 230 238
210 225 234
215 229 242
214 229 241
213 228 238
211 226 238
212 227 241
208 223 238
215 229 242
215 229 242
216 230 241
214 228 245
212 227 237
212 226 243
215 229 241
211 226 241
213 228 240
210 225 240
217 232 240
219 233 248
218 232 240
221 235 250
219 233 245
220 234 248
218 233 244
221 235 252
220 234 248
219 234 245
217 232 240
218 232 241
217 231 238
218 233 244
218 232 242
220 234 248
220 234 245
220 234 249
220 234 248
221 235 249
219 233 245
217 232 240
219 234 246
220 234 248
219 233 245
218 233 242
220 233 246
216 231 236
219 234 245
218 232 241
221 234 249
217 231 241
218 232 241
217 231 240
221 235 250
218 231 242
218 232 242
219 232 241
217 230 242
219 232 248
219 232 251
214 229 244
219 233 247
213 227 239
211 225 242
211 225 244
217 230 249
215 228 246
211 225 244
212 225 243
218 231 250
215 229 244
200 216 210
200 216 204
190 208 163
188 206 164
173 195 102
175 198 100
176 198 94
174 195 99
177 199 100
169 192 82
180 201 122
181 201 148
170 191 126
67 99 123
71 101 125
142 166 67
170 194 25
172 194 60
170 193 64
167 190 52
189 205 187
205 220 229
205 222 199
209 223 233
57 91 120
59 92 129
59 94 125
58 92 129
59 93 120
58 92 126
60 95 140
59 93 126
61 95 135
60 94 134
57 90 120
59 93 133
61 96 141
60 95 133
59 93 131
60 94 126
57 91 115
59 94 128
60 95 139
58 93 118
60 94 135
58 93 125
58 92 115
59 93 135
59 94 130
58 93 114
59 93 128
60 94 133
60 94 124
59 93 130
59 94 134
60 95 134
59 94 131
60 94 128
60 95 134
59 94 129
59 93 131
59 93 121
59 94 131
59 93 129
58 92 122
59 94 133
59 92 130
59 93 129
60 94 128
60 95 135
58 92 117
60 95 129
61 95 137
60 94 133
59 94 134
59 93 126
58 91 120
59 93 126
60 94 130
59 93 122
59 93 121
59 93 125
61 95 142
58 92 124
59 93 130
60 94 136
58 91 109
56 89 110
59 92 127
59 92 129
58 91 120
59 94 130
59 92 125
61 96 142
60 93 131
58 91 110
58 91 125
59 93 131
59 92 125
58 91 128
59 93 130
57 91 124
57 90 123
60 94 131
57 89 123
57 89 128
57 90 117
58 91 125
58 91 123
58 91 126
58 92 133
57 88 124
56 86 113
56 87 117
55 86 119
58 90 127
58 89 118
56 87 118
56 86 120
54 84 119
54 82 98
55 85 124
52 80 104
50 79 101
50 76 103
45 67 75
137 142 135
75 75 37
80 78 38
65 64 31
54 54 22
42 44 18
46 50 22
51 55 22
46 50 25
48 53 23
48 56 31
49 57 32
63 67 31
59 64 30
66 70 40
72 75 39
70 75 39
88 90 44
84 88 43
89 91 46
91 92 41
100 100 52
95 97 50
114 113 59
103 103 54
108 108 52
106 106 51
107 109 55
116 114 61
129 127 65
116 116 61
125 123 60
117 116 57
143 140 69
137 134 64
129 128 66
128 125 58
140 137 64
144 141 71
140 136 68
152 146 71
135 132 57
143 140 72
141 138 67
139 136 63
149 144 71
149 144 72
158 152 76
152 147 73
138 134 66
150 146 63
152 147 72
153 149 63
157 152 70
146 143 71
156 151 70
159 153 75
156 150 73
155 149 69
153 149 71
163 157 69
165 158 75
159 154 75
164 157 77
161 156 67
161 156 72
164 158 78
162 156 75
163 158 71
163 158 78
168 161 86
164 159 77
163 157 78
163 157 78
159 154 72
163 157 77
162 156 77
165 159 76
164 158 72
170 163 79
160 155 71
164 158 74
163 157 74
171 163 81
166 159 78
167 161 76
164 158 75
167 161 83
166 159 81
163 156 75
164 158 73
168 161 79
163 157 70
165 159 75
158 153 71
166 160 74
163 157 79
165 159 73
166 160 78
165 158 80
160 155 75
166 159 75
163 157 70
162 156 75
169 162 81
165 159 78
160 154 72
159 153 75
165 158 78
165 158 80
164 157 76
163 157 75
166 159 77
163 156 78
161 154 76
160 155 72
159 152 76
167 160 83
154 149 68
166 159 78
155 148 75
159 153 72
159 153 76
163 156 77
160 153 75
156 149 72
165 157 78
158 151 72
156 151 75
153 147 69
160 154 73
157 151 76
157 152 77
160 153 78
160 154 70
162 154 80
152 146 75
162 154 82
148 142 72
163 155 77
160 154 76
158 152 75
160 153 75
156 150 76
161 154 81
150 144 68
159 153 75
160 153 80
152 146 64
219 233 244
220 234 246
220 234 244
222 236 252
220 234 244
221 235 248
221 235 249
220 234 246
220 234 245
217 232 240
220 234 246
220 234 246
218 233 241
221 235 250
221 235 248
218 232 242
215 229 237
221 235 249
221 235 252
216 231 239
219 233 246
217 232 240
217 231 237
220 234 245
216 231 238
218 232 243
217 232 240
220 234 248
218 232 245
221 234 246
220 234 246
217 232 238
218 233 244
219 233 244
220 234 246
218 232 240
219 233 242
219 233 244
219 233 245
221 235 249
221 234 248
220 234 249
220 234 246
220 234 246
219 233 244
220 234 246
220 234 248
219 233 244
218 232 241
220 234 246
214 228 245
218 232 249
216 230 244
216 230 240
215 229 241
219 232 247
210 224 233
209 224 228
211 226 234
214 229 238
216 230 244
215 229 239
216 230 245
216 230 244
213 227 236
214 228 242
213 227 240
214 228 233
212 226 241
208 223 235
213 228 235
218 232 243
218 232 244
219 233 245
218 232 241
218 233 242
218 232 240
218 232 241
216 231 237
220 234 245
219 233 245
216 230 231
220 234 246
219 233 242
220 234 248
219 233 245
216 230 238
223 236 254
220 234 245
219 233 242
218 233 244
221 235 249
222 235 250
219 233 248
218 232 241
219 233 242
216 231 240
220 234 246
218 232 245
219 233 244
219 232 248
220 233 248
221 235 252
218 232 245
219 233 246
219 234 245
220 235 249
218 232 242
219 233 245
220 233 248
217 230 242
216 230 244
220 234 252
215 229 242
216 230 245
219 232 246
210 224 230
208 223 223
198 214 193
191 209 175
191 210 177
186 206 143
179 200 131
166 190 70
166 188 76
172 195 88
170 193 54
172 195 74
176 199 86
171 194 72
177 199 102
173 196 72
173 196 65
172 194 84
172 194 92
174 196 102
183 203 137
159 180 117
63 94 126
84 112 110
167 191 25
169 193 25
167 191 31
162 186 62
167 189 75
160 182 103
214 229 231
206 223 203
216 231 234
69 99 131
59 93 118
60 94 139
59 93 122
57 90 118
59 94 133
59 93 116
60 94 128
58 92 126
59 93 122
57 90 114
60 94 134
60 95 134
58 92 122
59 93 133
58 92 125
59 93 129
59 93 135
58 93 124
58 92 115
59 93 124
59 94 125
59 93 130
59 94 134
61 95 136
59 93 129
59 94 133
59 93 120
59 94 134
59 94 125
58 92 118
60 94 126
59 93 133
58 92 129
58 92 124
58 91 115
60 95 133
58 92 122
59 94 136
60 94 128
60 94 130
60 95 135
59 94 130
59 93 125
59 93 130
57 91 118
58 92 122
61 95 135
58 91 122
61 95 137
59 93 125
58 92 120
59 94 126
59 92 129
60 94 130
57 90 117
60 94 129
60 94 141
59 94 126
59 92 123
60 93 125
60 94 125
57 90 117
60 94 130
59 93 128
59 94 135
59 93 128
60 94 141
59 92 126
61 95 141
59 92 132
59 92 122
60 93 130
59 93 133
58 91 128
60 93 131
60 94 134
59 92 130
58 91 123
58 91 132
56 87 123
57 90 121
59 93 135
58 91 130
59 92 126
56 88 115
57 89 126
55 87 126
56 88 119
56 89 122
56 87 120
56 87 118
56 87 114
55 85 107
55 85 118
55 84 109
53 81 107
52 79 110
53 81 113
51 78 105
50 77 105
63 82 96
184 193 199
85 82 38
64 63 23
55 54 22
40 41 16
43 47 19
42 47 16
41 45 14
51 56 18
43 51 27
48 54 20
54 57 26
64 68 32
71 73 31
77 79 36
69 73 44
87 89 39
87 89 48
82 85 46
90 90 40
102 102 50
88 91 53
107 107 51
104 103 50
108 110 54
114 113 57
105 106 52
110 110 56
113 113 53
114 113 57
114 113 60
116 116 63
132 130 67
120 118 54
130 128 65
131 129 68
139 135 70
139 134 56
137 134 68
135 132 68
144 141 68
139 136 65
137 135 72
145 141 68
145 141 70
151 147 72
147 143 68
141 138 68
148 144 68
155 150 64
147 143 65
152 146 71
156 151 68
155 149 74
150 146 66
153 148 71
161 155 71
148 144 56
163 156 70
156 151 68
164 158 80
161 155 77
159 153 80
159 154 76
162 157 69
159 155 71
165 158 77
160 154 73
156 151 69
162 155 76
160 154 70
161 155 74
165 159 77
167 161 84
164 158 78
161 156 75
163 158 75
165 158 77
168 162 77
162 155 74
166 159 83
167 160 78
168 162 82
165 159 77
167 161 76
166 159 78
166 160 80
161 156 74
163 157 72
167 160 82
161 155 70
169 162 80
166 159 77
164 158 72
164 158 74
163 157 80
163 156 75
164 158 77
164 158 74
166 159 75
166 158 79
165 158 77
166 159 81
168 161 80
159 152 78
162 156 76
164 157 77
163 157 78
163 157 73
162 157 74
160 153 71
164 159 79
166 159 78
155 148 68
161 155 70
156 150 70
163 156 73
164 157 78
163 156 76
162 155 79
164 157 81
164 158 78
161 155 77
163 157 76
157 150 73
160 154 74
159 152 75
158 152 67
162 157 80
163 156 80
156 149 74
160 154 67
153 148 73
154 147 62
156 150 72
158 152 73
154 149 71
154 146 75
157 151 74
151 144 72
154 148 71
163 155 77
151 144 68
160 153 79
160 154 78
155 149 66
151 144 72
148 142 65
157 150 73
218 232 238
219 233 240
222 236 250
222 235 249
222 235 250
218 232 239
220 234 245
222 235 248
219 233 243
221 235 248
222 235 249
221 234 246
221 235 248
221 234 246
219 233 244
220 234 246
220 234 249
222 236 252
217 231 241
220 234 244
220 234 246
217 231 242
220 234 244
220 234 246
220 233 248
220 234 246
221 235 248
221 235 250
217 232 240
219 233 242
219 233 248
219 233 242
220 234 244
217 231 237
220 234 246
220 234 248
221 235 249
219 234 245
222 236 253
219 233 242
220 234 245
219 233 242
220 234 248
222 236 252
220 234 246
220 234 248
219 234 248
219 234 245
219 233 244
219 233 245
217 232 237
217 231 240
216 230 245
218 232 243
212 227 235
218 232 245
213 227 238
212 226 235
209 223 238
214 228 243
215 229 239
211 225 236
215 229 242
208 222 239
213 227 237
212 226 234
208 223 238
218 232 244
214 228 241
216 230 244
221 235 249
222 236 253
219 233 244
221 235 250
220 234 248
219 233 245
217 232 240
219 233 246
220 234 250
218 233 242
220 234 249
218 232 241
221 235 250
218 232 241
218 233 242
220 234 246
219 233 246
220 234 244
219 234 248
219 233 244
220 234 248
221 235 249
218 232 241
220 234 246
217 231 244
220 234 249
221 235 250
219 233 242
218 232 246
218 232 246
219 233 245
218 232 242
219 232 246
217 232 242
215 230 237
213 228 230
207 223 214
207 223 211
199 217 186
197 215 181
196 214 169
190 210 155
183 204 118
180 201 113
175 197 80
175 198 80
177 199 84
171 195 54
172 195 80
170 193 72
174 197 82
170 193 70
168 192 72
169 192 76
171 194 67
170 193 80
172 194 86
172 195 95
171 194 77
168 192 78
174 197 88
170 192 86
174 195 103
171 194 94
172 194 88
179 200 125
179 201 108
128 152 107
67 98 108
134 158 68
169 191 18
165 189 31
167 190 40
167 189 60
167 190 60
164 187 67
203 220 194
204 222 199
219 233 242
119 139 165
56 89 111
58 93 116
61 95 135
59 94 122
59 93 128
58 92 125
59 93 124
58 91 110
59 93 126
58 92 126
59 93 115
60 95 137
58 93 121
60 95 126
59 93 131
59 93 128
59 93 122
60 94 128
60 95 135
59 94 133
58 92 115
59 93 120
60 95 135
59 92 128
59 93 120
59 93 125
59 93 129
58 92 122
59 93 129
58 93 121
60 95 137
59 94 128
61 96 143
59 93 124
60 94 134
59 94 121
58 92 120
59 93 129
59 93 124
59 93 128
60 94 131
59 94 128
60 95 133
60 94 131
58 92 133
58 91 121
58 93 120
59 93 128
59 93 122
59 93 129
59 93 126
58 92 122
58 92 114
58 92 120
59 94 131
58 92 124
59 93 130
58 91 125
59 93 134
59 92 128
59 93 133
58 92 124
57 90 124
58 92 124
56 89 111
58 92 125
58 92 126
59 93 129
60 94 125
57 90 115
58 91 125
57 90 129
58 91 111
57 90 122
58 90 124
57 89 115
58 91 127
57 89 123
58 91 125
59 92 127
58 92 125
56 87 118
56 88 119
57 90 116
57 90 117
58 90 121
56 89 118
57 89 119
54 85 114
56 87 122
57 88 124
52 81 102
54 84 112
53 83 107
53 82 100
53 80 108
53 82 109
49 75 93
53 82 109
48 73 82
102 115 132
203 214 225
110 106 49
71 69 27
67 64 17
51 52 11
40 43 14
44 47 14
43 49 21
55 57 16
46 52 26
49 54 23
52 58 30
65 70 28
61 68 39
67 71 37
74 77 36
78 81 43
91 92 39
88 89 43
84 85 44
90 94 42
109 109 52
102 101 47
100 99 44
96 98 51
109 109 49
108 108 57
111 112 55
102 103 51
121 119 60
124 122 59
122 120 61
125 123 58
129 127 62
136 133 61
127 125 58
135 132 65
131 128 64
134 131 64
135 132 61
138 135 70
146 141 73
144 139 71
142 138 65
147 143 62
144 140 67
141 138 66
148 144 68
150 146 62
155 150 73
156 150 74
154 150 72
152 147 67
153 148 70
155 150 74
151 146 70
157 152 68
157 151 71
153 148 62
155 150 71
156 150 74
160 153 78
156 151 65
160 154 74
161 155 74
161 156 74
160 154 72
158 152 71
161 156 71
156 150 65
161 156 68
164 157 77
163 158 70
162 155 72
164 158 74
164 158 76
166 160 69
165 158 75
163 158 71
163 156 76
160 154 70
165 158 72
159 153 67
167 159 77
163 157 76
169 163 78
164 158 73
167 161 78
169 162 82
166 160 76
167 161 72
166 159 75
162 156 75
162 156 74
161 155 72
168 161 80
163 157 72
168 161 79
161 155 72
165 159 77
164 157 75
166 160 81
164 158 80
160 154 72
165 159 70
162 156 73
164 157 74
161 155 75
161 156 71
162 156 73
168 160 81
163 156 74
165 159 80
165 159 76
158 153 72
159 152 73
161 154 77
165 159 79
163 156 75
161 155 76
156 149 71
154 149 69
164 158 79
154 147 69
161 155 79
159 154 65
156 151 70
158 152 71
157 151 75
156 150 76
162 156 76
160 153 75
158 152 72
157 151 69
161 154 80
163 156 76
158 152 75
159 153 71
158 152 75
161 155 80
149 142 68
151 145 70
156 149 76
155 148 70
153 146 75
151 146 74
148 142 66
146 141 61
163 155 82
185 206 120
185 206 117
186 207 128
196 215 167
198 216 167
202 220 189
207 224 204
210 226 214
216 230 230
219 233 241
221 235 246
219 233 241
223 236 252
221 234 246
220 234 246
222 235 250
220 234 245
220 234 246
221 235 248
221 235 249
219 233 244
221 234 246
218 233 240
220 234 247
221 235 246
216 230 240
221 234 248
221 234 248
219 233 242
221 235 248
219 233 242
220 234 246
223 236 253
221 235 249
221 235 249
221 235 249
218 233 240
218 232 241
221 235 248
221 235 250
218 233 241
220 234 248
220 234 246
219 234 245
220 234 245
221 235 249
218 232 240
221 234 248
219 233 241
219 234 245
220 234 245
222 236 253
221 235 250
218 232 244
219 232 245
218 232 242
217 231 244
219 233 245
215 229 241
217 231 246
215 229 240
216 230 239
215 230 238
217 230 246
213 228 236
218 232 249
214 228 242
218 232 244
218 233 242
222 235 250
218 232 240
218 232 241
217 231 240
221 235 249
221 234 248
220 234 248
221 235 246
217 232 245
219 233 242
219 233 244
219 233 242
219 233 242
218 233 242
221 235 248
221 235 250
222 235 253
217 232 240
218 232 240
211 227 226
212 227 218
208 224 212
209 225 212
210 226 215
199 217 181
199 217 182
199 217 181
196 215 165
192 211 147
185 206 137
182 203 105
181 202 117
179 201 84
176 199 67
177 200 84
175 198 51
174 197 57
176 199 72
177 200 76
172 195 62
173 197 57
175 197 94
174 197 44
171 194 60
171 195 60
174 198 51
174 197 72
175 198 57
173 196 60
171 194 90
171 193 80
171 194 82
172 196 80
168 191 70
172 195 65
171 194 67
172 195 76
173 195 60
173 195 76
170 193 76
173 196 74
173 195 84
174 197 86
173 196 97
176 198 99
172 194 90
173 194 111
168 191 111
95 121 110
94 120 97
166 188 25
166 190 40
165 188 36
163 186 22
167 190 67
160 183 60
172 195 44
204 221 194
200 218 179
223 236 253
147 164 183
57 90 121
59 93 124
58 92 126
57 91 114
58 92 118
60 94 130
59 93 121
59 93 125
59 94 125
59 93 124
60 94 129
59 93 128
59 93 124
59 94 136
59 94 133
60 94 130
59 94 129
59 93 130
60 94 136
59 93 128
59 93 125
59 94 129
59 93 125
59 94 128
59 93 126
58 92 114
59 94 128
59 94 133
60 94 129
60 94 126
60 95 131
57 90 117
58 92 121
60 94 133
59 93 125
60 94 133
58 92 120
59 93 135
59 92 129
59 94 130
60 95 134
60 95 129
59 93 122
58 92 128
59 93 129
58 92 120
60 95 133
59 93 126
57 91 115
58 92 124
60 94 130
60 94 133
59 93 129
60 94 137
58 91 125
58 92 126
59 93 128
58 92 124
60 94 134
60 94 129
59 93 129
58 91 118
58 91 120
60 94 127
58 91 120
59 92 132
59 93 126
59 92 120
56 89 115
57 90 121
57 89 122
59 92 124
59 93 124
59 92 127
58 91 120
55 87 115
58 92 128
57 89 120
58 91 120
55 88 106
57 89 127
58 92 124
57 90 117
57 89 124
58 89 118
56 87 114
56 88 120
55 87 104
56 87 119
57 88 119
55 85 110
55 85 110
56 86 121
52 81 112
53 83 102
53 83 105
52 80 101
53 82 101
50 75 85
48 73 91
145 157 166
222 234 251
84 81 48
92 90 36
55 54 17
64 64 23
53 55 13
60 62 22
52 56 22
52 54 11
52 56 18
43 48 22
48 53 24
69 71 32
72 74 28
78 79 24
84 86 37
76 79 44
73 77 31
80 80 36
96 97 40
94 96 49
96 96 49
96 97 43
91 93 46
100 100 50
110 109 47
108 107 47
118 117 56
125 123 62
112 112 52
118 117 51
105 105 49
127 126 63
126 125 61
126 124 57
120 119 55
128 126 55
130 127 51
136 133 62
141 137 55
142 139 71
139 136 60
139 137 63
149 144 70
138 134 57
145 141 66
152 147 68
135 132 54
141 137 64
152 147 73
150 145 75
146 142 67
155 150 70
149 145 69
154 149 69
157 152 74
149 144 70
153 148 63
161 155 74
154 149 65
159 154 66
163 157 74
161 156 78
163 157 73
167 161 78
158 153 64
160 153 70
163 156 72
161 155 71
166 160 79
161 155 76
159 153 75
162 157 73
165 158 79
162 156 72
162 156 67
164 157 78
168 161 76
166 158 78
163 157 76
164 158 72
167 161 82
165 159 78
163 158 82
159 153 60
167 160 76
163 156 75
163 156 71
169 160 81
166 160 71
170 163 80
161 155 73
165 158 73
164 158 70
158 152 69
162 156 74
166 159 77
162 156 72
166 159 79
161 154 68
168 161 82
162 155 74
158 152 74
164 157 73
163 157 82
162 156 70
164 158 76
162 155 75
161 155 72
171 163 83
162 155 72
163 156 72
162 156 74
157 150 71
159 153 63
161 154 77
165 157 81
158 151 77
156 151 73
162 156 75
157 151 75
159 154 71
162 154 79
156 150 68
156 150 72
162 156 76
165 158 80
163 156 79
157 151 71
161 155 75
157 151 71
159 153 76
158 152 68
159 153 70
154 148 72
147 142 70
152 146 69
154 147 68
159 153 70
156 149 71
150 144 63
152 146 67
150 144 67
155 148 73
152 146 75
151 145 73
157 151 76
155 148 69
158 152 75
188 208 128
187 208 128
183 205 108
186 207 117
179 202 95
182 204 99
184 205 108
180 202 88
179 201 88
178 200 74
181 203 95
185 206 120
191 211 149
190 210 145
196 215 161
197 216 169
202 219 186
198 216 175
205 222 194
205 222 194
206 222 199
212 228 221
213 228 221
213 229 226
214 229 229
213 228 220
215 230 233
218 232 240
218 232 238
222 236 249
222 235 249
221 235 250
220 233 242
221 235 246
221 234 246
219 233 244
218 232 240
219 234 244
221 234 246
220 234 245
221 235 246
219 233 241
220 234 246
220 234 242
221 235 249
220 234 245
222 236 250
222 236 249
220 234 245
219 233 241
221 235 248
219 233 242
218 232 237
217 232 237
218 232 244
218 232 242
220 234 247
218 232 247
216 230 244
214 228 234
215 230 239
216 230 240
213 228 228
207 222 218
214 229 226
210 226 214
207 223 209
210 226 212
206 223 201
207 223 204
209 225 211
204 221 199
204 221 196
204 221 196
200 218 182
191 211 153
195 214 169
190 211 149
190 211 151
192 211 147
187 208 130
184 206 122
184 206 125
181 204 108
179 202 88
176 199 57
177 201 80
176 199 44
175 198 62
176 198 57
177 200 84
175 198 72
176 199 84
178 201 84
177 200 62
177 200 62
177 200 80
177 200 80
177 200 72
179 202 88
178 201 80
173 197 44
175 198 51
175 198 62
176 199 57
174 198 67
177 200 72
170 193 44
175 197 57
174 198 57
174 197 67
176 198 62
175 198 62
175 198 76
170 193 78
173 197 60
173 197 74
175 199 76
167 190 70
169 192 80
171 194 84
166 189 82
170 194 70
173 197 72
171 194 80
170 193 70
170 193 84
170 193 78
170 193 57
170 193 71
170 193 86
178 200 76
178 199 121
178 199 121
181 202 134
172 193 114
165 187 115
64 94 102
160 183 25
166 189 0
164 187 31
164 188 36
163 186 36
166 188 67
166 188 62
175 198 72
206 222 199
199 217 175
216 230 230
178 194 200
58 92 117
58 92 129
58 91 122
60 95 130
59 93 128
57 91 124
59 93 118
60 95 136
58 92 118
59 94 131
57 91 118
57 91 115
58 92 122
58 92 115
60 94 133
58 92 124
59 94 133
59 93 125
60 95 130
60 95 133
60 95 139
58 92 122
58 92 130
59 94 126
58 92 120
60 94 124
59 94 131
58 93 115
59 94 126
59 93 131
59 94 131
60 95 135
61 95 137
58 91 117
59 93 124
60 95 131
58 92 118
58 92 129
59 93 134
59 93 124
60 95 134
59 94 133
59 93 126
58 93 131
59 93 135
59 93 125
58 91 117
59 93 124
58 92 121
57 91 118
59 93 125
59 93 136
60 94 130
60 94 130
58 91 124
58 91 120
59 93 125
60 94 133
58 93 114
58 91 117
58 92 133
57 90 118
60 94 132
60 94 138
59 93 128
59 93 129
59 93 128
59 93 129
59 93 128
57 90 117
57 90 117
58 91 119
57 90 128
59 92 123
57 90 128
59 93 127
58 90 124
57 89 121
58 90 118
59 91 130
57 90 125
55 87 108
56 88 109
57 90 122
57 89 125
57 89 114
56 87 115
56 87 111
55 85 113
57 88 122
55 86 117
55 86 113
56 88 123
55 85 107
54 83 98
54 83 112
50 79 104
52 80 95
51 79 98
48 72 77
167 180 177
215 230 228
127 132 111
74 73 26
72 71 28
53 54 15
58 60 11
56 58 23
54 57 17
51 54 22
50 53 18
61 66 24
58 61 24
66 68 24
73 75 25
67 71 34
71 75 32
71 74 38
80 82 45
80 83 39
87 89 30
95 96 43
88 88 42
103 103 45
99 98 43
107 108 55
116 114 54
97 98 42
116 115 55
107 107 47
107 107 51
122 120 57
111 110 51
128 125 48
119 117 48
119 118 57
124 123 64
127 126 60
136 132 64
141 137 64
141 137 66
141 137 63
128 125 55
144 139 66
144 140 65
142 140 55
141 137 67
143 138 69
143 138 60
147 142 65
144 140 66
147 143 67
155 150 66
153 148 67
150 145 67
147 143 64
161 155 71
147 143 66
164 158 75
147 143 59
153 147 58
154 148 71
163 156 78
160 155 73
156 152 64
156 152 66
166 159 73
158 152 68
155 150 62
162 156 71
160 154 73
158 152 74
164 159 75
157 152 68
161 155 72
161 155 75
166 159 83
160 155 72
164 157 74
163 155 75
165 158 75
166 160 77
169 162 82
165 158 68
161 155 75
171 163 83
169 161 83
166 159 76
160 154 68
165 158 70
167 160 79
164 157 75
161 155 67
162 155 64
163 156 70
162 156 74
161 155 73
157 151 65
162 156 72
166 159 74
165 158 79
166 159 80
161 154 74
165 158 76
163 156 75
162 157 74
162 156 74
158 153 71
163 156 75
165 158 75
165 158 72
161 155 71
163 156 74
161 155 67
163 156 72
158 152 69
155 149 69
158 153 71
162 155 70
157 151 73
159 153 77
159 153 72
159 153 74
161 154 72
162 156 74
164 157 75
158 151 67
158 152 72
158 152 69
162 156 77
161 155 72
155 150 67
150 143 75
154 148 74
161 155 76
155 149 69
159 152 74
153 148 73
155 149 74
156 150 70
154 147 74
155 149 74
158 153 71
157 150 74
151 145 71
157 151 75
154 146 71
156 150 80
150 144 65
147 142 67
186 207 122
183 205 114
187 207 120
184 205 108
181 203 99
183 205 111
183 205 105
184 206 120
179 201 82
180 202 84
179 201 84
179 202 88
178 200 70
178 201 67
178 201 76
177 200 62
179 201 80
177 200 57
180 202 95
180 203 95
177 201 76
176 199 74
177 200 57
181 203 95
178 200 82
178 200 74
175 198 80
174 197 47
177 200 74
177 200 57
177 200 62
183 204 102
180 202 88
183 205 121
185 206 117
180 203 88
181 203 103
184 205 114
184 206 111
183 205 111
184 205 111
188 208 128
186 207 125
183 205 105
182 204 95
185 206 120
180 203 102
185 206 111
183 204 102
189 209 137
184 205 117
183 205 111
182 204 105
180 202 92
181 203 99
178 201 84
179 202 80
178 200 72
174 198 57
176 199 51
178 201 76
175 198 36
177 200 72
177 201 88
176 200 67
176 199 51
176 200 67
177 201 92
175 198 57
176 199 57
179 201 76
174 197 36
177 200 72
175 199 67
176 199 62
177 200 72
176 199 72
176 199 57
177 200 72
175 199 57
176 199 57
179 201 72
176 200 72
176 199 76
176 199 76
176 200 67
175 199 76
174 198 76
176 200 76
174 197 51
175 198 57
175 199 80
176 199 67
176 200 72
177 201 80
175 199 88
175 198 62
175 199 67
175 199 67
176 199 57
176 200 72
175 197 76
173 197 72
174 197 67
172 195 62
176 198 62
172 195 62
176 199 67
175 198 67
174 198 76
173 196 62
176 199 92
172 195 72
173 197 80
171 195 70
173 196 86
170 193 47
172 194 70
173 196 70
171 195 78
170 194 70
171 194 67
172 194 67
172 195 67
174 197 76
168 192 90
168 191 72
173 196 67
172 194 72
170 192 78
173 195 71
174 196 86
172 195 94
174 196 103
173 196 105
168 190 99
137 159 84
131 156 65
159 182 18
166 190 18
164 188 31
163 187 25
168 190 40
162 185 25
170 193 18
174 198 51
200 218 181
186 207 120
175 198 0
167 190 40
58 91 111
59 93 134
57 91 115
59 93 136
56 90 110
59 94 118
59 93 128
57 91 120
58 92 124
58 92 122
59 94 124
59 93 126
58 92 121
60 95 133
58 92 118
59 93 125
59 93 124
59 93 124
58 93 120
58 92 122
57 91 105
60 95 130
59 94 126
59 93 124
59 93 129
60 95 133
58 93 113
59 93 130
59 93 118
59 93 131
60 94 129
59 93 128
57 91 124
59 93 120
60 94 129
61 95 135
58 92 121
59 93 126
58 91 120
59 93 125
58 91 117
60 94 131
59 94 124
60 94 130
58 91 117
58 92 120
60 95 136
58 91 117
58 91 115
58 92 128
61 96 142
59 93 128
59 93 133
58 92 116
57 90 122
60 94 130
58 92 118
58 92 126
57 90 114
58 91 118
59 93 117
57 89 111
60 94 123
57 90 133
60 94 137
56 89 113
57 90 120
59 93 131
59 93 127
58 91 125
57 89 117
56 88 117
59 91 122
58 91 120
58 92 126
58 90 117
56 89 111
58 92 120
58 90 121
59 92 125
57 89 112
55 86 110
56 88 116
55 86 113
55 87 114
55 85 108
57 89 126
57 89 126
55 85 105
56 87 120
56 87 116
53 82 110
55 85 105
52 81 99
54 84 113
53 82 106
51 78 94
49 77 96
48 73 83
46 70 86
164 186 19
175 198 0
133 146 30
85 83 28
63 63 19
69 68 26
64 64 20
53 55 16
49 53 17
52 56 18
52 54 19
63 65 19
61 62 13
64 69 22
72 74 25
75 78 30
72 75 30
78 81 36
67 71 35
78 81 30
87 87 43
89 90 39
82 85 36
100 101 39
113 111 48
89 91 42
102 103 45
108 108 41
114 112 47
115 115 55
109 107 44
121 120 48
126 124 58
121 120 55
124 123 58
132 130 61
121 119 53
133 130 58
129 127 57
140 136 68
130 127 61
137 133 60
142 139 64
127 126 64
135 133 62
132 130 56
140 137 62
144 140 62
148 143 65
149 145 69
147 142 71
137 135 53
143 140 55
149 143 65
151 146 65
147 142 61
156 151 67
151 146 64
154 147 66
147 143 67
159 154 74
154 149 61
162 156 70
157 152 71
158 151 71
164 157 76
161 154 71
157 152 67
154 148 70
165 158 77
162 157 72
155 150 71
160 154 73
159 153 71
159 153 67
166 160 77
166 159 77
164 156 77
157 151 63
160 154 65
161 155 75
163 157 71
161 155 67
156 151 63
161 155 64
164 157 69
160 153 68
163 156 71
165 159 75
163 157 72
164 158 70
167 161 70
161 156 65
166 159 72
160 155 73
164 158 71
164 158 75
160 154 71
164 157 68
158 151 69
160 154 68
168 161 84
162 156 69
162 155 73
159 153 67
165 158 77
162 156 75
165 158 77
155 150 61
159 152 80
160 153 74
164 157 74
152 146 63
160 154 69
158 152 76
153 147 59
159 152 72
160 154 69
164 158 74
164 157 77
161 155 69
166 159 74
157 150 72
159 153 75
158 152 69
159 153 76
154 148 71
160 154 77
154 148 70
154 148 63
156 150 66
154 149 69
160 154 75
154 148 68
153 148 69
156 150 73
162 156 72
156 149 76
153 145 70
153 147 69
151 145 67
159 151 70
156 149 73
155 147 76
155 149 70
154 148 74
162 155 80
147 141 68
155 149 74
157 150 78
190 210 140
183 205 108
181 203 102
183 204 108
181 203 102
183 205 111
181 203 99
177 200 67
181 203 95
181 203 88
180 202 84
182 204 102
181 203 92
181 203 92
179 202 88
179 201 76
177 200 90
178 200 67
175 198 47
179 201 74
178 201 80
174 198 67
176 199 70
176 200 67
174 197 57
176 200 84
177 200 51
177 199 60
173 197 47
178 201 80
176 199 51
176 199 72
179 201 76
177 201 84
177 200 62
177 200 72
177 200 72
177 200 67
176 199 57
178 201 80
179 201 76
178 201 72
176 200 62
177 200 62
175 199 62
179 202 84
178 201 72
179 201 67
178 201 62
178 201 67
176 199 57
176 199 57
176 200 72
175 199 51
176 199 62
176 199 72
175 199 44
175 198 25
178 201 72
177 200 72
176 199 76
177 200 76
176 199 76
178 201 67
177 200 80
175 199 51
175 198 44
178 201 67
174 198 36
177 201 84
176 200 62
178 201 67
176 200 72
177 200 72
176 199 67
175 199 76
175 199 72
175 199 62
176 200 57
176 199 76
176 200 92
174 198 44
177 200 62
176 199 62
176 200 92
176 199 67
174 197 72
176 200 76
176 199 62
176 199 80
173 197 72
176 200 67
174 197 57
176 199 62
176 199 51
175 198 44
177 200 62
175 198 57
173 197 67
173 196 57
175 198 57
177 200 76
178 201 80
172 196 44
176 199 57
173 197 67
175 197 62
175 199 62
172 195 51
174 197 76
173 197 36
175 198 62
172 195 62
171 194 44
172 196 72
174 196 72
173 195 67
174 197 51
170 193 62
170 193 70
169 193 76
170 193 84
170 193 78
170 193 62
167 191 51
174 197 74
171 194 82
175 198 72
174 196 80
166 189 74
172 195 78
172 195 95
175 198 94
174 196 102
176 198 102
172 193 103
146 168 80
162 184 40
165 189 18
165 188 40
165 189 25
160 184 36
164 187 36
164 186 68
174 197 44
178 200 62
197 215 169
177 200 57
175 198 0
172 196 0
76 105 115
57 91 129
56 89 109
58 92 113
58 92 122
59 93 129
58 92 130
58 92 118
58 92 107
60 94 122
59 93 118
59 93 122
59 93 128
59 93 136
59 93 117
59 93 126
59 93 124
59 93 125
59 93 128
59 92 125
58 92 126
59 93 130
59 94 129
59 93 126
59 93 126
59 94 129
58 93 126
59 93 128
58 92 122
59 94 124
58 91 124
59 93 120
58 92 118
60 94 133
57 90 124
58 93 121
58 92 125
58 92 129
58 92 122
57 91 108
58 92 120
58 92 124
60 95 126
59 93 125
59 93 126
60 95 128
60 94 131
58 92 121
59 93 131
59 93 126
59 93 120
59 93 130
58 92 128
58 91 120
57 90 125
58 91 122
57 90 114
58 91 117
58 91 115
59 92 121
58 91 120
58 91 121
58 91 125
59 93 130
59 93 128
59 93 131
59 92 124
57 90 118
58 92 113
57 90 120
59 93 125
57 90 108
58 91 128
59 92 124
58 92 118
56 88 111
57 90 122
59 92 120
59 92 128
58 90 126
58 90 126
56 88 113
57 89 121
58 90 124
56 87 118
55 85 109
58 91 122
55 85 108
55 86 118
56 88 117
52 81 98
54 83 111
54 83 102
54 83 105
54 84 113
54 83 107
52 80 104
50 77 95
48 73 84
76 96 80
173 197 0
174 197 0
164 184 16
79 76 31
82 80 33
62 61 13
55 57 21
56 58 13
52 53 6
48 52 16
45 51 14
51 55 17
54 60 20
71 74 22
76 77 27
71 74 26
70 73 27
84 86 34
79 80 34
84 85 30
84 84 37
86 87 40
85 87 34
92 92 40
101 101 45
94 96 35
99 99 42
103 103 40
108 106 50
111 109 53
114 114 56
116 114 53
118 117 49
122 120 50
120 119 54
126 122 56
124 122 62
136 133 63
128 124 55
122 120 54
133 130 63
139 136 57
143 139 57
136 133 63
137 135 59
135 132 56
140 136 58
143 138 63
145 140 69
153 148 65
147 143 64
150 145 58
152 147 62
143 139 64
147 142 63
151 147 63
150 145 70
149 143 64
152 147 65
153 148 65
154 149 68
156 149 69
153 149 61
161 154 77
155 150 65
156 151 60
159 153 72
158 152 70
153 148 62
159 153 68
159 153 67
162 156 73
155 149 67
160 154 72
164 157 70
162 156 66
161 155 65
158 152 67
164 157 78
162 156 71
159 153 66
158 153 68
162 156 64
161 155 69
163 157 68
160 154 65
160 153 75
164 157 75
162 156 69
159 153 68
156 149 66
158 152 70
156 149 65
161 154 74
162 156 75
156 152 65
159 153 68
167 161 75
161 154 65
157 151 65
165 157 72
158 153 61
162 156 67
166 159 74
161 155 65
161 154 68
162 155 71
163 155 69
163 157 75
164 156 76
161 154 75
159 154 68
156 149 62
157 151 62
160 153 70
161 155 75
167 160 76
156 149 64
158 152 61
160 153 76
157 150 69
160 153 73
156 150 66
153 146 71
155 149 69
157 152 66
161 154 72
157 151 71
156 151 71
159 152 69
161 154 74
155 148 75
155 149 70
152 147 64
161 155 69
157 151 74
158 152 67
151 145 61
160 154 74
155 148 69
154 149 67
156 150 70
156 150 69
157 150 73
158 151 72
157 151 72
154 148 74
147 141 68
159 152 70
144 138 65
191 210 140
190 210 137
181 203 102
187 208 133
183 204 102
182 204 105
174 198 57
183 205 108
181 203 95
179 202 76
181 203 92
178 200 67
181 203 95
176 199 51
179 201 67
176 199 67
177 200 78
179 202 84
178 201 76
179 201 95
180 202 76
179 202 84
175 199 57
174 198 54
175 198 65
177 200 76
177 200 72
178 201 72
176 199 44
176 199 82
178 201 80
175 198 60
174 198 40
180 202 80
178 201 88
179 202 80
177 200 62
177 200 67
178 201 62
179 201 72
178 200 57
175 198 72
177 200 72
176 199 67
175 198 51
176 199 51
176 200 62
176 200 67
174 198 51
176 199 57
178 201 80
178 200 57
177 200 72
176 200 72
177 200 76
177 200 62
174 198 51
177 200 80
179 202 88
175 199 62
174 198 57
177 200 67
177 201 88
177 200 88
175 198 51
175 198 62
177 200 62
175 199 67
176 199 51
175 199 62
174 198 25
177 200 76
175 199 57
177 200 67
176 199 67
174 198 57
173 197 36
176 200 67
175 200 80
177 200 67
177 201 99
174 198 76
177 201 92
174 198 72
176 199 62
175 198 36
175 199 76
175 199 44
174 197 51
176 200 88
175 198 51
174 197 67
175 198 51
176 200 67
174 197 44
176 199 72
174 197 44
174 199 62
173 196 44
172 196 51
171 195 51
174 197 62
173 197 76
170 194 36
175 199 72
174 197 67
175 198 51
170 194 51
175 199 51
176 199 72
175 198 36
173 195 57
175 198 72
173 196 72
171 194 57
176 199 80
175 199 88
167 191 57
175 197 72
171 195 84
167 190 70
172 195 78
172 195 65
172 195 72
171 195 78
172 195 72
174 198 92
166 189 65
167 190 99
167 190 74
168 191 72
169 191 100
177 199 111
173 195 103
166 189 84
173 195 90
157 179 33
157 181 18
161 184 31
167 190 31
165 188 31
164 187 40
167 191 51
172 194 54
172 195 25
185 206 114
200 218 179
174 198 0
176 198 0
174 197 0
115 141 103
58 92 121
56 88 113
59 93 122
59 92 124
57 91 107
58 91 114
57 90 122
58 92 117
60 94 124
59 93 120
56 89 111
59 94 126
59 93 126
57 91 115
58 92 121
59 93 118
57 91 126
58 92 121
60 94 124
60 94 126
57 90 118
59 93 131
60 93 121
56 90 114
59 93 122
60 94 131
58 92 122
58 92 128
58 92 124
58 92 113
60 94 124
58 92 124
58 91 117
59 93 131
59 93 124
60 94 125
59 93 117
57 90 110
60 94 131
58 92 124
58 91 113
59 92 125
59 93 120
59 93 129
59 93 135
58 91 111
59 93 121
58 92 129
58 92 111
58 93 115
60 94 139
59 93 128
60 94 129
58 91 129
58 92 126
57 90 121
58 91 125
58 91 125
58 91 123
60 94 135
58 91 121
60 94 133
58 91 121
59 92 125
59 92 121
59 93 130
59 92 125
56 89 108
57 90 120
56 89 110
58 91 118
58 91 126
58 91 124
59 92 123
58 91 120
58 91 128
58 91 119
58 90 128
57 90 106
55 87 112
57 89 115
57 89 116
57 89 113
54 84 103
57 89 118
57 88 111
57 88 126
55 86 114
55 86 110
55 86 108
54 83 106
56 87 119
52 80 90
50 77 88
52 81 101
52 79 100
51 78 94
47 72 80
110 129 51
174 198 0
175 198 0
171 195 0
102 106 33
85 84 29
83 81 29
65 66 20
71 71 12
59 61 16
65 65 13
74 75 18
66 68 19
59 61 19
64 65 21
57 61 18
72 74 28
75 78 28
88 87 28
83 84 36
79 81 30
91 91 39
93 94 37
80 82 35
92 92 33
97 98 40
115 113 48
102 101 36
110 108 41
111 109 48
102 102 42
108 106 47
120 120 50
119 117 48
119 119 53
120 119 54
128 126 56
117 115 49
126 124 58
131 129 55
141 136 57
133 129 56
131 128 54
126 124 40
141 137 64
135 132 56
141 137 53
140 137 53
143 139 61
140 135 58
149 143 66
144 139 65
150 145 63
148 143 59
153 148 71
141 138 51
142 137 54
153 147 69
152 147 69
153 147 67
152 147 56
155 149 67
150 145 60
157 151 67
154 148 67
161 155 68
156 151 65
147 143 51
158 151 69
159 153 63
154 149 65
153 149 66
156 152 64
160 153 70
156 151 69
162 155 69
159 152 68
156 151 66
152 145 63
154 150 69
160 155 67
157 150 68
158 152 63
156 151 57
162 156 72
164 158 74
162 156 72
162 156 69
163 157 71
159 154 65
157 151 64
166 158 75
164 157 79
160 154 69
169 162 73
158 151 71
160 154 73
160 153 72
160 154 67
163 157 66
156 151 67
159 152 68
155 149 64
159 152 67
160 154 75
160 154 72
159 153 70
162 154 73
164 158 74
157 149 64
166 159 69
156 150 69
161 154 71
160 153 64
157 150 74
167 160 77
161 154 73
161 155 77
160 153 72
155 149 66
162 156 71
158 151 68
158 152 68
152 147 58
163 156 75
162 156 70
160 152 74
150 144 64
161 153 73
154 149 69
156 150 66
158 150 73
148 143 60
158 153 68
159 152 71
152 147 66
160 154 70
154 147 70
161 155 74
155 149 62
150 143 66
154 149 65
154 148 71
150 144 64
157 151 73
152 147 64
154 148 68
142 137 56
149 143 63
150 143 68
152 146 65
188 209 133
191 210 145
187 208 128
184 205 117
184 205 111
185 206 122
183 205 114
182 204 103
184 205 111
180 203 102
179 202 84
181 203 92
177 200 67
179 202 95
180 202 76
180 202 92
178 201 84
177 199 57
178 200 67
179 201 72
179 202 80
177 200 72
177 200 67
179 202 76
177 200 67
177 200 80
177 200 72
175 199 70
176 199 62
177 200 62
175 198 44
176 199 67
179 201 72
176 199 65
177 199 51
179 202 80
180 202 84
176 199 62
178 200 62
177 201 84
179 201 67
176 199 57
176 199 57
177 201 80
179 202 99
175 199 44
178 201 67
178 201 76
177 200 57
175 199 57
176 199 57
176 199 62
176 200 67
176 199 62
177 200 72
176 199 57
177 200 80
176 200 67
178 201 72
175 199 44
175 199 44
175 199 62
176 200 80
174 198 62
178 201 95
175 199 57
175 199 67
176 199 57
177 201 84
175 199 51
175 199 72
178 201 76
176 199 72
174 198 44
178 201 92
175 199 62
173 198 51
176 200 80
176 200 80
176 200 67
174 197 36
176 199 62
174 198 72
176 199 51
177 200 80
176 199 67
176 199 44
174 198 76
172 196 44
175 198 44
172 196 44
176 198 51
174 197 72
174 198 51
176 199 44
175 198 62
173 197 57
173 197 67
175 199 92
175 198 36
174 197 51
175 198 51
175 197 72
176 200 88
175 198 76
173 197 57
172 195 51
176 199 67
172 195 76
172 196 76
175 199 62
171 195 62
174 197 67
174 197 80
174 197 72
173 196 51
174 196 62
172 196 62
171 194 60
165 189 65
170 193 72
173 196 82
170 193 78
172 196 76
170 194 78
163 186 72
168 191 82
169 191 72
174 197 102
172 195 86
170 192 86
167 190 76
183 204 128
171 193 90
172 193 90
162 183 47
154 177 25
155 178 40
162 185 0
163 187 0
164 188 0
162 186 36
166 189 47
173 196 51
177 200 51
189 209 137
185 206 114
173 197 0
174 198 0
174 198 0
150 173 70
57 91 110
57 90 110
57 91 114
58 92 120
58 92 127
57 91 113
57 91 120
58 92 114
59 93 122
58 92 117
59 93 117
57 90 118
57 91 111
58 92 114
58 92 113
57 91 117
58 91 125
57 89 107
58 92 114
59 93 131
58 92 114
58 92 118
59 92 122
59 94 131
59 93 124
59 92 121
60 94 134
59 93 126
57 90 117
58 92 115
58 92 114
59 93 126
59 93 115
59 92 128
59 93 126
58 91 114
58 92 120
58 92 115
58 91 124
59 92 122
58 92 120
59 93 126
58 91 121
57 91 117
60 94 125
60 95 137
60 94 126
60 95 131
58 91 117
57 90 113
58 92 118
58 91 120
59 93 126
57 90 107
59 93 122
57 90 121
58 92 121
56 89 114
57 90 120
57 90 118
55 88 113
57 90 110
58 91 125
58 92 115
59 93 125
57 90 111
56 89 116
59 92 131
57 90 117
57 89 118
57 90 117
58 90 122
59 92 130
55 86 107
56 88 108
58 91 116
58 91 128
58 91 124
56 89 115
57 90 114
57 89 113
57 90 116
56 88 110
56 87 118
56 88 118
57 90 112
54 84 97
53 82 94
55 85 108
56 87 115
52 81 97
53 82 94
53 83 94
52 81 93
50 77 97
54 82 91
47 72 81
48 74 82
145 167 39
174 197 0
173 197 0
174 198 0
137 149 28
85 82 33
86 86 31
64 63 19
64 65 19
62 64 14
82 81 15
62 63 12
56 58 19
63 65 13
65 67 19
72 74 26
65 70 30
71 74 17
67 71 27
87 89 20
79 80 33
80 83 36
82 85 36
96 95 36
97 96 35
102 102 34
103 103 43
100 100 41
100 99 38
112 110 42
109 109 47
112 110 49
117 115 45
117 117 39
114 113 45
110 110 48
123 121 49
128 125 55
131 128 59
113 112 48
131 129 55
131 127 57
135 131 55
137 133 64
139 135 58
149 144 69
143 139 62
146 141 64
142 138 61
138 134 54
144 140 58
140 136 61
153 148 64
149 144 64
150 144 55
152 147 68
151 147 67
149 143 61
152 147 64
157 150 76
147 143 49
152 147 64
155 149 67
149 144 57
154 149 62
153 147 67
157 151 70
152 146 67
154 149 63
160 153 70
155 150 65
163 156 75
156 151 65
158 152 68
152 148 60
160 154 67
159 153 69
162 155 67
158 152 60
165 157 72
162 155 65
163 156 71
162 155 66
162 156 67
156 150 60
169 162 78
159 153 68
162 155 71
162 156 75
164 158 72
159 153 69
160 154 73
165 159 71
161 156 71
160 154 69
160 155 65
161 155 67
162 156 67
162 156 74
158 152 69
161 154 71
161 154 71
155 150 62
166 159 74
163 157 71
156 150 61
158 152 61
163 156 69
157 151 69
166 159 80
165 158 68
158 153 69
152 145 66
163 156 75
164 158 74
162 155 72
158 153 71
158 151 70
160 153 72
160 153 71
156 150 73
156 149 68
158 150 71
160 154 69
151 146 65
153 148 62
151 145 62
153 147 63
152 146 62
153 146 63
153 148 68
157 151 69
157 151 71
156 149 75
154 147 71
157 151 70
159 152 72
154 147 70
160 153 73
155 148 62
149 143 68
149 143 67
152 146 72
158 151 75
150 144 62
142 136 65
154 148 70
151 145 66
150 144 63
148 141 61
150 144 62
180 202 84
184 205 113
192 212 151
189 209 137
184 205 111
184 206 111
182 204 95
185 206 114
180 202 86
182 204 108
181 203 111
182 203 88
181 203 95
175 199 51
179 202 88
176 199 67
175 198 31
180 202 84
184 205 108
175 199 51
177 200 74
178 200 62
178 201 76
177 200 76
177 199 60
178 201 76
178 201 76
177 200 80
178 201 72
176 199 57
179 201 62
178 201 80
177 200 62
178 201 76
174 198 54
177 200 67
176 199 51
177 200 72
176 200 72
176 199 72
176 200 62
177 200 72
179 201 72
177 200 62
177 200 57
176 200 76
176 199 44
177 200 57
176 199 62
177 200 57
175 199 62
177 199 72
176 200 72
176 200 67
175 198 57
174 198 44
177 201 84
177 200 67
175 199 57
175 199 57
176 198 57
175 199 57
175 199 72
175 199 62
175 199 51
176 199 62
174 197 62
176 200 62
178 200 62
176 200 80
173 197 62
176 200 88
175 199 62
177 200 57
176 199 67
177 199 36
175 199 57
175 199 72
176 200 80
177 201 80
172 196 51
173 196 36
178 200 88
175 198 57
175 199 62
174 198 62
173 197 57
175 199 44
176 200 80
174 198 51
174 198 62
175 199 62
173 197 72
175 199 95
174 198 62
175 199 72
174 198 67
176 199 51
175 199 84
172 195 25
172 196 67
174 199 84
175 199 72
175 199 57
177 199 62
172 195 57
176 198 57
172 197 72
174 198 67
173 197 67
174 198 72
175 198 67
172 196 72
169 193 67
173 197 57
175 198 80
165 189 51
174 197 102
172 194 94
170 193 57
176 199 97
165 189 51
171 194 74
168 191 67
168 191 40
174 197 76
169 192 67
169 191 95
164 188 67
164 187 78
172 194 82
170 192 103
171 193 100
167 189 80
159 182 62
149 170 0
156 179 0
159 183 25
159 182 18
157 180 31
165 188 25
161 185 18
173 195 36
174 197 51
176 198 62
198 217 173
174 198 51
172 196 0
173 197 0
174 197 0
170 193 18
59 92 116
58 92 113
56 89 92
57 91 105
59 92 117
58 92 118
56 89 107
59 93 125
56 89 113
58 93 115
57 90 111
56 89 122
57 90 120
57 90 115
58 91 107
56 89 110
58 91 111
58 92 122
58 92 117
57 91 117
59 93 122
57 90 117
59 93 126
58 92 122
57 91 113
58 91 117
58 91 111
57 91 118
58 91 121
59 93 129
57 90 108
58 92 122
58 92 121
57 90 118
58 92 118
59 92 126
57 91 108
58 92 110
57 90 114
59 93 117
58 92 122
59 93 130
58 92 120
58 91 120
57 90 113
58 92 118
58 91 124
58 92 125
58 91 121
59 92 130
57 90 113
59 92 124
58 91 125
57 91 124
59 94 131
59 93 118
58 91 123
58 92 120
58 92 121
58 91 120
58 92 122
58 92 128
58 92 121
56 88 110
57 90 114
61 95 128
56 89 113
57 90 121
57 89 114
56 88 111
58 90 115
58 91 121
58 91 116
58 92 119
57 90 121
56 88 122
55 87 116
57 89 119
56 88 113
57 91 121
58 91 119
55 86 111
55 85 100
56 87 118
56 88 118
56 87 109
55 86 118
54 85 113
54 85 106
54 84 111
51 78 93
55 85 109
51 79 95
53 82 101
51 79 91
50 77 86
48 73 73
46 68 70
166 189 18
173 196 0
174 197 0
174 197 0
163 184 19
83 81 27
84 81 33
77 76 23
75 74 19
59 61 15
62 63 16
60 61 12
68 69 17
65 66 19
60 64 24
61 64 16
77 78 20
74 77 31
74 76 28
71 74 19
89 89 33
78 80 36
82 82 31
86 88 24
95 95 30
97 97 36
95 95 35
100 100 35
100 101 35
116 115 44
103 101 45
110 108 36
114 112 43
107 106 43
120 118 42
121 118 47
120 118 55
124 123 46
130 126 57
114 113 43
134 130 59
137 134 56
135 131 56
133 129 53
137 132 53
137 134 58
139 135 58
146 142 59
138 134 57
138 135 50
143 138 57
141 137 57
138 135 55
139 135 58
145 139 56
139 137 43
150 146 60
147 142 55
159 152 71
150 144 67
151 147 65
152 147 59
154 148 68
151 146 61
152 146 54
158 152 69
147 143 54
156 151 66
149 144 58
153 147 62
157 151 67
157 151 71
156 150 63
161 155 67
162 156 67
156 150 68
160 153 71
161 154 70
165 157 76
154 148 60
159 153 68
163 156 71
158 152 62
155 149 60
156 151 58
162 156 64
160 153 64
159 154 66
162 156 67
157 150 62
156 150 68
156 151 64
162 156 73
160 153 69
158 152 65
159 153 70
152 145 61
161 154 69
161 154 67
163 157 70
160 153 70
155 148 64
159 153 64
156 150 67
164 158 75
154 149 58
164 157 75
157 151 73
159 152 75
159 153 68
162 155 75
155 151 54
161 154 71
157 151 65
157 151 68
157 151 66
166 159 76
160 152 66
162 155 74
153 148 61
156 150 65
155 150 68
154 148 69
157 151 72
161 154 67
156 149 64
156 149 70
155 149 64
161 154 71
156 149 61
150 144 64
159 153 66
155 148 66
153 147 61
152 145 71
153 146 67
158 151 71
153 146 69
151 145 65
151 145 60
151 145 65
153 146 66
152 144 66
153 146 69
155 148 75
149 144 64
152 146 63
152 144 68
148 141 72
148 141 64
153 146 67
182 204 99
182 204 108
186 207 122
190 210 142
189 209 130
183 205 108
184 205 105
183 204 102
182 204 102
181 203 92
181 203 92
180 202 95
179 201 86
177 200 80
180 203 92
178 201 88
177 200 57
177 200 72
179 201 84
177 199 60
179 202 80
179 202 84
178 201 76
175 199 62
176 200 67
179 202 90
177 200 70
176 199 67
175 198 47
178 200 67
175 199 70
178 201 72
178 200 84
176 199 60
178 201 78
179 201 84
177 200 62
174 198 36
176 199 51
175 199 67
176 199 72
177 200 80
177 200 72
176 199 72
178 201 80
175 199 57
177 200 67
174 198 51
175 199 51
177 200 80
177 201 76
174 198 44
175 199 67
176 199 67
176 199 51
175 198 51
176 199 62
174 198 44
176 199 57
175 199 72
176 199 44
177 200 57
177 200 92
176 199 57
175 198 72
177 200 76
177 200 76
175 199 76
176 199 51
176 200 72
175 198 57
175 199 76
176 200 76
172 197 72
175 198 51
175 198 67
174 197 51
176 200 84
173 198 51
175 199 57
172 196 57
174 197 67
177 200 67
176 199 57
175 198 76
174 198 67
174 199 88
175 199 51
176 200 84
175 199 62
173 197 51
176 200 72
175 199 67
173 198 80
173 197 67
175 199 84
174 198 57
176 200 80
176 200 76
172 196 62
172 195 44
175 198 62
173 196 57
175 198 84
173 197 67
176 200 80
172 196 62
173 197 51
171 194 62
172 196 76
174 196 44
172 195 51
173 197 67
176 198 76
169 192 57
170 192 88
171 194 62
167 190 44
170 193 76
171 195 57
169 192 57
175 197 60
167 191 54
167 190 97
168 191 65
173 195 84
165 189 40
172 194 76
170 193 99
176 198 90
171 193 99
167 188 111
170 193 88
168 190 90
143 166 47
149 172 25
154 177 36
158 182 0
155 179 18
158 180 40
165 189 36
170 193 0
175 197 57
174 197 36
177 199 67
193 212 155
174 198 0
174 197 0
173 197 0
173 196 0
175 198 0
105 131 95
56 88 117
58 92 126
57 90 112
58 92 116
58 92 114
57 90 103
59 92 121
57 90 108
57 90 113
57 90 110
58 92 120
59 93 120
60 94 125
59 93 122
59 93 118
59 93 122
58 91 111
58 92 117
59 93 122
58 91 113
59 92 122
58 91 111
59 93 120
59 92 124
58 92 128
60 94 129
59 94 131
58 91 114
58 92 121
56 88 113
59 93 125
58 92 114
58 92 121
58 91 124
59 93 120
59 94 124
58 92 125
57 89 113
56 89 110
59 93 117
59 93 125
59 93 129
59 92 118
58 91 118
59 93 124
57 90 118
57 89 103
59 93 125
57 91 121
58 92 117
59 92 131
59 92 130
60 94 131
58 91 129
57 91 118
58 91 126
58 91 118
57 91 121
58 92 117
57 90 114
57 89 111
56 88 110
58 91 112
58 91 117
59 92 130
58 92 123
56 88 110
60 94 134
57 89 118
56 89 103
58 91 120
59 92 132
56 88 110
56 87 113
56 89 108
55 87 101
55 87 106
57 89 117
57 90 118
56 89 116
56 87 116
56 87 111
58 90 113
54 84 101
57 89 118
54 85 103
53 82 110
53 82 100
54 84 106
55 86 110
52 81 90
52 81 99
51 79 101
53 81 103
48 74 86
46 71 76
95 114 64
176 198 0
175 198 0
171 194 0
174 197 0
174 198 0
117 123 32
93 90 26
75 74 29
76 74 23
77 77 20
64 66 17
66 65 18
52 56 10
64 66 12
64 66 20
66 68 17
63 65 16
80 81 27
75 76 20
85 85 28
77 78 29
88 86 22
88 89 30
96 96 25
95 97 28
102 101 38
99 98 30
85 86 29
106 105 33
97 98 38
108 107 40
118 116 52
118 116 42
122 118 41
121 118 51
121 118 53
128 125 47
118 118 51
125 122 55
121 120 44
126 123 49
138 135 56
126 122 49
129 127 52
131 128 47
131 128 57
129 126 47
136 132 42
133 129 56
143 139 51
139 136 50
146 141 61
137 133 60
153 147 64
146 142 57
148 143 62
151 146 62
150 144 64
146 141 61
156 150 67
153 148 62
149 144 63
153 149 58
155 149 64
151 145 51
145 140 56
149 143 60
145 141 50
154 149 60
156 150 67
157 152 70
155 148 67
155 150 62
159 152 63
156 149 57
157 151 66
163 156 66
159 154 68
164 157 75
161 155 69
158 152 65
163 156 74
156 150 62
157 151 60
160 154 67
160 155 66
158 152 67
161 154 61
157 150 64
158 153 57
159 153 66
161 154 65
164 158 67
164 156 75
156 150 61
159 152 65
158 152 60
156 151 65
155 148 67
157 151 70
154 148 63
160 152 67
161 155 65
161 153 70
158 153 65
162 156 72
161 154 73
158 152 66
158 151 63
153 147 63
158 152 67
156 150 65
160 152 73
157 150 67
156 150 70
165 157 74
153 146 61
164 157 75
155 149 63
154 149 64
162 154 77
162 155 65
157 151 70
158 152 70
153 148 61
153 148 64
158 151 70
158 152 67
152 145 68
155 148 65
156 150 69
154 147 72
151 145 56
155 149 71
156 148 71
144 139 57
153 147 64
156 149 66
161 154 72
154 148 65
156 150 67
152 147 63
153 146 66
153 146 67
153 147 62
145 139 64
157 150 71
155 149 64
151 145 71
148 141 66
147 141 61
181 203 102
182 203 90
180 202 84
188 208 130
183 204 105
187 207 128
183 205 111
185 206 111
184 205 108
179 202 80
181 203 107
179 202 76
183 205 108
178 201 97
179 202 95
181 203 92
181 203 99
178 201 84
178 201 76
179 202 88
178 201 72
178 200 82
179 201 88
174 197 65
178 201 88
175 198 51
174 198 80
177 200 62
175 198 62
174 197 31
179 201 67
179 201 80
177 201 80
175 199 62
177 200 72
178 200 57
178 201 84
176 199 51
175 199 62
178 201 76
175 199 57
177 200 67
176 199 51
177 200 57
176 199 57
176 198 62
179 202 76
177 200 72
176 200 62
174 198 51
177 201 84
176 199 57
176 199 67
176 200 62
174 198 44
174 198 57
175 198 44
174 197 51
174 197 57
175 199 67
175 199 57
175 199 67
175 198 51
176 200 72
178 201 76
175 198 25
176 199 67
177 200 67
175 199 62
176 200 76
175 199 67
176 199 51
176 200 84
175 198 62
175 199 67
173 197 76
176 200 72
174 198 76
176 200 72
175 199 67
176 199 62
176 199 84
175 199 80
176 199 62
175 199 57
174 198 72
173 196 72
176 199 57
177 200 72
175 198 67
173 197 62
175 198 51
174 198 67
172 196 51
173 197 62
174 198 44
175 199 80
173 196 62
172 196 57
174 198 57
171 194 57
171 196 67
172 196 57
173 197 76
172 196 72
174 198 80
174 196 62
175 198 72
172 196 62
173 196 62
170 194 80
172 195 67
176 199 67
170 193 80
171 195 62
170 194 72
171 195 51
167 191 44
168 191 76
168 191 62
171 194 67
167 189 67
168 190 67
169 192 70
172 195 76
168 191 51
172 194 90
173 196 95
168 190 78
169 190 92
175 197 111
177 199 110
172 194 88
153 174 54
146 169 25
149 172 25
148 171 36
148 171 25
157 180 18
161 184 25
169 192 25
168 191 25
175 197 44
174 198 44
186 206 122
180 202 88
175 198 0
174 197 0
172 196 0
173 197 0
174 198 0
146 170 73
58 91 121
60 94 130
59 93 121
56 89 115
57 91 118
56 89 114
57 91 110
58 91 121
58 91 110
57 90 105
57 90 113
57 90 122
57 90 114
59 92 121
56 89 113
55 88 111
56 89 110
60 94 133
57 90 102
58 91 108
61 95 130
60 94 135
58 91 115
58 92 117
57 91 102
57 90 111
58 91 118
58 92 118
60 94 130
58 91 121
57 90 110
58 92 126
58 92 121
59 93 128
58 91 120
57 91 111
59 93 115
57 90 113
58 92 121
56 89 114
59 92 118
56 89 105
58 92 118
59 93 128
58 92 118
58 92 118
59 92 115
57 90 115
59 93 128
58 92 110
59 93 126
58 92 120
58 92 122
56 89 115
58 92 124
56 89 111
59 93 130
59 92 129
58 92 124
57 90 111
58 91 117
57 90 121
56 88 113
57 91 117
56 88 110
57 90 115
58 92 114
59 93 124
57 90 116
58 91 126
57 89 106
58 91 123
59 92 125
57 90 109
59 93 124
57 89 106
55 87 114
58 91 125
56 88 114
56 88 113
56 89 110
56 88 113
53 83 104
56 86 107
55 86 104
55 86 106
55 86 111
53 83 89
52 82 95
53 83 98
54 84 109
52 82 107
51 78 93
47 73 79
49 75 91
42 63 64
146 167 35
175 197 0
173 197 0
173 196 0
172 196 0
173 196 0
146 163 16
102 99 42
76 77 18
75 74 24
75 73 20
77 74 25
69 69 16
49 54 15
54 57 14
72 72 8
67 69 24
78 79 21
70 71 19
75 74 28
71 73 22
76 78 31
84 85 23
94 93 33
94 93 26
96 96 33
97 96 40
106 106 36
104 104 44
106 103 35
110 107 40
111 109 48
117 115 46
121 118 48
116 115 32
115 113 50
122 120 49
123 121 50
120 116 40
120 119 44
127 125 39
126 124 48
127 122 49
126 123 54
132 128 56
136 132 56
136 133 47
132 128 55
129 126 47
129 125 50
135 130 56
140 135 52
140 135 62
138 134 55
155 150 67
142 138 47
134 132 52
142 139 51
146 142 57
147 143 57
149 145 58
156 150 63
152 147 67
151 146 58
151 145 61
151 147 63
154 148 60
157 150 68
155 150 61
150 143 61
155 149 65
155 148 68
157 151 62
155 149 60
148 142 51
154 148 63
156 150 59
157 151 62
161 155 62
157 151 64
158 152 68
155 149 61
152 147 56
164 158 71
155 149 60
153 148 63
157 152 61
156 149 65
154 148 68
159 152 68
164 157 73
152 147 60
161 155 71
160 154 61
155 149 62
161 154 71
162 156 65
161 154 70
155 150 54
163 157 66
153 147 58
159 153 58
158 151 58
153 147 60
155 148 66
161 153 68
157 151 65
160 153 66
160 154 66
163 156 73
152 146 58
156 151 54
161 155 75
163 157 75
159 152 67
162 155 72
160 153 71
158 151 64
156 149 68
159 153 70
154 148 62
162 155 65
153 147 63
159 153 69
155 148 64
157 151 66
156 150 66
156 150 62
154 148 58
149 142 63
155 148 63
155 150 66
151 145 60
152 145 66
155 149 62
146 141 60
156 149 68
158 151 70
152 145 69
154 148 64
154 148 72
156 151 66
148 142 63
155 149 65
155 149 63
149 143 67
155 148 68
152 147 68
151 146 65
156 150 75
145 138 64
150 143 66
180 203 92
185 207 122
182 204 114
180 203 92
182 203 105
181 203 99
187 208 125
183 205 113
181 203 99
179 202 92
180 203 99
176 199 70
180 202 84
178 201 72
181 203 99
179 202 95
180 202 88
178 201 80
178 201 76
180 202 94
178 201 80
177 200 57
174 198 36
177 200 72
176 199 44
176 198 62
176 199 72
177 200 97
178 201 72
177 200 72
177 200 57
176 199 51
179 201 67
177 200 72
175 198 65
175 199 57
179 202 95
175 199 62
178 201 84
176 199 62
177 200 67
176 199 57
175 199 36
175 199 72
177 200 57
176 199 67
175 199 67
177 200 51
176 199 51
175 199 57
176 200 67
176 200 72
175 199 51
176 199 44
177 200 80
176 199 57
175 198 57
177 200 72
174 197 51
175 199 67
176 199 62
175 199 72
177 200 80
176 199 72
175 199 67
174 199 67
177 200 76
175 199 72
176 200 72
173 197 57
175 198 57
175 199 67
175 199 62
174 198 51
176 199 62
175 199 67
174 198 67
173 197 57
173 198 80
173 197 44
175 199 67
175 199 72
173 197 57
173 197 80
173 198 67
175 199 51
177 200 57
173 196 51
175 199 76
174 198 67
174 197 72
174 198 51
172 197 67
174 198 62
175 198 51
171 196 76
170 195 62
171 195 76
173 198 67
172 196 80
176 200 88
171 195 67
174 197 72
174 197 72
172 196 57
172 195 44
173 197 80
171 195 76
172 196 76
173 196 67
172 195 67
172 196 62
170 193 67
171 195 57
175 198 84
172 195 51
173 196 57
170 193 57
168 191 76
172 195 84
169 192 36
174 196 76
168 192 80
162 184 51
174 197 90
168 190 105
165 188 92
173 195 72
161 184 78
172 194 103
171 192 113
167 190 95
160 183 72
145 167 31
151 173 31
153 174 25
150 175 0
156 179 25
167 191 0
164 188 0
167 191 0
171 194 51
175 198 36
172 195 44
189 209 137
174 198 0
172 196 0
174 197 0
175 198 0
173 196 0
172 197 0
170 194 0
73 102 102
57 90 107
57 91 113
56 89 114
57 90 105
58 93 120
57 91 107
57 90 108
57 91 122
58 92 114
57 90 118
57 90 111
57 90 111
59 93 117
57 91 118
56 89 102
57 91 115
56 88 105
58 92 120
56 89 110
55 88 97
58 91 118
59 93 131
58 91 113
57 90 113
57 90 124
58 91 121
55 87 92
57 91 115
58 93 120
59 93 121
59 93 126
59 93 126
58 91 117
60 94 128
57 91 103
58 91 108
56 89 117
58 92 121
58 92 129
58 92 125
59 92 130
56 89 117
58 91 121
58 91 108
58 91 118
56 89 113
58 91 122
59 92 122
58 92 124
59 93 125
60 94 128
56 88 118
59 93 121
57 90 120
58 92 115
57 90 108
59 93 123
58 92 117
58 91 118
59 92 130
56 89 117
56 89 117
55 87 97
56 89 113
57 89 120
56 89 110
57 90 117
59 93 132
58 90 118
59 93 121
56 88 104
58 91 120
55 85 110
57 90 110
58 90 124
56 88 101
57 90 114
55 86 97
56 89 110
56 88 113
56 88 111
58 90 115
56 86 112
55 86 101
55 86 111
53 83 105
51 80 98
53 82 109
53 82 106
52 81 102
53 82 100
52 79 86
50 76 75
44 68 74
73 93 60
171 194 5
172 195 0
173 196 0
173 196 0
174 197 0
175 198 0
170 193 11
107 108 30
83 82 27
82 80 31
76 76 27
63 64 25
65 64 18
68 67 18
73 73 14
71 71 20
82 81 10
81 81 24
59 62 18
86 85 25
83 83 28
86 87 23
80 82 20
81 82 24
89 88 27
100 99 26
98 98 32
105 102 34
99 99 33
99 100 40
100 98 29
104 103 40
111 109 37
107 106 36
108 108 35
121 118 42
122 119 53
112 111 42
123 119 46
130 127 42
108 107 41
130 127 47
130 126 47
128 125 49
130 126 41
131 127 49
141 137 53
130 128 48
130 127 42
129 127 52
145 140 49
139 134 56
140 135 53
141 136 55
148 143 65
141 136 58
150 144 63
137 133 44
156 150 64
146 140 53
148 143 58
154 149 54
146 140 54
151 146 65
152 146 63
147 143 51
150 146 57
143 139 51
152 146 56
153 147 56
157 151 59
155 149 57
156 149 61
152 146 61
155 149 63
159 155 59
152 146 63
152 145 58
149 144 61
156 150 63
156 150 58
157 150 69
158 152 67
158 152 65
156 150 55
154 148 62
157 151 66
162 155 69
162 156 71
157 152 63
154 149 65
159 153 65
158 151 62
156 150 61
163 156 70
157 151 63
154 148 64
155 150 52
155 149 64
158 152 63
158 152 60
159 153 68
157 151 59
152 146 53
157 151 57
158 152 62
161 154 64
161 155 66
156 151 58
160 153 67
155 148 66
160 154 67
152 146 58
156 150 61
159 153 67
156 150 64
157 150 69
162 154 68
155 148 68
158 152 67
159 153 66
157 150 72
155 149 68
145 140 51
162 155 73
153 147 62
146 141 47
155 149 65
152 146 64
159 153 66
149 143 57
159 153 72
155 149 68
155 149 67
154 148 61
150 144 64
155 148 59
157 151 69
156 149 71
150 144 66
151 146 64
151 145 66
151 145 56
150 143 66
144 138 60
151 145 66
155 148 73
147 141 63
155 149 66
158 151 74
147 141 63
153 147 67
181 203 84
182 203 102
180 202 88
180 202 88
181 202 86
184 206 114
185 207 120
186 207 128
181 203 102
181 203 95
182 204 99
181 203 99
180 203 95
181 203 95
177 200 67
176 200 76
178 200 80
180 202 100
176 199 60
179 201 80
178 201 76
178 201 80
178 201 76
179 201 72
176 200 67
179 201 88
175 198 36
178 200 62
177 199 62
178 201 92
174 198 60
176 199 76
174 197 65
176 199 57
175 199 70
177 200 72
176 200 76
174 197 36
176 199 72
176 199 67
175 198 67
177 200 72
176 200 72
174 199 67
178 201 84
176 199 62
175 199 67
177 200 67
177 200 72
175 199 57
175 199 80
177 201 76
175 198 44
176 199 57
175 199 76
175 199 76
173 197 62
177 200 62
175 199 72
175 199 88
175 199 67
173 196 57
175 199 57
177 201 76
175 199 80
175 198 67
177 200 67
173 196 44
173 197 67
175 198 44
176 200 88
175 199 44
173 198 57
174 197 51
175 199 57
175 198 80
174 198 72
174 198 57
174 198 51
174 198 72
173 196 62
172 197 57
174 197 36
176 199 62
174 198 67
174 198 72
176 200 67
177 200 76
176 200 84
175 199 72
176 201 102
175 199 84
174 198 44
174 197 51
175 198 62
173 197 72
173 198 72
175 198 62
174 198 80
171 195 67
173 197 80
173 197 51
176 200 76
173 196 57
169 193 57
171 195 51
174 197 62
167 191 67
174 198 62
171 195 72
172 195 72
173 197 62
169 192 51
174 197 72
167 191 57
170 194 67
168 191 67
170 194 62
170 194 72
169 193 76
165 189 67
170 192 80
171 195 67
166 188 67
171 194 92
168 191 80
168 191 67
167 190 67
169 191 107
170 191 111
166 188 80
170 192 80
145 166 51
134 156 18
153 175 0
154 177 0
153 175 0
157 179 0
161 183 0
168 191 25
170 193 25
169 192 36
171 194 25
180 201 108
181 202 92
174 198 0
172 195 0
174 197 0
172 197 0
171 195 0
174 197 0
172 196 0
124 148 82
54 86 102
58 92 122
59 92 111
56 89 113
57 91 105
56 89 105
58 92 111
58 91 108
57 90 114
57 91 103
58 91 115
57 91 111
56 90 100
60 94 131
60 94 130
56 89 105
58 91 111
55 87 95
60 94 118
58 91 118
58 92 120
59 93 129
59 94 124
59 93 130
59 93 126
58 91 110
58 92 120
58 91 117
58 92 114
58 91 124
57 90 108
56 90 105
57 91 114
59 93 124
57 90 118
57 90 111
58 91 122
59 93 124
59 94 129
60 94 128
59 93 128
58 91 118
59 93 130
56 89 99
57 90 111
57 91 114
57 90 113
57 90 107
59 92 129
60 94 137
58 92 110
59 93 128
57 90 111
58 92 120
56 89 111
58 92 120
56 89 104
57 89 120
57 90 111
55 87 105
57 90 120
56 89 107
56 88 115
56 88 113
56 88 103
54 85 101
59 92 115
57 89 111
57 90 113
55 86 101
56 87 110
58 91 125
56 87 110
56 88 116
56 88 111
56 88 110
56 88 108
56 88 114
55 86 104
56 88 110
56 88 112
54 85 106
53 83 109
54 84 111
54 84 103
53 84 99
54 85 103
53 82 98
52 80 94
51 79 85
49 75 100
51 78 90
49 76 73
46 71 76
129 150 40
171 195 0
173 197 0
171 194 0
175 198 0
174 197 0
174 197 0
172 195 0
142 158 28
95 92 33
78 77 19
80 78 18
82 81 23
78 79 23
70 71 19
69 67 14
78 77 11
69 69 16
72 72 21
72 75 16
65 68 20
77 79 22
84 85 20
92 92 32
78 78 25
105 104 31
87 88 22
86 87 27
91 90 32
112 109 36
107 106 39
107 106 43
105 104 28
107 108 37
117 115 36
107 107 43
117 114 33
116 114 39
110 109 38
127 124 45
124 121 50
130 127 44
121 119 46
137 132 50
123 120 51
127 122 52
131 127 46
129 125 48
125 122 44
142 137 52
130 127 51
133 130 46
140 135 51
147 142 57
138 133 51
135 131 49
138 134 56
143 139 52
144 139 43
150 144 59
136 133 47
147 141 57
146 142 58
150 144 54
146 141 62
151 147 58
148 142 56
151 144 56
153 148 60
150 145 61
153 148 57
151 144 58
151 146 54
154 147 63
153 147 56
153 148 62
153 147 64
151 145 54
152 145 62
154 149 57
153 147 62
147 142 52
158 152 63
151 146 60
154 148 54
158 152 61
157 152 59
156 150 67
153 147 61
153 147 65
162 155 66
155 149 61
160 153 68
157 151 61
159 153 66
157 150 63
157 150 62
159 153 67
161 154 68
155 149 57
159 153 59
162 155 60
152 147 57
158 152 65
158 152 62
163 156 70
158 152 64
156 149 63
156 149 61
156 150 60
156 150 56
156 149 68
152 146 60
157 152 58
162 155 65
154 148 67
156 150 66
156 149 59
156 149 65
158 151 68
153 147 64
161 154 72
153 148 54
154 149 65
152 146 62
161 154 67
154 148 59
153 147 62
147 142 59
152 145 60
155 149 60
157 151 67
148 143 56
154 147 68
150 146 60
152 146 60
150 143 62
146 140 62
155 149 61
153 147 66
152 146 61
145 140 60
150 143 64
160 152 77
149 144 58
155 149 72
147 141 57
144 137 57
146 140 65
153 147 74
145 139 67
152 145 70
154 148 71
178 200 57
181 203 102
182 204 105
182 204 105
179 201 80
183 205 108
188 209 133
182 204 102
184 205 108
183 205 117
183 205 111
182 204 102
180 202 88
179 202 88
179 202 94
180 203 102
178 201 76
176 199 62
177 200 72
179 201 80
178 201 72
177 200 76
178 201 88
174 198 44
175 198 25
175 199 65
174 198 44
174 197 57
176 200 82
176 199 62
179 202 84
177 200 72
176 199 65
178 200 78
177 200 72
175 199 78
176 200 88
175 198 51
178 201 80
176 199 57
175 198 72
176 199 62
177 200 67
177 201 88
175 199 62
176 200 67
175 199 57
175 198 67
174 198 72
177 200 76
180 203 99
175 199 72
176 199 57
177 200 57
175 199 76
175 199 62
176 199 62
175 199 76
174 198 57
173 197 51
177 199 67
175 199 72
173 197 62
175 198 62
176 199 57
176 199 57
173 197 57
175 199 44
176 200 95
178 201 72
173 197 57
174 198 62
176 200 88
171 196 44
175 200 95
177 200 72
176 199 72
173 197 57
176 200 76
175 200 88
175 200 80
175 199 72
173 197 67
175 199 80
174 198 72
174 198 62
172 196 72
172 195 67
172 196 62
175 198 67
175 199 80
176 199 62
173 197 76
175 199 76
172 197 80
169 193 51
174 198 62
171 195 80
173 196 51
175 198 57
171 195 62
176 200 67
175 198 76
170 194 67
173 197 72
170 195 76
172 196 51
175 198 51
173 197 51
173 197 72
171 195 76
172 194 51
175 198 62
172 196 57
172 196 80
172 196 72
174 198 92
171 193 72
169 192 80
168 191 51
167 191 57
164 187 51
172 195 62
169 191 99
171 194 88
171 193 80
164 186 99
177 198 114
167 188 99
168 190 84
170 190 105
168 189 74
129 151 0
144 166 0
147 169 0
156 179 0
159 182 0
164 187 25
159 183 0
166 189 0
166 188 36
172 195 51
177 199 36
184 206 125
173 196 0
174 197 0
172 196 0
173 196 0
172 197 0
172 196 0
173 197 0
174 198 0
165 188 36
59 92 114
55 88 118
58 92 110
56 89 106
57 90 109
58 92 122
58 91 121
58 91 117
55 88 113
58 91 126
57 90 117
58 92 113
59 93 118
57 90 114
57 91 99
57 90 117
58 92 115
57 91 122
55 88 103
58 92 124
56 89 105
56 89 113
56 89 103
58 91 120
59 93 117
57 91 108
57 91 110
58 92 121
59 93 124
56 89 111
57 89 117
58 91 121
57 90 108
59 93 121
55 87 108
58 92 117
58 92 114
57 90 113
57 91 105
57 91 111
57 91 114
58 92 118
58 92 117
57 91 110
58 91 118
58 92 111
58 91 120
58 92 121
56 88 107
60 94 130
57 90 115
57 90 113
58 91 126
59 92 122
58 92 121
57 91 118
58 91 120
58 91 120
55 88 115
59 92 124
58 90 113
58 92 124
58 91 117
58 91 122
58 91 116
58 91 120
57 90 120
58 91 121
56 89 110
57 88 120
57 89 113
56 88 118
55 87 107
57 90 111
55 86 108
56 89 113
56 88 101
55 87 113
55 87 114
54 84 104
56 87 106
55 87 115
55 86 114
54 84 108
57 88 112
54 84 112
50 78 86
53 83 103
51 79 88
52 80 96
50 76 84
54 83 97
51 78 98
54 77 70
159 181 37
174 197 0
171 194 0
173 196 0
173 197 0
174 197 0
173 196 0
171 194 0
173 196 0
107 111 31
92 89 27
75 75 21
82 79 15
61 63 14
78 76 18
74 74 14
77 78 18
71 72 26
78 80 13
74 73 16
75 75 20
80 79 21
89 89 20
90 91 24
83 85 26
86 86 23
103 102 28
103 101 31
94 94 34
100 100 29
100 101 31
100 100 38
117 114 42
109 107 43
112 111 42
119 117 39
117 114 41
107 107 34
118 115 46
111 109 34
114 113 35
118 116 46
128 125 37
119 116 40
132 129 38
130 125 47
129 126 45
135 130 54
135 131 48
135 131 47
137 133 46
135 131 53
138 134 52
135 131 45
144 140 49
136 131 52
142 137 51
139 136 42
145 139 60
141 138 54
150 144 56
151 145 54
136 133 49
146 142 59
152 146 57
142 138 48
144 138 54
147 142 56
144 140 56
151 145 59
156 150 65
149 144 61
154 148 63
155 150 58
152 146 60
152 147 49
155 149 62
153 148 52
156 150 61
155 150 58
158 151 59
157 150 64
159 152 63
150 144 49
158 151 58
159 153 67
157 151 62
152 146 52
155 150 59
160 154 63
159 152 66
154 148 63
152 148 57
163 154 68
162 156 62
158 150 63
160 154 65
144 138 49
150 145 58
155 149 58
155 150 64
155 148 56
148 142 49
158 151 62
155 149 66
154 149 58
156 150 73
161 154 65
148 142 58
160 154 70
154 148 60
155 149 61
161 154 71
157 151 64
161 154 69
154 148 59
152 147 58
150 144 64
153 146 64
150 144 63
151 145 60
155 149 67
155 148 65
159 152 70
155 149 61
153 147 63
153 147 54
153 147 67
154 147 61
160 153 65
155 148 61
149 143 58
153 146 61
147 142 58
156 149 65
155 150 68
164 157 77
154 147 65
149 143 59
153 148 62
144 139 56
150 145 59
151 144 60
150 142 60
149 142 60
148 142 58
155 150 63
148 142 63
154 147 71
147 141 61
147 141 59
149 144 65
146 140 66
173 196 0
178 201 80
180 203 92
179 202 84
183 205 108
178 201 80
183 205 120
185 206 115
183 205 111
186 207 130
181 203 105
182 203 99
180 203 99
178 201 88
179 202 92
179 201 88
180 203 92
180 202 84
176 199 51
178 201 80
176 199 80
178 201 67
179 201 88
178 201 88
177 199 74
178 201 76
177 200 76
177 200 72
175 198 67
179 201 88
174 198 51
173 197 57
176 199 51
175 198 67
177 200 72
177 200 94
175 199 78
176 199 65
176 199 67
176 200 76
178 201 84
175 199 57
178 201 76
175 199 72
175 198 57
174 198 57
175 199 57
176 199 57
173 198 67
176 199 76
176 199 62
175 199 67
177 200 57
174 198 67
176 200 88
175 199 62
176 200 84
173 196 44
176 200 92
175 198 44
173 197 57
176 199 80
172 197 76
175 198 57
174 198 72
176 200 67
176 199 76
176 199 67
174 197 57
173 196 36
176 200 95
175 198 62
174 197 44
173 197 92
174 198 80
173 197 44
176 200 72
175 199 72
172 196 57
171 196 62
176 199 67
174 197 72
174 197 44
172 197 76
173 197 67
174 198 72
172 196 57
172 196 72
172 196 80
173 197 51
171 195 80
171 195 57
173 199 80
173 198 62
176 200 80
172 196 62
174 197 62
174 198 67
170 195 44
169 193 62
174 198 84
171 196 67
172 196 57
170 193 72
168 193 62
172 195 44
171 195 67
175 198 76
173 197 57
173 197 57
171 195 92
171 195 62
171 195 88
168 191 57
172 196 76
171 195 67
172 196 76
169 192 76
169 192 67
166 190 67
167 190 72
172 195 76
169 192 76
166 189 62
171 193 76
170 192 102
171 192 84
171 192 105
170 192 95
168 190 95
165 187 88
138 159 44
138 159 0
148 170 0
150 172 0
157 180 0
155 177 0
158 182 0
163 185 0
166 189 36
166 188 44
170 194 51
182 203 111
178 200 84
172 196 0
171 194 0
174 197 0
174 198 0
175 198 0
171 195 0
174 197 0
174 197 0
173 197 0
120 144 72
56 88 105
55 88 105
58 92 118
59 92 121
56 89 110
56 89 107
56 89 105
58 91 108
57 90 111
58 91 114
58 91 114
56 90 113
56 89 110
57 90 102
57 90 114
58 92 117
57 90 110
56 89 103
59 92 115
58 91 113
58 92 124
57 91 110
58 92 125
58 91 113
58 92 120
56 88 103
56 89 105
57 90 105
56 89 110
59 93 125
57 91 124
55 88 103
55 87 102
59 92 117
56 89 111
59 93 120
58 92 115
57 91 115
60 94 118
59 92 121
58 91 121
57 90 118
56 90 113
58 91 117
58 92 113
56 88 107
59 93 125
58 91 114
56 89 108
57 90 110
58 91 124
56 89 111
56 90 110
56 88 114
57 90 109
58 91 120
57 90 116
58 91 120
57 90 108
58 92 121
58 91 122
56 89 110
57 89 117
56 88 115
59 91 122
57 90 123
58 91 114
58 91 122
55 88 101
58 90 127
56 88 104
57 90 111
57 90 114
56 89 124
57 89 128
56 88 104
56 88 102
56 87 110
54 85 98
56 86 113
56 87 108
56 88 111
54 85 104
54 84 112
52 82 85
56 87 112
51 80 94
53 82 101
52 80 99
47 72 79
48 73 78
46 70 74
115 135 52
170 193 0
174 196 0
170 193 0
172 196 0
170 194 0
169 191 0
171 195 0
174 196 0
170 194 0
150 166 24
80 79 23
75 73 18
80 78 20
81 79 19
84 83 22
76 73 12
70 70 12
70 70 14
76 75 12
77 79 16
77 77 17
79 78 18
90 89 21
81 82 18
88 87 20
90 89 28
85 85 23
86 87 25
87 86 25
89 87 30
95 92 30
103 101 35
98 99 35
105 104 34
118 116 37
117 115 42
116 114 42
110 109 38
121 119 44
120 117 36
115 111 35
112 112 37
118 116 41
116 114 45
126 123 48
120 118 42
133 129 42
127 124 39
131 127 44
131 128 49
132 127 45
137 133 48
140 135 54
130 127 42
139 134 50
141 138 47
146 141 62
141 137 49
154 148 54
146 139 56
143 137 56
151 146 60
138 134 49
146 141 53
139 135 47
146 141 56
153 146 61
155 149 58
149 143 56
149 143 60
144 139 52
148 142 54
159 152 60
158 152 62
153 148 57
151 146 58
152 146 53
154 149 58
157 151 65
155 150 61
155 149 68
154 148 59
158 151 60
154 149 57
149 144 52
152 146 63
160 153 60
161 154 66
155 149 59
149 143 61
154 148 54
150 144 53
155 149 57
156 150 58
149 143 54
159 151 66
154 148 63
156 149 61
154 148 60
157 151 63
152 146 58
156 150 60
160 153 65
159 153 60
162 154 67
156 148 61
157 150 59
157 151 65
156 150 64
159 153 64
153 147 61
159 152 67
149 142 52
150 144 59
154 148 60
158 151 65
153 147 60
153 147 59
147 141 62
157 151 62
148 142 54
160 153 73
155 148 64
146 140 61
159 151 69
154 148 61
156 150 62
149 143 61
157 150 69
149 144 56
157 150 67
153 147 71
148 142 62
156 150 64
151 144 62
157 151 63
153 147 64
155 148 68
148 142 54
149 142 56
148 143 53
150 144 68
159 151 76
149 143 61
151 144 64
152 147 66
153 147 66
144 138 65
140 135 52
145 140 57
147 141 62
147 140 58
154 147 67
173 196 0
175 199 51
177 200 76
180 203 92
181 203 95
180 202 84
180 202 84
183 205 108
190 210 142
182 203 105
182 203 102
181 203 102
183 205 105
180 202 99
180 203 95
180 202 99
178 201 76
177 201 84
179 201 80
178 201 84
175 199 67
181 203 102
175 199 76
175 199 62
181 203 99
176 200 72
178 200 67
177 200 84
178 201 97
175 198 67
175 198 54
177 200 76
176 199 76
173 197 72
175 198 65
174 197 65
177 200 72
175 199 62
178 201 76
173 197 51
172 196 57
175 198 67
176 200 80
177 201 88
175 199 57
177 200 67
174 198 57
175 199 62
173 198 62
178 201 80
175 198 76
174 197 36
176 199 72
176 199 57
176 200 72
174 198 67
175 199 76
175 199 57
175 199 67
173 198 51
174 197 57
175 199 62
174 199 67
174 198 67
173 198 72
170 194 44
175 199 44
174 198 57
176 199 67
174 198 72
172 197 80
173 196 67
175 198 76
172 196 57
175 199 84
174 198 51
172 197 62
174 197 57
174 197 57
174 198 51
172 196 44
174 198 80
173 196 51
174 198 72
172 196 62
171 196 92
174 199 88
174 197 62
169 193 62
172 196 67
174 197 44
174 198 51
173 197 62
173 196 57
168 191 57
172 197 67
174 197 67
172 195 44
175 199 57
172 196 67
169 193 51
170 194 51
174 198 67
170 194 62
172 196 76
174 198 62
168 193 92
174 198 62
173 198 92
172 194 76
171 195 72
175 198 62
171 194 76
171 195 72
170 194 72
168 192 72
170 193 62
168 191 72
173 195 84
171 195 80
166 189 67
161 184 67
172 195 76
169 193 72
171 193 95
169 190 84
169 190 99
170 193 80
167 190 72
167 188 88
145 166 51
148 170 0
145 167 0
151 173 0
154 176 0
153 176 0
163 185 0
165 188 0
166 189 0
167 189 44
169 192 51
173 196 51
185 205 125
173 197 0
173 197 0
172 196 0
173 196 0
171 195 0
173 196 0
170 194 0
172 196 0
172 196 0
173 196 0
163 187 40
56 89 99
56 90 110
57 91 107
57 90 113
57 91 114
55 88 95
55 88 99
56 89 102
57 91 115
56 88 102
55 87 107
58 91 118
58 92 122
56 89 108
56 89 105
57 90 110
58 92 122
56 89 107
56 89 105
58 91 120
57 91 111
57 90 113
57 90 117
58 91 108
57 90 118
57 89 115
56 89 108
58 91 115
57 91 113
58 92 120
58 91 115
57 90 110
57 91 100
57 91 113
57 91 111
58 91 113
56 88 102
58 92 114
58 91 122
57 90 108
57 90 115
57 91 118
57 89 110
57 91 110
58 92 120
56 88 107
57 90 110
57 90 107
57 89 117
58 91 124
54 86 102
57 91 113
58 92 114
57 91 114
58 91 113
55 87 110
57 90 120
58 92 124
57 91 118
56 88 110
57 88 114
58 91 116
55 87 103
57 89 107
58 90 110
57 89 104
55 86 99
58 91 120
55 87 104
56 89 108
56 89 110
56 87 120
56 88 111
54 86 105
56 88 112
54 86 107
56 88 113
55 86 107
52 81 94
53 83 99
57 88 113
53 82 97
56 86 113
54 84 100
51 80 90
52 82 90
53 83 102
52 81 98
49 76 89
51 79 93
46 71 78
51 75 72
158 181 37
171 194 0
172 196 0
173 196 0
169 193 0
172 195 0
173 195 0
171 194 0
171 193 0
173 196 0
171 194 0
122 128 32
91 91 12
79 77 19
81 80 26
71 70 18
71 69 16
77 76 18
72 72 18
70 70 12
81 80 4
78 79 21
85 85 22
71 73 13
96 94 20
78 80 21
88 86 28
92 91 32
83 82 16
95 93 21
100 99 27
91 90 23
98 97 14
96 95 31
109 108 30
96 96 28
111 111 36
104 102 40
106 104 38
117 115 33
109 107 42
125 121 41
126 121 42
121 119 39
119 117 44
123 121 46
122 118 37
128 124 45
131 128 47
139 134 46
133 129 50
142 136 53
131 127 45
139 134 49
133 131 37
135 130 37
133 128 45
145 138 49
137 134 47
141 135 55
146 139 56
137 133 45
143 139 52
140 136 51
148 143 54
141 137 56
141 137 48
145 138 56
150 144 60
152 145 52
154 148 56
151 146 58
150 145 57
149 143 59
156 150 56
155 149 64
143 137 49
149 144 52
156 148 60
152 146 54
152 146 60
152 147 56
150 145 53
157 151 61
144 138 50
149 144 56
153 147 57
151 145 57
151 145 53
154 148 58
148 142 59
149 145 47
157 150 52
152 145 56
151 144 58
156 149 58
152 147 57
156 151 59
156 150 57
154 148 54
156 149 62
155 149 58
154 147 54
153 146 60
154 147 63
152 147 58
158 152 56
154 147 62
156 150 63
153 147 56
158 151 59
158 151 67
156 150 69
158 150 62
152 145 57
153 147 61
149 143 60
154 147 54
149 144 49
159 152 66
156 149 65
147 142 52
152 146 64
149 143 51
156 149 67
155 148 66
152 147 65
155 149 57
148 142 59
147 141 53
156 150 63
150 144 57
148 142 56
150 144 61
152 146 57
152 146 64
143 137 53
159 152 64
152 146 59
145 138 56
163 155 69
144 138 57
149 143 61
150 144 62
150 144 63
153 147 65
157 150 67
146 140 63
144 137 61
147 141 64
153 146 72
144 138 61
151 145 53
148 143 63
172 196 0
173 197 0
175 198 62
184 205 102
181 202 95
181 203 95
178 201 88
178 200 72
183 204 99
185 206 122
184 205 117
181 203 99
179 201 76
178 201 80
181 203 92
177 200 62
178 201 88
178 201 92
180 203 99
177 199 78
181 203 108
177 201 80
176 199 67
176 199 57
177 200 72
173 197 60
178 201 88
175 199 57
178 200 76
177 200 84
176 199 70
176 199 72
179 201 67
177 200 62
176 199 70
176 199 62
175 199 74
173 197 57
173 197 70
177 200 76
177 200 76
175 199 62
177 201 76
176 200 67
178 201 76
173 197 67
175 199 72
176 199 76
173 197 51
174 197 57
176 200 72
176 200 88
175 199 67
172 197 44
174 198 51
174 198 57
175 199 44
176 200 67
175 198 44
174 197 57
173 197 62
175 198 76
173 197 62
174 198 62
173 197 62
175 199 67
174 198 67
176 199 51
174 198 67
173 198 51
175 199 72
174 198 76
174 198 84
173 197 67
174 198 72
172 196 36
173 197 62
175 200 105
173 198 76
172 197 57
175 198 36
174 198 62
173 197 80
172 197 76
173 197 57
171 195 57
171 196 51
174 198 57
175 199 72
173 197 72
173 198 57
171 195 62
176 200 62
171 196 67
174 198 80
173 197 51
171 195 57
174 198 67
172 196 62
171 196 62
169 194 57
172 195 51
174 198 57
172 196 84
172 196 84
171 194 44
170 193 44
170 194 67
168 192 72
171 195 76
170 194 72
171 195 67
170 193 88
169 193 76
172 195 72
173 197 72
170 194 72
168 192 88
165 189 67
168 191 62
171 194 84
169 192 99
173 195 84
166 189 76
171 193 114
170 191 99
167 189 92
166 187 84
159 181 67
156 177 36
131 152 0
143 164 0
154 176 0
147 169 0
155 177 0
158 181 25
156 179 0
155 178 0
168 192 25
171 194 57
168 191 57
177 199 99
178 201 72
171 195 0
173 196 0
170 193 0
174 197 0
173 196 0
172 195 0
170 195 0
171 195 0
171 195 0
170 194 0
169 192 0
118 142 81
55 87 99
55 88 101
57 90 113
57 90 107
55 87 103
55 88 108
58 91 117
59 92 121
59 93 120
55 88 102
58 91 115
55 88 99
56 88 107
58 91 110
58 92 118
55 87 105
56 89 113
58 92 121
56 89 102
58 92 120
55 88 102
56 88 108
58 91 122
57 89 111
58 91 105
58 91 111
57 90 113
56 89 95
56 89 107
56 89 108
59 93 124
58 91 120
56 89 108
56 89 105
55 87 110
58 92 117
55 87 94
54 86 105
59 92 129
58 91 120
58 92 120
59 93 122
56 89 108
57 91 113
55 87 105
57 90 111
58 91 111
59 92 114
58 92 114
55 87 114
58 91 118
59 93 120
55 88 103
59 92 126
58 91 117
56 88 108
58 91 117
55 87 100
56 88 103
58 91 118
56 87 107
57 88 118
57 90 117
55 87 108
57 89 112
57 90 107
57 90 118
59 92 123
56 88 110
55 87 103
55 86 104
54 85 96
56 88 110
57 89 114
57 89 122
53 83 104
54 85 99
54 85 96
53 83 98
57 89 113
51 80 82
55 85 99
53 83 95
54 85 99
53 84 98
53 81 88
51 79 99
50 78 94
47 72 69
49 77 85
117 138 50
173 196 0
170 193 0
172 195 0
173 196 0
172 194 0
171 194 0
171 194 0
170 193 0
170 193 0
171 194 0
172 194 0
160 179 25
112 109 40
93 89 28
77 75 22
67 66 14
75 74 18
79 75 2
85 84 12
68 68 9
87 84 13
78 77 12
87 86 14
78 78 18
90 90 18
69 69 10
93 92 24
92 91 12
93 91 16
91 90 30
96 94 24
102 99 25
85 86 26
96 96 29
110 107 35
98 97 31
105 104 28
105 103 25
109 107 28
116 113 36
98 98 23
123 120 43
116 114 32
127 124 39
117 115 34
117 115 36
127 123 43
131 126 48
132 128 44
131 127 42
133 130 42
131 127 45
137 132 48
137 132 48
149 143 49
137 132 45
125 122 42
133 129 48
137 134 34
140 135 56
137 133 46
136 130 47
133 129 47
141 137 45
149 144 53
147 140 55
150 146 52
144 140 51
143 138 52
153 146 56
151 146 54
154 148 49
144 139 52
141 136 51
151 146 56
149 144 59
148 142 48
150 144 45
151 146 51
150 146 49
158 152 61
152 146 54
151 146 48
156 148 60
146 142 47
153 147 56
149 144 56
155 147 66
155 149 60
153 147 56
155 149 59
155 149 52
156 151 57
154 148 61
157 151 64
158 151 61
157 149 61
154 147 61
157 151 60
149 144 56
157 151 57
158 152 53
160 154 64
155 149 64
157 152 62
162 155 66
159 152 63
150 145 58
150 145 56
152 146 59
156 151 63
153 148 58
153 147 58
153 146 66
149 142 59
158 152 65
146 142 57
154 147 59
154 149 56
154 147 61
156 150 61
156 149 66
158 152 66
154 148 65
154 148 61
155 148 63
149 144 54
156 150 64
154 147 63
155 149 62
153 147 63
149 143 54
147 140 56
151 144 59
152 146 61
144 139 57
154 149 60
154 148 62
159 151 73
149 143 57
144 139 51
149 143 61
142 137 53
155 149 63
151 145 57
147 141 56
142 136 56
153 147 63
149 144 59
146 139 58
146 139 67
147 141 61
151 145 57
148 142 56
173 197 0
172 196 0
176 198 0
179 201 84
179 202 84
184 206 117
179 201 72
179 202 84
179 201 76
182 204 105
183 204 99
186 207 130
181 203 95
182 204 108
183 205 122
180 203 92
179 201 105
175 199 62
180 203 95
176 199 57
178 201 76
177 200 72
176 198 44
179 202 84
176 199 62
177 200 80
175 198 62
177 201 80
176 199 62
177 200 72
177 200 62
178 201 67
178 201 67
177 200 62
179 202 99
174 198 70
176 200 72
176 199 62
175 198 51
175 198 57
175 199 57
175 199 51
177 200 62
176 199 62
175 199 72
174 198 57
177 200 72
177 200 67
177 201 84
174 198 57
174 198 62
173 197 36
176 200 72
174 198 67
174 198 72
175 199 62
173 197 57
175 199 72
175 198 51
173 197 67
172 195 51
174 199 67
174 198 76
173 197 67
174 198 72
172 196 62
173 197 51
176 199 57
174 198 57
174 198 67
175 198 62
173 197 51
175 199 57
173 198 62
173 197 62
173 197 62
174 198 57
175 198 57
175 199 62
174 197 62
172 196 67
173 196 44
173 197 67
170 194 67
174 199 80
172 197 76
173 197 67
172 196 36
174 199 72
172 196 57
173 197 76
173 196 51
170 195 76
167 191 51
175 198 62
170 194 72
170 193 51
173 197 67
170 194 72
168 192 44
173 197 67
172 196 44
170 194 76
170 195 76
170 194 72
173 196 67
169 192 62
171 195 72
169 193 67
168 192 80
170 194 76
171 195 62
170 193 57
169 192 62
173 197 80
168 192 80
173 196 76
168 192 57
173 196 92
166 189 62
170 193 67
169 192 80
168 190 76
168 191 88
173 194 117
171 193 105
165 186 72
164 186 88
151 172 72
143 165 0
144 165 0
155 177 0
153 175 0
147 169 0
146 167 25
155 178 36
164 187 0
167 190 0
165 188 44
171 194 25
173 196 57
179 201 95
172 194 0
173 196 0
170 193 0
172 196 0
173 196 0
174 197 0
172 195 0
174 196 0
168 192 0
171 194 0
174 198 0
170 194 0
160 183 25
65 95 100
54 85 95
57 90 108
55 88 105
57 90 107
56 89 111
55 87 107
56 89 99
55 88 102
58 91 115
58 91 111
57 91 108
57 90 107
56 90 102
54 86 92
58 92 120
59 93 117
56 90 105
58 91 113
55 88 99
58 91 122
57 90 105
58 92 118
57 91 114
59 92 124
55 88 102
58 91 110
58 92 122
56 89 99
57 90 103
56 89 102
57 90 108
58 91 115
57 90 103
58 90 114
58 91 120
56 89 105
58 91 114
57 90 111
56 89 103
57 90 113
56 88 114
57 90 111
57 90 108
56 89 105
57 90 107
57 90 118
57 89 111
56 89 97
59 93 124
56 89 117
56 89 115
58 91 108
56 88 105
57 90 118
55 87 103
55 87 102
56 89 111
56 88 96
56 88 111
55 87 112
55 86 107
55 87 99
54 86 108
55 87 101
55 87 111
58 90 120
55 86 106
54 84 110
58 91 119
57 90 110
55 87 104
55 87 102
56 88 108
56 87 103
54 84 108
55 86 118
56 87 108
54 84 103
54 84 106
54 85 107
53 83 103
51 80 98
53 83 100
53 81 105
48 75 90
51 79 89
50 78 67
45 70 67
53 75 69
154 175 18
169 191 0
170 194 0
170 193 0
171 195 0
170 193 0
172 195 0
168 191 0
172 193 0
170 193 0
166 188 0
171 193 0
171 194 0
134 144 28
90 86 23
81 79 34
78 77 20
76 75 16
76 74 20
85 83 14
79 78 8
84 85 8
95 93 6
81 78 20
70 71 16
77 78 14
90 88 16
76 77 9
90 91 25
87 86 16
92 91 27
89 89 23
104 102 16
104 102 30
109 107 29
114 112 33
92 92 22
111 109 32
107 106 25
111 108 27
110 108 36
113 111 38
111 109 24
119 116 37
125 122 37
119 114 33
123 121 41
129 125 45
131 127 41
132 128 30
132 127 50
133 129 40
126 123 37
124 122 42
127 123 35
134 129 46
135 131 45
133 130 42
133 128 37
140 135 45
138 133 43
147 141 49
128 125 37
133 129 41
140 134 41
136 131 46
146 141 47
144 138 44
144 139 44
148 142 57
141 136 49
145 141 51
140 136 47
149 144 55
142 137 39
141 136 41
148 142 46
147 140 49
148 142 56
152 146 57
150 145 52
154 149 54
155 148 60
155 149 62
149 143 48
147 140 51
153 146 58
149 143 63
147 142 49
149 144 49
151 145 52
147 142 51
152 146 53
154 148 51
150 146 47
148 143 49
153 148 58
152 146 56
154 147 56
157 151 61
161 155 60
153 147 59
157 151 59
161 154 69
152 146 53
155 148 56
159 151 66
149 143 52
153 146 57
150 145 51
154 147 58
153 147 56
151 145 54
154 148 60
155 148 61
151 145 49
155 148 62
151 144 64
147 141 56
145 140 45
157 150 62
142 138 49
150 144 61
147 141 60
156 149 65
149 144 59
139 133 44
153 146 49
145 138 56
153 147 65
152 146 59
145 139 49
146 140 53
164 157 76
146 141 60
152 145 59
156 149 63
143 138 57
145 140 52
145 139 59
155 148 70
148 142 58
148 140 60
147 142 57
144 139 59
146 140 60
155 149 71
143 136 60
144 138 60
141 135 56
154 147 68
154 148 59
144 138 61
142 137 62
148 142 60
174 197 0
174 197 0
173 197 0
172 196 0
176 199 51
179 202 80
180 202 95
181 203 95
178 201 72
180 202 80
181 203 95
183 205 117
183 204 99
181 204 108
183 204 105
184 206 125
181 203 99
179 202 102
179 202 88
180 203 95
182 204 117
182 204 108
177 200 84
178 201 76
177 201 99
176 200 80
177 200 80
177 200 88
176 199 62
179 202 88
179 202 84
176 199 67
177 200 72
176 199 88
176 199 44
175 198 57
176 199 62
174 198 57
175 198 67
175 199 72
177 200 67
174 197 62
178 201 84
176 199 51
174 198 72
175 199 57
173 197 57
175 198 62
174 197 62
175 198 57
176 199 51
175 199 57
177 199 72
177 200 57
176 199 84
175 198 44
174 198 67
173 197 62
174 198 67
175 199 72
174 197 51
174 197 51
175 198 67
173 196 62
173 197 67
174 198 62
176 199 72
172 197 44
171 196 72
175 199 72
174 199 88
175 199 62
172 197 80
173 197 57
175 199 62
172 196 80
174 198 62
174 198 67
172 197 72
173 198 67
174 197 67
173 197 62
172 196 51
173 198 67
173 197 57
173 196 51
171 195 80
173 197 72
174 197 51
170 194 62
172 196 62
170 194 84
171 196 36
171 195 80
172 196 62
171 194 62
175 199 80
171 195 76
173 198 62
173 197 67
173 198 88
172 196 67
175 199 76
171 195 62
170 193 67
171 195 72
168 192 62
172 196 72
171 195 67
169 193 76
167 191 62
169 192 67
169 193 62
164 187 72
169 193 62
170 194 92
171 194 84
170 193 88
166 190 80
168 190 51
170 192 92
167 189 76
171 193 102
162 184 84
173 195 99
161 182 80
163 184 88
157 179 67
144 166 0
148 169 0
147 168 0
157 178 0
148 171 0
157 180 0
158 181 0
159 182 0
166 189 25
162 185 0
165 187 51
171 193 51
182 203 114
173 197 0
170 193 0
171 195 0
171 194 0
171 194 0
172 195 0
169 193 0
168 192 0
166 190 0
170 194 0
172 196 0
170 194 0
169 193 0
167 190 0
125 149 60
54 85 95
56 89 107
57 90 105
56 89 100
58 92 126
58 92 121
56 89 100
55 87 103
56 89 105
57 91 115
55 88 95
55 87 92
57 90 113
58 92 111
57 90 111
58 92 124
56 90 107
58 91 113
57 90 108
57 90 107
57 90 114
56 89 102
57 90 107
57 91 114
55 87 97
57 90 107
57 90 100
58 91 114
55 87 110
55 88 97
55 87 95
57 91 107
57 90 108
56 88 103
57 90 121
59 92 125
57 90 100
56 89 111
58 91 122
57 90 108
56 89 111
56 88 108
55 87 99
56 89 108
57 90 110
57 91 111
57 90 114
57 90 114
56 89 99
57 90 125
55 87 105
57 90 111
57 89 111
56 88 111
57 89 108
55 88 100
54 86 102
57 90 113
55 87 113
55 87 97
54 86 92
56 88 96
57 90 120
55 85 104
55 87 100
55 87 101
57 89 118
55 86 102
54 86 103
58 90 121
55 88 111
55 87 106
54 85 101
56 87 108
56 88 109
54 85 101
54 84 95
53 83 101
53 83 100
52 81 95
55 86 107
52 81 88
49 76 89
50 78 73
49 76 88
49 77 87
50 77 76
46 71 69
123 143 40
167 191 0
171 194 0
168 192 0
168 191 0
168 190 0
169 190 0
166 190 0
170 191 0
163 186 0
168 190 0
171 193 0
166 189 0
169 191 0
168 190 0
112 112 28
95 93 29
85 83 14
78 77 8
82 81 29
77 76 20
79 78 18
81 81 14
77 77 18
76 75 11
88 85 5
82 82 14
91 87 19
101 98 18
93 89 21
85 86 18
86 84 14
103 102 20
89 89 24
95 93 33
96 94 18
111 108 23
106 106 34
105 104 27
103 103 31
110 108 27
111 108 37
109 108 33
112 110 37
121 118 33
125 121 42
114 112 34
127 123 32
126 122 31
131 128 42
121 117 37
130 126 37
125 124 30
125 121 41
122 119 31
137 132 47
135 131 45
128 124 42
132 129 37
132 126 39
138 132 49
136 132 42
140 135 49
146 140 45
138 134 39
145 140 45
144 138 45
141 136 53
150 142 54
143 138 49
145 140 47
148 143 48
136 132 48
144 140 47
151 146 58
146 142 39
152 146 53
143 138 43
146 141 55
155 149 59
147 141 50
149 144 47
151 145 51
152 147 51
159 152 60
143 137 56
154 147 47
160 153 61
160 153 61
154 148 52
154 148 56
154 147 61
149 143 49
153 145 60
151 146 56
152 146 52
160 154 59
152 146 58
148 143 53
149 144 49
150 145 53
155 150 59
151 145 60
156 150 62
152 146 54
148 142 59
157 151 63
155 149 58
155 148 59
151 146 49
152 146 54
158 152 62
156 150 56
152 145 57
150 144 47
153 146 59
155 149 57
155 148 67
157 151 60
153 147 62
151 145 59
147 141 54
147 142 56
156 150 60
155 149 63
151 144 62
141 136 48
149 143 58
153 147 59
155 148 62
139 134 45
149 143 60
156 150 58
147 141 60
143 137 52
151 145 53
146 139 54
145 139 57
146 140 51
147 142 56
144 139 54
152 146 60
149 141 59
143 137 52
144 139 48
154 147 66
144 138 57
155 148 66
146 140 57
148 141 59
144 139 56
149 144 59
147 142 54
142 136 59
146 140 58
147 139 63
174 197 0
174 198 0
173 196 0
172 196 0
173 196 0
181 203 95
182 204 95
178 201 80
178 201 67
183 204 105
180 202 84
178 201 92
185 205 118
185 206 114
180 202 92
181 203 95
179 202 95
180 202 103
184 206 122
179 201 84
178 201 84
179 201 97
176 200 88
177 199 86
178 201 67
177 200 57
174 198 67
179 201 88
175 198 76
176 199 76
178 201 95
179 201 80
176 199 67
175 199 72
178 201 84
177 200 62
176 200 84
175 198 84
174 198 67
175 199 62
176 199 51
178 201 88
178 201 80
174 199 76
176 200 67
174 198 80
176 199 67
175 199 62
177 199 51
175 198 72
171 195 57
175 198 62
173 197 72
173 197 67
173 196 51
172 196 0
175 199 80
176 199 57
176 199 62
173 197 67
172 196 62
173 197 76
173 196 36
173 198 76
173 197 67
173 197 67
173 197 67
172 196 62
170 194 62
172 197 57
175 198 36
174 197 57
175 199 76
172 195 44
173 198 67
173 198 84
172 196 67
174 197 62
173 197 44
174 198 76
173 198 62
172 197 62
174 198 72
171 195 62
173 198 84
172 196 51
174 199 88
173 197 72
173 197 44
174 197 62
173 197 51
169 193 51
170 195 80
170 193 57
173 197 62
169 194 51
173 197 76
171 196 57
174 198 51
173 197 76
170 194 72
170 193 67
173 197 67
169 193 51
169 194 72
171 195 62
170 194 67
171 195 72
170 194 72
169 192 72
172 196 80
170 193 88
169 193 67
170 193 62
170 194 84
172 195 76
169 193 84
169 191 51
165 188 62
169 191 72
171 194 88
164 186 92
171 192 120
170 190 102
162 183 67
168 189 102
157 179 72
143 164 0
144 166 0
140 160 0
150 172 0
148 170 0
149 171 0
157 180 0
157 180 0
160 183 0
168 191 0
170 192 57
164 187 36
176 198 92
177 199 80
169 193 0
171 195 0
170 194 0
169 193 0
171 195 0
171 195 0
171 195 0
172 196 0
171 194 0
167 191 0
169 193 0
173 196 0
171 195 0
170 193 0
170 194 18
80 109 105
55 87 102
56 89 94
55 88 103
56 88 97
58 92 108
56 89 102
57 90 99
56 89 108
56 89 110
57 90 102
55 88 97
56 88 105
57 90 102
58 91 108
58 91 108
57 90 103
57 90 114
58 91 117
58 92 110
55 88 95
56 89 94
57 90 124
56 89 108
60 94 125
58 91 111
55 87 95
58 91 113
57 91 110
56 89 103
55 87 113
55 88 103
55 88 97
55 87 107
55 87 99
58 91 110
59 92 114
55 88 111
56 89 113
56 89 110
57 90 117
56 89 115
56 89 117
57 90 108
56 89 113
58 91 122
55 88 107
58 91 113
54 86 103
58 91 115
56 89 108
55 87 103
57 89 103
54 86 97
53 85 105
57 90 114
57 89 110
57 90 111
53 83 95
58 91 118
54 85 110
55 87 101
52 83 89
56 87 110
55 86 101
57 89 107
58 90 120
54 84 102
55 87 105
55 86 96
55 86 103
55 85 104
56 88 111
55 85 106
54 85 104
53 83 93
53 83 100
53 83 94
56 87 106
53 82 98
52 81 103
50 78 78
53 82 100
49 77 79
51 79 97
50 78 88
45 70 73
74 96 56
163 185 0
165 187 0
168 190 0
168 191 0
171 194 0
168 191 0
167 189 0
171 193 0
172 194 0
164 186 0
169 192 0
166 187 0
171 193 0
170 192 0
171 194 0
157 175 19
91 89 28
87 84 20
80 76 24
90 87 16
64 62 8
86 84 18
76 74 11
94 91 11
94 92 14
76 76 11
83 83 19
90 88 20
95 93 23
97 96 21
93 92 16
92 90 12
94 90 12
96 95 16
94 93 22
98 96 18
97 96 27
107 106 25
106 103 29
109 108 28
102 101 25
101 99 27
105 104 27
112 109 24
121 117 33
114 110 37
115 112 30
120 115 41
117 114 37
116 111 34
115 112 35
127 123 38
119 116 37
123 120 35
120 117 38
126 123 47
129 126 36
138 134 45
130 126 30
145 139 53
134 130 41
140 136 45
127 122 30
137 134 47
136 131 42
142 137 47
134 128 48
136 131 33
141 135 45
139 133 48
151 145 52
146 140 51
144 138 49
149 143 51
148 142 53
149 142 49
143 137 43
151 144 48
142 136 45
141 135 44
146 142 42
150 144 49
151 146 54
155 150 56
148 142 45
144 139 46
155 148 53
148 143 48
146 141 46
150 144 47
153 146 48
150 144 52
157 150 58
152 147 51
149 143 54
155 148 59
150 144 51
149 144 48
150 145 56
153 147 56
150 143 49
152 146 57
151 144 54
153 147 54
147 142 53
155 147 60
153 148 59
152 146 57
153 147 57
152 146 58
155 149 60
156 150 62
152 146 58
155 148 59
157 151 60
152 146 53
147 141 49
154 149 56
153 147 58
151 145 52
146 139 48
153 146 58
156 150 62
151 145 57
150 144 57
150 143 60
153 146 62
152 146 53
152 146 58
151 145 51
148 142 56
149 144 58
152 145 66
145 139 60
151 144 57
143 137 60
144 138 52
151 145 54
151 145 60
144 138 56
148 142 63
152 145 60
144 138 57
137 132 53
141 135 48
150 145 66
149 144 53
149 143 51
146 139 57
147 140 59
139 134 53
149 143 49
146 140 56
150 143 69
151 144 51
148 142 59
173 197 0
173 197 0
172 196 0
172 196 0
173 196 0
173 196 0
175 198 44
179 202 92
179 201 80
182 204 99
177 201 80
179 201 76
175 198 57
184 205 117
181 203 99
183 204 105
179 201 105
178 201 88
182 204 114
177 200 67
180 202 92
175 199 67
176 200 76
175 199 84
180 202 95
179 202 94
180 203 95
177 200 72
176 199 57
176 199 67
176 199 88
176 199 62
176 200 80
176 199 67
173 197 62
176 200 67
178 202 102
175 199 67
176 199 72
172 196 67
176 199 76
175 199 62
177 200 62
174 197 67
174 198 51
173 198 57
175 198 57
177 200 67
174 198 72
172 196 51
174 198 72
176 199 51
174 198 67
175 199 76
176 199 84
175 199 51
173 197 76
171 196 51
173 197 84
173 197 76
174 198 62
173 197 36
171 195 80
173 197 44
175 199 72
172 196 44
174 198 72
173 198 62
174 197 36
174 199 88
173 198 62
170 195 57
171 195 62
173 196 57
172 196 72
174 198 57
173 197 80
175 199 76
175 200 92
173 198 84
174 197 57
171 196 72
173 198 76
172 196 57
172 196 44
171 196 51
173 197 57
171 194 80
170 194 57
172 197 88
172 196 51
171 196 72
174 199 76
169 193 72
171 195 51
170 195 72
171 195 62
171 196 62
169 194 76
167 191 51
174 197 80
171 194 51
167 191 62
170 194 80
169 193 57
166 190 62
168 192 67
173 196 51
172 196 88
169 193 67
168 191 62
167 189 51
170 194 80
173 196 80
167 190 76
168 191 72
170 193 76
174 196 92
164 186 51
171 193 92
167 189 84
173 194 114
167 189 95
163 185 62
163 185 57
159 181 57
141 163 0
151 172 0
148 170 0
154 175 0
152 173 0
148 170 0
156 178 0
164 187 0
154 177 0
160 184 25
168 191 44
173 196 51
170 193 51
178 199 108
170 194 0
170 194 0
170 194 0
171 195 0
170 194 0
172 196 0
167 191 0
166 190 0
169 192 0
170 194 0
170 195 0
171 194 0
169 193 0
172 196 0
167 190 0
164 188 0
143 165 54
58 91 100
57 91 102
56 88 94
57 90 102
56 89 100
56 89 102
56 89 107
55 87 94
54 86 102
57 90 115
56 88 97
56 89 109
55 87 99
56 89 97
56 89 94
55 87 99
58 92 120
56 89 107
57 90 113
56 89 114
57 90 102
57 90 110
60 94 133
55 87 102
56 89 99
55 87 105
55 87 94
56 89 107
55 88 97
57 90 113
58 92 110
58 91 110
56 89 108
57 90 99
56 89 114
57 91 107
56 89 99
57 90 111
56 89 105
57 91 120
54 85 90
56 88 105
57 90 110
55 88 103
55 87 105
56 88 108
59 92 110
55 87 107
58 91 108
56 89 103
58 91 120
56 88 108
57 89 115
56 89 110
55 87 108
55 86 102
55 87 103
57 90 118
57 90 108
54 86 106
54 86 104
54 84 99
54 85 97
55 88 94
54 84 102
58 90 110
56 87 105
56 88 105
58 89 115
55 87 105
54 85 106
54 85 96
55 86 101
52 82 93
52 81 94
50 79 87
54 84 103
49 76 93
51 80 93
51 79 95
53 82 91
50 77 79
51 78 85
52 81 102
50 78 85
47 72 78
138 159 45
167 190 0
170 192 0
168 188 0
166 188 0
169 191 0
164 187 0
162 184 0
167 188 0
165 187 0
167 188 0
168 190 0
164 186 0
168 190 0
171 194 0
168 191 0
165 188 0
134 143 28
100 96 39
94 89 28
92 89 18
88 86 19
89 85 16
81 80 8
69 68 16
78 76 14
72 71 14
73 73 21
83 82 18
90 89 18
94 92 16
83 80 14
96 93 15
97 96 21
95 94 18
97 96 22
86 85 21
107 104 26
112 109 20
112 110 24
100 100 25
105 103 19
124 120 35
106 104 25
106 103 35
121 117 28
125 121 36
112 110 27
113 108 24
118 114 30
121 117 37
123 119 33
118 115 39
121 117 37
130 125 40
136 130 48
134 128 40
131 125 37
124 121 32
126 122 32
130 123 37
131 125 34
136 131 40
136 131 46
144 137 45
146 141 49
140 134 38
145 139 47
134 129 39
127 123 37
135 131 39
144 139 51
139 134 49
145 137 48
141 135 46
142 137 47
147 142 46
143 137 51
140 135 41
143 139 42
140 134 41
145 139 49
144 139 48
143 138 37
145 139 50
152 146 54
144 138 42
145 140 51
151 146 42
150 144 53
148 141 45
147 141 54
148 143 47
148 143 49
143 138 44
152 145 51
144 139 37
146 140 51
145 141 44
147 142 49
143 138 47
157 149 62
151 144 57
149 143 44
145 138 44
150 145 51
150 144 62
153 147 53
147 142 49
137 131 39
150 145 53
155 148 60
150 144 56
152 145 54
154 147 59
144 138 49
152 145 59
151 146 58
144 138 52
142 136 45
158 152 64
158 151 64
154 149 53
153 147 61
152 145 56
161 153 72
148 142 54
156 150 57
147 140 58
150 143 54
144 139 56
146 140 57
151 145 58
146 140 52
156 150 62
145 138 60
154 147 63
151 144 57
148 142 58
144 139 49
147 141 57
143 135 53
152 145 65
149 143 61
153 146 62
146 141 53
144 137 57
145 138 61
143 136 56
142 137 51
148 141 65
143 138 54
145 140 56
154 147 66
146 138 60
152 144 70
144 139 52
175 198 0
173 196 0
174 197 0
173 197 0
174 197 0
175 198 0
175 198 0
174 197 44
177 199 67
176 199 62
179 201 84
179 201 67
178 201 76
177 200 62
181 202 88
183 205 114
181 203 95
182 204 114
184 206 122
182 204 105
178 201 95
178 201 90
179 201 88
179 201 88
179 202 84
177 200 67
179 202 95
178 201 84
179 202 99
176 199 76
177 199 72
177 200 84
172 195 36
179 202 99
178 200 67
177 200 84
174 198 76
177 200 76
177 201 88
176 199 88
177 200 92
174 197 51
174 198 44
175 199 80
176 199 67
174 198 84
177 200 62
175 199 80
176 199 84
175 199 72
175 199 80
177 200 72
174 199 76
172 197 62
176 199 36
174 197 51
174 198 76
172 196 36
173 197 62
174 198 76
175 199 72
171 195 62
173 196 51
174 198 57
175 199 76
174 198 62
174 198 62
168 193 67
172 196 88
171 196 72
174 198 72
173 196 57
170 194 57
172 197 62
173 197 67
175 199 44
173 197 57
172 196 76
173 196 57
172 196 80
173 197 67
172 196 62
172 197 62
173 197 76
172 196 51
172 197 57
171 195 51
172 196 76
173 197 57
171 195 62
170 194 67
173 197 67
174 197 57
172 196 67
172 196 72
175 198 67
172 195 57
171 195 62
174 197 67
170 195 72
172 196 80
172 196 80
173 197 72
168 191 51
163 186 44
170 193 62
172 195 84
171 195 88
172 195 62
172 195 72
168 191 67
169 192 67
173 197 67
169 192 57
171 193 51
173 196 84
168 190 84
166 188 92
171 193 76
165 187 80
174 193 114
164 185 88
165 187 84
167 189 88
159 181 67
139 159 0
144 164 0
149 170 0
146 167 0
154 176 0
154 176 0
149 172 0
160 182 0
155 178 0
164 186 25
163 186 36
170 193 51
169 193 44
176 198 99
169 193 0
169 192 0
171 195 0
170 193 0
171 194 0
172 196 0
167 191 0
172 196 0
168 192 0
170 193 0
168 191 0
171 194 0
169 194 0
167 191 0
165 189 0
168 192 0
167 190 0
165 189 0
112 137 70
54 86 93
54 86 107
53 85 84
54 86 90
55 87 95
55 88 107
56 88 100
55 88 90
53 85 99
55 87 92
57 91 103
56 88 105
56 89 99
58 91 107
56 89 99
55 88 100
55 88 99
54 86 97
55 87 95
56 89 103
57 91 117
57 90 114
58 91 114
53 85 88
56 89 103
57 90 110
57 90 113
55 87 102
56 88 107
54 86 99
57 89 114
54 85 99
55 87 103
55 88 105
57 90 111
57 90 110
57 89 105
57 90 117
56 88 107
57 90 105
55 87 105
57 90 111
56 89 97
57 89 107
58 92 120
53 84 92
57 90 105
55 87 102
56 88 108
57 89 114
55 87 100
56 89 100
55 87 108
57 90 121
55 87 103
56 88 100
54 85 99
54 86 92
55 86 99
54 86 100
55 88 105
52 82 91
56 88 102
54 85 89
55 86 97
54 85 105
54 85 103
55 86 106
56 87 113
53 83 97
54 84 100
55 86 101
54 85 110
51 80 85
53 83 104
51 81 90
52 81 89
51 79 82
50 78 83
53 82 84
49 76 80
51 80 96
50 76 82
45 69 71
101 121 54
164 186 0
162 183 0
163 185 0
167 188 0
164 186 0
160 182 0
168 190 0
161 182 0
170 190 0
166 188 0
168 189 0
166 188 0
162 184 0
167 188 0
167 189 0
168 190 0
164 185 0
167 189 0
120 124 30
96 91 32
100 95 31
88 86 25
71 69 11
83 81 12
86 84 16
93 90 26
72 72 16
79 77 18
93 90 11
94 91 19
83 82 11
100 98 14
86 84 0
99 96 8
96 93 12
99 96 19
105 103 18
89 90 24
108 105 30
106 102 25
115 110 22
104 102 21
109 105 18
114 112 16
114 111 24
100 98 25
113 111 25
107 104 30
117 115 28
119 115 30
125 122 34
118 114 24
126 121 44
125 121 34
134 128 41
122 119 43
123 118 29
133 128 40
125 120 40
131 129 37
133 128 35
129 122 33
124 119 34
140 134 45
118 114 38
139 134 45
134 129 50
137 132 42
142 138 43
138 133 42
137 133 34
145 140 46
143 138 41
140 134 47
143 138 41
139 133 40
142 137 43
148 142 50
151 144 51
145 139 42
144 139 45
143 138 37
149 143 49
155 147 48
136 130 34
147 141 44
151 146 51
153 147 59
149 142 53
146 142 42
146 140 49
151 145 53
144 139 47
148 143 44
147 141 42
148 141 45
155 148 57
151 145 53
151 145 47
149 144 45
146 139 47
156 150 53
154 148 53
148 143 48
152 145 56
150 144 54
147 142 51
151 144 53
147 142 44
146 138 51
148 142 44
154 148 59
150 145 52
144 138 42
151 146 56
151 145 57
155 148 59
155 149 64
148 143 41
152 146 57
154 147 64
148 142 48
147 141 54
146 140 58
150 143 58
150 144 59
150 144 60
150 143 54
150 144 59
154 148 59
145 139 61
147 141 51
142 138 48
151 143 59
145 140 59
152 145 58
145 139 59
144 140 51
142 135 53
148 142 51
152 145 58
155 149 61
154 147 62
143 138 49
144 139 53
146 140 53
150 143 63
149 143 58
148 142 54
146 140 53
149 143 58
147 141 58
146 139 54
140 135 52
148 142 62
148 142 60
140 134 52
174 197 0
175 198 0
172 196 0
172 196 0
172 196 0
175 198 0
170 194 0
173 196 0
172 195 51
176 199 57
180 202 84
176 199 80
179 201 92
176 199 80
175 198 80
180 203 99
188 208 135
183 204 117
182 204 102
179 201 86
181 204 102
181 203 99
180 202 99
179 202 99
177 200 88
178 200 62
179 202 103
177 201 88
179 202 95
176 199 80
174 198 72
177 200 67
176 200 67
175 198 62
176 199 62
178 202 99
177 200 80
173 196 62
174 198 72
175 198 67
176 200 84
176 199 88
175 199 62
176 199 62
175 198 62
173 198 67
175 199 76
176 199 84
175 199 76
174 197 67
176 200 72
177 200 88
177 200 72
173 197 44
176 199 57
174 198 57
174 198 80
176 200 84
175 198 57
177 200 88
172 196 51
174 198 84
174 199 72
173 197 62
175 199 72
174 198 76
172 196 62
171 196 62
171 195 36
173 198 76
174 198 72
172 196 67
171 196 62
172 196 51
173 198 80
174 199 62
175 198 51
171 195 57
172 196 57
175 198 44
174 198 57
170 195 72
170 194 51
171 195 62
171 195 36
174 199 84
171 195 76
169 193 62
174 198 72
170 193 72
174 197 80
170 195 76
173 196 72
172 196 72
167 191 62
170 194 67
168 192 80
172 196 57
170 194 72
169 192 80
171 195 72
169 193 72
171 195 76
172 196 67
169 192 80
164 187 67
172 195 84
167 191 67
172 196 57
169 192 67
166 190 67
163 186 72
166 189 80
172 194 72
170 193 95
170 192 72
163 186 84
169 190 114
171 192 108
171 192 111
165 187 76
167 188 76
163 186 72
158 179 51
143 165 0
153 175 0
148 169 0
147 169 0
149 171 0
151 173 0
147 169 0
163 186 0
157 181 0
154 177 0
166 188 51
163 186 0
172 194 51
174 195 92
170 193 36
167 191 0
169 193 0
167 191 0
166 189 0
168 192 0
170 194 0
168 192 0
171 195 0
169 192 0
168 191 0
170 194 0
169 193 0
170 193 0
168 192 0
168 191 0
165 188 0
166 189 0
167 190 0
162 185 0
74 101 95
55 87 92
53 84 89
55 87 92
56 89 95
56 88 99
55 87 99
55 88 103
55 87 90
57 90 113
56 89 107
57 90 102
55 87 99
55 87 100
56 89 100
56 89 103
56 88 100
57 90 115
54 85 94
57 91 100
56 89 113
57 90 105
55 87 97
53 85 92
56 89 103
55 87 110
56 89 111
55 88 103
57 90 113
55 87 102
56 89 94
55 88 99
57 90 111
57 89 108
55 87 99
58 92 124
58 91 117
56 89 115
53 85 99
57 90 103
56 89 102
56 88 105
57 90 118
54 85 92
58 90 107
56 89 103
55 87 99
56 89 105
54 86 97
56 89 110
57 90 121
54 85 92
57 90 108
56 87 110
54 85 103
54 86 97
56 89 108
55 87 105
55 87 103
56 88 113
55 87 100
57 89 114
54 85 101
54 85 102
55 87 108
56 88 104
54 85 96
52 84 80
55 86 101
54 86 90
54 86 110
52 81 89
50 79 76
50 79 81
53 84 102
53 83 103
50 79 87
50 77 83
50 79 83
51 79 98
50 78 78
48 75 95
49 76 76
63 86 75
161 182 18
164 187 0
168 189 0
163 184 0
160 180 0
160 181 0
162 183 0
160 181 0
160 182 0
164 186 0
159 182 0
166 189 0
165 185 0
160 179 0
168 190 0
168 188 0
164 186 0
165 185 0
167 189 0
163 183 11
99 98 22
83 80 23
84 81 22
80 77 31
79 78 16
77 76 14
81 80 11
76 72 16
86 85 14
85 84 5
85 84 16
73 73 14
86 85 21
81 78 8
97 95 19
98 96 16
100 97 12
92 89 8
104 100 18
93 92 14
98 96 19
101 100 26
102 102 23
109 107 27
95 95 18
104 101 23
113 110 18
110 108 24
117 114 32
114 109 33
109 107 29
128 124 37
110 106 26
126 122 29
135 130 37
123 118 41
128 121 37
120 116 22
124 120 36
132 129 28
132 128 44
135 131 35
142 136 37
138 132 31
131 127 30
141 136 42
136 131 39
138 134 37
130 126 28
139 133 40
146 139 44
136 131 34
135 128 39
141 135 36
139 133 36
132 128 29
139 134 48
144 139 45
140 136 42
142 136 36
143 139 47
143 137 44
145 139 52
147 141 51
152 146 48
150 144 47
144 138 44
144 138 41
139 132 41
155 149 59
148 143 49
140 134 44
143 138 53
144 140 42
145 139 45
156 150 52
151 144 49
155 148 51
150 144 51
137 132 39
145 140 39
152 146 58
148 142 49
150 144 49
149 143 47
149 145 36
149 144 44
153 146 58
148 142 49
144 137 48
147 142 47
147 141 49
155 148 53
150 144 44
149 143 47
153 146 61
148 143 56
148 142 52
149 142 51
151 144 63
145 140 57
142 137 39
146 141 45
145 139 53
149 141 54
150 144 57
151 145 60
144 138 48
145 138 58
148 142 59
145 139 56
150 143 62
150 144 51
151 144 53
148 142 58
152 145 63
142 136 42
148 143 51
153 146 57
146 139 59
146 138 56
145 139 57
143 138 51
146 141 45
144 138 47
146 139 59
146 140 56
144 138 60
154 147 66
143 137 56
149 142 61
150 142 56
150 144 59
149 142 62
143 136 63
142 135 62
143 137 59
139 133 57
174 198 0
174 197 0
174 197 0
175 198 0
174 197 0
173 196 0
174 197 0
173 197 0
173 197 0
174 197 51
178 200 88
177 200 84
180 202 95
180 202 92
180 202 80
177 199 67
178 201 88
180 203 102
181 203 108
185 207 122
180 202 84
182 204 111
183 205 122
179 201 95
178 201 84
178 201 88
178 201 88
177 200 76
174 198 84
173 196 62
177 200 76
175 198 80
176 200 76
177 201 80
177 199 84
174 198 76
175 199 67
176 199 67
175 199 67
175 198 44
175 198 72
176 199 62
174 197 62
174 198 67
176 199 57
177 200 72
176 199 67
175 199 88
174 198 51
174 197 57
175 199 67
175 199 84
175 198 57
173 197 62
173 196 57
175 199 80
176 200 80
172 195 72
172 197 57
174 198 62
173 196 51
171 195 67
174 198 67
177 199 72
173 197 62
173 197 80
174 197 57
173 196 51
175 199 84
170 195 72
174 198 62
174 197 62
173 197 62
173 197 62
172 197 67
172 197 62
173 196 62
174 198 84
168 193 51
171 195 76
173 197 62
171 196 76
171 195 44
173 196 57
174 198 62
173 196 62
172 196 67
174 198 76
169 193 44
172 196 76
173 197 84
171 194 72
171 194 51
173 197 44
168 192 57
172 196 72
171 194 80
172 196 57
173 196 36
169 193 80
169 193 62
168 192 76
170 194 57
173 196 76
171 195 51
168 191 80
172 195 80
170 192 57
168 191 80
170 193 67
168 191 67
171 194 92
167 189 80
160 182 80
164 186 80
161 183 95
168 190 80
172 194 102
172 193 92
165 187 84
161 183 67
157 179 51
152 173 25
149 170 0
148 169 0
155 177 0
157 179 0
158 180 0
154 175 25
156 178 0
148 170 0
159 180 0
164 186 0
166 189 0
171 193 36
165 188 25
173 196 84
173 196 76
165 188 0
169 193 0
168 190 0
167 190 0
170 194 0
166 191 0
168 192 0
167 191 0
168 192 0
166 190 0
171 193 0
165 188 0
167 190 0
167 191 0
165 188 0
163 187 0
162 185 0
162 185 0
162 185 0
165 189 0
151 174 36
57 89 90
52 84 80
55 88 102
53 85 80
54 86 86
55 87 92
57 90 107
56 89 100
57 90 102
55 87 95
56 88 95
54 87 88
55 86 95
57 90 110
56 89 105
54 86 97
55 88 108
56 88 111
55 88 105
56 88 108
55 88 103
55 88 90
57 90 114
55 87 103
56 89 113
56 88 99
54 86 94
57 90 110
54 87 95
56 89 105
56 89 99
57 89 102
55 88 102
55 87 107
52 84 97
55 87 103
57 90 105
55 87 99
57 90 94
56 88 105
56 88 97
56 89 102
54 86 97
55 87 87
57 90 111
56 89 107
55 86 101
54 86 99
54 86 90
56 89 110
57 89 103
56 88 97
55 87 101
56 87 105
54 86 101
56 88 100
55 86 108
55 87 96
55 87 95
54 86 94
52 83 82
55 88 94
55 87 108
56 88 97
52 81 82
52 81 65
54 85 91
53 84 92
55 87 94
52 83 96
52 81 94
52 82 89
49 78 64
50 78 75
54 85 88
52 81 90
52 81 99
51 80 95
47 73 67
53 81 82
49 76 62
47 71 55
139 159 41
161 183 0
160 181 0
162 184 0
166 187 0
156 177 0
165 186 0
158 180 0
166 187 0
164 186 0
161 182 0
161 183 0
165 186 0
162 183 0
158 180 0
165 186 0
166 188 0
164 186 0
160 180 0
164 186 0
164 185 0
141 157 11
89 86 30
98 93 30
90 87 24
74 72 20
79 77 21
84 81 14
64 64 8
89 85 16
83 81 16
91 89 16
95 94 18
81 81 14
90 87 14
89 89 21
96 94 14
97 93 20
93 90 14
95 91 20
99 97 12
105 101 26
102 101 22
107 105 14
106 102 32
114 111 29
97 97 23
105 102 16
108 105 24
113 110 24
114 112 29
117 114 26
110 107 25
122 119 28
118 112 38
121 118 22
130 125 35
122 117 27
130 126 31
126 121 35
132 128 33
130 125 31
124 121 29
135 130 35
123 119 30
125 122 31
130 126 34
142 136 36
130 124 37
139 134 36
134 130 38
135 130 36
143 137 42
135 129 29
140 135 38
142 136 42
148 141 49
144 139 43
137 131 44
140 135 41
152 144 53
139 133 39
140 134 42
146 140 44
145 140 45
145 139 42
145 139 48
142 138 34
137 133 41
134 130 45
150 144 52
144 138 39
145 138 45
150 145 52
156 149 52
155 148 48
148 143 47
144 137 48
144 138 52
146 140 47
143 137 41
148 142 44
147 142 41
154 147 52
148 142 49
147 142 45
151 145 53
147 141 52
149 142 62
144 138 47
152 145 56
156 149 63
146 141 45
146 142 45
152 147 47
149 143 57
147 142 51
142 137 52
150 145 52
143 137 45
147 141 56
150 144 57
149 143 49
143 138 49
156 149 56
152 145 60
144 139 44
151 145 53
145 139 53
145 139 49
139 134 51
148 142 54
146 139 53
149 142 56
146 140 51
148 142 54
148 142 56
149 142 57
150 142 63
149 143 49
149 142 54
147 142 56
144 138 54
147 141 53
146 139 60
151 144 53
147 142 51
147 140 53
144 139 52
141 136 48
143 138 54
143 136 52
148 142 63
144 138 52
146 140 47
140 134 51
144 137 56
142 136 57
140 135 45
173 196 0
174 197 0
173 196 0
173 197 0
172 196 0
173 196 0
172 196 0
174 197 0
174 198 0
172 195 0
175 198 44
173 196 67
176 199 76
180 202 88
178 200 92
178 201 72
177 200 80
174 198 80
180 202 95
183 205 108
184 205 111
180 202 88
184 205 122
180 202 111
180 202 92
181 203 92
179 202 105
174 198 76
177 200 80
181 203 105
178 201 88
177 200 80
176 200 67
176 200 76
177 201 92
180 203 99
174 197 80
178 201 80
176 200 76
177 200 76
176 199 80
174 198 51
177 200 88
172 196 62
175 198 51
176 200 92
173 197 67
171 195 67
173 197 57
173 197 44
174 197 57
174 198 62
175 199 57
172 196 51
176 199 67
174 197 51
175 200 84
173 197 67
173 197 62
174 198 76
173 198 76
174 198 51
175 198 80
174 198 88
172 196 72
174 197 57
172 196 51
171 195 76
170 195 72
174 198 67
169 194 84
174 198 62
174 198 76
171 196 62
172 196 51
171 195 57
174 198 57
172 196 57
173 198 95
172 196 51
172 196 57
170 194 57
173 197 44
173 198 84
172 196 57
171 194 72
172 195 51
173 195 51
172 195 80
173 197 80
172 197 84
171 195 62
172 196 80
170 195 84
170 193 62
171 195 62
173 195 67
171 194 62
170 192 51
167 191 72
168 191 67
170 193 84
169 192 84
170 193 72
170 193 76
170 193 80
166 189 67
168 191 92
173 195 72
173 195 72
167 190 72
171 193 88
176 198 117
166 188 76
168 190 99
177 197 105
170 192 92
176 197 95
171 193 92
164 187 76
165 186 80
156 178 62
155 177 0
145 166 0
155 176 0
156 177 0
156 177 0
150 172 0
153 175 0
158 180 0
158 181 0
157 179 0
161 184 36
167 189 51
168 191 25
172 194 95
176 198 84
167 191 0
168 191 0
168 191 0
168 191 0
166 189 0
169 192 0
163 186 0
166 189 0
163 186 0
164 188 0
167 190 0
169 193 0
168 192 0
163 187 0
163 186 0
169 193 0
163 186 0
163 186 0
167 191 0
162 185 0
165 188 0
160 184 0
131 154 44
52 83 95
53 84 92
55 87 99
54 86 92
56 88 100
55 86 95
57 91 107
54 86 95
53 86 94
54 86 76
55 88 98
56 88 103
55 88 103
57 89 105
57 91 115
55 87 102
55 88 88
55 88 100
55 88 107
56 89 108
55 88 99
56 89 95
56 89 111
54 86 92
52 84 88
57 90 113
55 87 95
56 89 107
56 88 107
53 85 95
57 90 111
56 88 108
57 90 110
55 87 103
55 87 108
57 90 105
57 90 113
55 88 102
54 86 105
57 90 110
55 87 108
54 85 94
56 88 105
57 89 111
57 89 103
54 86 100
56 88 96
56 89 110
57 89 117
57 89 110
54 85 111
55 86 111
55 87 114
54 85 104
55 87 99
55 87 99
55 87 102
55 86 92
53 84 94
53 84 94
56 87 108
55 87 111
56 88 95
53 84 95
54 85 94
53 82 94
53 84 93
52 81 90
55 86 105
53 84 92
51 80 86
51 80 87
52 82 92
51 80 85
51 80 87
50 77 80
49 76 86
51 79 85
46 71 71
44 67 52
123 140 31
153 174 0
153 173 0
155 175 0
158 179 0
157 177 0
160 179 0
160 183 0
159 181 0
160 182 0
157 177 0
164 186 0
157 177 0
159 178 0
162 182 0
162 182 0
165 186 0
162 180 0
165 187 0
165 184 0
162 181 0
161 181 0
162 182 0
146 163 11
84 81 16
75 73 22
86 82 21
86 84 20
91 87 16
87 84 14
90 87 19
82 79 3
83 81 16
92 89 8
99 96 18
96 93 16
82 80 3
89 89 14
93 92 14
102 98 11
88 86 5
99 94 26
97 95 11
95 93 23
95 94 8
118 114 16
108 106 19
107 104 27
114 111 33
113 109 22
107 104 18
115 111 16
107 103 18
118 115 21
124 120 32
123 120 16
121 116 26
123 118 29
122 119 22
127 124 28
121 116 31
126 123 36
132 128 30
128 123 30
131 126 33
129 126 29
132 128 35
136 131 32
132 126 36
139 133 35
136 132 34
137 131 34
134 128 41
137 131 35
133 128 32
133 129 22
141 135 28
143 137 32
136 129 36
138 133 32
136 131 41
142 136 48
136 129 39
143 137 42
139 133 37
140 135 44
143 138 37
142 137 42
146 141 45
143 137 44
142 135 48
147 141 47
145 139 37
148 142 47
142 136 34
151 145 49
152 146 51
145 139 41
147 141 49
144 138 49
148 142 49
149 143 42
144 139 41
155 148 56
141 135 42
143 136 41
146 141 51
148 142 45
152 146 51
144 139 34
148 143 47
147 142 52
144 139 47
153 147 56
146 140 49
142 137 42
140 134 39
148 141 51
143 137 51
146 141 54
149 143 53
147 142 47
146 140 52
144 139 47
137 133 39
143 139 42
148 143 51
150 144 49
141 137 47
147 140 56
133 129 45
146 139 54
147 140 53
152 145 61
147 142 52
147 141 48
144 138 47
142 135 47
148 142 54
149 144 49
135 129 47
141 135 52
144 138 48
149 142 57
141 136 45
148 143 58
144 137 48
132 128 42
151 145 58
141 136 48
146 139 51
140 135 51
144 138 61
143 137 53
138 132 54
141 136 56
139 134 53
140 134 49
137 131 49
145 138 57
174 197 0
175 198 0
171 195 0
173 196 0
172 195 0
173 196 0
172 195 0
171 195 0
174 197 0
172 196 0
175 198 0
174 198 0
175 198 67
176 199 80
178 200 88
180 202 95
178 201 95
178 201 88
180 203 99
177 200 72
182 204 105
181 202 108
184 205 117
178 200 92
179 201 102
179 201 84
178 201 72
180 202 114
178 200 80
178 201 95
177 200 84
174 198 62
177 199 62
177 200 76
176 199 76
172 196 57
176 198 72
178 201 84
175 199 84
176 199 67
175 198 84
176 199 67
176 200 72
175 198 67
179 201 84
176 200 76
174 198 67
176 199 72
174 197 62
174 197 44
176 200 72
174 198 62
173 197 44
174 198 57
175 199 62
176 200 80
172 196 44
175 198 67
174 198 76
174 197 67
177 200 88
172 196 36
176 199 72
174 198 80
174 198 76
168 191 44
172 196 67
176 200 76
173 196 67
175 198 67
173 197 67
174 198 92
172 196 62
174 197 72
170 193 67
174 198 76
173 196 57
173 196 62
171 196 67
174 198 80
174 199 72
175 198 72
173 197 84
174 198 80
175 198 76
171 195 62
168 192 67
170 194 80
171 195 57
165 189 57
174 197 57
178 201 88
173 196 72
170 194 76
169 193 76
172 195 67
173 196 80
174 197 67
172 195 72
172 194 57
174 197 72
169 192 76
174 198 84
172 195 62
166 189 62
168 191 62
170 192 57
166 189 67
169 191 88
170 192 95
167 189 76
167 189 72
170 192 108
170 191 102
172 193 92
170 189 99
165 185 84
164 185 76
165 187 84
161 182 80
152 173 25
151 171 0
155 176 0
153 174 0
152 174 0
158 179 0
156 178 0
159 182 0
154 176 0
164 186 0
159 182 0
160 184 36
166 188 44
165 187 51
168 190 67
173 194 92
166 189 0
168 192 0
166 189 0
162 185 0
167 191 0
161 184 0
166 190 0
164 188 0
170 193 0
166 189 0
164 188 0
162 186 0
169 192 0
166 189 0
160 184 0
166 189 0
163 186 0
166 189 0
164 188 0
167 189 0
165 189 0
158 181 0
163 186 0
166 190 0
119 143 60
51 82 84
52 83 94
53 85 92
54 85 97
56 88 100
55 87 97
53 86 82
56 89 100
55 87 97
56 89 110
54 86 99
54 85 102
54 86 82
56 88 108
55 87 97
56 88 102
55 87 99
55 88 95
56 88 107
54 87 103
55 88 100
54 86 103
56 88 113
54 86 99
54 86 88
55 87 99
57 90 97
56 88 105
57 89 110
56 88 100
53 84 97
55 87 103
52 84 88
56 89 99
56 89 99
57 90 107
52 82 84
54 86 92
55 88 97
57 90 111
55 87 103
53 85 88
56 89 104
55 87 99
54 86 97
56 88 108
55 87 102
53 85 92
54 85 102
57 90 113
56 88 107
53 85 99
54 85 90
57 89 112
55 87 113
55 87 108
54 84 91
53 83 79
54 85 96
54 85 96
53 84 85
53 83 94
53 83 90
51 80 85
54 85 85
56 88 111
53 84 101
52 83 88
51 80 96
53 83 100
52 81 94
49 77 81
52 82 85
48 75 82
52 81 96
48 75 75
46 71 71
47 73 63
97 116 59
155 175 0
153 172 0
156 176 0
152 172 0
162 182 0
157 177 0
149 168 0
145 164 0
151 172 0
159 181 0
161 180 0
160 180 0
155 174 0
152 172 0
153 172 0
158 178 0
157 176 0
165 183 0
162 181 0
159 177 0
159 178 0
161 181 0
165 185 0
154 172 0
140 152 18
91 87 30
79 75 21
85 82 29
85 82 26
86 83 11
82 79 16
87 84 14
78 76 12
102 99 16
102 98 16
85 84 14
85 82 12
92 88 16
93 92 16
91 90 19
89 86 16
100 98 18
104 100 8
102 98 14
91 90 8
115 111 11
103 100 20
102 99 14
107 104 16
109 106 17
113 109 21
106 104 12
116 112 21
124 119 31
116 112 28
120 117 26
123 119 34
125 119 35
121 115 27
120 116 29
124 120 24
129 124 25
118 114 31
121 116 26
125 121 38
130 125 34
131 126 31
131 127 32
127 122 29
131 126 25
136 131 28
140 135 37
133 128 30
132 128 32
131 126 38
143 136 39
135 130 38
135 130 32
141 137 32
140 135 44
141 136 37
142 136 40
137 132 38
135 129 32
138 133 32
141 136 34
145 140 45
144 138 44
142 137 39
135 130 41
144 138 45
140 135 47
144 140 35
146 141 36
140 134 36
147 141 47
151 145 51
142 138 37
142 136 39
135 128 42
143 138 41
146 140 42
138 132 30
146 141 37
147 140 45
135 131 41
140 135 48
143 138 45
146 139 59
147 141 52
144 137 41
141 137 41
144 139 44
137 132 41
146 141 47
148 142 49
143 137 45
152 146 54
147 141 47
145 140 45
141 135 49
150 144 54
143 138 48
144 138 52
147 140 51
147 141 52
135 130 34
148 141 53
147 140 51
151 145 56
141 135 44
144 139 47
139 134 41
143 137 48
143 137 51
147 142 48
144 138 51
146 139 51
138 132 45
150 144 58
153 145 62
143 137 56
150 145 53
144 138 52
150 143 61
146 139 53
145 139 48
134 129 45
140 135 51
147 140 61
141 137 47
142 136 51
147 141 56
144 139 54
150 144 59
143 137 52
147 141 57
142 135 60
137 133 51
143 137 57
173 197 0
173 197 0
174 197 0
174 197 0
173 196 0
172 196 0
174 197 0
173 197 0
173 197 0
171 194 0
174 197 0
173 196 0
173 195 0
170 194 25
176 198 57
178 200 92
178 201 76
177 199 86
180 202 84
174 198 72
174 198 51
178 200 67
176 199 84
181 203 102
182 204 108
177 200 84
178 201 76
179 202 95
178 201 99
177 200 111
177 201 99
179 202 92
175 199 88
178 201 88
174 197 62
174 197 72
175 199 76
176 199 76
176 198 102
176 198 72
176 199 88
176 200 80
173 197 44
174 197 62
178 200 88
176 199 76
174 198 72
176 199 72
176 200 76
176 200 84
173 196 62
173 197 62
173 197 67
173 197 67
173 197 76
174 197 80
176 199 62
170 194 44
172 196 44
175 198 76
174 198 72
173 197 67
172 195 0
172 196 51
172 196 67
173 197 62
170 194 72
175 198 57
173 197 57
172 197 80
175 198 62
172 196 80
174 198 67
173 198 92
171 194 51
175 199 84
174 198 67
171 194 44
174 199 88
175 199 80
174 197 72
171 194 62
175 199 76
173 195 44
168 192 57
172 196 80
174 198 72
171 194 76
171 195 80
171 195 76
171 193 36
171 195 44
171 195 67
170 193 44
171 194 72
167 190 72
171 194 62
170 193 72
169 192 76
170 193 62
170 193 80
172 194 44
174 196 99
169 191 67
167 190 76
168 191 72
169 192 67
166 188 84
167 188 72
175 197 92
167 188 99
173 194 95
168 190 99
170 190 99
170 192 102
160 182 67
163 185 51
160 181 67
157 179 57
147 169 0
145 165 0
155 177 0
154 175 0
157 178 0
152 174 0
152 173 0
153 175 0
159 181 0
152 174 0
157 180 0
163 185 25
164 186 36
160 182 44
163 185 76
172 194 84
164 188 0
166 190 0
167 190 0
164 188 0
172 195 0
164 187 0
169 191 0
167 190 0
162 185 0
161 183 0
167 191 0
162 185 0
164 186 0
163 187 0
164 187 0
161 184 0
161 184 0
160 184 0
164 187 0
160 183 0
164 187 0
159 182 0
159 183 0
161 184 0
156 179 0
155 179 25
96 120 74
51 82 74
52 82 76
54 85 86
52 83 89
53 84 84
54 85 95
56 88 99
56 88 100
53 85 92
54 85 84
55 88 95
57 89 103
54 85 105
54 86 88
54 87 97
54 86 84
57 89 110
56 88 99
56 89 114
54 86 92
58 91 115
54 87 90
54 85 95
55 88 95
55 88 102
53 85 88
54 86 97
55 87 92
55 88 97
54 86 94
55 88 94
55 87 95
55 88 95
54 86 92
55 86 97
55 88 102
55 87 95
55 87 97
54 86 97
54 85 97
56 88 99
57 90 108
54 85 88
54 86 94
54 85 87
55 86 104
55 87 95
55 86 99
55 87 100
54 85 90
56 88 102
56 89 105
53 84 97
55 86 105
54 84 75
53 85 90
54 85 105
54 85 89
54 86 99
55 86 99
53 84 95
54 85 96
52 82 88
56 87 99
53 84 94
52 81 90
51 79 94
51 80 98
48 76 77
49 77 92
49 77 75
51 80 87
46 71 69
50 78 84
46 72 71
46 72 83
93 111 37
160 181 18
149 169 0
158 179 0
150 172 0
153 174 0
151 169 0
157 175 0
144 162 0
154 174 0
151 171 0
149 169 0
153 172 0
159 177 0
159 179 0
162 180 0
155 173 0
150 169 0
153 173 0
156 175 0
158 178 0
159 177 0
159 179 0
160 179 0
157 176 0
158 178 0
157 175 0
129 138 16
82 79 19
71 70 16
89 85 26
87 85 16
92 89 14
76 74 14
98 93 21
84 82 8
97 93 0
88 85 0
87 85 16
84 81 0
89 87 11
93 91 16
95 92 14
103 99 11
98 95 8
113 110 22
101 98 18
102 99 11
104 100 16
91 90 12
109 106 18
109 106 18
114 110 29
107 104 16
115 112 24
113 110 31
118 113 25
118 116 18
124 117 28
115 110 25
132 127 31
126 121 28
124 119 26
124 120 33
130 125 39
130 125 35
122 118 22
123 119 28
128 122 28
128 123 35
126 121 32
129 124 32
123 119 21
130 125 39
138 133 37
135 131 25
133 129 25
140 135 37
141 136 26
135 130 30
134 131 25
135 130 33
135 129 46
137 132 34
138 133 39
142 136 41
143 137 44
144 139 44
146 140 45
140 136 37
146 141 37
148 140 44
138 132 37
143 137 44
142 136 47
146 142 37
139 133 39
146 141 47
148 141 45
144 138 42
144 139 45
141 136 37
147 142 48
142 138 36
145 139 42
141 134 47
143 137 41
141 137 39
153 146 58
144 139 42
143 138 45
136 131 41
147 142 52
148 141 47
148 142 52
147 141 51
137 130 48
143 137 41
140 136 34
146 139 45
144 136 47
144 137 49
145 140 51
137 130 45
144 139 52
148 142 51
148 142 47
149 143 54
138 132 41
143 138 44
143 137 44
147 140 48
140 133 44
144 137 51
143 137 49
145 139 48
141 135 44
140 135 52
151 143 47
137 131 45
139 133 45
143 138 52
140 134 45
146 138 52
146 139 57
140 134 37
142 136 52
138 132 47
149 142 54
148 142 49
145 138 54
138 132 56
142 135 53
144 137 54
146 140 56
140 133 52
142 136 56
146 140 58
149 143 54
139 133 52
143 135 54
141 135 59
174 198 0
171 195 0
173 197 0
171 194 0
174 197 0
172 196 0
172 196 0
173 195 0
175 198 0
174 198 0
171 195 0
174 198 0
175 198 0
171 195 0
171 195 0
176 199 67
180 202 95
177 200 80
176 199 80
182 203 95
178 201 92
178 200 67
175 198 57
183 204 117
184 205 120
183 204 108
182 204 108
178 201 95
183 205 117
179 201 105
176 198 76
180 203 105
179 201 102
178 201 102
179 202 95
180 202 88
177 200 88
174 197 72
178 201 76
175 199 88
175 199 72
174 197 80
175 198 67
175 198 92
174 197 76
172 196 57
175 199 67
173 196 62
176 200 105
174 197 57
174 198 84
177 199 57
175 197 51
177 200 72
176 199 67
173 196 67
173 197 76
175 198 67
174 198 76
173 196 25
177 201 99
174 198 76
174 198 84
172 196 62
171 195 67
175 198 67
171 195 80
171 195 72
174 197 51
176 199 67
170 194 72
173 197 72
172 196 80
172 196 76
173 196 72
174 198 80
171 194 51
174 198 80
173 197 57
175 199 84
175 198 84
172 196 72
174 197 67
174 197 72
173 196 51
171 195 36
168 191 57
173 196 62
169 192 57
171 194 62
172 196 76
171 194 67
170 193 84
171 193 62
175 198 80
173 195 72
171 193 72
173 195 44
174 196 51
171 194 72
170 193 84
172 194 67
173 195 88
174 196 76
169 191 92
174 196 99
171 193 62
174 195 111
173 194 102
173 195 76
169 189 114
176 195 108
164 186 72
167 188 80
169 190 88
164 185 88
146 168 57
151 171 36
157 179 0
156 177 0
153 174 0
152 173 0
145 166 0
156 178 0
151 173 0
150 173 0
155 176 0
163 185 0
162 184 0
162 184 0
166 188 57
161 183 0
166 189 57
172 194 88
167 191 0
168 192 0
164 187 0
165 188 0
170 193 0
168 192 0
162 185 0
166 189 0
164 187 0
161 185 0
162 185 0
163 186 0
158 182 0
168 191 0
164 186 0
155 178 0
164 187 0
156 180 0
160 184 0
160 183 0
162 185 0
162 185 0
160 182 0
156 180 0
158 181 0
149 171 0
154 177 0
147 171 36
78 103 62
52 83 78
52 83 80
52 83 84
50 81 80
54 86 88
55 87 103
53 85 88
55 87 99
53 84 88
55 87 99
55 87 97
55 87 103
58 92 113
55 87 107
53 84 97
57 90 102
54 86 88
53 85 97
56 88 111
55 87 103
55 86 105
57 90 97
54 87 97
55 88 103
55 87 84
56 88 108
56 88 99
56 88 107
51 81 88
57 90 107
54 86 92
54 85 95
54 87 95
56 88 102
55 87 94
56 89 113
52 82 90
55 87 94
54 86 90
55 88 90
54 85 95
54 85 99
54 86 95
53 84 97
52 83 86
52 83 97
54 86 103
55 86 107
54 86 99
53 84 99
53 84 97
55 88 102
53 83 86
51 80 95
54 85 94
52 83 90
54 85 99
55 86 100
54 84 91
52 82 79
55 86 103
52 82 96
53 84 88
52 81 88
54 85 93
51 81 97
53 82 94
53 82 83
50 78 87
49 77 73
47 73 77
50 78 86
45 71 65
47 72 65
79 98 45
137 155 25
152 171 0
152 172 0
148 169 0
148 168 0
157 177 0
145 163 0
147 166 0
153 172 0
153 172 0
158 174 0
149 166 0
148 166 0
153 174 0
156 174 0
150 169 0
157 175 0
148 167 0
153 173 0
157 175 0
148 166 0
154 171 0
160 179 0
157 175 0
156 173 0
154 171 0
158 176 0
155 175 0
119 126 11
94 87 25
87 84 22
84 80 16
91 86 18
86 84 14
101 96 26
90 87 14
94 89 0
92 88 11
93 88 16
105 101 11
92 91 8
94 91 8
86 84 0
89 86 16
100 97 8
104 100 11
106 102 11
103 100 16
103 98 19
103 99 0
104 99 25
105 101 14
110 107 20
111 108 18
106 104 12
118 113 24
120 116 18
122 118 29
120 115 22
120 116 22
123 118 26
118 114 21
117 113 16
111 107 25
124 119 37
131 124 34
121 116 30
126 121 36
133 128 30
126 121 25
130 125 32
119 114 32
134 129 38
129 124 29
131 126 28
134 129 41
125 120 28
137 131 34
133 127 34
135 130 37
131 127 28
137 133 37
131 126 32
141 136 34
144 139 34
137 132 32
141 135 44
147 140 41
139 134 36
147 140 37
138 132 42
141 135 39
131 127 28
136 132 36
148 142 44
134 129 25
143 137 41
146 140 42
147 142 42
141 136 32
139 134 34
145 138 52
144 138 45
148 141 48
139 134 48
131 126 37
148 142 49
148 142 48
145 138 48
150 144 57
151 144 54
139 132 42
139 135 37
144 139 44
145 140 44
152 145 52
136 132 37
145 140 37
141 136 45
145 140 45
140 136 41
139 134 42
149 144 48
146 138 56
143 136 51
144 139 49
145 139 52
143 139 36
150 143 57
143 138 45
146 139 49
140 134 42
143 138 52
146 140 44
144 137 48
140 134 45
150 144 53
144 138 44
149 142 52
145 140 49
144 138 51
148 141 60
142 135 51
134 129 42
145 139 49
140 134 48
149 143 59
148 139 60
137 132 44
138 132 52
143 138 45
145 138 53
145 139 59
142 136 52
133 127 41
141 134 56
144 139 48
144 139 58
137 131 51
138 134 41
147 141 57
148 141 53
172 196 0
173 196 0
172 196 0
172 196 0
171 194 0
172 196 0
173 197 0
173 196 0
173 196 0
173 197 0
170 194 0
172 196 0
172 196 0
171 194 0
170 194 0
173 196 0
173 197 36
174 197 72
177 200 92
177 199 84
177 199 62
179 201 102
177 200 99
180 202 102
173 197 72
177 199 72
180 203 102
186 206 135
179 201 92
181 202 111
177 199 92
183 204 99
178 200 92
180 202 88
175 199 84
180 202 99
176 199 57
176 199 72
176 199 76
177 200 84
178 200 95
176 200 84
178 201 99
174 197 76
174 197 62
172 195 57
175 199 72
177 200 80
176 199 88
171 194 51
176 199 80
176 199 62
175 198 76
175 198 67
177 200 84
176 199 72
176 199 51
175 198 62
174 197 67
175 199 72
172 195 51
174 198 72
172 195 36
176 199 76
171 194 57
176 198 62
174 198 57
175 198 67
175 199 76
174 197 67
174 197 67
173 197 80
175 197 51
174 198 88
173 196 76
174 197 72
175 199 88
171 195 76
171 194 76
174 197 67
173 196 80
169 192 67
172 195 80
171 193 44
170 193 67
172 195 67
175 197 72
173 196 76
170 193 76
174 196 62
172 195 76
172 195 76
173 196 76
173 196 62
174 196 84
173 196 67
169 190 76
171 193 67
176 198 76
172 194 67
171 194 105
170 190 51
169 192 72
168 190 84
168 190 80
171 193 76
169 190 67
170 192 80
168 190 95
176 196 99
175 195 117
166 187 67
165 187 72
160 182 76
165 186 92
153 175 62
154 175 0
159 180 0
153 175 0
153 174 0
148 170 0
160 181 0
154 175 0
149 171 0
157 180 25
160 183 0
158 180 0
153 174 0
156 178 0
162 184 57
166 189 25
165 187 72
167 188 67
167 190 25
166 190 0
167 190 0
163 187 0
163 186 0
166 189 0
160 183 0
161 184 0
165 188 0
159 181 0
163 186 0
164 187 0
164 187 0
161 185 0
163 186 0
161 183 0
159 181 0
162 186 0
158 180 0
155 178 0
160 183 0
159 181 0
153 176 0
155 177 0
155 178 0
157 181 0
159 181 0
150 173 0
153 176 0
151 175 31
83 108 67
53 84 90
54 86 92
54 86 88
57 89 111
53 85 90
52 83 90
54 87 100
54 86 105
53 83 99
53 85 80
54 85 100
56 88 102
53 85 86
54 86 99
56 88 90
56 88 102
54 86 94
53 84 100
54 86 86
54 86 99
56 89 100
55 87 100
55 87 95
53 85 95
56 89 100
54 85 95
53 84 94
54 86 95
56 88 107
54 85 76
55 87 94
54 86 103
57 89 108
53 84 99
52 83 92
55 88 113
56 88 102
55 87 102
55 87 100
53 85 102
52 82 86
55 86 103
54 85 94
52 83 95
58 91 120
54 86 95
56 88 107
51 80 86
54 85 88
53 84 86
54 85 88
54 85 98
54 86 97
51 80 76
54 86 89
54 85 95
53 83 97
51 81 85
53 84 89
53 84 99
55 87 105
52 82 96
52 82 94
51 80 77
48 75 76
52 82 84
49 77 68
51 81 84
50 79 82
47 74 73
47 74 75
46 72 63
71 92 58
135 154 8
143 162 0
138 157 0
144 163 0
146 164 0
148 167 0
146 164 0
151 169 0
136 155 0
137 154 0
153 172 0
154 172 0
154 174 0
153 171 0
151 169 0
156 176 0
158 177 0
155 173 0
147 164 0
145 162 0
155 172 0
154 171 0
155 173 0
153 171 0
156 172 0
152 169 0
156 173 0
160 177 0
156 174 0
158 175 0
124 128 19
90 86 21
97 92 28
79 75 11
85 80 11
83 79 16
81 78 0
97 93 0
98 93 16
86 82 14
96 92 16
86 83 0
93 90 11
95 91 0
95 92 16
90 85 19
95 92 16
106 102 12
100 97 11
112 109 0
104 100 11
104 102 22
104 101 16
104 101 14
105 101 8
108 104 16
113 110 18
121 118 18
105 102 16
117 113 16
111 107 21
115 112 8
122 119 19
121 117 21
126 120 22
126 121 28
126 121 16
123 119 24
120 117 24
124 120 14
123 118 18
118 114 30
121 117 22
125 120 29
129 125 25
129 124 31
127 121 34
129 125 34
131 126 33
136 131 30
136 130 30
127 123 32
138 132 26
137 132 25
137 131 34
145 139 36
137 131 37
137 132 37
135 129 36
142 135 36
140 134 42
146 139 47
136 131 32
136 130 37
134 129 30
145 139 48
144 137 45
139 133 34
139 133 37
136 129 36
147 141 44
137 132 36
142 137 41
143 137 47
145 140 39
138 131 49
146 139 48
138 132 44
147 140 45
136 130 39
138 132 39
139 134 39
146 140 41
141 136 34
146 140 54
140 133 34
143 137 42
143 136 44
142 136 36
145 140 45
143 137 45
152 146 49
139 133 47
151 145 51
148 143 47
145 140 48
144 139 42
149 141 52
143 136 52
141 137 41
147 141 44
139 133 45
146 140 51
142 136 52
141 135 45
144 138 45
141 135 45
139 132 48
149 142 57
147 140 53
144 139 48
144 138 47
146 140 52
146 139 56
140 133 51
139 133 47
133 128 44
142 135 49
147 141 47
145 139 51
126 121 41
142 136 52
134 128 49
147 142 47
142 136 45
143 138 51
140 134 53
135 128 48
137 132 41
136 130 60
140 134 52
138 131 47
135 130 41
174 197 0
173 197 0
172 196 0
175 198 0
172 196 0
171 195 0
170 194 0
173 196 0
173 197 0
175 197 0
170 193 0
172 196 0
174 196 0
173 196 0
170 193 0
173 197 0
173 196 0
174 197 0
177 200 67
176 199 57
176 199 62
176 199 67
179 201 92
182 204 102
175 198 57
176 199 80
173 196 44
179 201 84
183 204 114
181 203 92
177 199 99
175 198 84
179 201 102
177 199 76
178 200 105
179 202 102
178 200 95
175 197 67
176 199 76
179 201 88
177 199 80
176 198 72
176 199 92
173 197 62
175 199 80
173 197 67
177 200 72
174 198 92
176 200 95
174 198 84
175 199 84
176 199 76
176 200 80
176 199 80
172 196 51
174 197 67
176 199 76
172 195 36
173 197 67
175 198 67
170 194 72
172 195 67
174 197 84
174 197 72
174 198 84
173 196 67
172 195 72
171 195 51
176 199 72
174 196 67
176 198 44
175 198 80
172 196 80
171 194 62
173 196 67
175 198 67
172 195 57
173 197 99
176 198 62
173 196 57
175 198 57
171 194 51
171 193 36
170 193 57
173 196 72
173 195 76
173 196 62
171 194 57
174 198 88
177 199 88
174 196 76
172 193 57
175 196 80
172 194 62
174 196 72
172 193 67
170 192 44
171 194 84
172 195 99
170 191 80
166 188 72
166 189 84
172 193 80
170 192 44
174 195 88
176 197 95
175 195 114
175 196 92
167 188 92
170 191 95
161 181 62
167 189 76
160 182 67
159 180 62
139 160 0
153 174 0
155 176 0
159 180 0
155 176 0
163 183 0
150 171 0
160 182 0
152 172 0
147 168 0
158 180 0
159 180 0
162 184 0
166 188 44
152 174 44
164 187 0
175 197 76
169 191 80
167 190 0
160 184 0
164 187 0
162 185 0
164 187 0
163 186 0
165 188 0
164 187 0
163 185 0
159 183 0
161 185 0
160 182 0
165 189 0
164 188 0
159 182 0
158 181 0
160 184 0
159 181 0
163 186 0
159 182 0
161 184 0
155 178 0
150 172 0
154 177 0
159 182 0
153 176 0
161 183 0
147 170 0
148 171 0
158 181 0
156 179 0
140 162 18
81 105 70
52 82 92
51 81 82
52 83 76
56 89 97
52 83 94
53 84 90
51 81 78
53 84 88
51 81 65
55 87 99
55 87 88
54 85 99
52 83 84
55 87 94
53 84 88
53 84 90
54 85 94
54 85 95
53 85 92
54 87 88
55 88 103
54 86 92
56 89 102
53 85 95
55 87 94
56 88 95
55 87 90
55 87 99
55 86 103
54 85 97
55 88 105
54 86 103
55 87 108
54 85 88
57 90 103
53 85 88
54 86 94
56 88 99
55 86 102
56 87 110
53 85 97
56 88 105
54 86 92
54 86 101
53 84 90
54 85 97
54 86 102
52 82 96
55 87 97
55 86 102
54 86 95
52 82 87
55 87 99
51 81 90
51 80 92
55 85 101
53 84 96
52 82 88
52 81 87
53 83 88
50 78 76
52 83 92
51 80 89
49 76 76
51 80 89
49 77 77
47 73 80
50 77 82
48 75 83
47 74 82
74 93 50
146 165 0
144 163 0
140 157 0
149 167 0
149 169 0
150 169 0
141 156 0
148 166 0
137 155 0
147 164 0
144 160 0
144 162 0
152 169 0
146 163 0
143 160 0
143 161 0
143 159 0
148 167 0
150 167 0
150 167 0
151 167 0
146 164 0
144 157 0
150 166 0
150 166 0
149 162 0
149 162 0
153 170 0
152 168 0
153 169 0
150 163 0
154 171 0
125 134 18
78 74 16
87 84 16
87 84 8
74 72 0
88 86 14
94 89 0
93 86 16
74 72 12
89 84 3
99 94 0
97 94 11
88 85 0
94 89 11
97 94 19
98 94 8
91 89 0
88 85 0
100 96 2
96 92 11
110 106 8
101 97 3
106 103 14
101 97 8
108 104 8
103 99 14
113 108 16
116 110 16
114 110 11
114 109 8
125 118 24
107 103 29
119 113 19
123 118 16
111 107 16
118 114 25
121 118 22
116 113 14
114 110 28
136 132 33
122 120 26
124 118 25
135 130 32
121 118 16
132 127 36
129 124 25
136 131 34
133 128 19
131 124 30
133 129 34
134 128 34
123 119 29
125 120 30
135 130 35
129 124 32
134 128 34
131 127 32
133 126 34
138 131 37
134 127 34
134 128 36
138 134 28
132 126 30
137 133 25
136 131 22
145 140 36
136 129 34
131 127 32
139 133 32
141 135 36
140 136 36
144 137 41
151 145 48
148 142 44
142 135 41
133 127 36
138 133 34
146 141 48
146 141 41
143 138 37
144 138 45
143 138 41
144 138 45
146 140 37
138 133 41
147 142 45
144 140 39
140 136 34
138 133 37
148 142 47
142 136 51
148 142 44
137 132 39
142 135 41
147 140 45
138 132 39
144 138 52
145 139 54
147 140 49
147 140 51
142 136 48
147 141 51
137 132 42
145 139 42
141 135 47
144 139 44
138 133 44
143 138 45
148 141 57
140 134 51
144 139 51
134 128 44
133 125 39
147 142 49
148 141 54
142 136 45
135 131 39
125 120 45
143 137 45
136 129 48
140 134 51
143 136 49
137 131 47
144 137 53
133 127 49
140 133 52
140 134 42
140 134 39
150 143 54
144 138 56
143 137 57
149 143 58
173 197 0
174 197 0
171 194 0
174 197 0
174 197 0
173 196 0
171 195 0
173 196 0
170 194 0
172 196 0
172 195 0
175 197 0
174 197 0
174 196 0
172 195 0
171 195 0
173 196 0
172 196 0
173 197 0
173 196 44
175 198 51
175 198 62
176 198 72
180 202 95
178 200 84
184 205 114
178 201 72
179 201 95
176 199 62
179 201 80
178 200 95
180 202 102
181 203 108
180 202 105
182 203 128
177 200 80
176 198 76
176 200 88
180 202 92
175 198 84
179 201 88
178 201 95
177 201 76
176 199 76
176 199 95
176 199 67
176 199 76
175 199 80
178 201 80
177 200 80
179 202 102
170 193 92
174 198 80
175 198 57
175 198 62
174 198 67
176 199 76
175 198 88
179 203 114
171 194 62
175 199 92
173 197 72
173 197 62
174 197 76
175 199 95
174 197 72
174 197 72
176 199 80
174 199 88
176 199 76
175 198 76
173 196 80
171 195 84
177 199 67
170 193 44
173 196 62
173 196 62
172 196 76
172 193 57
169 191 51
175 197 62
174 197 72
172 195 92
171 194 80
173 195 76
174 197 92
177 200 76
174 196 76
173 196 88
174 197 72
173 196 67
173 194 72
172 195 67
173 194 36
172 193 67
173 195 95
172 194 67
164 185 76
172 194 76
170 192 76
171 191 88
168 189 88
173 194 84
172 193 84
168 190 92
175 196 108
169 189 95
171 192 72
167 188 67
166 187 88
160 181 62
164 185 67
155 176 0
157 179 0
158 179 0
156 177 0
143 164 0
156 177 0
158 179 0
147 169 0
157 177 0
149 171 0
158 180 0
164 185 0
161 183 0
162 184 0
154 176 36
158 181 36
163 184 44
169 191 57
166 187 72
165 188 0
165 188 0
164 186 0
160 183 0
165 187 0
160 182 0
166 188 0
161 183 0
160 184 0
150 172 0
159 182 0
163 185 0
155 178 0
154 177 0
163 186 0
159 181 0
158 180 0
158 179 0
158 181 0
146 169 0
157 180 0
154 176 0
159 181 0
149 172 0
148 170 0
157 179 0
149 171 0
156 179 0
155 177 0
156 178 0
151 173 0
146 169 0
150 172 0
142 164 18
83 109 70
50 80 72
51 80 76
52 83 82
50 80 78
54 87 88
51 81 72
54 85 82
52 83 92
54 86 95
51 82 76
51 82 88
57 89 110
53 85 92
53 84 90
52 84 92
52 84 82
53 84 94
51 82 82
53 85 95
53 84 82
53 84 97
52 82 86
53 84 80
55 87 105
55 86 102
54 86 95
54 85 90
53 84 100
54 85 97
51 81 82
51 82 80
53 85 95
53 85 88
53 84 90
53 84 92
54 86 92
55 86 94
52 82 90
53 85 100
52 83 94
53 84 92
55 86 97
53 85 90
53 84 92
52 82 86
53 84 94
54 85 95
53 83 90
54 85 92
51 80 77
53 84 90
54 85 102
52 82 88
51 80 87
51 80 83
53 83 93
53 84 87
51 79 79
52 82 95
50 78 79
50 79 77
50 78 83
50 79 74
49 77 90
52 82 82
48 76 74
49 76 80
47 74 68
66 87 51
126 143 0
132 148 0
140 161 0
142 159 0
132 150 0
135 152 0
147 165 0
144 161 0
143 162 0
144 160 0
140 156 0
146 163 0
144 161 0
142 157 0
144 159 0
144 160 0
143 158 0
146 163 0
148 166 0
146 161 0
142 159 0
143 158 0
151 166 0
142 155 0
147 163 0
147 162 0
146 163 0
144 159 0
151 166 0
148 162 0
145 159 0
150 167 0
141 156 0
155 171 0
130 137 19
93 88 22
86 78 22
84 78 23
80 76 3
85 78 16
81 77 14
85 82 8
95 91 14
92 87 11
85 79 11
92 88 11
87 84 0
95 93 0
107 101 0
102 98 11
100 95 11
107 105 0
103 99 4
98 93 11
101 99 18
98 97 3
107 103 12
112 107 11
115 110 16
104 100 21
107 104 14
113 107 22
114 110 0
116 112 16
120 116 19
110 105 21
116 112 24
113 109 18
129 123 26
125 119 16
123 119 0
125 120 22
123 118 22
124 119 11
128 123 21
127 122 11
129 122 19
129 121 34
132 125 19
129 125 32
130 125 19
123 118 22
132 126 32
128 122 22
132 129 28
138 132 34
138 132 36
134 128 19
135 130 32
131 125 36
130 123 25
141 135 34
144 139 36
142 138 32
135 130 34
143 137 37
136 130 30
145 139 39
145 138 39
137 131 32
140 135 36
136 130 30
144 137 25
142 137 39
141 136 42
142 137 32
134 129 36
140 135 36
142 136 45
128 124 25
132 128 36
136 131 28
143 137 45
143 137 42
143 136 39
143 138 42
138 133 34
144 138 52
141 135 45
141 137 44
140 134 44
140 134 47
135 128 37
142 137 42
141 136 39
146 140 49
143 137 51
141 135 48
142 135 51
136 130 39
146 139 47
138 133 39
140 135 52
138 132 42
138 133 41
147 142 39
144 136 45
143 135 49
136 131 41
139 133 44
140 135 48
148 140 59
143 138 49
136 130 39
138 132 51
144 137 44
136 131 37
129 124 39
137 131 49
138 132 42
140 133 51
143 138 48
138 133 37
134 128 41
143 139 48
131 124 47
146 139 58
141 134 56
144 139 49
135 129 51
133 126 49
136 130 51
133 128 47
127 122 39
139 133 48
173 196 0
173 197 0
170 194 0
173 196 0
174 197 0
172 197 0
172 196 0
172 196 0
173 197 0
174 197 0
175 198 0
173 196 0
172 195 0
170 194 0
170 194 0
172 195 0
173 196 0
171 195 0
173 196 0
171 195 0
171 195 0
171 194 0
174 197 57
174 197 62
175 198 67
180 202 99
174 197 62
178 200 76
175 198 72
177 199 84
178 200 92
179 201 88
179 202 80
181 202 117
177 199 102
182 204 114
180 202 99
178 200 92
176 199 88
175 198 80
180 202 111
179 202 102
178 199 99
180 201 95
175 197 80
177 199 88
176 199 62
177 200 99
175 197 80
174 197 76
173 196 84
175 198 62
175 198 76
174 197 72
172 196 57
175 198 72
174 197 51
174 197 88
174 196 72
179 201 84
173 196 72
175 198 84
176 198 67
176 199 72
171 194 67
172 196 72
174 198 80
172 195 80
176 199 72
175 196 67
172 194 76
176 199 72
174 196 67
175 197 92
173 196 51
175 197 80
175 197 67
173 196 51
172 194 62
167 189 62
170 193 95
176 198 88
176 199 88
174 196 67
174 196 84
175 198 80
175 196 72
172 193 76
171 192 80
175 198 95
172 193 67
175 196 84
171 192 88
172 193 92
175 197 95
176 197 88
171 192 99
172 193 80
174 195 88
171 193 105
171 192 95
174 194 108
172 191 122
172 192 92
175 195 88
168 190 92
166 186 72
169 190 76
160 181 80
160 180 44
159 181 44
155 176 0
165 186 0
150 171 0
157 178 0
160 181 0
149 170 0
152 174 0
158 179 0
159 180 0
157 179 0
151 171 0
156 178 0
166 187 0
157 178 0
162 184 36
162 184 25
166 188 44
168 190 76
170 192 72
161 183 0
162 184 0
167 189 0
159 182 0
166 189 0
153 176 0
160 182 0
161 184 0
162 184 0
154 176 0
159 182 0
155 177 0
162 185 0
160 183 0
159 182 0
155 177 0
155 177 0
164 186 0
152 174 0
151 173 0
157 180 0
157 179 0
153 176 0
152 173 0
154 177 0
152 174 0
152 174 0
145 168 0
156 178 0
151 174 0
139 161 0
145 168 0
139 161 0
142 164 0
141 162 0
132 153 18
98 121 57
53 84 80
51 81 76
50 81 57
52 82 78
50 80 67
48 77 78
53 85 82
50 79 80
52 83 84
52 83 100
54 85 84
52 82 82
54 85 99
53 84 86
55 87 78
53 84 78
52 83 90
54 85 100
56 88 113
53 85 99
51 82 70
52 83 86
54 85 97
53 85 88
53 84 94
50 80 78
55 86 102
54 86 78
54 86 95
55 86 92
54 86 94
52 83 86
53 84 84
52 82 76
54 86 94
52 82 74
55 87 95
55 87 110
53 84 94
54 85 99
54 85 84
53 84 88
53 84 90
52 83 84
53 84 94
51 81 84
54 85 94
52 82 94
51 80 79
52 82 80
49 78 67
48 76 87
52 82 88
53 83 89
49 79 81
49 76 75
50 78 83
49 78 80
53 83 94
49 77 75
48 76 87
52 81 94
46 72 63
48 74 84
45 70 65
44 69 57
93 113 48
128 144 18
126 141 0
139 156 0
136 154 0
141 158 0
133 150 0
136 155 0
147 166 0
135 151 0
134 152 0
141 156 0
136 154 0
136 152 0
142 158 0
149 163 0
138 155 0
136 150 0
141 155 0
136 148 0
142 158 0
143 158 0
148 163 0
150 165 0
146 161 0
146 161 0
142 158 0
147 163 0
144 156 0
152 167 0
145 159 0
152 167 0
147 160 0
154 169 0
157 172 0
148 166 0
141 154 0
134 139 28
89 84 16
86 81 11
87 83 22
83 80 0
94 88 16
88 83 24
92 86 0
84 81 8
98 94 11
97 95 0
88 85 18
101 96 8
93 88 12
99 94 12
105 100 11
92 88 8
91 87 8
105 99 11
108 102 11
114 109 8
109 107 14
107 103 0
105 101 8
110 105 11
104 101 11
103 99 14
113 109 16
119 115 19
117 112 0
117 115 16
116 112 8
115 111 16
118 113 19
124 119 30
122 117 16
129 126 20
128 122 18
125 119 24
118 113 16
126 119 30
121 116 14
125 119 22
128 122 25
126 121 25
130 125 28
129 124 25
123 118 19
127 123 22
124 118 16
132 127 19
137 131 36
130 125 30
127 122 28
139 132 30
134 129 32
132 127 32
134 128 32
132 128 28
145 140 37
133 127 32
137 130 32
133 128 30
138 132 34
139 132 37
131 126 30
142 136 34
135 130 34
137 132 22
136 131 34
139 132 37
136 131 28
147 141 42
135 129 28
139 132 36
141 135 36
139 133 36
128 124 25
144 135 42
141 136 41
138 133 39
142 137 30
145 140 39
139 133 36
138 132 45
146 139 45
143 137 36
144 137 41
139 134 34
141 134 37
137 131 45
137 131 44
144 137 42
141 134 44
134 129 36
139 134 39
142 136 47
139 133 45
139 133 37
139 133 45
140 134 42
134 129 39
135 129 48
142 136 48
141 135 44
145 139 42
142 136 51
140 135 47
138 132 42
142 137 42
147 141 48
128 123 36
140 135 47
140 134 45
144 138 49
142 135 47
142 136 45
144 137 47
132 126 37
142 135 52
134 129 44
140 133 48
143 136 49
136 130 42
147 140 53
140 135 49
141 134 52
138 131 52
132 128 36
137 132 57
173 196 0
170 194 0
175 197 0
174 198 0
174 197 0
175 198 0
173 197 0
172 196 0
171 195 0
175 198 0
171 194 0
171 194 0
173 196 0
174 197 0
174 197 0
173 196 0
174 196 0
174 197 0
173 196 0
173 196 0
172 195 0
172 195 0
171 194 0
169 192 25
175 197 62
174 197 80
174 196 51
178 200 62
182 204 114
179 201 102
178 201 88
179 201 95
176 199 72
179 201 80
180 202 102
178 199 92
184 205 122
181 203 102
179 201 105
178 201 92
179 202 105
181 203 102
175 197 84
179 200 99
180 202 92
177 199 102
178 200 102
179 202 88
180 201 111
177 200 72
179 202 88
178 201 84
179 202 108
177 200 88
174 197 80
176 199 84
176 198 80
176 199 88
174 196 76
178 201 76
174 196 67
177 199 76
175 198 80
175 197 67
173 196 62
173 196 80
173 197 92
173 196 62
175 198 80
172 195 88
172 194 67
171 194 62
179 201 95
171 194 76
174 198 99
176 198 67
176 199 72
173 195 84
173 196 57
172 194 67
171 193 57
173 195 76
171 193 67
173 196 80
170 192 67
174 196 57
174 195 80
171 192 80
172 194 62
174 196 92
174 195 72
172 193 99
173 193 72
173 194 95
174 195 80
175 195 88
178 198 111
172 193 76
171 190 108
171 192 88
179 198 114
168 189 80
163 184 57
162 183 51
162 183 84
168 190 80
159 181 57
165 186 57
162 183 44
154 175 25
159 179 0
155 176 0
152 173 0
151 172 0
157 178 0
151 171 0
154 175 0
150 171 0
146 167 0
156 177 0
156 178 25
154 175 0
158 179 0
159 180 0
163 184 57
162 184 51
164 187 51
169 191 88
169 191 67
161 184 0
168 190 0
162 185 0
158 180 0
158 180 0
162 185 0
159 181 0
161 183 0
158 179 0
155 177 0
156 179 0
162 185 0
153 175 0
155 177 0
160 183 0
155 179 0
153 175 0
160 183 0
154 176 0
155 177 0
152 175 0
146 168 0
148 169 0
152 173 0
157 179 0
138 160 0
150 172 0
153 175 0
149 171 0
155 177 0
156 177 0
154 175 0
142 163 0
140 160 0
150 172 0
136 157 0
138 160 0
139 160 0
99 121 54
54 84 88
50 80 70
54 85 95
49 78 72
52 83 88
52 83 86
51 82 78
53 85 92
51 82 72
50 80 80
52 83 80
53 85 86
53 84 84
52 83 80
54 86 102
52 83 94
52 83 78
53 84 90
56 88 103
53 84 86
55 88 92
53 84 95
51 82 94
54 86 92
52 83 82
53 84 90
53 84 82
53 84 88
52 82 95
55 87 97
51 81 84
51 81 76
54 85 97
53 84 94
53 83 90
49 78 70
53 84 82
52 81 94
53 84 95
50 79 92
52 83 97
51 82 87
52 82 90
54 85 88
50 79 80
52 83 86
50 80 85
52 83 92
53 83 94
52 82 90
53 83 95
51 81 79
50 79 85
50 79 81
51 79 83
51 80 80
51 80 89
50 78 88
47 73 66
48 74 65
46 72 73
47 72 63
46 73 76
42 66 68
96 114 48
116 130 18
121 138 0
128 143 0
136 153 0
124 141 0
141 158 0
131 147 0
129 145 0
127 144 0
136 152 0
136 153 0
130 147 0
132 149 0
139 156 0
141 157 0
129 145 0
130 143 0
143 158 0
144 161 0
139 152 0
134 148 0
136 149 0
147 162 0
133 147 0
133 148 0
147 162 0
146 159 0
144 156 0
140 154 0
139 151 0
141 154 0
136 149 0
147 159 0
145 158 0
137 150 0
147 158 0
145 159 0
143 156 0
125 133 11
90 86 25
79 74 16
86 81 16
81 79 0
100 95 19
94 88 16
99 94 22
89 85 12
92 88 11
88 85 0
99 95 3
93 89 0
90 88 8
99 96 0
102 97 8
96 94 0
97 93 0
101 96 11
102 98 11
98 94 0
110 103 11
111 105 11
106 103 12
109 106 3
107 102 0
116 111 18
105 102 8
115 109 14
114 108 18
121 116 11
114 110 24
112 108 19
117 114 11
124 118 19
117 113 0
120 115 16
125 118 23
125 120 22
120 116 16
123 119 22
117 113 11
125 120 24
127 123 22
128 123 36
129 124 16
128 123 31
131 126 16
123 119 25
124 119 21
132 124 11
140 134 32
135 128 41
131 126 25
136 131 25
129 123 25
128 124 25
133 129 19
134 126 36
136 131 34
124 119 25
130 126 22
141 135 37
135 129 30
138 132 34
131 125 22
135 130 32
142 137 39
133 128 25
132 126 34
133 127 39
132 127 39
136 131 19
137 131 37
144 137 45
149 142 45
145 138 44
135 128 41
137 131 32
140 134 42
147 139 44
141 134 36
136 131 42
136 131 44
143 137 41
143 139 37
144 136 42
143 138 44
138 131 44
140 136 39
144 138 37
145 138 42
136 131 37
142 137 34
142 135 45
142 135 42
145 137 44
138 131 39
136 131 39
136 129 47
140 135 44
149 142 56
132 126 41
133 128 39
138 132 51
138 132 42
138 132 52
143 137 45
139 133 53
138 132 45
136 131 42
139 131 48
141 136 42
135 130 49
139 134 36
146 140 54
131 125 41
137 132 44
131 124 49
139 132 49
139 133 49
124 118 44
127 121 41
139 132 49
137 131 47
139 131 57
136 130 44
142 135 54
130 125 44
172 196 0
173 197 0
174 197 25
176 199 0
174 198 0
172 196 0
174 197 0
174 197 0
173 197 0
174 197 0
174 197 0
173 196 0
169 192 0
174 196 0
170 193 0
172 196 0
172 195 0
174 196 0
169 192 0
171 194 0
172 196 0
171 194 0
172 195 0
171 195 0
173 195 0
172 196 0
172 195 51
173 197 72
177 199 57
176 199 88
173 196 67
178 200 67
176 199 84
177 199 72
172 195 67
174 196 62
176 199 67
176 198 80
178 199 99
182 204 114
179 200 102
176 199 92
179 201 105
179 200 95
175 198 72
175 198 80
175 197 95
177 198 92
179 201 92
180 202 95
172 195 76
177 199 80
178 200 80
176 198 84
177 199 72
178 200 99
178 199 99
175 197 92
174 196 80
176 198 72
177 199 92
175 197 80
176 199 95
176 198 67
177 199 84
174 196 72
174 195 72
176 198 76
176 198 80
172 194 57
175 196 72
177 199 88
172 194 76
176 198 92
180 201 84
176 198 88
173 195 80
178 199 88
177 198 72
173 194 76
173 194 62
176 198 80
175 197 88
174 196 76
176 198 88
170 191 72
175 196 72
175 196 92
172 193 108
172 193 80
175 196 105
171 191 84
167 188 72
168 189 102
168 189 72
175 196 72
176 196 108
175 195 111
167 188 88
167 188 95
170 191 80
170 191 84
171 193 51
169 190 80
164 186 72
159 180 67
155 177 44
159 180 0
158 180 0
155 177 0
155 176 0
151 172 0
148 168 0
159 179 0
153 174 0
155 176 0
157 179 0
158 181 0
159 180 0
160 182 0
158 177 0
153 174 25
165 187 0
162 184 57
158 180 44
168 190 44
174 195 88
164 187 25
159 181 0
160 182 0
162 185 0
158 181 0
163 185 0
163 185 0
164 186 0
150 172 0
164 186 0
157 179 0
163 186 0
157 180 0
164 186 0
159 182 0
166 188 0
152 174 0
153 176 0
152 174 0
153 175 0
150 171 0
155 177 0
152 175 0
154 176 0
153 175 0
157 179 0
151 173 0
145 167 0
153 176 0
149 171 0
152 173 0
144 166 0
142 163 0
139 161 0
137 159 0
150 173 0
143 164 0
140 163 0
128 148 0
145 166 0
146 166 0
112 133 44
54 81 65
49 79 76
51 81 86
49 78 72
51 82 80
53 84 82
51 81 67
50 80 80
51 82 62
53 84 88
52 83 80
52 83 78
53 84 94
51 81 80
53 84 86
53 84 86
54 85 95
53 84 94
53 84 84
53 84 92
55 87 94
52 83 88
53 84 86
54 87 97
53 85 99
54 85 94
51 82 90
52 82 72
54 85 94
53 84 88
53 84 86
51 82 86
52 83 90
51 82 90
54 86 80
53 85 94
51 81 79
50 80 84
52 82 88
52 82 94
53 84 95
52 83 84
52 82 90
53 84 103
53 84 92
53 83 100
54 85 86
51 81 77
52 81 90
50 79 78
49 78 77
49 79 76
50 79 83
50 79 65
50 79 80
49 77 69
43 68 67
53 83 94
48 75 77
45 70 65
46 73 77
49 70 49
109 126 25
121 138 0
116 130 0
126 142 0
125 139 0
120 135 0
125 141 0
125 142 0
125 140 0
133 149 0
133 148 0
132 149 0
129 144 0
125 140 0
130 146 0
135 153 0
126 141 0
133 146 0
123 139 0
137 148 0
128 143 0
140 153 0
142 157 0
138 153 0
137 153 0
137 151 0
133 149 0
137 149 0
141 154 0
147 162 0
144 157 0
143 157 0
133 144 0
139 149 0
144 156 0
147 158 0
138 151 0
140 150 0
135 147 0
141 152 0
142 156 0
141 151 11
92 87 11
79 77 8
88 83 18
79 74 11
77 74 16
88 85 18
91 86 16
92 86 0
90 86 16
94 88 0
91 86 0
98 93 0
91 86 11
95 90 0
76 73 8
98 94 0
97 90 0
95 92 0
102 97 0
102 97 8
112 108 8
112 107 0
106 102 8
109 104 11
115 111 8
109 103 8
108 104 11
111 106 14
116 112 14
109 105 0
120 115 19
116 112 11
130 124 19
119 113 11
117 112 0
118 113 14
115 110 0
119 114 16
122 118 11
119 114 16
114 109 22
122 116 30
129 125 11
124 119 19
126 122 22
136 131 26
122 116 22
130 125 19
130 125 19
135 129 25
128 122 32
126 120 30
126 120 22
126 120 32
124 119 19
131 127 19
136 129 34
136 130 28
131 125 22
131 124 30
132 126 32
138 133 32
130 126 28
133 127 36
131 126 28
135 129 32
143 138 32
139 133 28
134 130 37
137 131 30
136 130 32
143 139 34
136 129 37
139 132 39
138 133 32
144 137 41
141 135 39
136 131 32
141 136 36
139 132 44
136 130 32
140 134 41
135 129 39
133 128 36
134 129 39
141 135 45
142 136 45
138 132 41
138 132 34
139 132 42
141 134 45
136 129 34
143 138 41
145 138 47
136 129 39
137 131 36
143 136 45
141 134 49
138 133 44
144 138 34
143 136 48
131 125 32
139 133 41
139 133 39
135 129 41
140 134 44
141 135 47
132 127 37
138 134 45
133 128 47
140 134 45
135 127 42
139 133 41
143 138 36
142 137 45
131 126 41
133 126 41
143 137 41
135 129 48
148 142 45
136 131 42
144 139 47
139 134 45
140 134 53
135 130 44
136 131 45
131 125 45
174 196 0
172 195 0
175 198 0
175 197 0
174 197 0
173 196 0
173 196 0
171 194 0
172 196 0
171 195 0
173 196 0
171 194 0
172 196 0
171 195 0
172 196 0
173 197 0
170 193 0
172 194 0
174 197 0
173 196 0
170 193 0
173 195 0
171 194 0
172 195 0
173 195 0
174 196 0
171 193 0
172 195 25
176 199 57
175 197 62
175 196 76
176 199 84
175 197 62
175 198 72
177 198 84
178 200 88
177 200 67
177 200 72
174 196 80
177 199 80
183 205 114
182 203 117
181 202 114
180 201 114
180 202 102
179 201 108
177 198 95
181 202 92
178 200 92
178 200 102
177 199 88
171 193 76
177 199 95
175 197 72
180 202 108
175 196 88
174 196 57
177 199 80
174 196 57
173 195 80
175 198 88
172 195 67
178 199 92
173 195 76
176 198 80
175 197 84
172 194 76
174 196 76
174 195 72
176 198 80
175 197 84
177 198 92
172 192 72
173 194 62
177 198 84
175 197 95
174 196 62
174 196 76
177 198 88
175 197 88
176 197 76
168 189 44
174 195 92
171 192 84
176 197 88
172 193 80
174 196 92
175 196 95
170 192 67
178 199 105
172 193 88
173 193 76
173 194 88
175 196 95
180 201 102
175 196 111
169 190 84
168 190 80
170 192 72
161 182 76
170 191 92
168 189 72
165 187 67
154 176 36
154 175 0
159 180 0
158 178 0
157 178 0
158 179 0
160 180 0
155 176 0
155 177 0
159 180 0
158 180 0
157 179 0
159 180 0
154 176 0
160 182 0
151 172 0
161 182 0
164 185 25
166 187 57
165 186 36
162 183 25
162 184 0
167 189 76
163 185 25
159 181 0
162 185 0
159 182 0
164 186 0
159 182 0
164 187 0
158 181 0
161 183 0
157 178 0
157 179 0
159 180 0
159 181 0
157 179 0
157 179 0
157 180 0
158 179 0
156 179 0
149 172 0
152 174 0
153 175 0
154 176 0
149 171 0
150 172 0
151 173 0
154 176 0
151 171 0
152 175 0
152 175 0
150 172 0
142 163 0
148 169 0
143 164 0
148 170 0
145 166 0
138 159 0
128 149 0
141 162 0
146 167 0
138 158 0
134 155 0
134 155 0
130 150 0
111 130 18
68 92 65
52 83 84
50 80 74
51 81 78
48 77 76
49 78 76
49 79 67
54 86 92
52 83 70
51 82 84
52 83 82
51 81 82
51 82 74
53 85 84
53 85 84
52 84 86
52 83 84
53 84 92
52 83 90
53 84 80
54 85 95
51 81 70
55 87 102
53 84 86
51 81 82
53 84 90
51 82 78
52 83 92
53 84 88
52 82 97
54 85 94
51 80 86
53 85 90
51 81 95
54 84 95
51 81 84
50 79 82
51 81 90
52 83 95
51 80 88
55 87 108
52 82 84
52 83 92
53 84 97
51 81 82
50 80 63
52 81 98
52 82 85
49 78 76
50 80 94
48 76 75
50 79 80
49 77 82
47 74 80
47 74 73
50 78 81
46 72 54
43 68 60
44 70 60
63 82 38
104 119 18
114 129 0
120 137 0
118 131 0
113 129 0
118 134 0
128 141 0
125 141 0
127 144 0
124 139 0
126 141 0
133 149 0
113 129 0
125 142 0
131 149 0
128 143 0
138 155 0
135 149 0
119 131 0
132 144 0
130 144 0
136 152 0
129 140 0
136 148 0
129 143 0
129 142 0
131 142 0
140 151 0
136 148 0
135 149 0
137 150 0
128 140 0
135 146 0
139 152 0
141 154 0
139 151 0
140 152 0
138 149 0
133 143 0
128 139 0
135 145 0
136 145 0
138 147 0
142 151 11
108 109 16
92 87 11
99 92 19
91 85 11
91 84 16
86 83 12
86 81 14
98 92 8
95 89 0
86 80 11
93 88 11
91 86 11
101 95 11
106 100 16
100 96 11
90 83 0
104 96 0
99 92 0
93 89 11
94 92 16
113 106 0
99 92 11
97 92 8
110 106 8
103 98 8
115 109 11
114 108 11
114 107 0
117 111 0
115 112 19
122 117 11
110 104 14
117 112 11
123 119 0
117 112 0
120 114 16
122 118 11
115 111 11
120 116 19
119 114 11
123 118 11
119 112 22
122 117 19
129 122 19
119 115 11
133 127 22
122 117 19
129 123 22
138 132 16
129 124 19
132 125 25
123 117 25
123 118 28
128 122 22
135 129 25
137 131 25
137 132 32
140 134 36
126 120 22
133 127 22
133 128 34
133 127 22
125 119 30
127 122 19
131 127 28
132 125 28
131 126 30
133 128 34
138 131 32
138 133 30
135 129 32
138 131 36
138 132 37
126 120 34
136 128 37
135 129 37
143 136 39
135 129 30
134 128 39
140 134 39
142 136 41
134 128 34
136 129 36
143 137 39
140 134 41
133 128 32
138 133 36
138 131 42
129 124 39
146 139 47
134 129 42
141 136 37
136 130 41
137 131 39
138 132 44
136 130 41
135 128 37
146 138 48
143 135 49
131 126 36
130 124 39
135 131 30
135 130 42
135 128 45
138 132 47
136 130 41
142 135 42
135 129 51
136 129 45
139 131 49
133 128 41
138 130 44
131 125 44
139 133 48
129 123 25
132 128 39
139 134 44
127 122 36
136 129 45
134 128 45
127 122 42
141 133 53
132 126 41
135 128 49
126 119 37
137 131 49
173 196 0
175 198 0
172 196 0
173 196 36
175 198 25
171 195 0
172 195 25
171 195 25
173 196 25
173 196 0
173 197 0
171 195 0
172 195 0
170 194 0
173 197 0
173 196 0
172 196 0
171 195 0
175 198 0
175 197 0
170 194 0
173 196 0
171 195 0
168 192 0
170 192 0
172 195 0
173 195 0
174 196 0
169 192 0
174 196 0
173 197 44
169 193 51
181 202 84
174 197 62
176 199 72
176 198 72
174 197 62
180 201 92
176 198 84
175 198 67
174 197 80
174 197 72
178 199 72
175 197 84
178 200 88
178 200 95
178 200 92
180 202 105
180 201 88
178 199 102
180 201 95
180 201 95
178 199 120
179 200 76
177 199 67
179 200 92
179 201 84
180 202 92
176 198 72
177 198 95
180 201 95
179 200 88
178 199 76
175 196 67
179 201 108
180 201 105
178 200 99
181 202 105
176 198 76
176 197 80
178 200 92
178 199 84
174 195 92
178 199 99
176 198 88
177 197 95
173 194 76
169 190 72
173 195 84
175 195 92
179 200 108
178 198 88
174 195 80
175 196 80
177 198 92
171 193 80
175 196 92
172 193 105
174 195 62
173 193 102
175 195 105
174 194 102
171 192 72
170 191 95
171 193 67
166 187 84
168 189 76
173 194 92
171 192 67
161 183 76
163 184 62
157 178 36
149 171 0
157 178 0
162 183 0
156 178 0
153 174 0
161 183 0
164 185 0
154 174 0
155 176 0
155 176 0
157 179 0
154 175 0
147 168 0
158 179 0
159 180 25
167 188 0
163 185 0
162 184 25
159 180 44
165 187 36
163 185 36
171 191 92
169 190 92
160 182 0
161 183 0
163 186 0
160 183 0
157 179 0
162 185 0
161 183 0
160 181 0
156 178 0
155 178 0
160 182 0
162 185 0
160 182 0
160 182 0
150 171 0
159 182 0
153 175 0
156 177 0
151 172 0
149 172 0
151 173 0
159 181 0
153 175 0
148 169 0
150 173 0
144 166 0
142 164 0
147 169 0
143 165 0
148 170 0
148 169 0
143 164 0
143 164 0
147 168 0
133 154 0
138 159 0
134 155 0
145 165 0
144 164 0
133 153 0
140 161 0
132 153 0
129 149 0
118 138 0
123 144 0
126 145 0
81 103 47
54 80 67
48 78 60
52 82 88
52 83 70
50 79 74
51 81 86
52 82 84
51 81 82
51 80 88
51 81 82
53 85 82
52 83 84
54 85 97
53 83 90
51 82 82
49 78 70
52 83 74
51 80 74
52 82 94
53 85 95
52 83 80
53 84 90
51 81 84
51 81 82
52 83 94
51 82 82
51 81 80
50 79 82
51 80 80
51 81 82
53 84 88
54 85 90
52 82 88
50 79 74
52 81 82
51 81 80
50 80 80
50 80 80
49 78 85
52 82 79
49 78 76
47 77 54
50 80 88
49 78 82
49 78 72
51 81 80
51 80 79
50 79 76
47 74 70
49 78 70
45 71 63
47 73 65
46 73 72
45 72 61
48 75 83
40 63 51
79 95 36
115 131 0
118 134 0
109 122 0
118 133 0
107 121 0
121 136 0
120 134 0
106 122 0
117 131 0
117 131 0
115 130 0
124 139 0
111 123 0
120 136 0
126 141 0
122 138 0
136 151 0
124 140 0
123 137 0
131 144 0
130 141 0
137 151 0
127 141 0
137 149 0
129 142 0
124 136 0
121 133 0
127 142 0
124 135 0
133 146 0
124 134 0
140 154 0
133 145 0
138 151 0
143 155 0
135 144 0
137 149 0
124 133 0
128 138 0
127 137 0
131 141 0
129 138 0
136 145 0
128 138 0
140 150 0
127 135 0
114 119 0
85 81 22
78 73 19
83 79 11
77 73 0
86 81 0
90 83 11
90 84 0
86 82 11
89 84 0
90 86 14
83 78 8
95 89 8
89 85 0
87 83 0
97 93 0
91 88 8
94 89 0
104 98 8
99 94 8
107 102 0
109 105 0
104 100 11
103 95 8
108 103 14
99 92 0
107 104 0
108 104 0
115 109 0
119 113 18
115 110 14
119 115 0
121 116 8
121 114 19
116 112 0
115 110 19
124 118 19
120 115 11
118 113 21
121 116 16
121 116 0
118 113 19
121 117 0
127 122 19
114 109 11
120 115 16
133 125 25
126 122 19
129 123 16
124 120 22
124 119 11
135 129 30
127 120 25
128 123 22
130 124 28
131 124 19
118 114 19
131 125 25
134 129 19
134 127 30
129 124 25
134 127 34
135 129 22
126 121 28
143 135 37
133 128 19
130 124 28
134 126 25
133 128 36
139 133 39
134 129 32
137 131 32
142 136 36
136 130 39
134 129 30
131 124 32
137 132 37
134 128 30
128 123 30
136 129 39
134 130 30
135 130 41
138 132 32
137 131 36
132 127 34
139 133 39
136 130 39
134 128 32
141 134 39
130 124 39
134 129 44
135 128 36
144 139 45
137 131 41
140 135 42
137 131 39
136 128 39
145 138 51
140 134 42
129 123 30
141 134 44
148 141 48
138 131 51
137 130 39
144 138 48
140 133 44
134 128 44
136 130 37
136 129 48
132 126 45
136 130 37
136 129 39
133 127 48
135 129 48
135 129 41
128 122 37
126 120 36
138 132 48
131 123 45
141 134 53
136 129 48
132 125 44
142 135 53
139 133 51
123 119 28
173 196 0
173 197 0
174 197 0
174 197 0
174 197 25
174 197 0
175 198 0
173 197 0
170 195 0
173 196 0
171 195 0
174 196 0
174 197 0
172 195 0
173 195 0
173 197 0
171 195 0
172 195 0
174 197 0
173 195 0
171 195 0
174 197 0
172 195 0
172 195 0
171 195 0
173 195 0
169 193 0
174 196 0
175 196 0
170 194 0
175 197 0
172 195 0
169 192 25
176 199 57
175 197 51
178 200 76
178 199 92
175 198 72
176 199 72
173 195 76
176 198 84
176 199 92
176 198 88
176 199 84
175 198 57
175 198 72
175 198 76
180 202 88
180 202 95
179 200 111
182 203 128
181 202 105
182 203 108
176 197 80
178 199 99
181 202 102
179 200 105
182 203 105
178 199 88
178 199 99
176 198 92
177 199 92
179 200 92
175 196 76
181 202 111
179 200 99
176 197 99
176 197 88
177 199 111
180 202 105
179 200 108
178 198 95
174 195 88
176 197 88
174 195 84
178 199 88
175 196 84
180 201 95
177 198 88
179 199 105
173 193 92
174 195 84
174 195 84
174 195 67
175 195 92
174 195 105
171 191 80
175 195 95
174 194 92
171 191 67
172 192 72
163 185 62
170 191 62
165 186 67
173 193 105
168 189 67
167 188 72
167 187 67
162 182 51
163 184 25
162 183 0
157 178 0
162 183 0
156 177 0
160 181 0
158 179 0
162 183 0
158 180 0
156 178 0
154 174 0
165 186 0
159 180 0
160 182 0
154 175 0
158 180 0
169 189 0
157 178 25
156 178 0
158 179 0
155 177 25
164 185 57
167 188 44
175 195 102
166 187 57
154 175 0
162 184 0
159 182 0
159 181 0
161 183 0
162 185 0
154 176 0
165 187 0
157 178 0
159 181 0
159 181 0
154 176 0
154 176 0
153 176 0
160 182 0
156 177 0
150 171 0
150 172 0
157 180 0
155 176 0
157 179 0
156 178 0
159 181 0
151 172 0
152 174 0
143 164 0
148 170 0
147 169 0
138 160 0
151 172 0
143 165 0
140 162 0
142 164 0
142 164 0
142 163 0
141 162 0
141 162 0
135 155 0
144 165 0
139 159 0
135 155 0
131 151 0
113 134 0
127 147 0
132 152 0
123 142 0
121 141 0
121 140 0
117 136 18
74 98 67
47 76 65
50 80 76
50 79 86
48 78 62
50 79 72
48 78 72
51 81 84
53 84 86
51 82 72
52 82 86
50 80 78
48 77 72
52 82 99
52 82 84
50 81 84
51 82 82
48 78 72
51 81 82
52 82 78
49 79 82
51 81 86
49 79 72
50 79 78
50 80 90
52 82 88
48 77 80
52 83 81
51 81 82
52 83 90
48 76 74
49 78 62
51 80 86
52 83 86
49 78 82
49 79 87
48 77 70
50 78 86
50 80 95
49 77 84
46 73 67
47 75 67
48 75 78
48 76 70
49 78 70
48 75 65
45 71 72
49 77 78
50 78 80
46 73 62
47 74 72
48 75 72
41 66 61
61 78 44
90 104 25
107 121 0
108 121 0
112 125 0
91 103 0
101 114 0
99 110 0
99 112 0
124 139 0
119 133 0
111 124 0
106 119 0
111 125 0
124 137 0
120 134 0
113 124 0
133 147 0
122 137 0
124 137 0
121 134 0
128 142 0
124 138 0
133 144 0
113 128 0
125 140 0
123 135 0
122 134 0
137 148 0
128 142 0
133 145 0
129 143 0
129 139 0
128 140 0
133 144 0
138 149 0
133 144 0
119 126 0
124 131 0
125 134 0
131 140 0
130 139 0
130 139 0
120 130 0
127 134 0
130 138 0
128 137 0
126 133 0
138 144 0
125 133 0
128 131 11
90 89 22
87 80 16
86 81 16
80 75 11
88 82 14
82 76 11
89 82 11
84 79 0
83 76 0
86 81 0
99 93 11
87 83 0
97 89 0
91 86 0
106 99 0
97 93 0
96 90 11
97 92 0
101 97 0
103 98 0
99 96 0
106 101 0
104 101 0
119 111 11
105 99 0
110 104 0
118 111 0
114 109 0
115 109 0
115 106 16
110 104 0
115 109 16
112 108 0
112 107 0
117 112 11
118 112 11
126 121 0
122 117 16
121 115 22
122 117 16
125 118 16
124 118 28
129 123 11
128 123 0
125 119 16
121 116 16
115 110 19
130 125 16
134 129 28
125 120 22
118 113 16
128 122 22
130 125 16
125 120 19
128 121 28
132 127 16
135 130 16
129 123 19
131 124 22
135 129 28
135 131 25
130 125 22
130 124 28
130 124 32
129 124 25
138 134 32
138 131 36
130 123 32
127 122 30
131 125 30
127 121 30
135 128 25
131 127 28
137 132 37
142 135 32
133 127 25
134 128 39
132 127 34
137 132 36
135 129 37
138 133 34
128 123 32
138 131 34
139 133 41
129 123 34
136 131 32
143 136 41
136 129 39
141 136 37
136 130 39
143 136 44
139 134 44
137 131 44
136 130 37
134 127 39
137 131 37
137 132 39
136 129 39
129 124 39
138 133 41
135 128 42
128 121 39
139 133 36
129 124 41
140 134 47
128 122 37
128 123 41
139 132 48
140 133 53
132 126 49
131 126 34
137 132 41
138 134 42
134 129 45
132 126 39
127 122 32
134 128 44
128 123 39
131 125 45
137 131 39
140 134 52
132 127 44
137 130 52
174 197 0
172 196 0
172 196 0
173 197 0
168 192 0
170 194 0
174 197 0
172 195 0
172 195 0
173 196 0
174 197 25
174 197 0
170 193 0
169 192 0
175 197 0
175 197 0
169 192 0
175 197 0
171 194 0
171 194 0
172 195 0
171 195 0
174 197 0
172 195 0
172 195 0
170 193 0
173 195 0
172 195 0
175 197 0
173 195 0
169 193 0
170 193 0
173 196 0
172 195 0
172 195 0
173 195 25
173 196 25
172 195 44
175 197 76
176 198 88
176 198 72
179 201 80
176 197 57
175 197 84
176 198 80
175 197 84
178 200 72
179 200 62
178 199 84
178 199 62
176 198 62
175 198 76
174 197 76
177 199 84
181 201 102
174 196 76
179 200 105
179 200 102
179 200 95
179 200 99
182 201 117
181 202 99
175 196 95
179 199 99
180 200 95
181 201 95
180 201 99
183 203 108
181 200 99
172 193 80
179 200 102
177 197 88
182 202 102
174 195 84
184 205 133
172 193 62
176 196 99
173 194 92
174 193 95
176 196 95
172 193 84
176 196 95
180 200 95
170 191 80
165 186 62
172 193 92
169 190 67
169 190 62
171 192 62
171 192 76
169 189 62
167 188 67
163 184 88
170 191 51
169 190 67
161 182 25
165 187 25
158 180 0
166 187 0
165 185 0
159 180 0
156 179 0
163 184 0
160 180 0
157 178 0
163 184 0
162 182 0
154 174 0
163 184 0
155 177 0
161 182 0
154 175 0
161 181 0
159 181 0
156 177 0
168 188 0
158 179 25
157 178 25
158 179 25
164 186 44
165 187 57
164 185 62
163 185 0
160 182 0
163 186 0
159 180 0
160 181 0
160 182 0
164 185 0
160 181 0
156 178 0
157 179 0
162 184 0
156 178 0
155 177 0
150 171 0
150 173 0
155 177 0
161 183 0
154 176 0
149 171 0
154 176 0
143 165 0
145 168 0
151 173 0
150 171 0
146 168 0
145 167 0
152 174 0
152 174 0
150 171 0
141 162 0
145 167 0
142 163 0
137 158 0
139 160 0
143 164 0
140 160 0
139 160 0
149 169 0
143 164 0
138 159 0
128 148 0
118 138 0
130 150 0
133 153 0
126 146 0
130 148 0
120 140 0
124 145 0
101 119 0
108 126 0
112 130 0
114 132 0
96 117 40
51 77 60
46 74 70
50 79 80
50 80 60
47 75 67
51 81 78
48 77 62
50 80 65
50 80 80
50 81 72
51 81 76
49 78 76
50 80 80
51 81 86
50 80 80
51 80 78
50 80 76
49 79 78
52 83 88
49 78 86
49 78 88
50 80 72
51 81 95
48 77 74
51 80 86
49 79 72
50 80 84
51 81 86
51 81 80
49 77 70
50 80 80
49 78 83
50 79 74
49 78 76
50 79 78
48 76 86
47 74 72
51 80 84
49 78 74
48 76 78
49 78 81
50 79 80
50 79 80
45 71 78
45 72 78
44 71 60
46 71 65
48 77 72
49 76 75
49 69 54
81 97 40
98 110 0
97 108 0
110 125 0
101 116 0
99 111 0
110 124 0
112 127 0
94 107 0
106 118 0
110 125 0
118 132 0
117 132 0
116 130 0
111 126 0
115 128 0
107 121 0
117 131 0
128 142 0
120 132 0
115 128 0
117 131 0
117 131 0
128 141 0
118 130 0
129 140 0
127 139 0
115 126 0
128 138 0
128 142 0
121 132 0
128 138 0
127 140 0
125 137 0
130 143 0
126 137 0
129 139 0
133 145 0
126 136 0
126 137 0
123 132 0
131 139 0
127 137 0
121 128 0
126 133 0
134 143 0
134 144 0
134 143 0
125 129 0
126 135 0
121 126 0
131 137 0
129 133 0
114 115 0
78 72 16
82 75 16
78 74 14
92 86 19
92 85 11
86 81 0
91 85 0
93 88 0
84 78 0
95 89 11
102 93 11
84 76 11
96 90 8
104 101 8
103 97 0
95 89 0
102 95 0
98 92 0
100 94 0
98 92 0
112 107 0
108 102 0
109 103 0
105 100 0
111 104 0
113 108 0
113 108 0
108 104 0
110 106 0
114 109 0
107 101 0
112 107 16
115 112 0
119 115 16
119 115 16
121 115 11
116 110 0
122 117 0
131 125 0
117 113 11
122 116 0
120 114 16
133 126 22
130 123 19
114 109 0
119 113 0
129 124 19
123 118 16
119 115 0
120 113 16
132 125 19
133 128 16
127 121 19
139 132 22
122 116 16
125 119 25
135 129 28
128 123 19
133 128 22
132 126 30
128 122 22
133 128 22
134 128 28
126 120 22
124 118 28
127 123 28
123 118 19
127 122 22
135 130 30
130 124 32
136 130 32
136 130 28
129 121 36
132 128 32
135 128 32
131 124 30
128 123 30
136 128 36
128 122 32
131 125 34
126 120 25
132 125 32
136 130 34
130 123 32
136 129 32
131 125 34
138 132 44
126 120 37
136 129 37
131 125 36
131 126 37
136 128 48
143 136 45
136 131 36
137 131 39
130 125 36
131 125 28
138 131 42
135 130 42
136 130 30
133 127 42
132 127 41
141 135 42
138 131 44
133 128 37
137 132 39
131 125 45
134 127 48
143 137 42
143 137 45
131 125 41
133 127 41
134 128 41
133 128 44
138 132 48
135 128 45
130 126 32
134 127 48
130 124 41
124 118 37
122 117 39
171 195 0
171 194 0
172 195 0
173 197 0
174 197 0
173 197 0
172 195 0
173 197 0
173 197 25
173 197 0
171 195 0
172 196 25
175 198 0
174 196 25
175 198 0
172 195 0
173 196 0
171 195 0
174 197 0
176 198 0
173 196 0
174 197 0
177 199 0
174 196 0
173 195 0
171 194 0
169 193 0
172 196 0
172 195 0
172 195 0
171 194 0
174 196 0
171 194 0
172 195 0
170 192 0
173 196 0
168 191 0
169 192 0
170 193 0
172 194 36
174 196 62
175 197 62
175 198 57
174 196 25
175 196 62
174 197 72
180 202 95
171 194 88
170 191 57
174 196 62
177 200 92
175 198 62
176 198 80
179 200 84
176 198 72
175 197 72
179 200 80
174 195 62
172 194 67
172 195 51
174 196 72
176 198 76
177 198 76
178 198 80
180 200 92
176 197 76
175 196 84
177 198 80
178 199 95
180 201 102
175 196 92
174 195 67
176 197 99
172 193 95
176 197 92
169 191 80
174 195 72
174 196 92
170 190 72
174 195 84
175 196 44
169 190 62
173 195 67
164 185 62
173 194 88
172 193 72
175 195 84
173 194 92
166 187 84
171 193 76
164 185 72
167 187 62
166 187 44
162 183 25
156 177 0
152 173 0
157 178 0
160 182 0
163 184 0
161 182 0
162 183 0
156 178 0
163 185 0
160 180 0
165 186 0
158 180 0
162 183 0
164 185 0
154 176 0
158 179 0
159 180 25
155 174 0
157 178 0
159 179 0
155 176 0
163 183 0
168 188 51
163 185 44
162 184 36
170 191 92
164 186 51
163 184 0
161 181 0
158 179 0
166 188 0
155 177 0
152 174 0
160 181 0
165 186 0
162 184 0
158 180 0
155 177 0
151 172 0
159 180 0
158 179 0
159 180 0
146 168 0
156 178 0
149 171 0
148 168 0
160 181 0
146 168 0
159 181 0
151 173 0
146 168 0
144 166 0
154 175 0
148 170 0
147 167 0
151 173 0
147 169 0
146 168 0
142 163 0
143 164 0
147 168 0
150 171 0
140 161 0
143 164 0
140 161 0
128 148 0
136 157 0
137 157 0
140 160 0
132 153 0
137 156 0
121 140 0
127 146 0
124 142 0
119 139 0
121 140 0
115 134 0
94 111 0
101 117 0
100 117 0
116 133 0
95 112 0
87 105 31
50 75 60
47 75 72
47 76 77
44 71 65
48 77 74
47 76 70
49 79 76
53 84 84
50 79 80
49 79 82
50 80 74
49 78 70
50 81 76
49 79 74
47 76 72
47 75 67
52 82 82
51 80 84
50 80 72
52 83 80
52 82 88
51 81 84
51 82 82
48 77 78
50 80 74
48 78 76
49 79 72
48 77 74
50 79 82
48 76 70
51 80 79
51 80 78
51 80 87
48 76 67
48 76 80
49 78 70
45 72 65
49 77 77
47 74 65
47 75 65
48 76 70
46 72 70
46 73 70
44 70 51
42 67 63
55 74 48
77 90 31
88 102 25
82 95 0
92 104 0
97 108 0
108 120 0
99 111 0
105 118 0
96 109 0
100 110 0
104 114 0
118 132 0
122 136 0
115 128 0
115 128 0
113 125 0
111 124 0
115 128 0
102 115 0
117 131 0
114 126 0
113 127 0
121 136 0
122 136 0
128 144 0
125 137 0
119 131 0
130 144 0
119 131 0
128 138 0
122 133 0
127 138 0
127 138 0
118 131 0
120 129 0
123 134 0
122 132 0
118 127 0
126 138 0
127 135 0
114 121 0
128 139 0
122 129 0
130 140 0
123 131 0
125 133 0
127 137 0
135 140 0
120 128 0
118 125 0
130 136 0
128 134 0
128 134 0
126 133 0
131 136 0
115 118 0
114 115 18
86 83 14
83 77 11
98 90 16
90 83 16
88 80 0
90 84 14
91 83 0
90 85 16
98 92 0
94 86 11
89 81 0
96 88 0
98 91 8
86 80 8
95 90 0
97 93 0
100 96 0
106 99 0
97 90 0
97 92 0
108 100 0
115 107 11
109 103 0
108 101 0
110 105 0
103 98 0
104 100 0
113 108 0
107 103 0
117 111 11
108 104 0
125 118 11
119 113 0
115 108 0
119 112 11
119 113 11
120 114 16
125 119 0
120 114 0
127 122 11
120 113 16
127 120 19
123 117 0
130 125 19
116 111 11
124 120 19
128 122 22
123 118 19
130 125 19
123 117 16
130 126 16
128 124 16
124 118 19
119 114 0
128 123 16
123 117 25
132 125 30
128 123 0
125 120 22
128 121 30
122 117 16
133 127 28
128 120 19
139 132 34
130 123 28
132 127 32
128 123 28
135 130 30
126 119 22
129 122 37
134 127 25
132 125 36
132 127 25
133 126 34
131 125 19
135 129 34
143 137 39
135 130 32
131 124 41
136 131 32
137 129 42
137 132 32
135 128 44
128 123 30
147 140 44
128 124 25
137 131 25
129 124 32
140 133 42
135 130 30
133 127 42
121 117 28
132 126 44
130 124 36
140 133 42
131 124 34
124 118 37
138 129 48
129 122 45
133 126 39
132 126 41
138 131 42
141 135 44
132 126 41
136 130 45
131 123 41
135 129 39
126 120 37
135 127 49
121 115 34
130 124 37
134 127 41
126 119 37
126 120 37
134 128 42
128 121 47
131 125 39
122 116 36
134 129 37
130 124 45
173 197 0
172 195 0
175 198 25
175 197 0
170 192 0
171 195 0
170 194 0
173 196 0
174 197 0
173 197 25
175 198 0
173 196 0
172 195 25
172 195 25
175 198 25
174 197 0
172 195 25
173 197 0
172 195 0
172 195 0
171 195 0
168 192 0
170 193 0
171 194 0
173 196 0
173 195 0
174 197 0
171 194 0
172 195 0
172 195 0
171 194 0
172 194 0
173 196 0
171 193 0
171 194 0
171 194 0
171 193 0
169 192 0
173 196 0
169 191 0
171 194 0
171 194 0
167 190 0
169 192 25
170 192 44
172 194 57
173 194 57
175 196 67
179 200 76
174 196 57
174 196 76
176 197 80
174 196 84
177 199 76
177 197 72
178 198 88
174 195 67
173 195 76
176 197 80
179 199 95
178 199 92
173 194 67
175 196 67
178 200 92
175 196 84
175 196 67
179 199 88
174 195 80
176 198 88
170 192 62
172 192 67
176 197 80
180 201 95
177 197 95
175 196 76
175 196 67
175 197 76
175 197 84
173 194 72
175 197 84
178 198 95
168 189 62
172 193 76
171 191 80
168 189 84
171 193 62
164 185 44
164 185 44
167 189 25
165 187 0
161 182 0
163 184 0
166 186 0
163 185 0
169 191 0
162 183 0
158 180 0
162 183 0
163 183 0
159 179 0
156 177 0
162 184 0
155 176 0
155 176 0
162 183 0
162 183 0
162 182 0
162 183 0
155 176 0
159 181 0
163 185 0
162 183 0
159 180 0
161 182 0
164 185 67
161 182 25
166 187 25
168 189 80
174 194 84
164 185 0
155 176 0
159 180 0
159 181 0
165 186 0
157 179 0
153 175 0
158 179 0
159 181 0
161 182 0
157 178 0
156 178 0
152 173 0
154 175 0
156 178 0
156 178 0
154 176 0
152 174 0
151 173 0
158 180 0
159 180 0
149 170 0
140 161 0
149 171 0
155 176 0
148 169 0
145 167 0
148 169 0
146 168 0
143 164 0
144 166 0
157 178 0
145 166 0
138 159 0
139 159 0
140 161 0
136 156 0
139 160 0
139 160 0
135 154 0
142 162 0
137 157 0
127 147 0
119 139 0
140 160 0
121 140 0
130 149 0
123 142 0
129 149 0
126 145 0
113 131 0
127 145 0
113 132 0
104 123 0
113 130 0
103 121 0
103 119 0
109 125 0
87 103 0
85 103 47
47 73 54
44 72 51
44 71 70
48 76 74
48 76 80
49 78 60
46 74 62
47 76 65
47 75 65
49 79 78
50 80 80
48 76 72
49 78 70
48 77 67
47 75 70
48 76 67
47 75 72
49 78 70
46 74 72
47 75 74
49 79 74
48 76 82
47 74 74
49 78 72
49 77 74
47 76 78
48 76 70
47 75 75
46 74 65
48 75 67
50 78 76
47 75 75
43 68 70
48 76 94
46 73 72
46 74 76
45 71 65
47 74 74
45 73 57
42 67 51
39 61 54
56 76 48
72 86 25
77 85 0
84 95 0
86 98 0
85 98 0
82 93 0
87 99 0
81 93 0
102 114 0
93 107 0
98 110 0
95 109 0
107 120 0
104 114 0
101 113 0
110 123 0
102 114 0
108 120 0
93 105 0
118 131 0
115 128 0
120 131 0
109 121 0
118 131 0
119 130 0
115 128 0
118 130 0
112 123 0
118 130 0
127 141 0
124 138 0
117 129 0
117 129 0
119 129 0
122 132 0
123 135 0
108 117 0
124 135 0
118 128 0
121 133 0
111 119 0
124 135 0
125 133 0
114 124 0
116 127 0
127 134 0
122 127 0
122 129 0
112 119 0
121 129 0
119 124 0
123 127 0
120 124 0
114 116 0
114 119 0
126 129 0
118 120 0
127 132 0
118 123 0
123 121 0
102 101 11
77 71 14
82 76 16
70 63 0
87 81 11
87 79 11
87 80 0
91 83 0
80 75 0
84 78 0
106 100 0
101 95 0
82 76 0
87 80 0
100 92 0
103 96 0
112 105 0
112 106 0
101 97 0
103 96 0
99 93 0
102 95 0
94 88 0
123 115 0
111 105 0
98 90 0
102 97 0
116 110 0
114 107 11
113 106 8
120 112 11
116 109 8
115 110 0
115 109 0
106 101 0
114 108 0
101 98 0
116 108 0
114 108 0
117 112 11
131 124 22
118 114 11
124 117 11
120 115 0
127 120 19
120 113 16
118 113 0
120 115 0
133 127 19
130 124 22
116 112 0
129 122 19
124 119 22
126 120 28
126 121 22
134 130 16
128 122 25
127 122 22
128 122 11
125 119 22
129 123 22
133 126 30
116 110 16
135 129 30
130 124 22
136 131 22
130 123 30
135 128 28
122 117 19
137 129 36
127 122 30
135 128 37
136 129 36
123 118 30
125 120 25
131 125 37
138 132 30
133 127 25
132 127 32
126 121 25
132 125 37
130 124 30
134 128 36
132 125 30
126 121 28
135 128 39
138 132 39
135 129 39
129 122 36
129 124 36
139 134 36
130 123 36
129 122 42
131 125 39
139 132 39
132 127 34
127 120 36
132 126 41
134 128 39
124 119 34
134 127 41
129 122 34
132 127 32
136 130 45
140 134 51
134 127 45
131 126 32
132 126 36
135 128 39
129 122 36
132 126 42
128 121 41
124 119 37
131 124 44
131 125 41
121 114 41
126 122 42
135 128 45
122 115 42
171 195 0
172 195 0
170 194 0
171 195 0
171 195 0
173 196 25
174 197 0
173 196 0
174 197 0
173 196 0
175 197 0
175 197 25
172 196 0
172 194 0
173 196 25
173 196 0
173 196 0
173 196 0
169 192 0
171 195 0
175 197 0
174 197 0
174 197 0
174 197 0
175 197 0
174 197 0
171 194 0
174 196 0
172 195 0
171 194 0
171 194 0
172 194 0
170 193 0
172 194 0
173 195 0
172 194 0
170 192 0
171 195 0
175 197 0
175 198 0
169 192 0
172 193 0
172 193 0
171 193 0
167 190 0
170 192 0
173 195 0
174 197 25
174 196 0
169 192 44
176 198 0
170 192 57
172 193 44
177 198 80
172 194 44
176 198 76
173 194 51
178 199 84
175 197 88
182 202 105
178 199 76
174 195 51
175 196 67
175 196 57
177 198 88
174 195 80
171 192 72
171 192 72
176 197 84
173 194 62
172 193 72
176 196 76
174 195 62
173 193 76
176 197 57
174 195 72
172 194 72
171 192 62
170 192 88
165 187 44
170 190 51
161 182 25
162 183 36
155 177 36
168 190 0
166 188 0
166 187 0
160 182 0
161 183 0
157 178 0
162 183 0
159 179 0
155 176 0
162 182 0
161 183 0
162 183 0
163 185 0
160 182 0
156 177 25
160 181 0
156 177 0
167 188 0
159 180 0
157 178 0
155 176 0
166 187 0
159 180 0
163 185 0
156 177 0
162 183 0
159 180 0
164 185 44
161 182 51
164 185 44
165 187 36
168 189 44
161 182 76
169 189 57
159 181 0
163 183 0
161 182 0
154 175 0
154 176 0
159 180 0
160 182 0
158 180 0
160 182 0
158 180 0
158 180 0
157 178 0
164 185 0
154 175 0
154 175 0
154 174 0
155 177 0
142 164 0
153 174 0
153 174 0
148 169 0
149 172 0
158 180 0
154 176 0
147 168 0
142 164 0
150 171 0
146 167 0
152 173 0
143 164 0
144 166 0
139 160 0
147 168 0
138 157 0
145 166 0
148 169 0
134 153 0
144 164 0
131 152 0
147 167 0
141 162 0
135 155 0
133 153 0
132 152 0
125 145 0
120 140 0
135 153 0
131 151 0
130 149 0
121 141 0
110 129 0
118 136 0
115 133 0
113 131 0
123 140 0
103 120 0
98 113 0
101 118 0
99 115 0
105 121 0
82 97 0
92 107 0
93 108 18
64 83 44
48 75 47
46 74 72
42 68 60
46 74 67
45 72 67
44 70 62
46 73 72
50 80 70
49 78 84
46 74 70
45 72 72
45 72 57
51 80 74
46 73 57
50 79 72
48 76 78
46 73 65
46 74 67
45 72 60
45 72 57
51 80 82
47 75 62
47 75 86
45 71 60
48 76 78
46 73 67
49 77 83
47 74 65
45 72 62
42 68 72
49 77 60
44 70 65
48 76 86
44 70 54
46 73 70
40 64 54
57 73 40
66 79 40
74 84 0
83 95 0
88 100 0
73 83 0
88 98 0
92 101 0
91 104 0
93 104 0
96 107 0
88 99 0
104 117 0
112 125 0
105 117 0
109 120 0
104 118 0
101 112 0
107 120 0
92 105 0
115 130 0
111 124 0
112 125 0
107 119 0
115 127 0
110 120 0
117 130 0
116 129 0
126 139 0
119 132 0
117 131 0
114 127 0
126 139 0
134 149 0
122 133 0
110 118 0
124 133 0
118 129 0
132 144 0
123 135 0
117 130 0
123 134 0
127 137 0
121 132 0
128 136 0
115 124 0
114 121 0
123 130 0
117 125 0
117 124 0
123 128 0
121 129 0
117 124 0
118 124 0
107 113 0
113 117 0
126 132 0
126 130 0
112 115 0
118 121 0
108 109 0
112 112 0
113 112 0
101 101 0
106 107 11
96 91 25
80 73 16
86 78 19
89 83 16
91 84 16
87 81 0
96 87 0
82 77 0
82 76 11
89 83 0
95 87 0
96 89 0
99 91 0
101 95 0
100 94 0
90 84 0
107 100 0
101 93 0
104 98 0
103 94 0
110 105 0
107 99 0
110 104 0
111 107 0
105 98 0
118 111 0
113 106 0
120 112 0
116 110 0
115 109 0
110 104 0
111 105 0
111 105 0
118 112 11
114 107 11
114 108 16
116 111 0
110 106 0
127 121 11
115 108 16
114 109 11
115 108 0
116 111 16
117 112 0
129 123 16
124 118 11
129 122 16
126 118 19
119 114 16
130 124 16
121 116 11
122 116 22
116 110 19
134 128 30
126 118 25
124 117 11
124 116 25
130 125 19
126 119 32
125 121 16
128 122 32
131 124 22
130 125 22
129 122 28
127 120 25
125 119 25
136 130 22
132 126 28
130 125 25
127 119 22
130 123 25
133 127 28
124 118 19
128 120 34
127 120 30
130 124 25
126 119 22
132 127 37
128 122 36
125 120 25
129 124 39
129 124 32
137 131 30
130 125 28
127 121 32
139 132 44
127 122 36
122 116 36
136 130 30
126 120 25
125 119 41
129 122 34
125 119 30
128 123 34
130 126 32
129 122 37
124 118 32
138 131 37
132 125 37
132 125 39
126 121 41
127 122 36
129 124 36
128 122 41
134 126 49
132 124 47
136 129 45
132 125 49
135 129 45
130 124 48
125 120 37
136 128 45
129 122 39
132 125 41
118 113 41
130 124 45
127 121 41
173 196 44
175 198 51
171 195 0
173 197 0
172 196 0
175 198 0
171 195 0
172 195 0
173 196 0
175 198 0
172 196 0
174 197 0
171 195 0
173 196 0
171 194 0
174 197 0
171 195 0
172 195 0
173 196 0
174 197 25
173 196 0
174 195 0
171 193 0
174 196 0
171 195 0
170 193 0
170 193 0
172 195 0
173 195 0
175 197 0
170 193 0
174 196 0
167 190 0
175 197 0
172 194 0
170 193 0
171 194 0
169 192 0
170 193 0
171 194 0
170 192 0
173 196 0
169 192 0
170 192 0
172 194 0
171 193 0
170 191 0
173 194 0
171 193 0
170 193 0
170 191 0
169 190 0
170 191 0
169 191 0
170 192 0
170 192 0
174 195 25
168 190 25
171 192 51
168 189 44
171 193 44
174 195 25
170 191 67
172 194 67
170 191 51
173 193 51
171 193 67
173 193 44
167 188 44
172 193 72
167 188 57
171 193 57
170 191 0
168 189 44
168 190 36
171 192 25
162 183 0
157 179 0
160 181 0
166 187 0
169 190 0
168 190 0
165 187 0
162 184 0
166 187 0
162 184 0
161 182 0
165 186 0
167 188 0
165 188 0
165 187 0
158 178 0
162 183 0
164 185 0
165 186 0
163 184 0
164 185 0
168 189 0
164 186 0
152 173 0
161 182 25
157 178 0
164 185 0
162 182 0
151 173 0
157 178 0
155 176 0
158 179 0
159 181 25
165 186 44
159 182 0
165 186 57
160 180 51
164 185 25
160 181 76
169 189 67
159 181 0
161 181 0
162 183 0
160 180 0
155 177 0
164 185 0
163 184 0
160 180 0
167 188 0
160 183 0
162 184 0
155 177 0
151 173 0
151 172 0
156 177 0
152 172 0
156 178 0
155 177 0
157 178 0
149 170 0
149 170 0
146 168 0
150 172 0
151 172 0
152 173 0
147 168 0
151 172 0
141 163 0
149 169 0
149 171 0
150 171 0
143 165 0
144 166 0
143 164 0
140 161 0
149 170 0
134 156 0
140 161 0
145 165 0
137 158 0
138 159 0
134 154 0
131 152 0
140 160 0
121 140 0
128 149 0
131 151 0
111 130 0
131 151 0
121 140 0
119 137 0
112 131 0
113 132 0
115 134 0
119 138 0
111 128 0
108 125 0
104 122 0
109 127 0
96 111 0
105 122 0
100 115 0
98 114 0
89 103 0
91 105 0
64 77 0
91 104 0
69 86 36
53 74 47
45 71 62
44 72 44
47 75 65
45 72 65
45 73 65
46 73 67
47 76 74
47 76 72
45 72 60
45 72 51
47 75 70
46 73 70
46 74 67
44 70 57
46 74 54
45 72 60
46 73 67
46 72 67
46 74 60
45 72 62
43 70 62
45 73 74
43 70 54
43 68 57
45 72 67
42 68 57
45 71 60
45 71 72
43 69 57
44 67 60
61 79 54
59 70 36
87 95 0
73 81 0
74 83 0
69 80 0
78 86 0
102 112 0
90 98 0
84 95 0
93 104 0
90 101 0
88 100 0
92 103 0
106 119 0
87 98 0
95 103 0
96 107 0
100 111 0
105 119 0
103 114 0
97 107 0
105 117 0
112 127 0
121 137 0
113 126 0
117 128 0
115 125 0
114 127 0
111 124 0
101 113 0
117 131 0
119 133 0
110 122 0
122 135 0
118 132 0
115 127 0
122 135 0
115 127 0
121 132 0
125 136 0
112 121 0
118 128 0
119 132 0
118 132 0
129 140 0
118 128 0
125 135 0
118 127 0
110 118 0
123 131 0
115 121 0
114 120 0
108 116 0
129 137 0
108 113 0
114 118 0
116 122 0
123 127 0
119 126 0
118 121 0
111 117 0
109 112 0
114 118 0
120 123 0
107 106 0
107 106 0
111 112 0
104 105 0
86 83 0
88 81 19
87 76 22
82 74 0
87 82 0
93 86 11
94 86 11
101 93 19
100 92 11
93 85 0
97 89 0
88 81 0
99 90 0
88 82 0
100 92 0
96 89 11
95 88 0
91 84 0
99 92 0
98 94 0
105 99 0
101 95 0
110 103 0
110 101 0
107 101 0
102 96 0
105 100 0
112 106 8
108 102 0
117 108 0
109 103 0
108 103 0
115 107 0
124 118 0
109 102 11
117 110 0
115 108 0
122 114 11
109 104 11
120 113 11
121 114 16
122 115 11
116 110 16
124 116 16
110 105 11
125 118 16
129 122 19
129 123 11
122 117 19
122 115 11
120 113 16
127 121 16
116 110 16
128 122 25
125 120 19
125 121 19
118 112 19
120 114 19
124 118 11
133 127 16
123 116 28
122 117 25
133 127 11
128 121 22
123 117 30
120 114 19
130 123 28
125 120 19
134 129 32
125 118 37
126 121 25
126 119 25
126 121 25
129 124 34
129 122 34
129 122 32
125 119 25
134 127 36
133 126 37
130 125 28
124 118 19
125 120 22
131 123 36
131 125 34
128 122 32
129 124 30
128 122 36
126 119 32
133 124 36
130 125 32
134 128 34
126 120 37
130 124 39
135 129 39
138 132 39
124 117 34
128 122 41
127 121 37
130 122 41
124 117 30
128 121 44
131 126 42
131 126 39
131 125 45
125 119 39
126 120 32
121 116 25
131 125 34
129 122 41
121 115 36
123 117 39
127 121 39
123 117 28
119 113 32
117 111 39
126 119 30
178 200 62
178 200 62
173 196 36
175 198 36
176 198 25
174 198 0
171 195 25
172 195 0
172 196 0
174 197 0
174 197 0
172 195 0
170 194 0
171 194 0
174 197 0
171 194 0
173 195 0
170 193 0
171 194 0
175 197 0
174 196 0
172 194 25
172 195 0
174 197 0
174 196 0
175 197 0
170 194 0
173 196 0
170 193 0
172 195 0
173 196 0
171 194 0
170 193 0
165 186 0
174 197 0
173 196 0
172 194 0
173 195 0
172 195 0
175 197 0
173 195 0
173 196 0
171 193 0
173 195 0
173 196 0
167 191 0
174 196 0
169 192 0
169 192 0
170 190 0
169 191 0
174 197 0
171 193 0
163 184 0
172 193 0
168 191 0
171 193 0
170 191 0
166 188 0
169 190 0
169 191 0
170 190 0
165 187 0
170 192 0
167 189 0
168 191 0
169 191 0
172 193 0
171 192 0
165 186 0
164 186 0
168 189 0
165 188 0
167 188 0
168 190 0
167 189 0
159 181 0
171 192 0
166 187 0
169 190 0
169 190 0
166 187 0
167 188 0
166 186 0
165 186 0
168 189 0
156 178 0
163 184 0
167 188 0
166 187 0
161 183 0
160 180 0
165 186 0
162 184 0
161 182 0
161 182 0
158 180 0
159 181 0
164 185 0
162 183 0
165 186 25
163 184 0
156 177 0
156 176 0
160 179 0
159 180 0
164 185 0
161 181 25
165 186 44
158 179 44
165 186 0
165 186 51
170 190 67
169 190 44
157 178 0
159 181 0
156 177 0
160 182 0
163 184 0
160 182 0
155 175 0
156 176 0
161 183 0
162 184 0
154 176 0
151 172 0
150 172 0
156 178 0
152 173 0
152 173 0
157 178 0
152 173 0
140 161 0
149 170 0
151 172 0
146 165 0
151 172 0
146 168 0
157 178 0
147 167 0
150 171 0
150 171 0
136 157 0
146 167 0
153 174 0
150 170 0
149 170 0
148 169 0
141 162 0
143 165 0
139 160 0
140 162 0
134 156 0
139 159 0
136 157 0
142 162 0
143 163 0
135 155 0
144 164 0
135 154 0
133 154 0
123 142 0
133 153 0
128 148 0
133 153 0
124 142 0
124 142 0
137 157 0
113 131 0
112 131 0
112 130 0
112 130 0
116 133 0
109 126 0
100 116 0
97 112 0
84 100 0
103 117 0
83 97 0
82 96 0
88 102 0
91 105 0
79 93 0
80 92 0
85 96 0
52 64 0
80 93 0
54 71 44
48 69 47
48 72 62
42 68 62
43 70 54
41 67 47
41 67 54
40 65 57
44 71 60
45 72 62
44 71 62
46 73 65
43 69 60
42 67 51
42 68 57
46 73 67
46 73 62
44 70 37
45 72 62
41 66 47
43 68 65
39 63 40
42 67 54
39 62 47
41 62 47
56 70 0
56 71 51
67 77 18
77 86 0
74 85 0
78 88 0
58 66 0
82 93 0
64 74 0
91 102 0
83 94 0
71 82 0
82 93 0
83 94 0
87 98 0
88 98 0
100 112 0
108 120 0
92 104 0
101 113 0
100 113 0
97 108 0
111 123 0
100 111 0
103 116 0
99 110 0
105 116 0
102 114 0
109 121 0
110 119 0
113 124 0
107 119 0
122 134 0
103 116 0
118 133 0
119 133 0
114 125 0
122 135 0
131 145 0
117 129 0
121 134 0
118 129 0
107 120 0
115 123 0
118 129 0
127 138 0
126 136 0
116 124 0
119 126 0
110 118 0
115 124 0
112 119 0
117 125 0
124 136 0
118 126 0
113 118 0
110 114 0
107 114 0
125 132 0
107 115 0
125 132 0
123 128 0
111 118 0
108 112 0
111 114 0
107 107 0
119 123 0
105 105 0
116 119 0
107 109 0
106 107 0
103 102 0
102 101 0
100 100 0
82 78 0
70 64 11
81 74 11
84 75 11
84 75 11
78 72 0
90 83 0
77 71 0
89 84 0
92 87 0
98 92 0
102 93 0
97 86 0
101 94 0
89 81 0
105 97 0
95 89 0
98 93 0
115 107 0
101 93 0
112 104 0
103 97 0
114 105 0
110 104 0
99 93 0
103 94 0
103 96 8
117 110 0
112 105 0
115 108 0
112 104 0
117 111 0
117 111 0
112 105 0
115 108 0
112 106 0
116 109 11
116 109 0
111 105 0
121 115 0
119 113 11
118 112 11
113 108 11
108 102 0
119 114 16
123 116 11
125 118 16
111 105 0
121 115 19
121 115 0
131 123 16
123 117 22
127 120 22
120 114 16
127 119 25
119 114 28
122 114 22
129 123 19
126 120 16
131 124 32
126 121 30
126 119 32
125 118 19
131 124 25
129 122 30
128 120 22
130 123 34
123 117 28
136 131 34
131 123 41
133 127 28
125 119 30
135 128 34
125 119 30
132 126 30
123 117 28
121 115 22
121 115 30
126 120 28
131 125 25
130 123 36
128 121 28
133 127 25
126 119 28
135 129 28
136 130 34
133 127 41
127 121 36
131 124 34
127 121 30
127 120 37
130 124 41
120 113 36
132 126 32
125 120 34
129 123 44
124 119 37
127 120 41
119 112 42
118 112 30
130 124 45
119 114 34
130 124 41
127 120 39
129 122 37
126 120 44
128 122 42
126 119 32
123 119 36
117 111 36
130 123 44
116 110 32
131 123 44
125 119 37
173 196 25
176 199 51
172 196 0
175 199 44
174 198 44
176 198 51
171 194 0
174 197 0
174 198 0
172 195 0
174 197 0
174 197 0
175 198 0
176 198 0
172 195 25
174 197 0
171 195 0
172 195 0
169 192 0
170 193 0
169 192 0
172 195 0
173 196 0
171 194 0
173 195 0
174 197 0
172 195 0
171 194 0
174 196 0
174 196 0
170 193 0
171 194 0
174 196 0
170 193 0
174 196 0
171 194 0
171 194 0
173 196 0
170 191 0
169 192 0
173 195 0
170 192 0
173 195 0
171 193 0
173 195 0
169 191 0
174 196 0
171 193 0
171 192 0
176 196 0
170 193 0
170 192 0
172 194 0
164 186 0
167 189 0
168 190 0
170 192 0
171 192 0
171 192 0
164 186 0
167 190 0
167 189 0
173 195 0
169 189 0
171 192 0
167 189 0
169 191 0
164 186 0
169 190 0
166 186 0
169 191 0
171 191 0
167 189 0
166 187 0
166 187 0
166 186 0
168 189 0
163 185 0
162 183 0
165 186 0
163 184 0
165 186 0
168 188 0
159 182 0
168 190 0
163 184 0
161 184 0
162 182 0
165 186 0
165 186 0
162 183 0
157 178 0
167 188 0
166 186 0
163 183 0
162 182 25
161 182 0
164 185 0
160 180 0
162 183 0
165 185 0
162 182 0
159 181 0
164 185 0
159 180 0
166 187 25
165 185 0
162 183 44
156 177 0
167 189 36
169 189 67
165 186 44
159 180 0
159 180 0
160 181 0
156 177 0
166 186 0
159 179 0
156 177 0
165 185 0
158 180 0
155 175 0
155 176 0
154 175 0
160 181 0
153 174 0
151 172 0
157 178 0
153 174 0
156 177 0
146 167 0
149 171 0
155 176 0
158 179 0
143 163 0
144 166 0
145 166 0
151 173 0
147 169 0
155 175 0
146 169 0
150 171 0
154 176 0
149 170 0
150 172 0
149 171 0
139 162 0
140 161 0
136 157 0
150 170 0
140 162 0
137 158 0
141 162 0
135 156 0
132 153 0
140 160 0
141 161 0
134 156 0
133 154 0
131 151 0
133 153 0
127 147 0
123 143 0
122 141 0
123 143 0
119 139 0
110 129 0
124 143 0
115 133 0
120 139 0
109 127 0
101 119 0
108 125 0
110 127 0
104 121 0
95 112 0
90 106 0
87 103 0
92 108 0
82 96 0
98 113 0
76 90 0
91 104 0
74 87 0
78 90 0
67 81 0
51 65 0
56 69 0
74 85 0
53 64 0
51 63 18
59 72 36
54 69 40
53 72 51
43 63 51
41 66 62
42 67 54
35 56 44
42 67 54
40 64 44
40 65 36
41 66 54
37 60 47
43 65 57
44 64 47
36 58 51
34 54 47
50 63 36
40 53 31
56 66 25
56 66 0
70 79 0
61 69 0
57 68 0
64 73 0
72 82 0
61 74 0
80 90 0
85 96 0
77 88 0
71 83 0
68 77 0
79 91 0
85 96 0
89 100 0
93 105 0
88 101 0
108 120 0
101 112 0
83 95 0
96 108 0
109 121 0
104 118 0
101 115 0
109 121 0
112 125 0
100 112 0
102 114 0
117 130 0
107 117 0
100 112 0
113 124 0
115 126 0
117 131 0
105 116 0
121 132 0
103 116 0
115 126 0
115 126 0
103 112 0
123 136 0
110 123 0
120 131 0
116 127 0
115 127 0
111 123 0
121 134 0
120 131 0
115 124 0
120 129 0
122 132 0
113 123 0
116 128 0
122 133 0
115 126 0
114 121 0
108 116 0
123 130 0
116 123 0
117 122 0
116 120 0
104 111 0
112 118 0
120 122 0
111 115 0
112 116 0
110 113 0
108 113 0
101 104 0
114 118 0
105 107 0
100 100 0
107 105 0
101 99 0
105 104 0
107 107 0
102 100 0
96 94 0
89 84 11
70 63 16
82 75 0
83 78 0
81 75 0
89 79 11
78 70 0
90 84 0
90 83 0
89 82 0
84 78 0
99 89 0
95 87 0
96 88 0
96 89 0
105 96 0
97 90 0
106 96 0
100 91 0
106 98 0
102 96 0
99 93 0
106 97 0
95 89 0
109 102 0
105 99 0
117 112 0
116 107 0
99 92 0
114 108 11
114 106 0
116 110 0
113 108 0
117 111 11
102 98 0
118 111 0
119 112 11
116 109 16
121 113 11
112 106 11
120 114 11
122 115 11
124 118 16
124 116 16
118 111 11
121 114 11
119 113 11
126 118 16
115 108 11
124 117 25
112 107 16
123 118 16
123 114 25
124 119 16
130 123 11
120 115 16
124 118 16
133 126 25
118 113 32
125 116 25
126 121 30
128 121 30
132 125 19
126 120 30
127 122 11
128 121 41
127 121 22
122 116 22
123 119 30
129 121 25
137 132 32
128 120 39
131 124 34
135 127 32
128 122 25
136 130 37
131 125 30
128 121 22
126 120 37
120 114 30
125 119 36
132 124 34
132 125 32
125 118 32
132 126 39
121 114 36
133 127 39
123 119 32
119 114 25
128 123 30
123 117 34
125 119 30
122 114 22
127 121 36
124 118 32
132 124 45
126 119 39
131 123 42
121 113 34
126 119 41
119 113 32
125 119 37
133 125 41
121 115 42
122 116 34
127 121 44
131 126 34
122 118 37
124 116 32
121 117 34
127 120 45
118 111 39
173 197 44
178 201 57
176 199 36
172 196 36
177 200 62
175 198 36
176 199 51
177 199 44
173 196 25
173 196 0
174 197 0
172 195 0
172 195 0
168 192 0
172 196 0
174 197 0
174 197 0
174 197 0
176 198 25
172 195 0
174 197 25
174 196 0
173 196 0
172 195 25
172 194 0
173 195 0
172 195 0
173 195 0
176 198 25
174 196 0
173 194 0
169 192 0
170 193 0
170 192 0
172 195 0
172 194 0
172 194 0
172 195 0
173 194 0
170 192 0
172 194 0
171 193 0
174 195 0
172 194 0
171 193 0
173 194 0
175 196 0
173 195 0
167 188 0
168 190 0
169 191 0
171 192 0
165 187 0
172 193 0
174 195 0
174 195 0
168 191 0
170 192 0
171 193 0
168 190 0
168 189 0
169 191 0
171 192 0
171 192 0
171 192 0
170 192 0
170 191 0
172 193 0
167 188 25
170 190 0
167 188 0
168 190 0
168 189 0
165 186 0
170 190 0
166 188 0
161 183 0
165 186 0
165 186 0
170 192 0
165 186 0
166 186 0
168 189 0
163 184 0
164 185 0
160 181 0
165 186 0
164 185 0
166 187 0
164 185 0
157 178 0
165 185 0
162 183 0
165 186 0
156 176 25
164 185 0
163 184 0
161 182 0
161 182 0
159 179 36
163 184 0
164 185 0
164 184 25
163 183 51
157 178 36
165 185 51
167 188 25
163 184 51
168 188 72
168 188 57
164 185 25
162 183 0
156 177 0
156 177 0
161 182 0
162 182 0
158 179 0
157 178 0
157 179 0
157 178 0
159 181 0
153 174 0
156 176 0
156 178 0
157 178 0
157 178 0
155 176 0
147 168 0
152 173 0
150 171 0
151 172 0
150 171 0
144 165 0
158 180 0
140 161 0
150 172 0
155 176 0
145 168 0
144 166 0
159 180 0
155 176 0
146 167 0
150 172 0
145 166 0
151 172 0
154 176 0
141 163 0
147 167 0
142 164 0
138 160 0
144 165 0
143 164 0
135 154 0
137 157 0
139 161 0
145 167 0
125 145 0
133 154 0
133 153 0
130 150 0
123 142 0
128 147 0
124 144 0
124 143 0
118 136 0
116 136 0
119 139 0
117 135 0
113 132 0
121 140 0
109 127 0
115 132 0
115 132 0
100 117 0
96 112 0
105 122 0
90 107 0
80 96 0
84 100 0
94 109 0
79 93 0
104 119 0
96 110 0
86 99 0
75 88 0
91 104 0
86 100 0
62 73 0
86 98 0
70 81 0
66 76 0
61 71 0
56 65 0
55 64 0
66 75 0
57 64 0
61 70 0
55 64 0
50 59 18
57 66 18
54 62 0
57 65 0
53 60 0
55 62 0
50 60 0
66 75 0
71 79 0
51 58 0
53 60 0
70 80 0
72 82 0
48 56 0
66 77 0
70 78 0
76 87 0
60 69 0
68 80 0
61 71 0
77 88 0
82 92 0
85 95 0
78 90 0
98 110 0
92 105 0
96 109 0
88 99 0
97 109 0
85 95 0
94 104 0
92 103 0
101 113 0
91 102 0
86 98 0
108 122 0
92 101 0
111 122 0
109 121 0
103 114 0
105 116 0
111 123 0
120 133 0
99 110 0
110 123 0
111 124 0
113 126 0
113 125 0
109 122 0
107 121 0
118 130 0
113 124 0
119 130 0
118 131 0
115 127 0
115 127 0
121 133 0
119 130 0
107 118 0
109 118 0
117 129 0
111 122 0
118 126 0
111 120 0
115 126 0
119 130 0
110 117 0
118 124 0
110 119 0
116 124 0
110 118 0
121 128 0
105 113 0
119 127 0
119 124 0
107 110 0
113 119 0
116 122 0
105 109 0
117 122 0
116 118 0
104 104 0
104 105 0
104 106 0
110 109 0
106 106 0
117 120 0
101 100 0
97 97 0
101 100 0
95 93 0
100 98 0
89 84 11
80 73 11
72 63 0
79 73 0
82 75 0
78 68 11
91 82 0
90 81 0
78 71 0
88 81 11
84 76 0
98 91 0
96 88 0
89 81 0
95 87 0
104 95 0
101 95 0
99 91 0
109 100 0
105 99 0
102 96 0
103 96 0
103 98 0
110 101 0
110 104 0
101 94 0
108 103 0
104 96 0
108 102 0
103 97 0
115 108 0
111 105 11
126 120 0
107 99 11
105 97 0
117 112 0
109 103 0
116 109 0
110 105 0
116 109 0
113 106 11
115 110 11
112 107 11
127 121 19
113 105 11
127 120 19
128 119 11
120 112 11
125 118 19
124 120 11
119 112 25
116 109 22
113 108 16
117 111 16
127 120 28
121 115 22
134 127 19
122 114 25
125 120 16
123 115 11
121 113 25
122 114 25
126 118 25
128 120 28
123 115 19
121 115 25
130 123 22
126 119 25
127 121 22
126 118 32
125 117 32
132 126 28
127 119 32
124 117 28
126 119 28
129 124 22
141 134 28
130 124 32
129 123 28
134 128 34
133 127 34
127 121 32
128 123 32
130 124 36
130 123 30
115 109 28
128 121 39
128 121 32
133 126 36
128 121 34
131 125 32
124 118 30
126 118 44
119 114 25
128 122 36
127 120 36
127 121 44
127 120 39
133 127 41
113 109 30
122 116 37
120 115 41
124 118 34
114 109 28
126 121 25
131 125 30
125 119 39
122 117 41
121 115 37
132 127 44
175 199 44
175 198 51
173 196 25
177 199 57
174 197 0
177 199 51
174 197 36
171 194 25
174 197 57
177 200 67
175 197 0
174 197 36
173 196 25
172 196 0
171 193 0
172 195 0
173 195 25
172 195 0
172 195 0
174 197 0
175 198 25
172 194 0
173 196 0
174 197 0
173 196 0
174 196 0
173 196 25
175 198 0
174 197 25
171 194 0
169 192 0
171 193 0
172 194 0
172 194 0
174 196 0
172 194 0
172 195 0
173 195 0
173 195 0
173 195 0
175 196 0
169 192 0
171 193 0
172 193 0
172 194 0
175 197 0
173 194 0
172 194 0
171 193 0
167 189 0
171 192 0
175 196 0
170 192 0
169 191 0
174 196 0
172 194 0
171 192 0
173 194 0
166 188 0
171 192 0
171 194 0
170 191 0
170 192 0
172 194 0
165 187 0
167 189 0
163 184 0
165 186 0
170 192 0
167 188 0
164 186 0
166 187 0
167 188 0
169 190 0
165 186 0
170 191 0
166 187 0
169 190 0
171 192 0
165 186 0
167 188 0
168 189 0
163 184 0
161 183 0
164 183 0
166 187 0
166 188 0
162 183 25
164 185 0
165 186 0
163 184 0
162 183 0
163 185 0
165 187 25
161 182 0
158 180 0
161 181 0
167 187 0
162 182 0
164 185 36
169 190 25
163 182 44
161 182 36
161 183 44
168 189 51
166 188 25
169 189 80
165 186 51
164 186 0
159 180 0
167 188 0
165 186 0
157 178 0
162 183 0
161 182 0
160 182 0
162 183 0
156 177 0
160 181 0
157 177 0
155 177 0
151 173 0
158 179 0
159 181 0
150 171 0
141 163 0
151 172 0
153 174 0
151 172 0
151 171 0
153 174 0
152 173 0
150 171 0
147 168 0
149 170 0
159 181 0
152 173 0
146 168 0
153 174 0
156 177 0
146 168 0
144 166 0
146 168 0
146 167 0
148 168 0
150 171 0
144 165 0
141 161 0
139 160 0
145 166 0
143 163 0
143 165 0
139 159 0
146 166 0
141 161 0
125 145 0
139 158 0
132 152 0
123 143 0
130 150 0
127 146 0
131 151 0
135 155 0
125 145 0
109 128 0
121 140 0
113 132 0
115 133 0
124 141 0
114 133 0
118 135 0
111 128 0
112 130 0
109 127 0
113 131 0
97 114 0
117 133 0
114 130 0
88 104 0
91 105 0
100 116 0
103 118 0
92 107 0
91 104 0
80 93 0
88 102 0
87 101 0
76 89 0
83 95 0
69 80 0
81 92 0
84 94 0
66 75 0
72 82 0
63 72 0
66 77 0
72 82 0
68 78 0
57 67 0
65 75 0
58 67 0
60 70 0
69 79 0
56 65 0
74 85 0
48 57 0
60 70 0
51 62 0
56 66 0
67 76 0
82 92 0
85 95 0
81 92 0
86 96 0
71 79 0
82 89 0
78 89 0
78 89 0
85 96 0
84 94 0
83 94 0
87 97 0
93 106 0
98 110 0
86 97 0
85 97 0
87 99 0
104 117 0
103 117 0
100 114 0
107 121 0
95 107 0
105 116 0
96 108 0
108 120 0
115 127 0
111 122 0
121 134 0
105 120 0
115 128 0
107 119 0
103 115 0
112 125 0
113 127 0
117 130 0
110 121 0
116 131 0
99 109 0
118 132 0
118 131 0
123 137 0
113 123 0
118 132 0
110 122 0
115 127 0
127 140 0
112 122 0
124 136 0
112 122 0
114 125 0
110 120 0
117 127 0
112 123 0
120 130 0
115 122 0
126 136 0
124 133 0
120 128 0
113 119 0
110 118 0
112 120 0
117 124 0
115 121 0
105 110 0
113 117 0
126 133 0
108 113 0
112 117 0
106 109 0
114 119 0
106 108 0
105 108 0
109 105 0
100 99 0
101 101 0
101 105 0
104 103 0
91 88 0
103 105 0
95 91 0
89 86 0
79 77 0
78 71 11
84 78 11
62 53 0
86 77 0
82 76 11
89 78 0
83 77 0
91 81 0
88 80 0
96 88 0
102 94 0
89 81 0
98 88 0
92 86 0
91 83 0
93 85 0
98 92 0
105 97 0
104 96 0
106 99 0
94 87 0
93 88 0
98 91 0
100 92 0
106 101 0
111 104 0
105 97 0
114 106 0
112 103 0
107 100 0
116 110 11
110 105 0
112 104 16
121 114 11
121 114 11
113 108 11
113 107 0
112 105 11
106 100 11
109 103 11
120 113 0
114 106 19
119 112 0
114 105 22
116 109 19
114 110 11
114 108 11
121 115 19
129 121 19
115 110 16
105 99 19
114 109 11
119 112 19
121 114 16
120 114 16
123 116 16
126 119 25
117 112 22
116 110 19
119 113 22
116 111 11
122 116 19
123 116 30
125 117 30
123 116 25
122 115 28
125 117 28
123 116 28
128 122 28
133 127 34
136 128 34
118 112 19
130 125 28
126 119 32
131 125 34
129 122 37
132 124 37
123 117 34
121 116 28
122 115 32
127 120 25
120 113 22
126 119 36
128 120 30
136 130 41
126 120 34
123 118 32
126 117 36
128 120 42
123 117 32
114 107 32
125 118 36
123 117 41
123 117 36
133 126 41
125 116 32
127 120 42
126 119 36
124 118 30
121 115 39
119 114 30
119 113 32
122 116 37
122 115 34
126 118 42
111 106 32
122 116 39
114 108 32
174 197 44
174 197 0
174 197 51
173 197 25
173 196 25
176 199 44
174 198 25
175 198 36
174 196 57
175 197 36
174 197 51
175 197 36
173 197 25
174 196 25
174 196 0
173 197 0
173 195 0
173 196 0
175 198 0
170 194 0
172 195 0
172 194 0
173 196 0
175 197 25
171 194 0
173 196 25
171 193 0
169 192 0
173 196 25
175 196 25
173 195 0
172 193 0
171 193 0
173 194 0
176 198 0
174 196 0
173 196 0
171 193 0
176 198 44
173 194 0
172 193 0
172 194 0
172 195 0
172 195 0
173 196 0
170 191 0
173 194 0
171 193 0
172 193 0
173 195 0
170 191 0
173 194 0
171 193 0
169 191 0
175 196 0
172 194 0
168 190 0
169 191 0
169 190 0
171 193 0
173 194 0
167 188 0
171 193 0
173 194 0
172 193 0
173 194 0
167 188 0
167 188 0
167 189 0
166 188 0
170 191 0
168 189 0
169 190 0
156 177 0
162 184 0
164 184 0
171 192 0
168 188 0
169 191 0
167 188 0
165 186 0
169 190 0
165 186 0
166 186 0
167 187 0
163 185 0
168 189 0
170 190 25
163 184 0
165 186 0
162 184 0
163 184 25
166 187 25
162 182 0
163 184 0
166 188 0
163 184 25
165 186 36
163 184 25
165 186 25
162 183 0
156 176 51
160 181 62
164 186 25
164 185 62
164 184 51
166 187 0
160 181 0
160 180 0
161 181 0
161 182 0
158 180 0
154 175 0
159 179 0
155 177 0
163 184 0
158 178 0
154 175 0
149 170 0
154 176 0
163 183 0
157 178 0
155 176 0
157 178 0
158 178 0
153 174 0
149 170 0
145 167 0
158 178 0
143 165 0
150 171 0
148 169 0
153 174 0
150 172 0
153 174 0
150 171 0
144 166 0
151 171 0
157 178 0
138 158 0
150 170 0
149 170 0
156 177 0
143 163 0
148 169 0
142 164 0
145 166 0
150 171 0
142 164 0
136 157 0
143 165 0
133 153 0
144 164 0
134 154 0
126 146 0
135 155 0
130 150 0
139 160 0
141 163 0
135 154 0
129 149 0
124 145 0
124 142 0
127 147 0
122 142 0
124 143 0
114 132 0
126 146 0
117 136 0
113 132 0
99 117 0
116 134 0
119 137 0
108 126 0
113 131 0
107 124 0
101 117 0
111 128 0
99 115 0
96 113 0
96 113 0
99 114 0
104 119 0
95 110 0
82 96 0
91 107 0
81 94 0
90 105 0
92 107 0
71 84 0
84 95 0
82 94 0
79 92 0
80 92 0
86 99 0
76 88 0
65 75 0
63 73 0
75 87 0
64 76 0
68 80 0
77 88 0
76 87 0
60 70 0
74 85 0
66 76 0
64 74 0
88 98 0
84 94 0
75 87 0
67 78 0
79 91 0
76 89 0
85 95 0
75 86 0
86 98 0
80 92 0
81 91 0
89 100 0
87 98 0
90 102 0
93 105 0
85 96 0
100 114 0
98 110 0
92 105 0
98 108 0
80 91 0
99 111 0
99 113 0
86 98 0
103 117 0
103 113 0
109 124 0
105 117 0
111 124 0
104 117 0
96 110 0
101 112 0
101 115 0
112 124 0
111 123 0
122 136 0
121 134 0
101 116 0
117 131 0
118 129 0
112 123 0
110 121 0
117 130 0
114 124 0
119 130 0
127 140 0
117 128 0
130 143 0
131 145 0
132 144 0
117 127 0
115 126 0
105 116 0
121 130 0
111 121 0
127 137 0
117 125 0
127 136 0
119 127 0
109 117 0
120 130 0
113 120 0
106 114 0
103 111 0
110 118 0
106 113 0
118 125 0
117 124 0
114 120 0
112 118 0
116 119 0
101 105 0
116 120 0
112 116 0
113 116 0
115 121 0
106 104 0
103 102 0
112 114 0
99 99 0
96 94 0
97 94 0
93 88 0
88 86 0
97 95 0
92 90 0
92 90 0
71 65 0
81 73 11
71 62 0
80 72 11
84 77 0
71 65 0
83 74 0
96 86 11
81 72 0
86 77 0
89 84 0
97 89 0
91 83 0
89 80 0
97 91 0
104 96 0
105 99 0
94 87 0
115 108 0
105 97 0
99 93 0
105 98 0
99 91 0
101 93 0
108 100 0
102 96 0
106 98 0
108 100 0
105 102 0
110 101 0
103 97 11
105 99 0
108 100 0
113 106 11
124 116 0
116 107 16
115 107 0
117 112 11
120 111 16
123 115 0
112 106 0
117 109 0
123 116 16
118 111 0
106 100 0
118 110 16
122 114 16
118 113 11
122 115 22
104 97 11
113 104 16
119 112 19
120 111 22
121 114 11
119 113 16
124 117 11
121 115 11
123 116 19
126 120 25
123 114 22
122 114 16
136 128 37
129 123 28
128 120 25
122 115 30
123 115 32
132 124 30
123 114 28
119 112 28
113 107 30
111 105 19
121 115 28
127 121 25
119 113 25
112 105 25
130 123 36
120 113 25
134 127 32
122 114 36
127 120 36
124 118 34
131 126 39
129 122 28
123 117 30
121 113 37
123 117 30
124 117 34
131 123 36
133 126 41
121 116 32
129 122 37
121 116 30
126 119 36
120 113 19
121 115 30
120 114 34
123 117 28
122 115 37
116 110 22
118 112 32
130 122 44
124 119 37
116 108 37
115 109 34
131 124 42
121 114 44
179 202 92
175 198 51
174 198 44
174 197 44
178 200 57
176 199 57
174 198 0
176 199 67
172 195 0
172 196 0
176 198 57
172 195 25
176 198 51
176 199 44
176 198 57
173 196 57
175 198 0
170 193 0
170 194 0
171 194 0
173 196 0
173 195 0
172 194 0
173 195 0
174 197 0
172 195 0
171 193 0
175 197 0
175 197 25
175 198 0
171 193 0
169 191 0
173 195 0
173 196 0
175 196 0
170 192 0
175 197 0
172 195 0
170 193 0
173 196 0
171 193 0
172 193 0
175 197 0
174 196 0
174 195 0
172 194 0
175 197 0
171 192 0
172 194 0
166 188 0
168 190 0
170 191 0
169 191 0
171 193 0
171 192 0
168 189 0
174 194 0
169 191 0
171 193 0
172 193 0
169 190 0
169 190 0
168 189 0
166 188 0
173 195 0
168 189 0
170 191 0
173 194 0
167 188 0
171 192 0
170 190 0
166 187 0
169 190 0
167 189 0
168 190 0
166 187 0
164 185 0
169 190 0
170 190 0
164 184 0
164 185 0
171 192 0
164 185 0
170 190 0
165 186 0
160 181 0
169 189 25
164 184 0
162 183 0
163 183 25
161 182 0
159 181 0
162 183 0
160 182 25
160 181 0
161 182 36
161 181 51
174 194 62
168 190 67
164 185 36
164 185 44
171 191 57
176 195 76
166 186 44
162 182 0
167 187 0
167 187 0
163 183 0
160 181 0
163 184 0
156 176 0
161 182 0
157 178 0
162 183 0
151 172 0
151 171 0
153 174 0
159 180 0
154 176 0
163 184 0
156 177 0
154 175 0
154 175 0
155 176 0
143 165 0
162 183 0
163 185 0
150 171 0
158 180 0
153 174 0
152 174 0
141 161 0
153 174 0
153 174 0
141 163 0
147 168 0
141 163 0
151 172 0
155 176 0
141 163 0
142 162 0
146 167 0
143 165 0
145 166 0
153 174 0
150 171 0
149 171 0
144 165 0
147 169 0
146 167 0
143 165 0
135 157 0
139 160 0
136 157 0
139 160 0
135 156 0
137 159 0
130 151 0
128 148 0
128 148 0
133 153 0
119 138 0
125 145 0
131 149 0
120 139 0
125 144 0
127 147 0
117 136 0
119 137 0
114 131 0
114 132 0
120 138 0
116 134 0
111 129 0
106 124 0
116 133 0
100 117 0
106 122 0
110 128 0
103 118 0
99 116 0
90 105 0
94 110 0
97 111 0
87 102 0
96 110 0
95 108 0
85 99 0
93 107 0
87 102 0
109 122 0
75 88 0
73 88 0
77 90 0
78 90 0
75 88 0
74 86 0
82 94 0
63 76 0
73 86 0
76 87 0
73 85 0
73 84 0
75 86 0
85 97 0
77 88 0
67 77 0
97 109 0
60 73 0
79 92 0
74 86 0
78 89 0
80 92 0
87 99 0
87 97 0
87 96 0
77 89 0
81 95 0
85 97 0
73 85 0
96 109 0
93 106 0
98 112 0
95 107 0
91 104 0
105 117 0
91 104 0
93 105 0
89 104 0
87 97 0
112 126 0
116 130 0
102 115 0
110 125 0
101 114 0
99 113 0
106 119 0
112 124 0
101 112 0
116 130 0
104 117 0
110 123 0
107 121 0
116 129 0
108 121 0
110 122 0
115 128 0
114 127 0
117 129 0
119 133 0
105 117 0
117 128 0
120 129 0
105 114 0
113 125 0
130 141 0
118 132 0
119 129 0
124 134 0
123 137 0
113 125 0
124 135 0
119 128 0
134 145 0
122 132 0
105 113 0
117 126 0
120 130 0
113 123 0
111 118 0
115 122 0
126 133 0
121 127 0
117 124 0
117 120 0
116 125 0
107 114 0
114 116 0
105 109 0
108 112 0
108 112 0
114 119 0
107 108 0
114 116 0
103 105 0
116 117 0
94 94 0
107 107 0
95 94 0
102 98 0
98 98 0
92 92 0
98 94 0
88 87 0
94 92 0
83 74 0
85 76 0
71 62 0
74 65 0
85 73 11
75 68 0
88 77 0
84 76 0
101 94 0
83 75 0
93 84 0
83 73 0
83 76 0
92 83 0
94 85 0
99 91 0
86 78 0
96 89 0
101 93 0
97 88 0
84 76 0
92 82 0
107 97 0
99 93 0
94 85 0
101 93 11
112 104 0
105 97 0
107 98 11
98 89 0
99 90 0
109 100 11
110 102 11
108 100 11
114 108 16
113 105 0
109 102 0
118 112 11
114 106 11
109 100 16
112 104 0
111 104 11
117 111 11
118 112 19
112 105 19
121 113 11
112 105 16
119 110 19
119 112 11
115 108 11
121 114 28
112 106 16
116 109 16
124 116 11
117 110 19
119 112 22
125 119 16
115 111 16
119 114 28
127 121 22
123 117 22
131 123 25
127 121 25
129 119 28
116 108 32
117 110 19
120 111 16
116 109 28
114 106 16
118 109 32
129 122 34
118 113 34
120 113 28
132 126 39
121 114 28
119 114 28
124 116 37
129 121 34
125 118 36
121 114 16
122 115 22
130 124 41
116 112 22
120 114 22
126 120 30
113 106 30
125 118 25
125 120 32
115 110 30
126 120 34
113 106 28
119 110 32
132 126 32
115 110 32
121 114 36
126 119 32
126 119 37
129 122 41
117 110 37
117 110 37
112 107 25
116 109 25
127 120 37
118 112 44
111 105 37
184 205 117
186 207 122
179 201 88
177 200 62
174 197 44
174 197 36
174 197 44
176 199 44
175 198 36
175 198 57
175 197 44
174 197 44
175 198 44
173 196 25
172 196 0
171 194 36
174 197 44
175 197 25
173 197 36
171 195 25
173 196 36
171 194 25
172 195 0
170 192 0
176 198 0
174 196 0
170 192 0
175 197 0
171 193 0
171 193 0
172 194 25
173 196 0
174 197 25
173 196 0
174 195 0
175 197 0
171 193 0
173 196 0
175 196 0
173 195 0
172 194 0
172 194 25
173 194 0
171 193 0
172 193 25
172 193 0
173 195 0
171 192 0
174 195 0
175 196 0
173 195 0
172 193 0
176 197 0
170 191 0
167 188 0
172 194 0
170 191 0
172 193 0
175 196 0
167 189 0
164 185 0
173 194 0
165 186 0
174 195 0
168 188 0
171 191 25
169 191 0
170 192 0
169 191 0
168 188 0
169 190 0
168 189 25
169 190 0
167 188 0
171 192 0
164 184 0
174 194 25
171 191 0
168 188 0
171 191 0
166 187 0
168 189 0
168 189 25
160 182 0
167 188 0
166 186 0
168 188 0
162 184 0
167 188 0
162 184 0
162 182 25
173 193 36
164 184 51
171 190 62
162 183 36
166 187 0
165 186 36
163 184 44
163 184 62
168 188 80
168 189 62
160 181 0
158 179 0
166 186 0
157 179 0
168 189 0
152 173 0
162 184 0
152 173 0
159 179 0
156 177 0
160 181 0
164 185 0
157 177 0
161 182 0
164 185 0
156 178 0
155 176 0
160 181 0
156 177 0
149 170 0
157 179 0
154 175 0
149 171 0
161 183 0
158 180 0
156 178 0
149 170 0
149 170 0
143 164 0
153 174 0
153 175 0
150 171 0
162 183 0
136 158 0
150 171 0
147 169 0
154 175 0
142 163 0
148 169 0
147 169 0
152 173 0
137 159 0
141 161 0
139 159 0
146 167 0
149 170 0
143 165 0
136 158 0
144 165 0
146 168 0
137 158 0
140 160 0
144 165 0
134 155 0
130 151 0
141 162 0
140 161 0
127 148 0
131 152 0
127 147 0
129 149 0
131 152 0
125 144 0
131 150 0
131 151 0
132 152 0
123 143 0
127 146 0
111 131 0
116 133 0
111 129 0
117 135 0
116 133 0
100 118 0
103 120 0
106 123 0
113 130 0
110 126 0
102 119 0
92 110 0
105 122 0
96 112 0
93 110 0
84 99 0
90 106 0
93 109 0
92 106 0
96 111 0
83 96 0
84 98 0
91 107 0
88 102 0
77 90 0
83 96 0
73 85 0
86 99 0
85 98 0
73 87 0
85 98 0
84 97 0
76 89 0
89 100 0
75 89 0
94 105 0
77 90 0
80 90 0
82 96 0
91 103 0
78 91 0
94 105 0
85 98 0
102 114 0
94 108 0
92 106 0
90 102 0
93 106 0
90 103 0
87 97 0
92 104 0
85 94 0
84 97 0
98 112 0
92 103 0
96 109 0
93 107 0
97 109 0
91 101 0
92 106 0
104 117 0
106 120 0
108 123 0
110 124 0
106 119 0
109 124 0
111 127 0
114 127 0
113 126 0
119 132 0
115 128 0
115 128 0
106 118 0
116 130 0
108 121 0
117 130 0
123 138 0
121 135 0
99 109 0
105 117 0
127 142 0
121 134 0
126 141 0
119 135 0
107 118 0
121 134 0
120 133 0
130 143 0
119 133 0
115 126 0
123 133 0
103 112 0
108 119 0
121 133 0
110 120 0
127 138 0
110 120 0
132 142 0
121 131 0
114 120 0
109 116 0
105 114 0
112 118 0
114 122 0
117 121 0
119 125 0
108 110 0
108 114 0
105 108 0
105 113 0
113 117 0
111 115 0
106 107 0
109 111 0
89 93 0
114 120 0
107 112 0
98 100 0
97 103 0
101 101 0
102 104 0
97 98 0
109 107 0
90 88 0
104 100 0
82 77 0
91 85 0
86 81 0
89 84 0
80 74 0
78 74 0
85 74 11
63 57 11
69 60 0
86 76 0
89 80 0
83 76 0
88 79 0
93 84 0
92 82 0
89 79 0
97 88 0
96 90 0
90 81 0
101 91 0
96 91 0
89 80 0
98 91 0
99 90 0
103 95 0
100 93 0
104 97 0
104 99 0
93 88 0
108 100 11
118 111 0
108 99 0
106 97 0
109 100 11
101 94 0
98 92 0
112 103 11
103 97 0
119 111 19
112 104 19
110 103 16
117 108 11
116 108 11
111 103 0
111 103 11
121 116 11
112 105 0
119 110 16
112 105 11
121 114 19
111 104 11
119 112 30
117 111 11
122 114 19
118 111 22
110 103 16
120 112 16
116 110 25
116 109 22
123 116 22
120 113 16
114 109 22
128 121 34
114 109 11
121 114 19
119 111 28
110 104 19
120 112 25
128 121 32
116 109 19
121 115 16
119 111 28
117 110 16
117 111 30
125 118 25
120 114 25
126 120 34
128 117 36
125 121 25
128 121 32
133 125 37
123 119 28
111 103 22
126 121 28
125 117 32
123 117 28
120 114 16
122 116 30
124 116 32
113 107 32
109 104 25
128 121 36
119 113 32
116 109 37
115 108 25
125 118 36
117 110 34
118 112 30
116 110 34
106 100 34
111 105 28
114 109 30
115 108 39
119 112 34
107 100 36
136 140 34
173 197 0
172 195 36
179 201 84
185 205 137
184 205 117
184 205 111
177 199 57
178 200 62
174 197 44
177 198 44
173 195 25
173 197 0
176 198 36
173 195 36
173 197 25
171 194 36
175 198 57
175 197 44
174 197 25
174 197 51
176 198 44
176 198 51
173 195 25
177 199 57
170 192 36
174 196 0
174 196 0
172 194 0
172 194 0
169 191 0
171 194 0
174 196 0
175 197 0
173 195 0
174 196 0
174 196 0
172 194 0
169 191 0
174 196 0
173 195 0
174 197 25
169 190 0
171 192 0
173 195 0
172 194 0
172 194 0
173 195 0
172 194 0
172 193 25
168 189 0
170 192 25
168 190 0
172 193 0
171 192 0
171 193 0
174 194 0
169 191 0
169 191 0
174 195 0
171 193 0
169 190 0
176 196 25
174 194 25
170 190 0
165 186 0
172 192 0
172 193 25
170 191 0
171 191 25
171 191 0
168 188 0
169 190 25
168 189 0
172 192 0
167 187 0
168 189 0
167 188 0
167 187 0
167 188 0
170 192 0
163 184 0
168 189 0
165 185 0
164 186 0
160 182 0
163 183 0
166 188 0
163 185 0
165 187 51
160 181 51
160 180 44
161 183 51
165 186 36
158 179 36
164 185 25
165 186 44
174 194 80
168 188 67
162 182 36
157 178 0
167 187 0
161 183 0
160 181 0
163 183 0
162 182 0
161 182 0
165 186 0
162 183 0
159 180 0
159 179 0
166 185 0
156 176 0
159 179 0
153 174 0
157 177 0
158 179 0
156 177 0
150 170 0
154 174 0
154 176 0
152 174 0
155 175 0
157 178 0
150 171 0
159 181 0
151 173 0
159 180 0
150 172 0
153 174 0
158 179 0
143 165 0
154 175 0
147 168 0
154 175 0
147 168 0
152 173 0
155 177 0
156 177 0
150 171 0
139 160 0
144 163 0
148 169 0
152 173 0
150 172 0
151 173 0
144 166 0
144 165 0
137 158 0
143 165 0
137 158 0
136 156 0
146 167 0
138 158 0
136 157 0
131 152 0
137 157 0
139 160 0
130 150 0
135 155 0
136 155 0
133 153 0
131 150 0
125 144 0
116 134 0
135 154 0
126 146 0
129 147 0
125 144 0
124 143 0
116 135 0
119 136 0
111 129 0
121 141 0
112 132 0
112 131 0
119 137 0
98 116 0
112 130 0
115 132 0
102 119 0
105 122 0
108 126 0
103 118 0
108 124 0
98 115 0
105 122 0
94 110 0
104 120 0
95 110 0
104 119 0
93 108 0
82 95 0
86 98 0
94 109 0
85 100 0
79 93 0
86 100 0
78 90 0
79 93 0
92 106 0
86 98 0
89 102 0
101 115 0
91 102 0
76 89 0
96 109 0
77 90 0
88 101 0
81 95 0
88 102 0
75 89 0
69 84 0
96 109 0
95 108 0
84 97 0
99 113 0
89 102 0
84 98 0
95 108 0
103 118 0
106 120 0
94 106 0
109 125 0
104 118 0
98 113 0
110 124 0
101 112 0
102 115 0
104 116 0
102 116 0
113 128 0
102 114 0
114 128 0
113 126 0
107 121 0
114 129 0
100 111 0
111 126 0
111 121 0
124 140 0
117 132 0
117 131 0
106 121 0
108 119 0
117 131 0
104 118 0
116 129 0
125 139 0
115 130 0
113 127 0
112 125 0
120 133 0
127 141 0
120 133 0
116 129 0
122 135 0
113 129 0
106 116 0
116 129 0
126 139 0
112 122 0
122 132 0
126 134 0
129 140 0
118 130 0
120 132 0
112 120 0
119 129 0
109 118 0
106 115 0
115 124 0
121 131 0
129 137 0
117 127 0
111 121 0
119 124 0
118 122 0
115 117 0
107 113 0
111 114 0
109 115 0
104 109 0
112 118 0
105 111 0
110 114 0
107 111 0
106 106 0
102 102 0
100 99 0
110 112 0
99 99 0
93 92 0
108 108 0
107 104 0
73 73 0
89 88 0
96 92 0
91 86 0
85 82 0
91 86 0
72 67 0
91 85 0
58 52 0
70 59 0
75 67 0
83 72 0
90 81 0
91 83 0
87 78 0
85 76 0
82 73 0
92 85 0
102 94 0
97 89 0
88 78 0
82 72 0
92 81 0
99 89 0
101 93 0
93 85 0
97 90 0
87 81 0
101 94 0
101 94 0
105 96 0
102 91 0
95 88 0
99 93 0
102 96 0
102 96 0
104 95 0
109 100 0
110 103 11
105 97 0
102 95 0
101 93 19
114 108 11
121 113 19
114 105 0
113 107 0
121 113 25
113 105 0
110 104 0
109 102 19
115 108 0
122 114 22
114 108 16
111 103 16
120 111 22
114 108 16
114 108 19
117 110 11
116 108 16
119 112 19
118 110 28
126 118 28
122 114 16
115 108 16
117 111 28
117 110 22
112 106 16
128 120 22
112 106 11
121 113 25
112 105 16
124 117 25
126 118 37
124 117 22
120 111 28
112 103 28
111 104 19
118 111 28
122 112 30
111 104 16
124 115 30
114 107 25
124 117 34
126 119 32
116 110 25
115 109 25
121 115 32
122 115 25
124 116 30
124 117 34
116 110 25
112 105 30
118 110 30
122 115 34
114 107 28
117 110 41
104 99 28
108 102 28
121 115 41
117 110 34
112 106 36
117 112 32
115 115 28
143 152 30
156 176 0
171 192 0
172 195 0
172 195 0
175 198 0
176 198 0
174 197 51
178 201 95
184 205 117
186 207 120
186 207 125
174 197 44
175 197 25
173 196 25
175 198 57
174 197 36
174 197 36
172 195 0
174 197 67
171 195 51
173 196 44
173 196 51
172 196 0
172 194 25
176 199 51
177 199 67
175 197 57
175 196 57
174 196 57
176 198 36
173 195 36
171 193 25
177 199 0
172 194 0
171 193 0
173 195 0
175 196 0
172 194 0
170 192 25
174 194 0
174 197 0
174 196 0
173 194 0
173 194 0
171 193 0
173 194 0
171 192 0
174 195 0
174 196 0
172 194 0
170 191 0
173 194 0
169 191 0
172 193 0
171 192 0
173 194 0
169 190 0
171 191 0
170 191 0
175 196 0
173 194 0
172 193 0
173 194 0
174 195 25
171 193 0
169 190 0
167 187 0
173 194 0
170 191 0
173 194 0
171 190 36
172 193 0
168 189 25
163 185 0
173 194 0
168 188 0
168 188 0
162 183 0
172 193 25
172 192 0
164 185 0
168 189 0
167 188 0
167 188 0
166 187 0
162 183 36
166 187 25
167 187 44
166 186 36
167 188 51
170 191 44
164 186 36
169 189 36
165 186 25
171 192 51
163 184 62
169 190 51
163 183 36
162 182 0
161 181 0
163 183 0
166 187 0
155 177 0
161 181 0
167 188 0
160 181 0
159 181 0
161 183 0
156 177 0
158 179 0
164 185 0
160 181 0
150 171 0
163 184 0
155 177 0
156 177 0
160 180 0
156 177 0
160 182 0
156 177 0
157 178 0
164 185 0
149 171 0
163 184 0
153 174 0
155 177 0
155 177 0
153 175 0
148 169 0
148 169 0
148 169 0
153 175 0
148 170 0
156 177 0
151 173 0
147 169 0
148 170 0
153 174 0
150 171 0
155 176 0
153 175 0
150 172 0
150 171 0
152 173 0
139 161 0
135 156 0
142 163 0
145 167 0
139 159 0
146 167 0
141 162 0
138 160 0
127 148 0
149 170 0
146 166 0
131 152 0
141 162 0
141 161 0
133 154 0
140 161 0
127 148 0
137 157 0
124 143 0
117 137 0
132 153 0
133 153 0
133 152 0
130 149 0
129 148 0
132 153 0
123 143 0
138 158 0
127 146 0
124 143 0
111 130 0
116 134 0
110 128 0
105 123 0
96 115 0
104 121 0
106 122 0
113 131 0
105 121 0
102 119 0
104 121 0
100 116 0
106 124 0
104 121 0
109 125 0
108 123 0
82 98 0
96 112 0
118 134 0
97 111 0
99 114 0
103 118 0
99 115 0
101 114 0
88 103 0
87 101 0
91 104 0
85 99 0
101 115 0
88 103 0
89 103 0
95 109 0
90 103 0
106 121 0
90 105 0
80 93 0
96 111 0
96 110 0
89 104 0
84 97 0
94 109 0
93 107 0
85 98 0
95 110 0
105 119 0
103 118 0
95 110 0
102 118 0
97 112 0
103 116 0
89 103 0
109 123 0
110 123 0
103 119 0
114 129 0
116 132 0
100 115 0
109 126 0
103 117 0
115 128 0
102 116 0
105 121 0
114 128 0
112 126 0
118 131 0
107 122 0
121 136 0
110 122 0
114 128 0
120 133 0
116 130 0
116 129 0
113 126 0
116 130 0
117 131 0
115 129 0
112 125 0
120 134 0
129 145 0
122 134 0
119 132 0
117 128 0
122 137 0
130 144 0
116 128 0
130 143 0
120 132 0
114 125 0
117 128 0
123 137 0
129 143 0
119 129 0
118 126 0
111 123 0
123 132 0
127 135 0
116 126 0
109 120 0
121 131 0
121 129 0
118 126 0
119 126 0
115 122 0
117 125 0
111 119 0
112 119 0
120 127 0
118 125 0
120 127 0
104 110 0
106 108 0
106 109 0
107 110 0
113 118 0
106 109 0
114 117 0
110 109 0
98 100 0
98 99 0
99 95 0
100 99 0
99 99 0
105 106 0
95 93 0
87 85 0
90 85 0
95 90 0
76 72 0
85 79 0
91 88 0
78 71 0
79 71 0
69 60 0
72 66 0
60 53 0
85 73 0
88 77 0
73 63 0
84 75 0
86 75 0
83 73 0
86 78 0
93 83 0
90 78 0
95 87 0
96 87 0
89 82 0
102 92 0
96 86 0
101 91 0
101 91 0
93 84 0
109 101 0
89 82 0
105 97 0
107 101 11
107 100 0
103 94 0
88 82 0
104 96 0
113 105 11
108 98 0
110 102 16
105 99 0
113 103 11
103 94 0
107 100 11
112 105 0
112 105 16
119 111 0
116 109 19
113 103 16
119 110 22
116 108 0
114 107 0
107 99 16
114 106 19
106 100 0
117 109 19
112 106 0
111 103 16
111 103 19
119 112 19
116 110 19
111 104 19
125 117 22
113 106 22
104 98 11
116 109 16
128 120 19
115 110 22
108 103 11
114 106 22
120 114 36
116 109 19
126 119 22
126 119 30
112 104 19
124 115 30
117 110 22
129 121 25
116 109 30
125 118 30
117 111 34
113 108 28
112 105 34
112 106 30
113 107 25
115 108 30
108 101 28
120 113 28
114 108 30
113 106 25
127 120 41
109 102 30
116 109 30
123 115 32
121 113 36
111 104 25
121 116 39
119 113 36
112 110 28
134 143 22
156 172 22
167 187 0
167 184 0
170 191 0
169 190 0
174 197 0
173 196 0
173 196 0
172 195 0
174 197 0
171 194 0
174 197 0
175 198 36
181 203 88
180 201 117
186 207 130
178 199 76
177 199 57
175 197 44
174 197 44
175 198 36
177 200 57
175 197 57
176 198 44
175 198 36
174 197 36
174 196 62
174 196 36
173 195 51
174 197 44
177 199 51
173 195 62
173 196 44
173 196 36
175 197 62
176 199 25
176 198 44
175 197 44
174 197 25
171 193 25
173 195 25
175 196 0
172 195 25
175 197 0
174 196 0
172 194 0
171 194 0
175 197 0
170 192 0
174 196 0
174 195 0
171 193 0
171 192 0
171 192 0
173 194 0
171 192 0
170 191 0
170 191 0
173 193 0
175 195 25
171 192 0
171 193 0
168 190 0
169 190 0
173 193 0
171 192 0
171 191 0
169 191 0
169 189 0
174 195 0
172 193 0
173 194 0
173 193 0
171 192 0
169 189 0
172 192 0
168 190 0
171 192 0
172 193 25
170 191 25
169 190 0
167 187 0
167 188 25
170 191 25
174 195 36
171 192 51
169 189 44
166 185 36
166 187 36
167 188 51
169 190 36
164 186 0
167 188 44
164 185 51
169 190 57
169 190 57
173 193 57
167 188 36
163 184 0
162 183 0
159 179 0
167 187 0
167 188 0
155 176 0
159 181 0
159 180 0
154 175 0
159 178 0
162 183 0
157 177 0
158 179 0
151 172 0
155 175 0
157 179 0
152 173 0
155 176 0
157 178 0
161 181 0
162 183 0
158 179 0
157 178 0
163 185 0
155 176 0
148 170 0
154 174 0
154 175 0
157 178 0
153 174 0
153 174 0
147 169 0
154 175 0
148 170 0
159 182 0
148 168 0
142 163 0
149 170 0
144 165 0
154 174 0
149 171 0
150 172 0
152 173 0
140 161 0
153 174 0
149 171 0
146 167 0
141 162 0
141 162 0
139 161 0
145 166 0
145 165 0
143 165 0
149 170 0
143 164 0
141 162 0
141 161 0
149 170 0
143 165 0
139 159 0
146 166 0
135 155 0
132 153 0
132 153 0
139 159 0
130 150 0
142 162 0
132 152 0
133 153 0
130 150 0
122 143 0
126 146 0
127 147 0
138 157 0
118 138 0
127 148 0
131 150 0
124 143 0
130 149 0
110 130 0
126 143 0
123 142 0
119 137 0
104 121 0
122 141 0
114 132 0
110 128 0
103 120 0
114 131 0
104 120 0
109 124 0
107 125 0
109 125 0
92 109 0
94 109 0
103 119 0
103 120 0
104 120 0
94 110 0
99 115 0
95 111 0
102 119 0
103 119 0
103 119 0
102 117 0
104 120 0
90 105 0
95 110 0
100 114 0
93 108 0
91 105 0
85 101 0
92 108 0
87 103 0
87 102 0
95 111 0
102 115 0
105 119 0
93 105 0
99 114 0
93 109 0
108 122 0
108 122 0
110 126 0
99 112 0
95 108 0
98 114 0
106 118 0
100 114 0
106 121 0
102 115 0
102 115 0
102 114 0
103 115 0
108 122 0
107 119 0
124 137 0
105 121 0
114 128 0
98 112 0
109 122 0
114 128 0
113 127 0
102 115 0
110 124 0
115 130 0
105 119 0
118 132 0
121 137 0
117 128 0
123 137 0
115 129 0
115 131 0
115 128 0
126 139 0
117 133 0
115 129 0
121 134 0
114 128 0
119 133 0
129 142 0
125 140 0
117 128 0
125 138 0
111 123 0
122 134 0
125 137 0
124 136 0
137 149 0
126 138 0
128 138 0
118 130 0
122 131 0
124 137 0
115 122 0
124 134 0
118 129 0
122 132 0
116 127 0
125 134 0
120 130 0
122 131 0
107 115 0
119 131 0
126 136 0
125 131 0
118 122 0
107 114 0
116 123 0
119 125 0
116 121 0
118 124 0
104 106 0
108 112 0
102 105 0
101 101 0
114 116 0
111 111 0
102 106 0
98 100 0
110 114 0
107 106 0
110 109 0
94 94 0
89 87 0
110 107 0
95 89 0
94 90 0
97 93 0
81 78 0
94 92 0
76 68 0
74 69 0
83 76 0
67 57 0
73 67 0
75 67 0
83 72 0
81 70 0
78 68 0
81 69 0
85 75 0
88 80 0
91 80 0
93 84 0
88 78 0
105 96 0
84 77 0
93 83 0
91 84 0
101 92 0
98 88 0
101 93 0
106 96 0
98 89 0
102 94 0
91 84 11
100 92 0
106 96 16
105 97 11
104 94 11
104 97 0
109 100 11
102 93 0
108 99 19
111 101 16
102 95 11
110 104 11
107 98 0
106 99 0
117 108 22
114 106 16
112 102 0
104 97 11
107 98 16
108 102 16
106 98 22
108 100 19
119 111 19
104 98 0
111 103 16
121 113 22
104 96 11
120 112 19
118 111 22
125 118 22
115 108 19
105 98 16
107 99 16
118 111 16
118 111 25
117 108 19
126 119 22
111 106 25
115 108 22
113 105 19
118 108 19
117 111 32
119 111 16
112 104 22
109 101 22
111 104 25
119 110 28
117 109 28
113 108 19
122 114 34
115 106 25
116 109 36
106 98 22
115 108 25
101 95 25
108 101 30
117 110 34
119 111 28
118 111 32
115 107 42
111 106 30
121 121 30
140 150 19
163 180 16
166 185 0
168 188 0
162 180 0
171 190 0
168 189 0
166 186 0
167 186 0
174 197 0
172 195 0
174 197 0
173 197 0
173 196 0
174 197 0
172 197 0
174 197 0
172 196 0
175 198 0
171 194 25
172 195 36
181 202 111
182 203 108
183 203 122
178 200 88
178 200 72
173 196 36
175 198 51
173 196 0
175 198 57
172 195 25
177 198 67
172 195 25
175 197 51
171 194 0
176 199 62
175 197 25
173 196 44
176 199 51
175 196 44
175 197 44
169 191 44
176 198 25
175 197 62
174 196 44
175 196 44
173 195 25
175 196 36
175 197 44
173 193 36
169 192 0
175 196 25
173 195 0
175 197 25
175 196 25
172 194 0
174 196 0
173 195 0
172 193 0
172 194 0
170 191 0
172 193 25
170 192 0
172 193 0
176 197 0
174 195 25
174 195 0
174 195 0
167 189 25
171 192 0
172 194 0
171 192 0
170 191 0
169 191 0
172 193 0
165 187 0
171 192 0
171 192 0
169 190 25
170 192 25
163 184 36
169 191 36
167 187 44
171 192 36
173 194 0
168 189 51
165 186 51
172 191 51
170 191 51
172 192 51
167 188 25
173 195 51
168 188 25
168 188 62
172 193 51
165 186 80
167 188 67
172 193 51
169 188 51
163 183 0
162 184 0
158 179 0
166 187 0
168 189 0
163 182 0
161 182 0
168 188 0
163 184 0
162 183 0
163 184 0
163 185 0
156 176 0
154 176 0
153 175 0
168 189 0
162 183 0
159 181 0
153 174 0
153 175 0
155 176 0
154 176 0
160 182 0
158 179 0
167 188 0
158 180 0
153 174 0
153 174 0
150 171 0
158 180 0
155 175 0
151 173 0
154 176 0
151 171 0
159 179 0
155 176 0
151 173 0
154 176 0
151 171 0
150 172 0
159 181 0
149 171 0
156 178 0
146 168 0
151 174 0
146 167 0
147 168 0
148 169 0
155 175 0
156 178 0
145 168 0
140 161 0
145 167 0
139 160 0
147 167 0
140 161 0
143 164 0
140 160 0
141 162 0
146 168 0
146 167 0
135 157 0
145 167 0
134 154 0
136 157 0
141 162 0
138 158 0
132 152 0
127 145 0
140 160 0
139 160 0
131 152 0
130 151 0
126 146 0
116 135 0
130 150 0
134 154 0
128 147 0
130 148 0
128 148 0
122 140 0
108 127 0
117 136 0
118 138 0
129 147 0
117 137 0
126 145 0
121 139 0
95 114 0
111 130 0
106 124 0
109 126 0
102 119 0
108 127 0
103 121 0
107 126 0
99 115 0
104 121 0
105 122 0
103 121 0
109 125 0
111 127 0
101 117 0
114 130 0
85 101 0
89 105 0
103 119 0
103 119 0
106 122 0
88 103 0
101 116 0
104 121 0
98 112 0
104 119 0
107 123 0
103 118 0
94 108 0
94 110 0
105 121 0
94 110 0
85 100 0
92 107 0
106 122 0
108 123 0
110 126 0
104 117 0
97 112 0
104 119 0
103 117 0
97 112 0
118 135 0
116 128 0
103 118 0
112 129 0
97 111 0
108 122 0
102 118 0
107 119 0
106 121 0
102 115 0
116 132 0
117 131 0
114 129 0
129 144 0
121 137 0
114 129 0
117 131 0
116 131 0
123 137 0
104 117 0
124 137 0
115 129 0
121 137 0
129 145 0
121 136 0
114 126 0
126 139 0
116 131 0
111 124 0
114 128 0
120 134 0
119 134 0
121 135 0
131 145 0
133 149 0
113 126 0
118 132 0
133 147 0
129 140 0
122 135 0
135 150 0
110 122 0
128 138 0
130 144 0
118 131 0
113 123 0
121 132 0
135 149 0
128 141 0
129 141 0
128 138 0
114 122 0
122 133 0
126 136 0
120 126 0
113 120 0
118 127 0
126 135 0
117 123 0
121 128 0
115 121 0
117 125 0
111 115 0
122 127 0
121 123 0
117 120 0
123 128 0
116 122 0
111 113 0
120 123 0
113 115 0
116 119 0
113 117 0
107 109 0
116 118 0
110 110 0
100 99 0
108 111 0
101 100 0
97 94 0
103 104 0
98 93 0
90 87 0
85 81 0
93 87 0
94 90 0
86 82 0
90 84 0
81 76 0
72 62 0
87 81 0
71 61 0
89 83 0
88 78 0
72 64 0
80 69 0
81 70 0
82 74 0
84 73 0
90 81 0
92 82 0
93 83 0
96 89 0
93 82 0
94 85 0
100 90 0
94 83 11
100 91 0
96 86 0
110 99 11
102 91 0
95 84 0
102 95 0
113 104 16
105 96 0
107 98 0
105 96 16
106 98 16
102 94 19
105 97 16
107 101 16
106 97 16
102 95 11
112 103 11
116 109 16
100 93 0
108 100 16
111 104 0
102 96 11
107 99 19
119 112 19
111 103 22
111 103 25
105 98 19
115 109 16
97 89 16
119 112 19
111 103 16
116 109 25
109 103 16
115 109 19
114 105 22
105 98 25
125 118 22
112 104 22
112 103 19
120 112 22
118 110 25
110 103 25
110 103 25
115 109 32
119 111 22
117 110 28
117 110 30
114 108 28
112 105 36
121 113 34
115 107 30
105 98 32
125 117 28
111 104 28
115 108 36
116 107 22
102 94 30
117 110 36
106 101 32
114 110 28
129 130 22
153 166 19
164 180 19
161 179 0
165 182 0
165 182 0
165 184 0
166 182 0
168 186 0
171 188 0
166 182 0
166 185 0
169 189 0
173 196 0
172 195 0
172 196 0
172 196 0
174 197 0
169 193 0
173 197 0
172 195 0
175 198 0
172 195 0
172 196 0
173 197 0
172 196 0
174 196 0
172 195 25
177 199 76
185 205 120
183 204 108
188 208 135
181 202 99
176 199 62
175 198 36
174 198 25
170 193 44
172 195 25
175 197 51
173 196 0
172 194 51
175 197 36
172 194 0
174 196 36
175 196 25
172 194 0
172 194 36
172 194 44
176 197 51
173 195 25
174 196 44
176 197 57
172 194 44
173 194 25
176 198 25
172 193 51
174 196 51
173 194 44
175 196 36
177 198 51
176 197 57
169 191 25
174 195 25
172 193 25
169 191 36
173 194 36
173 194 25
173 194 36
173 195 51
169 190 36
175 196 36
173 193 25
172 193 36
171 192 36
172 193 36
173 194 36
176 197 51
174 195 51
175 196 44
172 192 44
169 191 44
173 195 36
171 192 51
176 197 51
171 192 57
170 191 51
171 191 36
167 188 51
172 193 25
169 190 36
173 193 44
167 189 36
172 194 36
170 191 44
166 186 44
172 193 67
172 193 67
170 191 72
164 185 44
164 186 0
162 183 0
167 188 0
169 188 0
168 189 0
166 187 0
164 185 0
165 186 0
163 183 0
158 179 0
164 185 0
162 182 0
163 183 0
164 184 0
155 176 0
161 182 0
161 183 0
164 185 0
158 180 0
161 182 0
157 177 0
156 178 0
154 175 0
160 180 0
155 175 0
151 173 0
157 178 0
157 179 0
157 179 0
151 173 0
159 181 0
154 176 0
157 178 0
162 183 0
151 173 0
149 171 0
152 173 0
158 180 0
153 174 0
152 175 0
153 173 0
159 181 0
152 173 0
145 167 0
159 180 0
149 170 0
153 175 0
145 165 0
145 167 0
146 167 0
151 172 0
150 171 0
154 175 0
146 167 0
140 162 0
148 169 0
146 167 0
140 161 0
142 163 0
150 173 0
144 164 0
139 161 0
152 173 0
143 163 0
147 169 0
145 166 0
135 156 0
141 161 0
132 152 0
145 167 0
140 161 0
138 159 0
138 158 0
135 156 0
125 147 0
136 156 0
130 150 0
138 160 0
132 151 0
125 144 0
136 155 0
125 146 0
125 144 0
131 151 0
120 140 0
131 151 0
129 147 0
137 157 0
120 139 0
112 131 0
117 136 0
124 143 0
124 143 0
105 124 0
111 129 0
102 119 0
112 131 0
110 128 0
105 122 0
115 133 0
114 131 0
118 136 0
110 128 0
104 121 0
110 129 0
113 131 0
111 127 0
116 133 0
114 132 0
101 117 0
120 136 0
108 125 0
102 119 0
98 114 0
98 114 0
101 118 0
110 127 0
114 130 0
109 125 0
105 122 0
114 130 0
110 126 0
105 120 0
110 123 0
106 121 0
101 116 0
97 112 0
107 123 0
89 103 0
113 127 0
110 125 0
104 118 0
111 126 0
98 111 0
99 114 0
99 114 0
109 124 0
115 130 0
115 131 0
105 120 0
114 131 0
105 121 0
113 127 0
120 135 0
107 124 0
107 121 0
113 128 0
115 130 0
123 138 0
125 140 0
123 139 0
108 124 0
112 128 0
110 120 0
110 123 0
117 131 0
131 147 0
124 140 0
119 132 0
132 149 0
134 151 0
130 145 0
125 137 0
122 135 0
116 131 0
119 134 0
122 137 0
121 135 0
109 120 0
120 132 0
131 146 0
121 135 0
124 136 0
120 133 0
126 138 0
132 146 0
129 140 0
131 141 0
130 143 0
125 136 0
127 138 0
126 139 0
131 144 0
113 120 0
134 144 0
125 137 0
121 131 0
126 136 0
109 119 0
117 126 0
110 121 0
121 128 0
128 135 0
132 140 0
114 123 0
126 137 0
112 118 0
116 124 0
115 123 0
123 129 0
126 133 0
119 122 0
116 120 0
120 126 0
106 110 0
120 123 0
113 116 0
117 124 0
106 105 0
106 108 0
109 111 0
100 100 0
103 106 0
101 100 0
96 96 0
107 107 0
97 97 0
100 102 0
112 109 0
99 97 0
96 93 0
94 88 0
72 68 0
92 91 0
85 83 0
89 84 0
82 75 0
66 62 0
76 69 0
89 81 0
78 69 0
75 64 0
80 69 0
92 83 0
82 71 0
83 75 0
87 79 11
91 81 0
95 84 11
92 83 0
89 80 11
94 84 0
111 100 0
100 93 11
94 84 16
101 92 16
96 87 11
97 90 0
106 97 11
91 84 0
104 94 0
95 85 11
110 101 16
99 91 11
103 93 16
104 96 11
106 98 11
98 91 0
94 88 11
111 103 16
114 105 25
110 102 16
104 97 11
109 101 11
113 104 16
115 108 22
114 106 16
109 102 19
118 111 30
113 105 19
112 105 22
114 105 22
115 107 19
117 110 19
100 93 11
117 108 32
95 90 11
111 104 22
119 112 25
108 101 22
111 104 19
112 104 25
108 100 25
107 98 19
111 103 16
107 100 22
114 107 22
113 105 22
121 114 32
106 98 28
112 105 25
119 112 25
99 93 25
104 96 28
108 101 32
110 104 36
112 110 16
134 138 22
144 151 22
155 169 11
166 185 0
167 185 0
166 184 0
165 182 0
167 184 0
166 181 0
164 179 0
165 184 0
166 184 0
166 184 0
168 186 0
170 189 0
170 189 0
167 186 0
172 195 0
172 195 0
172 196 0
175 197 0
172 196 0
173 197 0
174 197 0
170 194 0
172 196 0
172 195 0
174 197 0
170 194 0
174 196 0
173 196 0
171 194 0
172 195 0
171 195 0
174 196 0
172 196 36
177 199 62
177 199 95
181 202 99
180 201 84
180 201 88
180 201 84
175 198 51
175 198 44
173 197 36
175 197 51
172 194 0
173 196 36
172 193 44
172 194 44
176 197 51
172 195 36
176 198 44
173 196 25
175 197 51
173 196 25
173 194 51
175 197 44
171 193 44
173 195 25
176 197 57
176 197 62
172 194 44
178 199 51
169 191 25
176 197 44
172 194 51
176 197 44
173 193 36
173 195 44
175 195 51
172 192 36
171 192 44
175 196 51
170 191 36
173 194 0
172 193 44
173 195 51
173 194 51
171 192 36
173 194 36
172 192 36
172 193 44
170 191 44
167 188 51
170 190 44
165 186 25
172 193 51
172 192 36
175 196 25
172 192 44
171 192 44
168 189 44
175 196 88
172 193 76
172 193 57
172 192 57
166 187 51
167 188 25
167 188 0
167 189 0
166 187 0
165 185 0
162 182 0
167 187 0
165 187 0
161 181 0
169 190 0
163 183 0
167 188 0
163 184 0
166 186 0
162 184 0
162 183 0
158 179 0
159 179 0
163 183 0
166 186 0
163 183 0
163 184 0
162 183 0
159 181 0
153 175 0
157 178 0
157 179 0
160 182 0
148 170 0
159 181 0
156 177 0
159 181 0
163 185 0
158 179 0
149 170 0
153 174 0
157 178 0
156 177 0
160 181 0
149 171 0
144 165 0
157 180 0
154 176 0
157 179 0
161 183 0
149 170 0
158 180 0
156 178 0
146 167 0
143 165 0
148 169 0
157 178 0
157 179 0
163 184 0
147 168 0
145 167 0
158 180 0
147 168 0
151 172 0
138 159 0
147 169 0
144 166 0
144 165 0
145 166 0
145 166 0
136 158 0
145 165 0
153 174 0
144 166 0
137 158 0
138 159 0
148 170 0
148 170 0
147 168 0
139 160 0
136 157 0
126 147 0
130 150 0
137 157 0
129 150 0
146 166 0
140 160 0
134 154 0
127 147 0
118 138 0
119 138 0
132 151 0
140 159 0
127 146 0
124 143 0
119 137 0
115 135 0
128 146 0
137 156 0
122 140 0
113 133 0
117 136 0
115 134 0
126 144 0
120 138 0
113 130 0
116 134 0
119 137 0
104 122 0
113 131 0
107 123 0
128 147 0
117 133 0
119 137 0
125 144 0
110 127 0
113 130 0
115 132 0
111 128 0
106 124 0
93 109 0
107 123 0
112 129 0
103 120 0
100 116 0
97 111 0
92 110 0
109 126 0
95 110 0
110 124 0
106 123 0
101 119 0
109 126 0
107 122 0
108 124 0
107 122 0
116 132 0
111 126 0
110 126 0
114 130 0
105 122 0
115 131 0
118 134 0
114 129 0
115 131 0
117 132 0
101 119 0
109 125 0
94 109 0
120 136 0
122 137 0
116 131 0
118 132 0
118 135 0
121 136 0
106 121 0
117 132 0
119 136 0
123 138 0
102 116 0
117 131 0
116 132 0
114 130 0
119 136 0
129 145 0
115 129 0
127 142 0
115 130 0
126 143 0
126 141 0
115 129 0
123 137 0
125 141 0
136 152 0
127 141 0
120 133 0
133 148 0
127 141 0
122 134 0
126 140 0
125 138 0
125 139 0
124 139 0
123 137 0
130 143 0
126 139 0
126 141 0
118 131 0
129 143 0
123 136 0
124 137 0
122 134 0
118 127 0
122 132 0
115 125 0
136 147 0
126 138 0
134 146 0
131 141 0
131 140 0
132 142 0
114 120 0
127 136 0
125 133 0
118 126 0
126 135 0
124 128 0
117 123 0
118 125 0
116 121 0
113 120 0
120 127 0
109 110 0
118 121 0
115 119 0
119 121 0
114 116 0
118 117 0
117 119 0
105 104 0
104 104 0
110 110 0
109 109 0
101 100 0
105 104 0
109 107 0
108 106 0
114 114 0
97 95 0
97 92 0
102 98 0
101 97 0
100 95 0
102 98 0
94 89 0
97 91 0
82 78 0
101 98 0
97 96 0
92 86 0
83 75 0
87 76 0
77 69 0
79 72 0
79 74 0
79 69 0
82 73 0
87 77 0
87 73 0
83 74 0
92 80 0
93 81 0
90 80 0
84 74 0
98 88 0
95 85 11
102 91 11
95 88 0
92 82 11
106 96 16
105 97 0
99 89 11
97 89 16
93 85 0
96 86 11
98 90 0
98 90 11
99 92 0
100 94 11
105 96 19
100 93 0
110 101 25
101 92 11
113 103 19
106 99 16
111 101 11
101 91 19
113 106 11
108 99 19
100 93 0
104 96 11
110 100 0
117 110 16
106 98 22
109 103 16
113 104 25
113 105 22
115 108 28
101 94 22
108 101 25
107 100 16
112 106 28
107 98 19
105 98 25
113 105 22
106 97 16
96 88 19
112 104 25
109 103 30
107 100 28
114 105 37
110 104 25
129 130 28
138 144 19
148 158 0
161 174 0
160 175 0
165 179 0
163 177 0
165 180 0
163 179 0
163 177 0
166 181 0
163 180 0
163 182 0
166 184 0
168 184 0
166 185 0
164 183 0
168 186 0
166 184 0
161 177 0
165 183 0
168 187 0
173 195 0
174 198 0
174 196 0
171 195 0
173 196 0
170 193 0
172 194 0
173 196 0
175 197 0
173 197 0
172 195 0
174 197 0
170 194 0
175 198 0
173 196 0
172 195 0
170 193 0
177 199 0
171 194 0
172 195 0
169 192 0
173 196 0
172 195 0
172 194 25
174 197 36
179 201 84
182 203 108
183 203 105
180 201 105
180 201 102
181 202 92
176 198 62
176 198 57
177 199 44
172 195 51
174 196 36
172 195 25
176 198 44
175 197 57
175 197 51
171 194 36
171 192 44
173 195 25
177 198 67
174 196 36
173 194 44
175 196 36
173 193 25
169 191 36
174 196 57
174 196 44
171 193 25
171 192 25
176 198 57
175 196 36
175 196 36
177 197 51
170 191 36
173 194 51
177 197 51
173 193 36
173 195 25
169 190 36
172 193 25
171 192 44
173 194 57
171 191 44
177 198 72
172 192 25
172 193 51
174 195 62
178 198 88
175 195 51
171 192 57
175 195 76
177 197 80
169 190 36
163 184 0
168 188 0
170 191 0
169 190 0
165 187 0
168 189 0
168 189 0
164 183 0
164 184 0
166 186 0
168 189 0
165 186 0
162 183 0
170 192 0
166 186 0
165 186 0
160 181 0
164 185 0
155 176 0
159 180 0
164 185 0
160 181 0
158 179 0
161 182 0
163 184 0
164 185 0
163 184 0
162 183 0
154 176 0
155 176 0
160 182 0
159 181 0
148 169 0
162 184 0
160 181 0
155 176 0
160 181 0
161 183 0
156 177 0
151 172 0
155 177 0
154 176 0
150 171 0
149 171 0
156 178 0
161 182 0
153 174 0
153 174 0
152 174 0
151 173 0
150 172 0
147 169 0
154 175 0
160 183 0
158 180 0
145 166 0
147 169 0
144 165 0
149 171 0
150 171 0
148 170 0
146 168 0
144 165 0
146 168 0
139 161 0
143 163 0
148 169 0
147 168 0
152 172 0
145 167 0
144 164 0
143 165 0
138 159 0
147 168 0
146 167 0
145 166 0
149 169 0
133 155 0
150 172 0
144 165 0
140 160 0
141 163 0
143 164 0
137 157 0
145 165 0
135 155 0
131 152 0
137 158 0
129 148 0
128 148 0
142 162 0
124 144 0
122 141 0
128 148 0
124 143 0
120 139 0
130 151 0
119 138 0
134 154 0
123 142 0
134 153 0
119 139 0
126 144 0
111 129 0
113 131 0
118 136 0
104 122 0
108 126 0
116 135 0
114 131 0
110 128 0
124 142 0
107 124 0
116 134 0
109 127 0
94 112 0
115 133 0
113 131 0
113 131 0
113 132 0
112 129 0
122 138 0
113 130 0
114 132 0
111 127 0
115 131 0
113 130 0
108 125 0
113 129 0
96 113 0
99 113 0
101 117 0
101 116 0
115 132 0
100 116 0
95 110 0
116 133 0
124 140 0
120 137 0
108 124 0
114 132 0
110 128 0
122 139 0
118 134 0
113 130 0
107 121 0
116 131 0
108 124 0
127 141 0
129 146 0
123 138 0
123 140 0
125 142 0
115 130 0
123 138 0
124 139 0
117 132 0
131 148 0
113 128 0
119 134 0
120 136 0
123 137 0
128 143 0
117 130 0
124 139 0
129 145 0
114 129 0
134 149 0
129 145 0
127 142 0
127 141 0
124 137 0
128 141 0
127 143 0
124 140 0
131 147 0
127 140 0
127 141 0
120 133 0
127 140 0
129 143 0
129 144 0
120 134 0
129 145 0
130 143 0
133 147 0
130 142 0
123 137 0
136 149 0
124 139 0
120 134 0
128 140 0
124 136 0
132 144 0
129 139 0
124 135 0
117 128 0
124 134 0
121 131 0
128 138 0
117 128 0
119 127 0
113 120 0
115 123 0
121 129 0
137 148 0
128 138 0
120 127 0
124 134 0
136 145 0
114 119 0
120 126 0
126 131 0
110 114 0
117 122 0
128 133 0
115 119 0
119 123 0
125 129 0
113 114 0
110 106 0
121 123 0
114 116 0
113 116 0
107 107 0
109 109 0
110 106 0
105 104 0
104 100 0
99 96 0
104 101 0
102 97 0
94 92 0
98 95 0
100 92 0
98 97 0
100 97 0
95 90 0
85 80 0
80 73 0
97 91 0
87 81 0
97 91 0
89 84 0
81 74 0
93 88 0
83 76 0
76 68 0
91 82 0
71 63 0
95 86 0
89 80 0
89 78 0
83 73 11
73 61 0
95 84 0
93 83 11
103 95 16
92 84 11
98 89 11
93 83 11
98 87 0
94 85 0
98 86 0
96 85 16
105 97 16
89 78 0
105 98 25
101 90 16
99 89 16
104 94 16
100 90 16
96 88 16
99 89 16
105 96 19
107 98 19
98 90 19
110 101 22
106 100 22
95 88 19
108 101 19
97 88 19
92 84 16
109 99 25
96 87 16
102 95 16
110 103 22
100 93 16
114 105 25
104 96 22
96 90 16
115 106 30
100 92 25
102 94 22
118 113 22
118 118 19
121 121 16
140 147 19
151 159 28
160 173 11
158 172 0
163 178 0
159 172 0
160 176 0
159 172 0
165 182 0
164 178 0
159 175 0
167 184 0
163 179 0
160 176 0
168 185 0
160 176 0
164 180 0
168 185 0
165 183 0
163 181 0
163 179 0
163 180 0
165 182 0
166 185 0
166 185 0
169 187 0
175 197 0
172 194 0
172 195 0
174 197 0
167 191 0
171 195 0
173 196 0
172 194 0
173 196 0
170 193 0
175 198 0
177 199 0
171 195 0
173 196 0
172 195 0
171 194 0
174 196 0
174 197 0
173 196 0
173 196 0
173 196 0
174 196 0
174 196 0
173 196 0
170 193 0
177 199 0
172 194 0
174 196 0
174 196 0
171 193 25
176 197 57
179 200 84
184 205 102
176 198 92
184 204 122
178 199 84
179 200 120
179 200 88
178 199 84
179 200 84
179 200 92
180 200 80
176 198 51
175 197 57
177 199 62
171 193 36
173 196 36
174 195 44
171 192 0
176 197 36
172 194 0
173 195 36
169 192 0
172 195 0
173 194 25
171 192 36
175 197 36
172 194 36
174 196 62
177 197 57
174 195 95
175 196 67
174 194 92
177 198 95
176 197 84
174 194 67
169 190 62
173 194 57
176 196 62
173 194 51
167 187 0
167 187 0
170 191 0
169 190 0
171 192 0
165 185 0
165 186 0
166 186 0
166 187 0
163 183 0
165 186 0
168 189 0
164 184 0
163 184 0
163 184 0
164 185 0
163 186 0
163 184 0
167 188 0
166 186 0
163 184 0
166 186 0
160 181 0
163 183 0
163 184 0
157 179 0
162 182 0
165 187 0
161 184 0
157 178 0
160 181 0
157 179 0
158 180 0
165 186 0
162 183 0
159 180 0
160 181 0
156 178 0
158 179 0
154 177 0
156 177 0
153 175 0
160 181 0
156 178 0
154 176 0
158 179 0
152 173 0
159 181 0
150 172 0
156 177 0
157 179 0
152 174 0
159 180 0
152 173 0
144 165 0
148 169 0
161 183 0
152 174 0
144 166 0
154 176 0
149 171 0
154 175 0
149 171 0
148 170 0
154 175 0
146 167 0
146 168 0
147 169 0
151 172 0
147 169 0
154 176 0
146 168 0
143 165 0
142 164 0
142 163 0
152 174 0
150 172 0
135 157 0
143 164 0
148 169 0
149 170 0
150 170 0
150 170 0
140 161 0
141 162 0
142 163 0
136 156 0
137 158 0
127 148 0
132 154 0
139 159 0
137 157 0
133 153 0
134 154 0
135 155 0
124 144 0
143 162 0
140 160 0
135 156 0
132 153 0
127 148 0
124 144 0
132 152 0
133 153 0
125 145 0
119 139 0
128 147 0
121 140 0
120 138 0
114 133 0
109 128 0
130 149 0
122 140 0
120 140 0
117 136 0
115 133 0
108 127 0
118 135 0
126 144 0
131 149 0
110 128 0
115 132 0
119 137 0
119 137 0
101 118 0
112 131 0
113 130 0
131 149 0
110 128 0
108 125 0
117 133 0
118 135 0
110 129 0
109 126 0
122 138 0
129 148 0
108 124 0
107 125 0
117 136 0
107 123 0
105 121 0
98 116 0
116 133 0
99 116 0
120 137 0
125 142 0
112 129 0
115 132 0
101 118 0
116 132 0
117 133 0
116 131 0
103 118 0
115 129 0
108 125 0
115 131 0
124 138 0
126 142 0
122 137 0
112 129 0
116 132 0
122 138 0
117 134 0
120 136 0
119 134 0
120 137 0
125 140 0
119 135 0
121 136 0
123 139 0
126 142 0
120 135 0
126 141 0
127 141 0
136 151 0
125 140 0
137 151 0
128 146 0
119 134 0
130 147 0
127 141 0
119 135 0
115 128 0
132 147 0
128 142 0
123 137 0
117 132 0
125 141 0
134 147 0
117 131 0
126 139 0
136 150 0
127 139 0
133 147 0
126 139 0
131 142 0
126 137 0
116 129 0
120 132 0
120 132 0
126 139 0
124 136 0
131 141 0
129 142 0
123 135 0
131 142 0
118 127 0
117 127 0
121 129 0
124 134 0
130 139 0
130 139 0
121 129 0
122 127 0
128 139 0
133 141 0
113 123 0
124 134 0
121 127 0
129 135 0
115 121 0
117 123 0
122 129 0
126 128 0
126 133 0
114 118 0
123 126 0
113 119 0
113 116 0
118 123 0
115 119 0
116 119 0
104 103 0
114 113 0
111 113 0
103 104 0
113 113 0
107 104 0
115 113 0
118 113 0
113 109 0
110 107 0
104 100 0
104 102 0
110 106 0
98 93 0
101 95 0
105 98 0
95 89 0
103 97 0
95 91 0
95 92 0
101 94 0
98 90 0
95 87 0
92 85 0
104 99 0
94 86 0
90 85 0
98 90 0
93 85 11
87 79 0
99 92 0
79 69 0
95 88 0
95 83 11
98 89 11
82 72 0
85 75 11
92 81 16
85 74 16
93 82 0
98 89 11
93 81 16
106 95 0
86 76 0
107 97 11
94 85 11
93 83 19
100 91 11
96 86 11
94 86 16
109 98 22
101 92 16
110 102 28
95 87 11
94 84 11
103 94 16
107 95 22
102 93 25
100 90 19
108 100 30
99 91 16
107 103 19
112 109 22
115 114 16
130 132 16
130 132 16
127 130 11
146 153 0
158 167 0
153 160 0
164 176 0
158 168 0
152 164 0
156 165 0
158 170 0
153 162 0
159 171 0
158 169 0
164 180 0
162 177 0
160 172 0
164 180 0
161 176 0
159 172 0
168 185 0
163 177 0
164 179 0
160 174 0
161 177 0
165 182 0
165 180 0
168 185 0
162 180 0
167 186 0
165 183 0
162 181 0
162 178 0
168 186 0
172 195 0
174 197 0
175 197 0
172 196 0
175 197 0
173 196 0
173 195 0
172 195 0
173 196 0
173 196 0
171 194 0
173 196 0
174 197 0
171 194 0
170 192 0
170 193 0
173 197 0
174 197 0
174 196 0
171 194 0
174 196 0
173 196 0
173 196 0
172 195 0
172 196 0
170 193 0
173 195 0
174 196 0
175 197 0
173 195 0
168 190 0
173 196 0
175 196 0
174 196 0
174 196 0
175 197 0
174 195 0
174 196 0
172 195 0
175 196 0
174 196 44
173 195 51
175 196 67
174 195 57
181 201 88
176 197 72
178 198 62
179 199 88
176 196 57
178 200 80
179 199 105
175 196 72
173 194 67
178 199 80
175 195 62
181 200 80
180 199 76
177 198 36
173 193 62
170 191 36
175 196 25
168 190 0
176 196 0
171 190 0
173 193 0
172 193 0
170 191 0
173 193 0
173 193 0
168 190 0
167 188 0
173 194 0
175 195 0
169 189 0
170 192 0
169 190 0
170 191 0
166 187 0
170 191 0
167 187 0
162 183 0
168 189 0
160 180 0
167 188 0
164 184 0
166 188 0
168 189 0
167 188 0
164 184 0
162 183 0
162 184 0
158 178 0
158 179 0
161 182 0
159 180 0
163 185 0
165 185 0
168 189 0
163 185 0
160 181 0
160 181 0
163 185 0
154 175 0
161 183 0
164 185 0
156 178 0
157 178 0
156 177 0
162 183 0
158 180 0
150 173 0
157 179 0
157 180 0
150 172 0
154 176 0
158 180 0
149 171 0
152 173 0
154 177 0
156 178 0
153 174 0
153 174 0
155 177 0
152 174 0
157 179 0
153 174 0
156 178 0
152 174 0
159 180 0
149 171 0
154 177 0
151 173 0
148 169 0
148 170 0
153 175 0
150 172 0
146 168 0
143 165 0
148 171 0
154 176 0
141 162 0
139 161 0
143 165 0
140 161 0
136 157 0
154 174 0
143 164 0
144 166 0
138 160 0
148 170 0
150 171 0
137 158 0
143 164 0
142 162 0
147 168 0
144 165 0
145 166 0
137 159 0
153 175 0
139 160 0
127 148 0
137 158 0
134 154 0
137 157 0
138 158 0
139 159 0
136 155 0
130 149 0
131 150 0
134 153 0
129 149 0
140 159 0
134 155 0
131 151 0
136 157 0
122 141 0
127 148 0
130 149 0
127 148 0
128 146 0
128 147 0
128 148 0
122 140 0
116 135 0
127 146 0
121 141 0
126 145 0
104 123 0
116 134 0
124 142 0
126 145 0
126 145 0
125 143 0
103 122 0
113 131 0
113 132 0
120 138 0
116 136 0
116 133 0
129 146 0
114 132 0
116 134 0
109 127 0
108 126 0
103 120 0
116 135 0
116 133 0
120 137 0
109 126 0
120 137 0
125 142 0
111 128 0
109 126 0
117 133 0
109 126 0
123 141 0
122 139 0
119 137 0
110 126 0
106 121 0
121 138 0
120 136 0
122 140 0
122 139 0
114 129 0
119 136 0
122 140 0
115 131 0
120 137 0
119 136 0
123 139 0
112 128 0
124 140 0
111 129 0
118 133 0
112 128 0
120 136 0
117 135 0
130 147 0
127 142 0
134 152 0
116 131 0
114 129 0
131 146 0
123 139 0
124 139 0
130 146 0
111 127 0
123 135 0
124 139 0
129 147 0
135 150 0
135 152 0
116 132 0
131 147 0
125 142 0
124 138 0
126 139 0
129 145 0
132 145 0
132 148 0
120 136 0
122 134 0
136 150 0
127 142 0
126 139 0
125 139 0
129 142 0
137 152 0
127 137 0
133 146 0
121 132 0
133 144 0
126 136 0
131 146 0
138 152 0
135 147 0
133 144 0
129 139 0
127 137 0
121 131 0
123 131 0
131 140 0
122 131 0
124 133 0
126 134 0
131 142 0
138 146 0
126 135 0
123 128 0
119 125 0
108 114 0
131 138 0
123 128 0
127 134 0
121 126 0
112 118 0
113 116 0
121 124 0
120 120 0
108 110 0
113 113 0
115 116 0
107 105 0
125 127 0
107 106 0
117 117 0
111 113 0
112 111 0
118 117 0
112 112 0
111 111 0
110 107 0
105 101 0
107 104 0
111 107 0
113 112 0
105 101 0
116 113 0
94 88 0
96 89 0
110 105 0
107 104 0
110 108 0
107 103 0
96 92 0
93 84 0
95 88 0
111 109 0
106 103 0
102 94 0
98 91 0
101 97 0
110 104 0
105 100 0
111 106 0
119 118 0
108 99 0
112 106 0
106 104 0
111 108 11
115 113 0
114 110 0
110 104 11
91 83 0
109 107 11
113 108 11
116 111 11
109 103 0
111 103 16
116 112 16
109 104 11
120 118 0
120 116 11
126 124 16
116 117 0
134 136 0
128 128 11
142 147 11
143 148 0
148 154 0
146 150 0
144 150 0
145 152 0
142 146 0
152 157 0
157 165 0
152 157 0
151 158 0
146 152 0
156 164 0
153 160 0
160 172 0
154 164 0
157 169 0
154 165 0
158 166 0
156 166 0
162 173 0
160 172 0
159 170 0
163 175 0
160 173 0
156 168 0
160 176 0
160 171 0
160 174 0
162 177 0
161 175 0
159 173 0
161 176 0
162 177 0
161 175 0
158 173 0
166 184 0
165 180 0
162 177 0
164 180 0
167 185 0
167 183 0
173 195 0
173 197 0
171 195 0
174 197 0
173 196 0
175 196 0
171 193 0
175 197 0
175 197 0
171 194 0
174 196 0
173 195 0
174 197 0
170 193 0
173 196 0
169 191 0
171 194 0
173 195 0
172 194 0
173 195 0
175 197 0
173 195 0
173 195 0
175 197 0
171 195 0
171 193 0
174 196 0
172 194 0
176 197 0
171 194 0
173 195 0
174 196 0
172 194 0
171 193 0
175 197 0
175 197 0
172 193 0
175 197 0
176 196 0
173 194 0
174 195 0
176 197 0
174 195 0
175 197 0
174 194 0
171 193 0
174 195 0
174 194 0
172 193 0
169 190 0
169 191 0
172 193 0
173 194 0
175 196 0
172 193 0
172 192 0
172 194 0
170 191 0
169 190 0
171 192 0
170 190 0
174 194 0
173 193 0
172 193 0
172 191 0
172 193 0
169 189 0
172 192 0
167 188 0
168 189 0
164 185 0
172 192 0
171 192 0
165 186 0
166 186 0
168 188 0
165 187 0
169 190 0
167 187 0
170 191 0
162 183 0
164 185 0
163 184 0
166 187 0
165 186 0
161 183 0
166 187 0
160 180 0
165 186 0
165 186 0
163 183 0
167 188 0
157 178 0
163 184 0
164 185 0
160 181 0
158 179 0
163 184 0
161 183 0
163 183 0
161 182 0
159 181 0
165 187 0
150 172 0
161 183 0
158 180 0
156 177 0
158 179 0
155 176 0
152 174 0
158 180 0
165 186 0
150 171 0
163 185 0
155 178 0
158 180 0
155 176 0
158 180 0
153 175 0
159 180 0
156 178 0
160 181 0
153 175 0
154 175 0
156 177 0
155 177 0
150 172 0
151 174 0
145 167 0
151 173 0
156 177 0
149 170 0
149 170 0
144 165 0
146 167 0
150 171 0
147 169 0
156 178 0
149 172 0
153 175 0
143 164 0
142 164 0
153 173 0
148 170 0
144 165 0
140 162 0
145 167 0
148 170 0
138 160 0
151 173 0
138 159 0
145 168 0
148 169 0
136 157 0
140 162 0
139 161 0
146 167 0
129 149 0
140 160 0
133 155 0
132 153 0
132 152 0
140 160 0
140 161 0
125 145 0
134 153 0
130 150 0
134 153 0
140 160 0
136 156 0
130 149 0
134 155 0
127 148 0
121 140 0
119 139 0
133 154 0
123 143 0
125 144 0
122 142 0
127 147 0
127 147 0
128 147 0
137 158 0
129 148 0
124 144 0
116 135 0
123 142 0
121 140 0
116 134 0
119 139 0
132 151 0
116 134 0
131 150 0
115 134 0
133 152 0
120 137 0
114 130 0
112 129 0
117 135 0
109 128 0
117 133 0
115 132 0
128 146 0
130 149 0
116 133 0
131 150 0
112 130 0
122 140 0
119 137 0
119 138 0
124 142 0
109 126 0
120 139 0
106 125 0
128 145 0
115 133 0
122 139 0
118 135 0
118 133 0
121 140 0
129 146 0
117 134 0
116 131 0
118 135 0
112 128 0
114 131 0
123 139 0
126 143 0
121 138 0
115 131 0
109 126 0
121 136 0
121 138 0
118 134 0
122 138 0
119 137 0
124 142 0
113 126 0
122 139 0
116 131 0
125 141 0
122 139 0
119 134 0
124 140 0
117 134 0
128 145 0
134 150 0
130 146 0
129 146 0
130 146 0
140 158 0
134 151 0
124 139 0
124 138 0
129 146 0
127 142 0
125 140 0
125 140 0
128 144 0
129 146 0
128 143 0
134 147 0
132 146 0
128 143 0
123 137 0
132 147 0
136 151 0
124 136 0
130 142 0
131 147 0
132 146 0
134 148 0
136 149 0
123 135 0
125 138 0
124 136 0
126 137 0
122 132 0
132 144 0
131 144 0
132 144 0
122 133 0
133 143 0
127 136 0
121 131 0
129 141 0
129 141 0
119 129 0
123 130 0
125 132 0
119 127 0
125 132 0
130 135 0
128 133 0
124 130 0
131 138 0
130 136 0
118 123 0
123 129 0
121 125 0
113 115 0
125 130 0
123 124 0
116 121 0
125 125 0
112 111 0
112 113 0
124 125 0
121 122 0
122 123 0
103 105 0
119 121 0
118 116 0
116 115 0
117 117 0
117 114 0
117 113 0
105 103 0
99 94 0
108 103 0
110 106 0
109 107 0
107 105 0
110 107 0
102 98 0
106 98 0
102 97 0
107 102 0
114 112 0
111 106 0
111 104 0
106 102 0
96 92 0
111 109 0
109 105 0
93 86 0
112 108 0
116 112 0
114 111 0
112 108 0
114 111 0
121 119 0
115 109 0
117 108 0
132 131 0
115 111 0
118 114 0
122 120 0
136 135 0
124 125 0
128 129 0
131 134 0
132 132 0
137 137 0
133 134 0
135 135 0
144 147 0
136 138 0
141 142 0
149 154 0
145 152 0
146 153 0
143 146 0
147 151 0
153 162 0
141 147 0
155 164 0
147 153 0
154 162 0
148 154 0
149 157 0
153 161 0
149 155 0
158 167 0
153 163 0
156 165 0
155 164 0
156 167 0
154 165 0
155 165 0
162 175 0
156 167 0
162 176 0
162 175 0
162 175 0
155 167 0
164 178 0
157 173 0
157 172 0
159 172 0
161 175 0
165 181 0
163 180 0
158 173 0
162 178 0
162 178 0
165 181 0
166 182 0
167 184 0
164 183 0
174 198 0
171 194 0
174 197 0
175 198 0
173 196 0
172 195 0
174 196 0
174 197 0
173 196 0
175 198 0
176 199 0
173 196 0
169 192 0
168 191 0
175 197 0
172 194 0
175 197 0
175 197 0
170 192 0
173 195 0
173 195 0
175 196 0
173 195 0
170 193 0
173 195 0
172 194 0
172 195 0
174 196 0
172 195 0
170 193 0
173 195 0
172 194 0
176 197 0
173 194 0
170 192 0
173 195 0
172 194 0
175 196 0
175 196 0
173 194 0
174 195 0
173 194 0
173 194 0
175 197 0
171 193 0
170 191 0
172 194 0
171 193 0
171 192 0
171 192 0
174 196 0
170 192 0
171 192 0
168 189 0
173 194 0
170 191 0
171 193 0
172 192 0
171 191 0
170 190 0
169 190 0
172 193 0
170 190 0
168 188 0
171 193 0
172 194 0
169 190 0
167 188 0
170 190 0
169 189 0
169 190 0
171 192 0
165 185 0
165 186 0
166 187 0
168 188 0
169 191 0
163 184 0
169 189 0
168 189 0
168 189 0
171 192 0
163 184 0
162 183 0
168 189 0
163 185 0
162 183 0
172 193 0
164 185 0
165 187 0
160 181 0
163 183 0
162 183 0
160 181 0
158 179 0
161 181 0
161 181 0
156 178 0
157 179 0
168 189 0
160 182 0
156 177 0
159 180 0
160 181 0
157 179 0
153 175 0
158 179 0
160 182 0
160 181 0
156 177 0
155 177 0
158 179 0
161 183 0
153 176 0
154 176 0
151 172 0
148 170 0
147 169 0
156 178 0
156 178 0
155 177 0
154 176 0
155 177 0
157 180 0
150 172 0
157 180 0
148 170 0
156 178 0
148 169 0
149 171 0
153 175 0
139 162 0
156 178 0
153 175 0
144 165 0
146 168 0
148 170 0
145 167 0
156 177 0
150 171 0
148 170 0
147 170 0
149 170 0
136 158 0
149 171 0
140 161 0
140 161 0
148 169 0
147 168 0
150 171 0
141 163 0
147 168 0
149 170 0
132 153 0
143 164 0
137 158 0
131 153 0
142 163 0
136 157 0
133 154 0
144 164 0
133 153 0
136 157 0
137 158 0
131 152 0
140 160 0
133 154 0
130 151 0
131 152 0
128 148 0
137 158 0
121 142 0
128 149 0
127 148 0
127 147 0
134 154 0
128 147 0
129 149 0
134 155 0
124 143 0
130 150 0
134 153 0
122 142 0
117 136 0
116 135 0
129 149 0
135 155 0
122 141 0
127 146 0
123 142 0
112 130 0
116 134 0
131 151 0
131 148 0
129 148 0
127 144 0
126 144 0
128 146 0
111 130 0
118 137 0
110 130 0
112 130 0
125 142 0
124 142 0
124 142 0
120 140 0
121 138 0
120 139 0
110 127 0
127 146 0
126 143 0
118 134 0
132 149 0
119 136 0
123 138 0
122 141 0
125 143 0
110 127 0
128 143 0
123 140 0
120 138 0
120 137 0
122 140 0
119 136 0
124 142 0
127 143 0
115 131 0
118 136 0
126 143 0
128 147 0
126 142 0
131 148 0
127 144 0
118 137 0
127 144 0
131 149 0
127 144 0
126 141 0
134 149 0
131 147 0
126 143 0
130 146 0
118 132 0
126 143 0
120 137 0
128 145 0
134 151 0
127 142 0
131 147 0
124 138 0
138 152 0
128 144 0
136 153 0
134 151 0
120 136 0
122 135 0
118 133 0
125 141 0
135 151 0
129 143 0
120 133 0
134 148 0
136 150 0
123 136 0
133 149 0
133 148 0
140 154 0
131 146 0
134 150 0
128 142 0
140 153 0
139 154 0
118 132 0
134 146 0
136 147 0
128 143 0
128 141 0
135 148 0
134 148 0
133 147 0
128 139 0
130 141 0
127 136 0
133 141 0
124 134 0
131 141 0
134 144 0
130 141 0
121 129 0
134 143 0
111 116 0
123 131 0
119 124 0
131 137 0
127 135 0
114 119 0
118 122 0
123 129 0
128 133 0
127 133 0
128 133 0
134 140 0
129 133 0
124 128 0
114 116 0
120 122 0
134 140 0
125 127 0
123 126 0
124 128 0
125 125 0
114 116 0
120 118 0
118 117 0
117 116 0
126 128 0
111 110 0
119 118 0
121 121 0
109 103 0
120 119 0
114 111 0
119 118 0
108 103 0
109 107 0
105 99 0
100 98 0
115 112 0
106 103 0
116 113 0
110 103 0
109 104 0
114 110 0
120 114 0
114 111 0
113 108 0
116 114 0
114 110 0
115 108 0
112 107 0
133 129 0
115 112 0
123 120 0
125 121 0
115 111 0
120 120 0
129 129 0
137 138 0
131 131 0
126 125 0
131 132 0
137 139 0
133 132 0
133 134 0
128 129 0
135 136 0
133 135 0
139 141 0
142 144 0
147 150 0
147 152 0
151 157 0
144 147 0
145 149 0
142 146 0
138 142 0
145 150 0
151 159 0
147 155 0
150 158 0
156 166 0
158 170 0
149 155 0
152 159 0
155 165 0
154 164 0
150 161 0
155 166 0
154 162 0
152 165 0
161 176 0
160 168 0
158 170 0
160 175 0
160 175 0
162 177 0
154 166 0
161 175 0
157 170 0
156 168 0
160 174 0
159 170 0
162 177 0
161 176 0
163 180 0
161 177 0
163 178 0
161 178 0
161 175 0
164 182 0
172 195 0
173 196 0
175 198 0
170 193 0
175 198 0
171 194 0
174 197 0
171 194 0
172 195 0
171 193 0
175 197 0
172 194 0
171 193 0
173 196 0
174 197 0
173 196 0
173 195 0
169 193 0
170 193 0
171 194 0
174 196 0
171 193 0
173 195 0
175 197 0
177 198 0
174 197 0
172 193 0
173 195 0
175 197 0
171 193 0
174 195 0
170 192 0
174 196 0
173 195 0
173 195 0
171 192 0
171 193 0
171 193 0
171 193 0
172 193 0
177 198 0
166 188 0
174 196 0
170 192 0
173 194 0
175 196 0
172 193 0
175 196 0
171 193 0
177 197 0
170 192 0
171 192 0
171 192 0
174 195 0
171 192 0
170 190 0
172 193 0
173 194 0
168 190 0
165 186 0
172 193 0
171 191 0
169 191 0
165 186 0
171 192 0
172 192 0
168 190 0
174 195 0
167 189 0
172 192 0
164 185 0
171 192 0
170 191 0
164 185 0
172 192 0
172 192 0
168 189 0
171 192 0
164 185 0
165 186 0
170 191 0
173 193 0
164 185 0
162 184 0
164 184 0
163 184 0
163 183 0
160 181 0
160 182 0
164 186 0
164 185 0
164 185 0
167 188 0
162 184 0
158 181 0
162 183 0
158 179 0
164 186 0
163 184 0
160 180 0
161 183 0
166 187 0
158 179 0
160 182 0
164 185 0
155 177 0
158 180 0
164 186 0
161 183 0
164 185 0
151 173 0
167 188 0
159 182 0
156 179 0
151 173 0
157 178 0
157 178 0
159 181 0
161 183 0
156 179 0
156 177 0
152 174 0
147 168 0
155 177 0
150 171 0
154 176 0
140 161 0
153 175 0
154 176 0
155 178 0
158 180 0
156 177 0
147 168 0
147 169 0
150 172 0
146 167 0
151 173 0
148 170 0
138 161 0
152 173 0
145 165 0
152 173 0
149 170 0
142 163 0
140 161 0
149 171 0
141 163 0
146 169 0
144 165 0
153 175 0
139 160 0
150 172 0
146 168 0
142 164 0
146 168 0
142 163 0
135 156 0
130 150 0
139 161 0
137 158 0
141 162 0
134 156 0
135 156 0
143 164 0
141 162 0
133 152 0
123 144 0
143 164 0
127 149 0
128 148 0
130 151 0
121 142 0
137 156 0
130 150 0
122 142 0
129 150 0
123 142 0
132 153 0
127 148 0
126 146 0
134 155 0
132 151 0
132 152 0
126 145 0
125 144 0
126 146 0
118 137 0
122 142 0
129 147 0
130 149 0
119 136 0
122 142 0
120 139 0
117 137 0
109 129 0
128 147 0
123 141 0
114 132 0
126 145 0
131 149 0
113 130 0
111 129 0
113 131 0
116 134 0
120 136 0
118 136 0
123 141 0
112 129 0
125 143 0
128 146 0
113 132 0
132 148 0
122 140 0
118 136 0
122 139 0
123 142 0
118 136 0
129 148 0
131 150 0
111 128 0
121 140 0
121 139 0
125 142 0
126 144 0
136 152 0
120 137 0
115 133 0
129 146 0
128 143 0
110 128 0
128 143 0
125 142 0
131 150 0
126 142 0
119 136 0
118 135 0
125 142 0
134 152 0
128 143 0
127 143 0
121 138 0
135 151 0
133 151 0
125 141 0
133 151 0
128 144 0
131 149 0
128 144 0
129 147 0
134 151 0
130 146 0
131 147 0
141 157 0
130 146 0
132 150 0
132 146 0
133 147 0
129 146 0
124 140 0
138 152 0
128 143 0
128 142 0
138 155 0
124 137 0
137 153 0
136 150 0
131 147 0
133 146 0
127 144 0
129 142 0
130 142 0
134 151 0
139 152 0
131 146 0
134 147 0
124 135 0
136 149 0
119 133 0
135 146 0
131 144 0
128 139 0
127 136 0
128 138 0
131 143 0
137 149 0
137 149 0
134 142 0
137 148 0
127 135 0
139 148 0
134 145 0
133 143 0
125 133 0
132 139 0
122 130 0
115 121 0
123 131 0
114 120 0
120 125 0
120 126 0
134 139 0
120 125 0
125 131 0
129 134 0
140 147 0
126 128 0
129 134 0
137 138 0
129 133 0
126 129 0
124 128 0
119 124 0
122 127 0
125 127 0
125 125 0
118 120 0
120 121 0
111 109 0
117 116 0
106 102 0
123 124 0
110 109 0
112 113 0
108 108 0
114 112 0
112 109 0
107 107 0
123 119 0
119 118 0
106 103 0
122 121 0
108 103 0
116 113 0
111 106 0
122 120 0
121 120 0
108 103 0
118 118 0
109 104 0
118 114 0
123 121 0
121 118 0
124 122 0
134 137 0
128 128 0
120 118 0
125 124 0
122 121 0
130 132 0
125 123 0
131 129 0
129 130 0
133 132 0
136 138 0
139 142 0
131 131 0
142 146 0
130 131 0
138 142 0
139 144 0
135 137 0
145 150 0
137 142 0
146 148 0
145 150 0
142 145 0
146 152 0
145 151 0
147 151 0
154 161 0
148 157 0
144 148 0
152 159 0
156 165 0
149 157 0
154 165 0
152 159 0
156 163 0
157 166 0
157 168 0
149 158 0
153 162 0
154 165 0
155 166 0
160 175 0
153 162 0
162 175 0
156 168 0
156 168 0
158 169 0
157 170 0
162 175 0
161 175 0
158 171 0
160 175 0
161 176 0
163 176 0
158 173 0
166 183 0
162 177 0
172 196 0
173 196 0
175 197 0
174 197 0
176 198 0
173 196 0
174 196 0
174 196 0
169 193 0
172 195 0
171 193 0
173 196 0
172 194 0
171 194 0
173 195 0
174 196 0
174 197 0
174 196 0
170 192 0
174 196 0
176 198 0
175 197 0
174 196 0
172 195 0
172 194 0
172 194 0
173 195 0
172 194 0
174 195 0
175 197 0
173 196 0
175 197 0
171 193 0
171 192 0
176 197 0
173 194 0
175 196 0
170 191 0
173 194 0
173 195 0
175 195 0
175 196 0
168 189 0
171 192 0
169 191 0
174 195 0
175 195 0
170 191 0
172 194 0
173 194 0
171 193 0
173 193 0
173 193 0
173 194 0
172 193 0
172 193 0
171 192 0
175 196 0
173 195 0
174 194 0
173 194 0
168 190 0
169 191 0
169 190 0
166 186 0
167 187 0
171 191 0
168 189 0
170 191 0
169 190 0
169 190 0
171 191 0
166 188 0
161 182 0
165 185 0
168 189 0
168 188 0
170 190 0
163 184 0
168 189 0
169 190 0
163 184 0
163 184 0
172 193 0
166 188 0
164 185 0
161 182 0
163 185 0
165 186 0
160 182 0
161 182 0
162 183 0
161 181 0
159 181 0
161 181 0
163 184 0
153 174 0
160 181 0
162 183 0
158 180 0
153 175 0
163 185 0
163 185 0
162 184 0
154 175 0
160 183 0
157 178 0
149 171 0
161 183 0
158 180 0
155 178 0
154 176 0
159 181 0
151 173 0
155 177 0
147 169 0
154 176 0
168 189 0
155 178 0
148 171 0
154 175 0
154 177 0
162 184 0
162 183 0
153 176 0
150 172 0
153 175 0
152 174 0
151 173 0
147 170 0
146 167 0
151 174 0
152 175 0
151 174 0
149 171 0
156 178 0
151 173 0
162 184 0
151 172 0
143 165 0
144 166 0
148 170 0
141 162 0
150 171 0
145 167 0
138 160 0
151 173 0
142 163 0
147 168 0
138 159 0
150 172 0
150 171 0
150 172 0
144 166 0
141 162 0
150 171 0
134 155 0
136 158 0
144 165 0
143 163 0
137 158 0
143 164 0
140 162 0
138 159 0
140 160 0
135 156 0
123 144 0
142 163 0
133 153 0
130 152 0
137 157 0
134 154 0
139 159 0
134 152 0
128 148 0
121 140 0
133 154 0
134 154 0
130 150 0
133 153 0
130 150 0
130 149 0
135 154 0
132 152 0
129 148 0
126 145 0
122 141 0
126 146 0
129 149 0
131 150 0
125 143 0
127 145 0
119 138 0
131 150 0
118 136 0
128 147 0
131 149 0
120 138 0
131 150 0
131 149 0
127 145 0
120 139 0
125 143 0
125 144 0
128 147 0
134 153 0
135 154 0
119 136 0
120 138 0
123 141 0
132 149 0
118 136 0
118 136 0
128 145 0
129 149 0
126 145 0
128 147 0
121 138 0
127 144 0
120 138 0
135 153 0
121 139 0
137 153 0
123 142 0
130 147 0
123 139 0
130 148 0
133 152 0
136 152 0
138 156 0
122 139 0
128 146 0
120 137 0
131 149 0
135 154 0
139 158 0
138 156 0
126 142 0
128 144 0
128 143 0
129 147 0
131 148 0
127 144 0
129 147 0
127 144 0
137 155 0
121 136 0
135 152 0
134 150 0
135 151 0
128 144 0
135 150 0
125 141 0
131 147 0
125 141 0
130 144 0
125 144 0
124 138 0
130 146 0
123 137 0
139 154 0
127 139 0
130 147 0
133 148 0
123 138 0
136 152 0
132 147 0
133 146 0
142 159 0
141 155 0
122 135 0
131 145 0
129 140 0
127 140 0
129 140 0
136 149 0
128 139 0
130 144 0
137 151 0
129 141 0
132 145 0
131 144 0
130 142 0
137 149 0
124 136 0
133 147 0
124 135 0
136 146 0
124 134 0
126 136 0
128 137 0
132 141 0
131 142 0
132 143 0
131 138 0
121 130 0
127 133 0
134 142 0
125 132 0
132 141 0
124 132 0
126 134 0
128 134 0
127 134 0
133 140 0
125 132 0
120 127 0
121 125 0
118 122 0
128 135 0
120 122 0
122 124 0
131 133 0
131 133 0
126 128 0
122 123 0
130 132 0
121 124 0
123 123 0
119 117 0
117 120 0
125 130 0
122 121 0
108 106 0
116 113 0
122 123 0
114 110 0
122 121 0
127 126 0
119 116 0
122 122 0
113 110 0
124 124 0
120 117 0
120 120 0
125 123 0
121 123 0
116 116 0
115 113 0
116 114 0
135 138 0
117 112 0
122 121 0
131 130 0
115 113 0
127 126 0
121 117 0
126 122 0
135 136 0
133 133 0
134 134 0
135 139 0
132 136 0
139 140 0
130 131 0
141 144 0
140 142 0
135 137 0
135 138 0
145 150 0
140 142 0
138 143 0
133 135 0
139 142 0
149 153 0
146 147 0
143 146 0
148 151 0
144 148 0
152 158 0
153 159 0
146 154 0
146 155 0
151 157 0
152 160 0
156 166 0
151 159 0
153 162 0
157 166 0
153 165 0
158 170 0
159 169 0
160 172 0
157 166 0
163 176 0
149 157 0
151 162 0
157 169 0
155 164 0
154 166 0
158 172 0
158 170 0
164 178 0
166 181 0
163 176 0
161 175 0
162 178 0
161 178 0
156 169 0
159 174 0
174 197 0
175 197 0
173 196 0
175 197 0
174 197 0
173 196 0
173 196 0
171 193 0
174 196 0
173 196 0
171 194 0
176 198 0
173 195 0
173 195 0
174 196 0
175 197 0
172 194 0
171 194 0
173 195 0
173 196 0
176 197 0
171 193 0
173 196 0
172 194 0
173 195 0
169 191 0
174 195 0
172 194 0
173 194 0
172 194 0
171 193 0
169 189 0
176 197 0
175 196 0
167 188 0
168 190 0
173 196 0
173 195 0
175 196 0
174 195 0
170 192 0
174 195 0
171 192 0
172 193 0
172 192 0
168 190 0
172 194 0
173 194 0
170 192 0
168 189 0
172 192 0
173 194 0
171 192 0
172 194 0
170 192 0
171 191 0
170 191 0
167 188 0
168 189 0
172 193 0
167 188 0
169 191 0
164 185 0
163 185 0
163 184 0
174 195 0
169 191 0
164 185 0
169 191 0
168 190 0
167 188 0
172 192 0
167 188 0
169 191 0
168 190 0
168 189 0
164 184 0
168 189 0
160 182 0
162 183 0
162 183 0
160 181 0
163 184 0
166 187 0
166 187 0
165 186 0
159 181 0
165 186 0
165 187 0
162 184 0
160 181 0
163 185 0
161 182 0
166 187 0
156 178 0
163 185 0
158 180 0
153 175 0
165 187 0
157 179 0
161 182 0
153 174 0
157 178 0
160 181 0
163 186 0
158 180 0
155 177 0
152 174 0
160 182 0
153 175 0
160 182 0
147 168 0
158 179 0
153 176 0
157 179 0
154 176 0
147 169 0
151 173 0
155 176 0
159 180 0
148 170 0
146 168 0
150 172 0
146 167 0
155 176 0
150 172 0
152 173 0
159 179 0
156 177 0
154 176 0
154 176 0
147 169 0
150 172 0
145 167 0
150 173 0
150 171 0
143 164 0
144 167 0
153 176 0
145 168 0
157 179 0
145 167 0
143 165 0
149 170 0
146 169 0
145 168 0
152 173 0
137 159 0
143 165 0
150 171 0
137 159 0
147 168 0
143 165 0
147 168 0
158 179 0
147 169 0
146 168 0
142 163 0
127 148 0
144 165 0
131 153 0
144 165 0
137 158 0
143 164 0
146 166 0
136 158 0
128 147 0
134 155 0
144 165 0
137 157 0
134 154 0
132 152 0
135 156 0
135 156 0
137 157 0
140 161 0
133 153 0
136 155 0
128 148 0
130 151 0
133 153 0
133 153 0
133 152 0
123 143 0
128 146 0
129 149 0
131 152 0
119 139 0
123 142 0
120 139 0
127 148 0
130 149 0
135 156 0
121 141 0
123 142 0
136 154 0
126 146 0
120 139 0
122 140 0
121 140 0
126 145 0
136 156 0
120 140 0
130 147 0
124 143 0
129 149 0
136 153 0
118 137 0
123 143 0
129 147 0
122 140 0
115 133 0
123 141 0
118 135 0
128 146 0
119 138 0
124 141 0
126 143 0
121 140 0
113 130 0
125 143 0
123 140 0
125 145 0
126 144 0
122 140 0
125 144 0
120 137 0
124 143 0
128 145 0
136 155 0
126 143 0
129 148 0
121 139 0
137 156 0
121 137 0
112 130 0
123 138 0
135 152 0
135 151 0
128 146 0
129 147 0
139 155 0
128 146 0
124 141 0
128 145 0
129 146 0
130 147 0
141 159 0
129 144 0
132 149 0
127 145 0
129 146 0
135 151 0
120 135 0
138 155 0
135 151 0
137 151 0
138 155 0
135 151 0
122 137 0
139 155 0
127 143 0
132 147 0
140 156 0
134 151 0
136 152 0
139 156 0
129 143 0
127 143 0
134 149 0
135 148 0
125 139 0
127 142 0
129 144 0
133 145 0
123 136 0
137 150 0
135 148 0
132 146 0
133 146 0
132 147 0
137 148 0
131 143 0
135 148 0
128 141 0
129 141 0
121 132 0
133 145 0
131 143 0
121 128 0
128 136 0
141 152 0
135 145 0
137 146 0
123 133 0
142 151 0
136 146 0
132 142 0
123 130 0
132 137 0
132 140 0
131 137 0
129 136 0
123 131 0
117 124 0
122 128 0
130 134 0
123 131 0
136 145 0
129 135 0
129 134 0
128 135 0
121 126 0
125 130 0
119 121 0
121 125 0
121 124 0
122 125 0
127 131 0
122 123 0
125 129 0
131 133 0
119 120 0
126 128 0
116 115 0
127 127 0
120 121 0
118 117 0
124 126 0
125 126 0
123 125 0
122 120 0
119 117 0
122 119 0
124 123 0
118 116 0
123 121 0
119 118 0
124 121 0
120 119 0
130 127 0
126 124 0
117 113 0
134 134 0
131 132 0
127 129 0
133 131 0
113 110 0
137 139 0
137 137 0
136 141 0
130 132 0
138 140 0
132 133 0
135 138 0
139 140 0
128 130 0
130 133 0
137 137 0
146 148 0
138 141 0
142 146 0
135 135 0
136 140 0
134 138 0
144 149 0
142 147 0
139 144 0
141 145 0
147 154 0
147 153 0
150 155 0
154 163 0
141 148 0
147 153 0
153 161 0
145 152 0
155 163 0
146 155 0
154 160 0
158 169 0
153 164 0
153 165 0
150 159 0
157 169 0
146 155 0
159 170 0
154 165 0
154 163 0
160 173 0
164 177 0
158 170 0
160 171 0
164 177 0
159 173 0
157 168 0
161 176 0
158 172 0
159 173 0
165 178 0
171 194 0
174 197 0
175 198 0
174 197 0
171 194 0
174 197 0
176 198 0
174 196 0
175 197 0
171 193 0
174 196 0
172 195 0
171 193 0
175 197 0
172 195 0
176 198 0
173 195 0
173 195 0
174 197 0
171 193 0
176 198 0
172 194 0
173 196 0
171 193 0
169 191 0
173 196 0
174 196 0
174 196 0
168 191 0
174 195 0
172 193 0
173 195 0
174 194 0
170 191 0
172 193 0
174 196 0
173 195 0
171 193 0
172 193 0
171 192 0
171 193 0
172 193 0
173 193 0
171 193 0
175 197 0
173 194 0
178 199 0
169 191 0
172 193 0
170 191 0
174 195 0
168 189 0
171 193 0
171 192 0
169 190 0
169 190 0
167 188 0
168 190 0
172 192 0
173 195 0
167 188 0
169 190 0
171 191 0
171 191 0
173 194 0
165 187 0
169 190 0
169 189 0
170 191 0
174 195 0
168 189 0
163 185 0
167 189 0
165 188 0
168 189 0
163 186 0
167 188 0
167 188 0
170 190 0
162 183 0
163 183 0
164 186 0
163 185 0
161 183 0
160 181 0
164 186 0
161 182 0
165 186 0
159 181 0
163 184 0
161 182 0
163 185 0
163 185 0
155 177 0
162 183 0
157 179 0
162 183 0
156 178 0
165 185 0
165 186 0
159 182 0
159 180 0
156 177 0
163 185 0
163 185 0
156 178 0
156 178 0
159 182 0
158 181 0
154 176 0
158 180 0
155 176 0
157 178 0
161 182 0
159 180 0
153 176 0
158 180 0
156 177 0
158 180 0
159 181 0
157 179 0
149 171 0
154 176 0
152 173 0
157 179 0
149 170 0
153 175 0
154 175 0
156 178 0
154 175 0
158 180 0
156 177 0
149 172 0
144 166 0
150 172 0
145 168 0
144 165 0
156 179 0
158 180 0
142 164 0
153 175 0
148 169 0
150 172 0
147 168 0
148 170 0
143 165 0
153 175 0
147 168 0
147 169 0
142 164 0
143 164 0
152 174 0
137 158 0
138 160 0
144 166 0
137 159 0
144 166 0
143 164 0
139 161 0
137 158 0
143 164 0
141 162 0
136 156 0
138 160 0
132 152 0
139 159 0
137 158 0
138 158 0
135 157 0
135 156 0
132 153 0
136 157 0
136 156 0
129 150 0
137 158 0
136 157 0
123 143 0
131 151 0
140 161 0
124 144 0
142 161 0
137 157 0
132 153 0
122 141 0
136 156 0
128 148 0
136 157 0
123 142 0
144 165 0
138 159 0
125 145 0
128 148 0
123 142 0
129 149 0
133 152 0
128 148 0
126 145 0
133 152 0
130 149 0
124 143 0
130 150 0
127 145 0
133 152 0
125 143 0
124 142 0
125 144 0
140 159 0
126 144 0
133 151 0
138 158 0
125 143 0
135 153 0
135 155 0
134 152 0
124 141 0
127 145 0
119 136 0
126 144 0
117 135 0
128 145 0
121 139 0
126 145 0
131 150 0
124 141 0
132 151 0
132 153 0
129 146 0
125 144 0
126 144 0
130 146 0
123 140 0
118 135 0
122 141 0
139 158 0
135 154 0
124 142 0
139 157 0
124 142 0
132 150 0
130 145 0
124 141 0
133 150 0
131 150 0
137 155 0
132 151 0
134 150 0
129 146 0
124 139 0
124 140 0
132 150 0
141 159 0
137 155 0
127 141 0
118 133 0
139 156 0
139 155 0
130 147 0
127 141 0
128 145 0
130 147 0
137 153 0
133 147 0
128 144 0
135 151 0
135 152 0
134 149 0
130 145 0
142 159 0
131 144 0
129 144 0
140 156 0
129 143 0
136 150 0
134 147 0
125 139 0
130 144 0
138 154 0
141 157 0
132 146 0
119 130 0
131 145 0
131 142 0
132 148 0
130 140 0
135 148 0
128 139 0
127 141 0
133 145 0
128 140 0
130 141 0
136 147 0
126 139 0
133 143 0
130 139 0
119 128 0
130 141 0
134 145 0
122 131 0
136 145 0
121 131 0
135 144 0
130 137 0
128 134 0
128 137 0
124 131 0
128 134 0
126 133 0
138 148 0
128 134 0
120 125 0
139 144 0
133 140 0
131 139 0
121 127 0
131 137 0
136 142 0
126 132 0
123 125 0
130 137 0
131 134 0
127 132 0
130 131 0
120 125 0
120 119 0
127 128 0
118 119 0
119 119 0
130 130 0
127 129 0
124 123 0
121 123 0
131 130 0
132 131 0
132 136 0
125 126 0
132 132 0
122 124 0
130 132 0
133 137 0
117 117 0
125 126 0
130 132 0
131 130 0
132 133 0
117 116 0
131 133 0
127 127 0
132 131 0
130 128 0
139 141 0
131 131 0
133 136 0
130 132 0
138 142 0
132 133 0
134 136 0
130 130 0
142 142 0
131 133 0
144 148 0
142 146 0
147 149 0
140 142 0
134 138 0
148 155 0
143 146 0
138 142 0
144 148 0
139 144 0
149 155 0
138 145 0
141 147 0
150 157 0
145 149 0
154 160 0
147 153 0
154 162 0
152 157 0
147 151 0
151 158 0
145 150 0
153 161 0
149 157 0
153 163 0
160 171 0
154 162 0
156 167 0
154 163 0
159 168 0
160 173 0
158 171 0
159 172 0
157 169 0
154 165 0
161 173 0
160 173 0
153 164 0
153 166 0
165 179 0
161 175 0
175 197 0
171 194 0
172 195 0
175 197 0
175 197 0
172 195 0
175 197 0
174 196 0
169 192 0
172 195 0
173 195 0
173 195 0
172 195 0
172 195 0
175 197 0
173 195 0
173 195 0
173 194 0
166 188 0
173 195 0
171 193 0
173 195 0
175 197 0
175 197 0
172 194 0
175 196 0
175 197 0
170 192 0
173 195 0
174 196 0
171 192 0
171 193 0
172 193 0
171 193 0
171 193 0
170 192 0
175 196 0
170 192 0
170 192 0
167 187 0
170 192 0
172 193 0
170 191 0
170 193 0
168 190 0
175 196 0
169 190 0
168 189 0
169 190 0
169 190 0
171 192 0
173 195 0
171 193 0
172 193 0
166 188 0
169 190 0
165 187 0
169 190 0
170 190 0
170 192 0
168 190 0
168 189 0
172 193 0
166 187 0
169 190 0
170 191 0
171 192 0
167 189 0
167 189 0
167 189 0
172 192 0
164 185 0
165 187 0
168 189 0
168 190 0
170 191 0
163 185 0
166 188 0
167 188 0
161 182 0
161 183 0
167 189 0
164 186 0
163 184 0
161 182 0
158 180 0
164 186 0
164 185 0
163 184 0
159 180 0
167 189 0
158 181 0
160 182 0
156 178 0
165 186 0
160 181 0
154 176 0
159 181 0
161 183 0
160 181 0
161 183 0
165 187 0
161 183 0
150 171 0
164 186 0
161 183 0
159 181 0
154 176 0
153 175 0
159 181 0
157 179 0
158 181 0
161 183 0
157 178 0
151 173 0
163 185 0
151 173 0
163 185 0
149 171 0
149 171 0
159 182 0
155 177 0
148 170 0
158 179 0
152 173 0
152 173 0
152 174 0
152 175 0
156 178 0
150 173 0
148 171 0
144 165 0
151 174 0
153 176 0
151 172 0
152 172 0
153 175 0
148 170 0
147 170 0
150 172 0
151 173 0
144 166 0
139 160 0
147 170 0
143 165 0
145 167 0
152 175 0
147 169 0
150 173 0
148 170 0
144 166 0
144 166 0
145 167 0
145 167 0
150 171 0
129 150 0
150 173 0
134 155 0
136 157 0
138 160 0
147 169 0
130 152 0
145 167 0
136 158 0
146 168 0
142 163 0
135 156 0
139 159 0
137 158 0
137 157 0
138 159 0
140 161 0
132 154 0
134 155 0
135 155 0
138 159 0
136 157 0
133 154 0
139 160 0
125 144 0
132 153 0
129 150 0
130 149 0
127 146 0
133 154 0
134 153 0
125 146 0
134 154 0
142 162 0
124 145 0
124 144 0
133 152 0
135 155 0
130 149 0
124 142 0
126 145 0
126 146 0
132 151 0
122 141 0
137 157 0
122 140 0
128 147 0
126 145 0
133 153 0
131 151 0
135 154 0
122 139 0
130 150 0
124 142 0
131 150 0
131 148 0
122 140 0
131 151 0
131 150 0
124 143 0
125 144 0
125 143 0
125 144 0
109 127 0
125 144 0
123 141 0
132 151 0
129 148 0
129 147 0
124 142 0
122 138 0
126 145 0
121 137 0
125 143 0
135 154 0
128 147 0
118 136 0
126 146 0
136 154 0
125 143 0
136 154 0
135 153 0
132 148 0
120 137 0
128 146 0
134 153 0
136 153 0
136 152 0
130 146 0
132 151 0
129 143 0
129 146 0
132 148 0
130 148 0
137 154 0
132 150 0
127 145 0
139 157 0
139 155 0
136 154 0
142 159 0
122 138 0
133 149 0
134 150 0
138 155 0
128 145 0
141 157 0
129 146 0
135 151 0
131 145 0
139 155 0
131 148 0
134 152 0
138 154 0
140 155 0
140 156 0
133 149 0
121 135 0
131 146 0
135 150 0
135 150 0
141 156 0
132 147 0
133 146 0
130 144 0
142 156 0
124 137 0
140 154 0
137 150 0
133 147 0
134 149 0
137 150 0
132 147 0
138 152 0
132 142 0
133 148 0
131 141 0
136 146 0
130 139 0
128 136 0
138 148 0
135 147 0
124 134 0
136 145 0
134 143 0
129 139 0
133 144 0
128 134 0
136 144 0
135 145 0
124 133 0
134 143 0
131 139 0
122 129 0
127 132 0
130 134 0
127 131 0
126 130 0
121 126 0
129 133 0
127 135 0
135 139 0
129 133 0
123 129 0
140 145 0
126 130 0
136 140 0
132 135 0
137 140 0
127 131 0
134 138 0
138 142 0
126 130 0
129 131 0
130 131 0
132 132 0
110 110 0
120 120 0
128 131 0
124 126 0
127 127 0
123 124 0
124 126 0
130 131 0
127 129 0
136 140 0
139 141 0
131 132 0
118 115 0
131 132 0
129 129 0
130 129 0
121 117 0
134 138 0
136 137 0
128 129 0
131 136 0
130 134 0
132 134 0
137 137 0
137 138 0
141 144 0
136 138 0
139 140 0
136 138 0
135 139 0
143 147 0
135 139 0
138 143 0
143 148 0
135 136 0
145 150 0
151 156 0
140 146 0
142 143 0
146 150 0
145 147 0
144 150 0
150 158 0
149 156 0
148 156 0
153 162 0
160 168 0
143 149 0
149 161 0
155 165 0
154 162 0
156 168 0
151 160 0
157 168 0
161 172 0
156 168 0
147 154 0
155 167 0
156 170 0
152 161 0
159 170 0
158 171 0
162 177 0
153 166 0
158 170 0
164 180 0
162 177 0
163 175 0
161 176 0
173 196 0
175 198 0
173 195 0
175 197 0
175 197 0
174 197 0
172 195 0
174 197 0
174 197 0
173 196 0
173 196 0
173 195 0
172 194 0
172 194 0
173 195 0
171 193 0
172 195 0
173 195 0
173 195 0
175 197 0
173 194 0
171 193 0
172 194 0
174 195 0
174 196 0
175 197 0
170 192 0
172 194 0
173 194 0
176 197 0
169 191 0
170 192 0
176 197 0
175 197 0
175 196 0
171 193 0
173 194 0
173 194 0
171 192 0
171 192 0
170 192 0
172 193 0
172 193 0
169 190 0
171 192 0
173 195 0
172 194 0
172 192 0
172 192 0
173 194 0
172 193 0
173 194 0
169 190 0
167 189 0
170 191 0
172 193 0
171 193 0
169 190 0
166 187 0
167 189 0
159 181 0
167 188 0
172 193 0
162 183 0
164 185 0
172 193 0
164 186 0
172 194 0
170 191 0
165 186 0
161 182 0
171 193 0
166 188 0
163 185 0
165 186 0
170 192 0
169 191 0
158 180 0
170 192 0
164 186 0
166 188 0
167 189 0
163 184 0
162 184 0
152 175 0
164 185 0
158 180 0
158 178 0
161 183 0
165 186 0
162 184 0
161 183 0
159 180 0
157 179 0
154 176 0
157 178 0
162 184 0
157 179 0
157 180 0
160 183 0
162 184 0
155 177 0
156 177 0
157 179 0
156 178 0
160 182 0
156 179 0
161 183 0
160 181 0
158 180 0
155 177 0
161 183 0
160 183 0
160 181 0
160 182 0
154 176 0
159 180 0
149 173 0
162 184 0
157 179 0
146 167 0
157 179 0
154 176 0
158 180 0
159 182 0
156 177 0
161 183 0
154 177 0
154 176 0
154 175 0
145 167 0
151 173 0
146 168 0
150 172 0
149 171 0
153 173 0
148 170 0
157 178 0
149 172 0
145 166 0
153 175 0
153 176 0
157 179 0
138 160 0
145 167 0
139 161 0
149 171 0
144 166 0
147 169 0
142 164 0
151 173 0
147 168 0
139 161 0
135 156 0
146 168 0
143 165 0
139 161 0
145 167 0
136 159 0
142 162 0
140 161 0
132 153 0
141 162 0
138 159 0
134 155 0
133 155 0
146 167 0
136 157 0
135 156 0
140 160 0
132 153 0
133 154 0
138 160 0
129 150 0
135 155 0
143 164 0
138 159 0
130 151 0
134 155 0
128 149 0
127 147 0
136 156 0
136 156 0
139 160 0
124 144 0
136 156 0
136 156 0
130 150 0
139 160 0
133 153 0
135 155 0
138 158 0
132 151 0
128 148 0
132 152 0
145 166 0
129 150 0
132 151 0
125 145 0
130 150 0
134 154 0
121 139 0
135 155 0
123 142 0
133 152 0
130 149 0
128 146 0
130 149 0
128 147 0
127 145 0
126 145 0
129 149 0
127 145 0
139 160 0
134 153 0
121 140 0
131 150 0
129 148 0
132 152 0
129 149 0
133 151 0
127 147 0
126 145 0
129 148 0
133 151 0
128 148 0
126 144 0
129 148 0
137 155 0
129 147 0
131 148 0
131 150 0
118 135 0
128 147 0
125 143 0
136 156 0
132 151 0
125 142 0
136 155 0
136 154 0
139 157 0
138 157 0
135 155 0
136 152 0
124 141 0
137 155 0
135 153 0
138 156 0
133 151 0
132 150 0
140 158 0
127 146 0
139 154 0
131 148 0
129 147 0
136 154 0
137 154 0
130 145 0
138 152 0
140 159 0
146 163 0
137 152 0
140 158 0
132 147 0
132 146 0
139 155 0
136 152 0
132 147 0
135 151 0
123 137 0
134 148 0
137 153 0
132 148 0
143 161 0
125 137 0
123 138 0
134 149 0
129 142 0
148 163 0
132 146 0
138 153 0
140 152 0
140 152 0
133 144 0
137 151 0
140 155 0
140 154 0
133 148 0
130 142 0
137 152 0
132 145 0
132 145 0
136 148 0
123 136 0
130 140 0
139 149 0
128 140 0
130 136 0
129 141 0
136 145 0
140 149 0
137 146 0
133 142 0
133 142 0
124 133 0
136 145 0
121 129 0
132 139 0
140 149 0
125 132 0
138 147 0
127 135 0
123 130 0
137 144 0
138 141 0
119 122 0
130 133 0
133 136 0
130 135 0
129 135 0
136 141 0
127 127 0
129 132 0
137 141 0
120 123 0
129 132 0
125 127 0
127 131 0
130 134 0
132 137 0
133 136 0
133 138 0
126 128 0
128 129 0
128 130 0
128 129 0
132 132 0
120 124 0
134 139 0
129 130 0
119 122 0
136 137 0
137 139 0
127 127 0
130 132 0
126 124 0
129 127 0
132 132 0
141 143 0
129 131 0
132 132 0
131 134 0
131 132 0
134 134 0
139 139 0
131 131 0
136 140 0
141 144 0
141 147 0
139 139 0
134 134 0
131 130 0
134 136 0
138 141 0
140 145 0
150 156 0
140 143 0
147 150 0
145 150 0
143 144 0
138 142 0
147 153 0
145 153 0
148 155 0
152 159 0
147 152 0
149 155 0
150 157 0
150 159 0
144 152 0
152 158 0
153 163 0
160 169 0
156 167 0
157 168 0
151 159 0
151 160 0
159 170 0
155 162 0
154 163 0
154 164 0
160 171 0
158 170 0
162 174 0
161 171 0
155 167 0
159 172 0
158 170 0
161 172 0
159 171 0
173 196 0
175 197 0
174 197 0
173 196 0
174 196 0
176 197 0
174 197 0
172 195 0
174 196 0
176 198 0
174 196 0
171 193 0
172 194 0
174 196 0
171 193 0
170 192 0
171 193 0
176 198 0
169 191 0
172 194 0
175 196 0
176 198 0
174 196 0
171 193 0
173 194 0
170 192 0
173 194 0
174 196 0
171 192 0
172 194 0
171 192 0
172 194 0
174 196 0
174 195 0
172 193 0
175 196 0
176 197 0
171 192 0
171 193 0
169 190 0
174 195 0
170 191 0
169 190 0
172 194 0
167 189 0
170 192 0
170 193 0
168 189 0
173 194 0
172 193 0
171 193 0
171 192 0
173 194 0
169 191 0
171 191 0
171 192 0
170 192 0
166 188 0
171 191 0
166 188 0
166 188 0
169 190 0
166 187 0
172 193 0
164 185 0
160 182 0
165 186 0
163 185 0
172 194 0
164 186 0
168 190 0
159 180 0
167 189 0
168 188 0
164 185 0
161 183 0
165 186 0
163 185 0
167 189 0
164 185 0
166 187 0
166 186 0
166 188 0
156 178 0
160 182 0
158 180 0
169 190 0
167 189 0
157 178 0
163 184 0
164 186 0
160 183 0
163 185 0
162 184 0
158 181 0
159 180 0
158 180 0
154 177 0
163 185 0
158 180 0
162 184 0
154 176 0
155 176 0
160 182 0
155 177 0
156 178 0
157 178 0
151 174 0
160 182 0
159 181 0
161 183 0
160 182 0
157 179 0
153 175 0
152 175 0
157 180 0
149 172 0
158 180 0
155 178 0
151 174 0
149 172 0
150 171 0
147 170 0
150 172 0
159 181 0
157 179 0
146 168 0
157 179 0
143 164 0
154 177 0
155 177 0
148 170 0
149 172 0
154 176 0
157 179 0
154 176 0
149 171 0
152 174 0
146 169 0
156 178 0
156 179 0
150 173 0
152 172 0
154 177 0
148 171 0
149 171 0
151 173 0
150 173 0
155 177 0
143 164 0
152 174 0
135 157 0
149 171 0
153 174 0
140 161 0
147 168 0
143 164 0
136 157 0
146 168 0
141 162 0
141 163 0
141 162 0
143 164 0
139 160 0
143 165 0
135 155 0
139 161 0
138 160 0
139 160 0
138 159 0
130 151 0
146 167 0
136 158 0
135 156 0
129 149 0
132 153 0
138 160 0
132 152 0
135 156 0
134 155 0
140 161 0
142 163 0
132 152 0
137 158 0
137 155 0
136 158 0
128 149 0
128 148 0
136 155 0
144 164 0
139 160 0
130 151 0
140 161 0
128 149 0
127 145 0
138 158 0
122 143 0
140 160 0
126 147 0
130 150 0
132 151 0
134 153 0
138 158 0
127 148 0
122 140 0
122 139 0
123 143 0
141 161 0
129 149 0
134 153 0
135 154 0
128 147 0
133 153 0
136 155 0
135 155 0
131 149 0
132 151 0
135 155 0
118 136 0
135 154 0
128 147 0
131 150 0
130 148 0
131 151 0
138 156 0
139 159 0
137 156 0
120 136 0
137 156 0
134 153 0
136 156 0
125 143 0
135 155 0
124 142 0
136 154 0
134 152 0
125 143 0
127 145 0
132 150 0
137 155 0
129 147 0
134 152 0
136 155 0
134 151 0
138 158 0
139 156 0
134 153 0
139 156 0
137 154 0
142 159 0
133 151 0
125 142 0
135 152 0
137 154 0
131 147 0
129 146 0
139 155 0
137 154 0
146 163 0
139 157 0
137 152 0
146 162 0
136 155 0
128 143 0
144 161 0
131 149 0
134 151 0
134 150 0
138 154 0
136 153 0
135 154 0
136 154 0
141 155 0
135 151 0
130 145 0
144 160 0
125 137 0
137 151 0
136 150 0
133 147 0
137 150 0
135 149 0
138 152 0
137 150 0
139 155 0
138 153 0
134 149 0
137 151 0
141 153 0
132 144 0
140 155 0
134 145 0
132 144 0
133 147 0
137 148 0
133 143 0
130 140 0
137 149 0
137 147 0
125 136 0
137 148 0
135 149 0
136 143 0
141 152 0
131 140 0
132 141 0
139 150 0
131 140 0
140 148 0
129 134 0
130 138 0
144 153 0
130 135 0
133 138 0
135 142 0
133 140 0
134 140 0
123 128 0
128 134 0
138 145 0
137 141 0
137 141 0
138 145 0
132 133 0
132 138 0
139 145 0
131 136 0
138 142 0
121 124 0
133 139 0
138 142 0
138 141 0
125 128 0
127 130 0
137 141 0
124 126 0
126 127 0
129 129 0
140 145 0
126 125 0
139 142 0
122 122 0
132 135 0
119 121 0
133 133 0
131 135 0
132 133 0
135 139 0
138 144 0
128 129 0
139 142 0
129 128 0
135 136 0
142 146 0
137 139 0
132 133 0
138 139 0
133 137 0
139 141 0
138 140 0
143 147 0
138 142 0
138 140 0
133 136 0
136 140 0
140 145 0
147 152 0
149 153 0
144 149 0
148 153 0
149 153 0
144 149 0
142 150 0
147 150 0
152 160 0
146 152 0
154 161 0
148 157 0
152 159 0
151 159 0
147 153 0
153 159 0
157 165 0
154 164 0
153 163 0
157 166 0
155 163 0
155 164 0
158 169 0
153 164 0
161 171 0
156 163 0
156 164 0
160 172 0
152 162 0
154 164 0
159 171 0
161 174 0
159 172 0
160 174 0
174 196 0
174 197 0
176 198 0
175 196 0
172 194 0
171 194 0
173 195 0
172 194 0
174 196 0
174 196 0
172 194 0
173 195 0
174 197 0
172 194 0
172 194 0
170 193 0
170 192 0
173 195 0
173 196 0
173 194 0
173 195 0
171 193 0
171 194 0
172 194 0
175 197 0
175 196 0
173 194 0
172 194 0
172 194 0
173 195 0
170 192 0
178 199 0
174 195 0
171 193 0
170 192 0
173 195 0
171 192 0
173 195 0
170 192 0
173 194 0
171 193 0
171 192 0
171 192 0
171 192 0
173 194 0
173 194 0
173 194 0
170 191 0
173 195 0
169 190 0
170 191 0
171 193 0
170 191 0
168 188 0
167 189 0
167 188 0
169 191 0
167 188 0
166 187 0
169 191 0
164 185 0
161 183 0
167 189 0
169 189 0
172 193 0
168 189 0
162 183 0
169 191 0
163 184 0
167 188 0
163 185 0
168 190 0
162 183 0
167 188 0
164 185 0
170 192 0
167 189 0
164 186 0
158 179 0
164 186 0
163 185 0
166 188 0
166 188 0
165 187 0
161 183 0
165 187 0
162 184 0
163 184 0
165 187 0
161 183 0
160 181 0
158 181 0
164 187 0
156 178 0
163 184 0
156 178 0
159 180 0
160 183 0
157 179 0
161 183 0
159 181 0
159 181 0
153 175 0
163 185 0
164 186 0
162 185 0
159 181 0
164 186 0
158 181 0
158 179 0
160 182 0
153 175 0
152 173 0
153 175 0
154 176 0
149 171 0
152 174 0
158 179 0
158 180 0
155 178 0
158 180 0
155 178 0
153 175 0
148 170 0
154 177 0
162 185 0
157 179 0
153 176 0
150 172 0
152 174 0
145 168 0
148 171 0
156 179 0
154 176 0
150 172 0
150 173 0
147 169 0
158 180 0
150 172 0
153 176 0
150 171 0
153 174 0
145 166 0
146 168 0
149 170 0
147 169 0
157 178 0
140 161 0
153 175 0
142 164 0
145 167 0
146 167 0
145 167 0
153 174 0
146 167 0
142 161 0
146 168 0
141 164 0
141 162 0
149 171 0
149 170 0
136 156 0
149 169 0
145 166 0
153 175 0
143 164 0
132 153 0
138 158 0
136 157 0
138 159 0
144 166 0
142 164 0
145 166 0
139 161 0
145 166 0
142 163 0
141 163 0
133 155 0
132 152 0
132 152 0
139 159 0
136 156 0
126 145 0
140 160 0
129 149 0
138 159 0
129 150 0
138 158 0
136 155 0
135 156 0
135 155 0
133 153 0
136 155 0
124 145 0
116 136 0
126 145 0
131 152 0
137 157 0
139 160 0
128 146 0
128 148 0
136 156 0
140 160 0
125 143 0
132 151 0
128 146 0
135 153 0
130 148 0
129 148 0
125 145 0
133 153 0
140 159 0
129 147 0
132 151 0
135 154 0
121 140 0
133 152 0
131 150 0
128 148 0
138 159 0
131 150 0
139 159 0
132 150 0
128 147 0
129 147 0
131 150 0
129 148 0
121 139 0
125 143 0
128 146 0
142 162 0
129 148 0
136 155 0
126 143 0
139 157 0
128 146 0
137 155 0
134 155 0
132 151 0
122 140 0
132 150 0
131 149 0
130 148 0
141 158 0
126 144 0
129 144 0
135 150 0
127 146 0
131 149 0
136 154 0
134 151 0
137 154 0
141 161 0
134 152 0
138 153 0
137 153 0
135 151 0
136 154 0
136 151 0
138 156 0
143 160 0
140 156 0
131 148 0
143 160 0
137 155 0
139 158 0
141 156 0
137 153 0
131 147 0
141 158 0
137 154 0
130 146 0
133 148 0
138 153 0
133 146 0
130 146 0
139 155 0
141 157 0
140 156 0
124 135 0
144 159 0
143 159 0
136 151 0
121 136 0
143 157 0
137 153 0
134 147 0
139 150 0
135 149 0
136 150 0
137 152 0
129 141 0
129 141 0
130 142 0
139 149 0
126 136 0
137 149 0
133 144 0
135 149 0
136 148 0
129 139 0
137 147 0
137 146 0
134 143 0
130 138 0
139 148 0
135 145 0
139 148 0
139 150 0
124 130 0
141 150 0
133 144 0
126 134 0
141 152 0
132 135 0
140 148 0
136 144 0
134 142 0
129 134 0
141 152 0
142 151 0
132 136 0
127 133 0
134 138 0
134 139 0
139 145 0
135 142 0
136 141 0
130 133 0
128 131 0
135 139 0
134 135 0
127 129 0
143 146 0
123 127 0
133 138 0
131 134 0
138 143 0
135 137 0
135 137 0
131 132 0
130 133 0
138 137 0
130 133 0
138 138 0
132 134 0
137 142 0
131 135 0
137 137 0
138 142 0
137 141 0
129 128 0
135 139 0
140 146 0
143 147 0
128 127 0
140 144 0
134 134 0
143 145 0
133 133 0
138 139 0
137 137 0
144 146 0
144 146 0
137 140 0
140 143 0
144 148 0
139 142 0
139 141 0
138 141 0
140 143 0
144 149 0
141 146 0
144 148 0
153 160 0
145 151 0
149 153 0
146 151 0
148 154 0
148 156 0
154 162 0
149 154 0
150 156 0
155 164 0
153 160 0
151 160 0
157 167 0
155 167 0
155 167 0
149 155 0
153 163 0
158 167 0
163 176 0
159 172 0
157 170 0
153 160 0
160 171 0
157 171 0
156 167 0
157 168 0
175 198 0
172 194 0
170 192 0
175 197 0
174 196 0
174 195 0
172 195 0
173 195 0
173 195 0
174 196 0
171 193 0
169 192 0
168 191 0
171 193 0
174 196 0
174 196 0
172 194 0
172 195 0
174 195 0
172 194 0
173 195 0
173 195 0
174 196 0
173 194 0
173 195 0
174 195 0
171 193 0
169 191 0
173 195 0
174 195 0
170 192 0
170 191 0
171 192 0
167 188 0
172 194 0
168 189 0
171 192 0
172 193 0
174 195 0
176 197 0
167 189 0
172 194 0
172 193 0
173 195 0
173 194 0
172 193 0
174 194 0
174 195 0
167 189 0
168 189 0
171 192 0
169 190 0
161 183 0
171 193 0
169 190 0
171 192 0
164 185 0
166 187 0
169 191 0
165 187 0
163 185 0
168 190 0
170 192 0
165 187 0
171 192 0
166 188 0
163 184 0
166 189 0
163 186 0
168 190 0
165 187 0
169 191 0
166 188 0
160 182 0
164 185 0
162 183 0
168 190 0
164 187 0
159 181 0
165 187 0
163 185 0
163 185 0
163 184 0
164 186 0
159 182 0
158 180 0
163 185 0
161 182 0
163 185 0
159 181 0
161 182 0
161 183 0
162 184 0
165 186 0
165 187 0
157 179 0
161 183 0
157 179 0
158 179 0
166 189 0
165 187 0
152 173 0
165 187 0
151 173 0
157 179 0
157 179 0
158 179 0
162 184 0
157 179 0
151 172 0
159 182 0
155 178 0
156 178 0
152 175 0
161 183 0
157 179 0
156 177 0
157 179 0
157 180 0
158 181 0
150 174 0
152 175 0
159 181 0
157 179 0
152 173 0
157 180 0
149 172 0
156 179 0
155 176 0
149 172 0
145 167 0
149 170 0
155 177 0
155 177 0
148 170 0
150 173 0
154 175 0
145 168 0
160 183 0
153 175 0
158 182 0
157 180 0
148 170 0
158 179 0
144 165 0
153 175 0
152 174 0
143 166 0
143 166 0
142 163 0
153 174 0
143 165 0
136 157 0
140 161 0
145 167 0
151 172 0
137 159 0
144 166 0
152 175 0
148 170 0
145 166 0
144 165 0
143 164 0
143 165 0
144 165 0
140 162 0
132 154 0
141 162 0
137 159 0
149 170 0
146 168 0
139 161 0
144 165 0
140 162 0
141 163 0
151 173 0
144 165 0
145 166 0
142 164 0
138 161 0
132 152 0
133 154 0
135 156 0
147 168 0
138 160 0
137 158 0
137 156 0
132 154 0
145 165 0
124 144 0
128 149 0
143 164 0
145 165 0
130 149 0
138 158 0
133 154 0
132 152 0
137 156 0
145 166 0
145 164 0
137 158 0
139 160 0
121 141 0
132 151 0
133 152 0
133 154 0
129 149 0
129 149 0
140 161 0
138 157 0
141 161 0
133 151 0
130 149 0
138 158 0
138 159 0
133 152 0
132 151 0
124 143 0
127 144 0
136 155 0
138 157 0
137 157 0
131 152 0
129 149 0
139 156 0
136 155 0
134 154 0
134 154 0
132 152 0
128 147 0
131 151 0
131 149 0
138 156 0
139 159 0
144 163 0
126 145 0
132 150 0
130 148 0
135 154 0
130 149 0
129 148 0
135 153 0
141 160 0
140 157 0
135 155 0
138 154 0
133 152 0
135 154 0
137 155 0
130 150 0
136 153 0
134 151 0
137 155 0
135 154 0
140 157 0
132 149 0
146 165 0
129 148 0
130 148 0
134 148 0
146 163 0
125 142 0
138 155 0
138 153 0
139 156 0
136 154 0
143 159 0
138 154 0
128 146 0
151 169 0
134 148 0
139 155 0
146 163 0
135 151 0
139 152 0
134 149 0
134 150 0
137 149 0
137 152 0
137 149 0
143 160 0
135 149 0
136 151 0
142 158 0
140 155 0
139 153 0
136 148 0
136 149 0
130 143 0
133 149 0
142 155 0
140 152 0
137 149 0
137 153 0
136 150 0
140 152 0
135 147 0
131 143 0
143 155 0
134 144 0
138 152 0
142 155 0
136 149 0
140 148 0
131 140 0
133 146 0
144 155 0
143 155 0
144 155 0
136 144 0
137 148 0
129 138 0
140 150 0
140 149 0
148 161 0
131 136 0
137 146 0
137 144 0
135 141 0
140 150 0
139 146 0
130 138 0
137 143 0
130 134 0
140 147 0
130 137 0
138 144 0
141 147 0
133 139 0
131 135 0
135 139 0
138 143 0
137 143 0
133 137 0
141 146 0
137 139 0
136 139 0
134 141 0
126 129 0
139 141 0
140 146 0
134 135 0
134 138 0
141 144 0
133 138 0
129 132 0
135 139 0
138 142 0
136 140 0
137 140 0
138 143 0
128 130 0
143 148 0
137 139 0
141 144 0
137 140 0
151 155 0
140 143 0
137 141 0
142 144 0
146 152 0
138 143 0
146 152 0
145 150 0
146 151 0
133 137 0
144 151 0
141 147 0
146 152 0
152 157 0
148 153 0
138 146 0
147 150 0
148 156 0
148 154 0
148 157 0
149 154 0
146 152 0
148 156 0
146 152 0
149 156 0
145 151 0
153 163 0
149 157 0
158 168 0
152 159 0
154 164 0
155 164 0
155 166 0
158 169 0
152 162 0
151 159 0
158 171 0
159 169 0
159 171 0
157 167 0
157 169 0
155 168 0
156 167 0
156 169 0
172 194 0
171 194 0
173 195 0
176 197 0
171 194 0
171 193 0
174 196 0
174 196 0
170 193 0
174 196 0
172 195 0
170 193 0
174 196 0
174 196 0
171 192 0
175 197 0
173 196 0
172 195 0
172 194 0
173 195 0
172 193 0
171 193 0
173 194 0
168 190 0
172 192 0
172 193 0
171 193 0
173 195 0
174 195 0
175 196 0
171 192 0
174 195 0
169 190 0
173 195 0
172 194 0
172 193 0
176 197 0
172 193 0
171 193 0
171 193 0
171 192 0
173 194 0
166 187 0
172 194 0
171 192 0
170 192 0
171 193 0
168 191 0
168 190 0
169 192 0
170 192 0
168 189 0
170 190 0
166 187 0
171 193 0
167 190 0
166 189 0
170 191 0
171 193 0
167 188 0
168 191 0
169 191 0
171 191 0
170 192 0
164 186 0
169 191 0
171 192 0
167 188 0
169 190 0
166 188 0
164 186 0
163 183 0
165 187 0
164 185 0
155 177 0
165 185 0
169 191 0
163 185 0
163 185 0
161 182 0
168 189 0
161 183 0
166 187 0
169 191 0
159 182 0
164 186 0
159 181 0
159 181 0
162 183 0
155 177 0
163 186 0
163 184 0
161 183 0
159 181 0
155 177 0
157 180 0
154 176 0
156 178 0
161 185 0
157 179 0
159 181 0
165 187 0
159 180 0
157 179 0
159 181 0
160 182 0
156 178 0
147 169 0
152 175 0
156 178 0
153 175 0
157 179 0
157 179 0
154 176 0
154 177 0
157 180 0
151 174 0
154 176 0
154 177 0
155 178 0
145 167 0
156 180 0
149 172 0
143 165 0
156 178 0
154 177 0
149 171 0
156 178 0
143 165 0
149 172 0
149 171 0
156 178 0
156 179 0
152 174 0
144 167 0
148 170 0
155 177 0
156 179 0
150 171 0
152 174 0
144 166 0
150 172 0
154 175 0
145 166 0
146 168 0
151 174 0
148 170 0
150 172 0
156 178 0
151 172 0
150 172 0
156 178 0
147 169 0
140 162 0
145 166 0
147 170 0
142 162 0
148 170 0
151 173 0
148 170 0
143 164 0
145 166 0
144 166 0
144 166 0
145 167 0
147 168 0
140 161 0
145 167 0
153 174 0
135 157 0
141 163 0
150 171 0
139 162 0
142 162 0
142 164 0
132 152 0
134 154 0
133 154 0
139 159 0
138 158 0
133 154 0
136 158 0
142 164 0
140 160 0
140 161 0
139 161 0
137 158 0
139 161 0
136 155 0
135 156 0
142 161 0
138 158 0
138 159 0
130 150 0
135 154 0
137 157 0
136 156 0
136 155 0
142 161 0
124 144 0
146 166 0
133 154 0
135 155 0
124 142 0
135 155 0
129 150 0
132 150 0
139 158 0
129 149 0
132 151 0
135 155 0
130 150 0
142 162 0
132 152 0
132 153 0
143 162 0
145 164 0
142 162 0
137 155 0
135 154 0
140 159 0
135 153 0
136 157 0
138 156 0
147 168 0
130 149 0
132 150 0
138 158 0
130 149 0
128 146 0
139 159 0
129 147 0
139 158 0
140 159 0
134 153 0
127 146 0
130 148 0
148 166 0
133 152 0
139 158 0
135 155 0
135 154 0
131 151 0
143 162 0
132 149 0
138 156 0
146 164 0
142 160 0
141 157 0
135 153 0
137 154 0
144 162 0
140 159 0
136 153 0
135 153 0
137 154 0
146 164 0
140 159 0
140 158 0
135 153 0
144 162 0
137 152 0
139 155 0
146 165 0
140 156 0
134 152 0
139 155 0
135 150 0
135 152 0
129 146 0
134 147 0
136 150 0
137 153 0
132 149 0
139 157 0
146 162 0
140 155 0
142 158 0
136 151 0
137 154 0
137 153 0
147 162 0
138 153 0
133 147 0
143 157 0
135 149 0
149 167 0
136 150 0
136 150 0
134 148 0
138 152 0
142 154 0
140 153 0
140 155 0
143 158 0
147 161 0
138 151 0
127 142 0
145 159 0
136 149 0
137 149 0
147 163 0
139 150 0
135 148 0
143 155 0
150 162 0
136 146 0
137 148 0
149 161 0
134 143 0
140 153 0
139 150 0
137 149 0
137 148 0
145 155 0
137 147 0
140 149 0
142 151 0
145 156 0
136 143 0
144 153 0
147 158 0
139 145 0
128 134 0
139 147 0
138 144 0
136 144 0
144 147 0
134 139 0
141 146 0
135 139 0
135 140 0
141 148 0
136 140 0
139 146 0
141 149 0
132 134 0
134 138 0
136 143 0
138 141 0
126 128 0
136 140 0
140 144 0
135 139 0
142 145 0
134 138 0
136 141 0
142 146 0
134 137 0
130 132 0
143 146 0
131 132 0
139 143 0
132 134 0
139 143 0
139 143 0
137 141 0
139 141 0
141 144 0
136 140 0
137 141 0
138 143 0
133 136 0
145 153 0
145 150 0
138 141 0
144 147 0
143 150 0
140 144 0
145 150 0
139 145 0
150 155 0
150 155 0
154 162 0
148 156 0
142 149 0
156 164 0
159 166 0
147 155 0
148 156 0
156 165 0
149 155 0
150 158 0
151 160 0
143 149 0
154 160 0
154 162 0
155 165 0
150 160 0
152 160 0
158 169 0
160 169 0
156 166 0
153 163 0
159 171 0
159 171 0
156 168 0
160 174 0
159 171 0
160 173 0
173 196 0
174 196 0
174 196 0
171 193 0
172 196 0
170 193 0
175 197 0
173 195 0
170 193 0
174 195 0
175 197 0
173 195 0
173 195 0
175 197 0
169 191 0
169 192 0
173 194 0
173 196 0
174 196 0
169 191 0
170 192 0
170 193 0
175 197 0
174 195 0
169 191 0
172 193 0
173 195 0
172 194 0
172 194 0
173 195 0
173 194 0
171 193 0
172 193 0
174 195 0
172 194 0
169 191 0
173 195 0
174 195 0
174 196 0
171 193 0
171 192 0
173 194 0
172 193 0
167 188 0
169 191 0
171 192 0
174 195 0
169 191 0
172 194 0
175 197 0
168 190 0
168 190 0
163 185 0
167 188 0
170 191 0
171 194 0
169 190 0
170 191 0
168 190 0
168 191 0
163 184 0
162 183 0
166 189 0
167 189 0
166 188 0
169 191 0
170 191 0
165 188 0
163 186 0
166 187 0
166 188 0
168 189 0
162 183 0
162 184 0
166 187 0
165 188 0
165 187 0
165 187 0
168 190 0
162 184 0
161 183 0
161 182 0
159 182 0
158 180 0
156 178 0
157 179 0
158 179 0
159 181 0
166 186 0
158 181 0
158 181 0
159 181 0
163 185 0
162 185 0
156 178 0
156 178 0
156 179 0
160 181 0
164 185 0
163 186 0
152 175 0
157 180 0
161 184 0
158 181 0
153 176 0
161 184 0
164 185 0
155 177 0
161 183 0
163 186 0
154 177 0
152 174 0
160 182 0
161 183 0
160 182 0
155 178 0
155 178 0
155 177 0
157 179 0
157 179 0
148 171 0
152 174 0
154 177 0
149 171 0
159 182 0
156 178 0
151 173 0
156 179 0
157 178 0
154 177 0
145 167 0
155 178 0
152 175 0
156 178 0
146 167 0
156 178 0
149 172 0
143 166 0
150 171 0
138 159 0
149 171 0
146 169 0
146 169 0
145 168 0
149 171 0
147 170 0
141 163 0
152 174 0
146 166 0
148 169 0
143 165 0
144 165 0
138 161 0
155 176 0
150 171 0
144 166 0
142 165 0
149 171 0
146 167 0
145 167 0
148 169 0
136 157 0
149 172 0
140 161 0
141 163 0
143 165 0
144 166 0
134 154 0
144 165 0
141 161 0
148 169 0
152 173 0
139 161 0
146 168 0
146 168 0
143 164 0
142 162 0
141 162 0
138 158 0
147 168 0
141 162 0
131 152 0
142 163 0
140 160 0
139 159 0
132 151 0
139 159 0
136 158 0
143 164 0
137 158 0
144 165 0
143 163 0
127 146 0
140 161 0
129 148 0
133 152 0
138 159 0
139 161 0
134 156 0
140 159 0
146 167 0
141 161 0
141 162 0
131 151 0
128 148 0
130 151 0
132 152 0
129 148 0
129 149 0
141 161 0
131 151 0
139 159 0
136 156 0
134 154 0
126 145 0
130 150 0
133 151 0
136 157 0
130 149 0
142 161 0
137 155 0
129 148 0
133 153 0
132 151 0
120 138 0
138 158 0
142 162 0
141 159 0
138 158 0
135 154 0
138 157 0
139 158 0
142 161 0
143 163 0
138 157 0
139 157 0
141 160 0
144 163 0
145 165 0
134 153 0
129 148 0
126 144 0
151 171 0
126 145 0
141 159 0
144 163 0
132 149 0
147 165 0
146 165 0
126 144 0
134 151 0
135 155 0
141 159 0
138 154 0
136 154 0
145 164 0
143 162 0
144 163 0
142 159 0
138 156 0
133 152 0
143 160 0
144 163 0
147 162 0
139 157 0
132 149 0
138 156 0
139 156 0
139 156 0
130 146 0
136 152 0
135 151 0
139 157 0
137 155 0
142 160 0
147 164 0
136 151 0
136 153 0
142 159 0
134 151 0
145 161 0
146 163 0
143 157 0
141 155 0
130 145 0
140 154 0
138 153 0
141 157 0
135 148 0
146 161 0
138 150 0
135 150 0
145 158 0
143 158 0
141 154 0
140 154 0
137 149 0
134 144 0
132 145 0
133 146 0
129 140 0
134 144 0
137 150 0
141 154 0
147 160 0
132 142 0
133 144 0
142 153 0
133 145 0
142 154 0
139 148 0
147 156 0
137 145 0
138 148 0
144 154 0
139 151 0
137 145 0
132 138 0
139 147 0
142 154 0
140 149 0
139 145 0
147 155 0
142 152 0
135 143 0
145 153 0
145 154 0
138 144 0
146 155 0
134 142 0
135 143 0
134 142 0
143 156 0
130 135 0
136 141 0
139 145 0
144 152 0
142 148 0
136 142 0
139 144 0
143 147 0
133 136 0
143 150 0
140 149 0
138 143 0
134 139 0
135 138 0
145 153 0
140 145 0
131 134 0
141 143 0
137 140 0
141 146 0
145 153 0
138 142 0
141 145 0
140 142 0
133 138 0
146 151 0
149 156 0
142 144 0
141 144 0
137 141 0
134 138 0
139 144 0
148 153 0
144 150 0
138 142 0
144 148 0
150 157 0
143 150 0
144 150 0
147 152 0
147 153 0
155 163 0
155 163 0
147 152 0
144 150 0
148 152 0
142 148 0
150 156 0
149 157 0
148 155 0
144 149 0
150 154 0
151 157 0
151 157 0
153 160 0
148 154 0
153 163 0
159 172 0
154 163 0
157 164 0
156 168 0
158 170 0
160 171 0
145 154 0
155 164 0
155 166 0
158 171 0
176 198 0
173 195 0
173 195 0
174 196 0
172 195 0
174 197 0
172 195 0
171 194 0
173 195 0
170 193 0
174 196 0
171 194 0
173 196 0
171 193 0
171 193 0
171 193 0
175 197 0
174 196 0
170 192 0
173 195 0
171 193 0
174 196 0
171 194 0
170 192 0
174 196 0
168 190 0
167 189 0
170 191 0
174 196 0
172 193 0
172 193 0
172 194 0
172 194 0
171 193 0
171 192 0
175 197 0
171 193 0
175 197 0
171 192 0
176 197 0
168 190 0
170 191 0
169 189 0
170 192 0
165 186 0
169 190 0
170 191 0
169 190 0
169 191 0
167 189 0
165 187 0
162 183 0
166 187 0
166 188 0
171 193 0
169 191 0
165 187 0
168 191 0
167 190 0
167 189 0
168 189 0
172 193 0
168 190 0
165 187 0
168 188 0
164 185 0
167 189 0
162 184 0
163 186 0
163 185 0
157 179 0
167 189 0
161 183 0
159 181 0
164 186 0
162 185 0
162 185 0
163 184 0
166 189 0
165 188 0
163 185 0
162 184 0
156 177 0
162 184 0
160 182 0
159 181 0
158 179 0
165 187 0
159 181 0
158 180 0
168 189 0
155 178 0
166 188 0
167 188 0
157 179 0
159 182 0
161 184 0
157 179 0
159 182 0
164 187 0
163 185 0
155 177 0
161 183 0
158 180 0
159 181 0
158 180 0
151 174 0
154 176 0
157 180 0
155 177 0
163 186 0
153 174 0
152 175 0
150 173 0
154 176 0
161 184 0
155 178 0
159 181 0
154 177 0
157 180 0
158 180 0
150 172 0
156 177 0
157 179 0
160 183 0
158 180 0
156 177 0
153 174 0
156 178 0
153 175 0
159 181 0
157 179 0
149 171 0
149 172 0
154 177 0
157 179 0
151 173 0
156 178 0
149 170 0
155 176 0
144 166 0
153 176 0
157 178 0
152 175 0
148 169 0
150 173 0
150 173 0
138 160 0
153 175 0
147 169 0
148 169 0
152 174 0
142 165 0
152 174 0
155 178 0
158 182 0
155 177 0
143 165 0
151 172 0
147 169 0
146 167 0
138 159 0
144 165 0
153 174 0
146 167 0
148 168 0
153 175 0
137 159 0
149 171 0
151 172 0
140 161 0
136 157 0
151 172 0
142 162 0
138 157 0
147 168 0
140 160 0
138 159 0
139 159 0
134 156 0
142 163 0
142 164 0
144 163 0
131 152 0
154 174 0
136 158 0
139 161 0
142 163 0
153 175 0
139 158 0
136 158 0
146 167 0
139 159 0
143 164 0
132 153 0
137 158 0
135 153 0
130 150 0
141 162 0
142 163 0
141 162 0
135 155 0
133 153 0
143 162 0
135 154 0
131 152 0
138 157 0
144 164 0
139 158 0
139 159 0
133 153 0
127 146 0
133 152 0
134 154 0
145 165 0
132 151 0
130 150 0
136 156 0
128 147 0
140 160 0
133 154 0
133 152 0
138 156 0
126 144 0
140 160 0
130 150 0
131 149 0
143 162 0
142 163 0
139 158 0
135 151 0
135 155 0
141 159 0
138 158 0
134 153 0
141 161 0
137 157 0
139 158 0
132 151 0
136 157 0
136 155 0
135 155 0
130 148 0
134 154 0
142 160 0
132 149 0
138 156 0
133 151 0
140 158 0
139 157 0
142 160 0
127 143 0
139 159 0
133 151 0
142 159 0
142 160 0
142 161 0
143 163 0
138 157 0
139 157 0
146 163 0
135 151 0
143 162 0
140 157 0
141 159 0
139 155 0
137 153 0
130 146 0
131 149 0
141 159 0
143 159 0
148 167 0
142 158 0
139 155 0
146 163 0
140 156 0
145 162 0
138 156 0
147 164 0
146 163 0
136 151 0
136 151 0
145 161 0
143 158 0
136 151 0
137 152 0
133 147 0
150 166 0
138 153 0
135 149 0
135 148 0
141 154 0
136 149 0
137 150 0
135 149 0
140 155 0
139 154 0
147 161 0
143 159 0
138 149 0
141 157 0
138 151 0
144 157 0
148 160 0
136 148 0
145 159 0
136 148 0
141 155 0
141 153 0
136 145 0
134 146 0
129 141 0
149 160 0
132 141 0
145 156 0
147 159 0
137 147 0
142 152 0
139 148 0
135 144 0
140 151 0
143 154 0
125 130 0
138 146 0
136 144 0
142 150 0
147 155 0
133 141 0
138 145 0
139 146 0
139 145 0
137 145 0
140 149 0
136 143 0
135 140 0
136 142 0
143 149 0
125 129 0
131 137 0
134 137 0
137 146 0
139 143 0
148 152 0
146 154 0
143 150 0
134 140 0
148 157 0
135 140 0
138 142 0
143 149 0
140 144 0
142 147 0
144 150 0
132 137 0
139 143 0
146 153 0
145 150 0
136 140 0
141 145 0
143 147 0
140 143 0
143 146 0
147 153 0
146 151 0
138 142 0
148 154 0
148 157 0
138 144 0
141 148 0
150 158 0
141 146 0
147 151 0
148 156 0
151 157 0
150 157 0
145 153 0
145 151 0
147 151 0
145 150 0
149 156 0
139 143 0
143 151 0
148 154 0
147 155 0
145 152 0
151 161 0
147 151 0
151 158 0
152 161 0
154 162 0
151 159 0
154 162 0
152 162 0
155 163 0
156 166 0
154 165 0
156 171 0
158 168 0
155 163 0
151 160 0
174 196 0
173 195 0
171 194 0
170 193 0
175 196 0
171 193 0
174 195 0
175 197 0
169 192 0
175 196 0
172 194 0
171 193 0
174 196 0
172 194 0
175 197 0
172 194 0
167 190 0
173 195 0
170 191 0
171 194 0
169 191 0
170 191 0
175 196 0
174 196 0
174 195 0
173 194 0
168 190 0
169 191 0
169 191 0
173 195 0
172 194 0
174 196 0
169 191 0
172 193 0
171 194 0
168 190 0
168 189 0
173 195 0
170 191 0
172 194 0
169 190 0
169 191 0
170 191 0
168 190 0
169 190 0
169 191 0
166 187 0
170 191 0
168 190 0
162 185 0
166 187 0
166 189 0
167 189 0
167 189 0
168 190 0
165 187 0
166 187 0
169 191 0
169 191 0
166 188 0
170 192 0
167 189 0
168 190 0
165 187 0
165 187 0
165 188 0
165 186 0
167 189 0
167 188 0
167 188 0
161 183 0
162 185 0
169 191 0
168 189 0
160 182 0
160 182 0
161 183 0
161 183 0
166 188 0
163 186 0
160 182 0
161 184 0
160 182 0
157 178 0
159 180 0
157 180 0
156 178 0
164 186 0
159 181 0
163 186 0
161 183 0
163 184 0
152 174 0
170 192 0
156 178 0
158 181 0
158 179 0
165 188 0
167 188 0
159 181 0
155 178 0
158 180 0
160 182 0
157 180 0
156 178 0
161 183 0
157 179 0
160 183 0
157 180 0
157 180 0
149 171 0
165 188 0
153 176 0
155 177 0
162 184 0
156 179 0
160 183 0
151 174 0
154 177 0
156 178 0
151 173 0
148 168 0
160 182 0
159 182 0
153 176 0
152 175 0
155 179 0
153 176 0
150 173 0
154 176 0
152 175 0
159 181 0
153 176 0
149 170 0
150 172 0
154 177 0
146 167 0
150 173 0
143 165 0
154 176 0
150 171 0
152 175 0
153 176 0
154 174 0
145 167 0
151 174 0
155 177 0
145 168 0
151 174 0
154 177 0
146 168 0
147 168 0
152 175 0
146 167 0
143 165 0
148 171 0
153 175 0
143 166 0
146 169 0
140 160 0
137 158 0
155 177 0
148 170 0
149 171 0
145 167 0
144 166 0
142 163 0
142 163 0
142 163 0
148 170 0
150 170 0
141 161 0
141 163 0
140 161 0
130 152 0
149 171 0
145 167 0
151 171 0
149 170 0
138 157 0
143 165 0
144 165 0
152 173 0
148 169 0
145 167 0
145 166 0
139 159 0
137 159 0
141 160 0
129 149 0
134 155 0
138 158 0
138 159 0
142 162 0
132 152 0
129 148 0
135 156 0
145 166 0
131 152 0
139 159 0
140 160 0
139 159 0
137 158 0
140 159 0
139 160 0
137 157 0
138 159 0
133 152 0
143 163 0
142 163 0
140 160 0
135 155 0
149 167 0
142 159 0
128 147 0
131 149 0
143 162 0
135 156 0
136 155 0
125 144 0
141 161 0
134 153 0
136 156 0
136 156 0
135 153 0
140 159 0
141 161 0
148 169 0
139 158 0
142 160 0
128 148 0
137 156 0
126 144 0
135 155 0
141 159 0
141 159 0
142 162 0
135 154 0
142 161 0
146 167 0
135 155 0
120 137 0
136 154 0
139 156 0
139 157 0
145 164 0
134 154 0
144 164 0
135 153 0
140 158 0
141 162 0
142 161 0
146 165 0
145 162 0
147 166 0
136 155 0
139 158 0
147 164 0
146 163 0
138 156 0
143 162 0
148 169 0
145 164 0
141 155 0
144 161 0
143 162 0
149 166 0
142 161 0
138 153 0
142 159 0
138 154 0
129 145 0
147 167 0
140 156 0
147 162 0
144 160 0
138 153 0
140 156 0
140 155 0
153 169 0
142 158 0
135 151 0
150 167 0
145 163 0
139 155 0
139 155 0
141 159 0
137 150 0
136 152 0
144 160 0
151 169 0
138 155 0
139 157 0
123 137 0
146 161 0
142 157 0
135 149 0
134 147 0
143 160 0
135 147 0
146 160 0
141 155 0
134 147 0
138 151 0
148 162 0
132 144 0
140 152 0
143 154 0
147 159 0
138 150 0
142 155 0
138 150 0
136 146 0
139 150 0
146 158 0
138 148 0
139 148 0
128 133 0
142 153 0
148 159 0
127 134 0
132 141 0
141 151 0
142 153 0
150 163 0
149 159 0
143 152 0
142 153 0
138 146 0
132 141 0
143 152 0
138 146 0
145 154 0
140 150 0
136 142 0
147 155 0
137 143 0
140 147 0
139 147 0
130 137 0
137 141 0
147 155 0
142 151 0
142 151 0
132 136 0
146 151 0
136 141 0
142 149 0
134 140 0
138 144 0
139 147 0
141 146 0
144 151 0
138 142 0
146 153 0
137 141 0
136 142 0
134 139 0
137 140 0
147 153 0
146 152 0
139 146 0
149 157 0
137 141 0
145 150 0
132 137 0
141 146 0
135 138 0
141 146 0
156 163 0
140 146 0
150 155 0
142 149 0
141 149 0
140 143 0
150 158 0
148 153 0
150 156 0
154 159 0
155 164 0
149 153 0
147 153 0
147 152 0
152 158 0
152 160 0
158 168 0
153 163 0
147 155 0
150 158 0
144 155 0
154 165 0
145 156 0
149 157 0
157 168 0
158 165 0
144 153 0
151 158 0
152 162 0
160 170 0
157 169 0
172 195 0
170 192 0
170 192 0
173 196 0
173 195 0
174 195 0
175 196 0
170 193 0
170 193 0
172 194 0
172 194 0
169 190 0
175 197 0
172 194 0
174 196 0
167 189 0
171 192 0
168 189 0
174 196 0
173 194 0
173 194 0
170 191 0
178 199 0
175 197 0
173 195 0
172 193 0
169 190 0
175 196 0
171 193 0
170 192 0
175 196 0
170 191 0
171 193 0
174 196 0
170 192 0
171 192 0
172 194 0
174 197 0
170 191 0
169 191 0
168 190 0
173 194 0
165 187 0
170 191 0
173 195 0
165 186 0
173 195 0
164 186 0
172 193 0
173 195 0
168 191 0
170 192 0
169 191 0
166 187 0
169 191 0
164 187 0
166 188 0
169 191 0
166 188 0
164 185 0
171 193 0
171 193 0
166 187 0
161 183 0
169 191 0
164 186 0
164 185 0
167 190 0
163 184 0
170 192 0
164 186 0
167 189 0
158 180 0
156 179 0
167 189 0
159 182 0
166 188 0
163 186 0
163 185 0
164 186 0
165 187 0
158 181 0
167 189 0
162 184 0
160 182 0
161 183 0
164 187 0
162 183 0
160 182 0
160 182 0
159 181 0
163 186 0
159 181 0
152 174 0
153 175 0
156 178 0
155 178 0
163 184 0
157 180 0
163 185 0
157 178 0
165 187 0
158 180 0
158 182 0
158 180 0
157 179 0
154 176 0
160 182 0
158 180 0
146 168 0
156 179 0
151 174 0
158 180 0
155 179 0
161 183 0
152 174 0
156 179 0
159 180 0
160 182 0
156 178 0
152 175 0
155 178 0
159 182 0
153 176 0
145 168 0
154 176 0
153 176 0
159 181 0
158 182 0
152 174 0
158 182 0
156 177 0
151 173 0
152 173 0
162 184 0
158 181 0
148 171 0
157 180 0
148 169 0
153 175 0
148 171 0
149 172 0
150 172 0
152 175 0
142 164 0
148 170 0
153 175 0
148 169 0
150 172 0
148 169 0
154 176 0
148 169 0
152 174 0
137 159 0
142 165 0
143 164 0
144 166 0
153 175 0
142 164 0
142 165 0
147 168 0
142 163 0
147 168 0
145 167 0
147 168 0
140 162 0
142 164 0
145 167 0
155 177 0
142 164 0
139 160 0
142 163 0
137 158 0
148 170 0
143 165 0
145 167 0
141 163 0
143 165 0
144 167 0
143 164 0
149 170 0
139 159 0
138 159 0
148 169 0
132 152 0
146 166 0
134 155 0
139 161 0
145 163 0
145 166 0
142 164 0
141 162 0
143 163 0
146 168 0
149 170 0
130 149 0
135 155 0
137 159 0
143 164 0
142 163 0
133 152 0
138 157 0
137 158 0
139 158 0
139 160 0
126 148 0
146 166 0
139 160 0
136 155 0
139 160 0
144 164 0
139 158 0
133 153 0
129 149 0
142 161 0
141 161 0
137 156 0
146 166 0
137 156 0
133 154 0
134 154 0
144 163 0
136 153 0
140 160 0
148 169 0
140 160 0
137 159 0
144 164 0
143 162 0
141 160 0
142 162 0
141 160 0
131 150 0
136 156 0
139 158 0
140 159 0
142 162 0
144 163 0
144 165 0
141 161 0
136 154 0
140 158 0
151 171 0
145 164 0
144 163 0
143 163 0
143 163 0
149 168 0
140 159 0
140 158 0
136 154 0
139 158 0
137 155 0
135 152 0
138 156 0
129 149 0
148 166 0
135 153 0
138 156 0
143 161 0
137 154 0
147 167 0
141 158 0
140 159 0
135 153 0
138 156 0
144 164 0
144 161 0
143 162 0
140 159 0
143 161 0
147 164 0
138 154 0
147 165 0
140 158 0
139 158 0
138 154 0
145 163 0
134 149 0
137 154 0
145 164 0
140 155 0
132 145 0
149 165 0
137 152 0
148 164 0
148 166 0
147 163 0
134 150 0
146 163 0
139 154 0
143 158 0
142 156 0
137 151 0
139 153 0
137 150 0
145 161 0
136 148 0
145 161 0
148 164 0
153 167 0
141 154 0
140 154 0
143 155 0
139 152 0
135 149 0
136 149 0
142 157 0
137 150 0
156 170 0
144 157 0
143 154 0
136 147 0
137 149 0
140 151 0
145 156 0
143 153 0
137 148 0
146 157 0
135 145 0
135 144 0
149 160 0
146 159 0
141 148 0
146 157 0
139 152 0
141 149 0
138 147 0
138 148 0
137 145 0
133 142 0
141 150 0
137 143 0
138 146 0
138 145 0
141 149 0
147 156 0
133 138 0
142 150 0
144 150 0
145 153 0
142 148 0
145 152 0
140 146 0
144 149 0
140 149 0
140 149 0
141 148 0
139 146 0
133 139 0
148 156 0
135 139 0
132 136 0
132 135 0
148 155 0
140 144 0
139 147 0
146 150 0
146 153 0
144 150 0
149 157 0
138 143 0
144 151 0
140 148 0
145 152 0
149 154 0
151 158 0
145 149 0
147 151 0
144 149 0
141 143 0
138 146 0
144 152 0
139 145 0
141 145 0
150 156 0
144 151 0
142 146 0
143 147 0
148 157 0
153 159 0
146 152 0
149 156 0
149 155 0
148 155 0
155 166 0
139 146 0
151 160 0
141 148 0
142 151 0
158 168 0
155 165 0
153 161 0
158 170 0
157 167 0
151 162 0
154 164 0
154 164 0
159 171 0
158 170 0
176 198 0
172 194 0
172 194 0
169 192 0
173 196 0
170 193 0
170 193 0
175 197 0
170 192 0
170 192 0
171 193 0
171 194 0
171 192 0
172 194 0
173 195 0
171 193 0
173 194 0
171 193 0
171 192 0
173 195 0
171 194 0
174 196 0
169 190 0
170 193 0
172 193 0
175 196 0
170 191 0
168 189 0
171 193 0
173 195 0
170 192 0
169 190 0
171 192 0
169 191 0
172 194 0
172 193 0
171 193 0
171 193 0
169 190 0
169 191 0
174 196 0
167 190 0
166 187 0
173 195 0
166 187 0
167 188 0
170 191 0
168 189 0
166 188 0
171 192 0
166 188 0
167 189 0
170 192 0
171 193 0
170 192 0
162 185 0
162 183 0
164 186 0
167 189 0
170 192 0
167 189 0
168 189 0
164 186 0
167 188 0
160 182 0
162 184 0
168 190 0
169 191 0
166 188 0
162 184 0
165 187 0
161 184 0
167 189 0
164 186 0
156 178 0
161 184 0
167 188 0
168 190 0
163 185 0
163 185 0
158 179 0
163 185 0
165 188 0
159 181 0
163 185 0
159 182 0
164 187 0
159 181 0
160 182 0
163 185 0
163 185 0
163 186 0
156 178 0
156 179 0
162 184 0
160 183 0
160 182 0
159 182 0
163 185 0
167 189 0
150 173 0
162 183 0
158 180 0
162 184 0
162 184 0
157 178 0
153 175 0
162 184 0
157 180 0
163 185 0
156 178 0
156 179 0
161 184 0
156 179 0
161 183 0
156 177 0
160 182 0
164 187 0
152 174 0
156 179 0
156 179 0
160 182 0
157 180 0
160 182 0
148 170 0
155 178 0
155 176 0
151 174 0
160 182 0
150 172 0
157 179 0
151 174 0
153 175 0
156 178 0
155 177 0
149 170 0
156 178 0
153 175 0
157 179 0
145 167 0
153 176 0
149 172 0
156 178 0
151 172 0
159 181 0
152 174 0
155 177 0
149 172 0
143 165 0
146 168 0
155 177 0
152 175 0
143 165 0
145 167 0
143 164 0
150 172 0
151 173 0
145 167 0
139 161 0
145 168 0
153 175 0
150 172 0
145 167 0
144 166 0
139 160 0
134 157 0
143 164 0
142 165 0
142 165 0
147 169 0
151 173 0
147 169 0
143 163 0
137 158 0
140 161 0
136 156 0
146 167 0
142 163 0
142 164 0
141 162 0
135 157 0
143 165 0
140 161 0
138 159 0
144 165 0
141 161 0
146 168 0
151 173 0
143 166 0
141 161 0
143 165 0
133 154 0
148 170 0
132 152 0
147 168 0
142 161 0
135 157 0
146 165 0
138 159 0
129 150 0
143 162 0
141 160 0
141 162 0
147 168 0
137 157 0
130 149 0
131 151 0
127 148 0
142 161 0
143 162 0
141 161 0
135 155 0
140 160 0
134 152 0
144 163 0
139 158 0
144 165 0
134 154 0
138 158 0
134 154 0
142 162 0
140 160 0
132 151 0
148 168 0
134 154 0
135 154 0
132 152 0
138 157 0
144 164 0
145 165 0
132 149 0
141 161 0
134 152 0
136 155 0
135 154 0
142 162 0
143 162 0
133 153 0
143 163 0
136 156 0
138 157 0
140 158 0
138 158 0
137 157 0
136 155 0
144 163 0
135 155 0
144 163 0
145 161 0
141 160 0
142 163 0
133 151 0
140 159 0
144 163 0
146 166 0
134 150 0
142 159 0
142 159 0
143 161 0
138 157 0
141 160 0
142 160 0
145 164 0
138 155 0
140 157 0
146 163 0
128 146 0
138 157 0
137 155 0
141 162 0
143 159 0
139 156 0
144 163 0
130 148 0
143 161 0
147 164 0
136 154 0
135 153 0
135 153 0
142 160 0
150 167 0
143 160 0
140 154 0
140 156 0
134 149 0
140 155 0
141 156 0
140 157 0
144 158 0
140 156 0
141 155 0
144 159 0
144 159 0
136 150 0
140 156 0
136 151 0
138 153 0
144 158 0
134 150 0
143 158 0
141 155 0
144 158 0
142 155 0
139 152 0
145 158 0
138 151 0
140 154 0
146 161 0
144 156 0
143 157 0
146 159 0
142 154 0
147 162 0
150 161 0
147 159 0
142 154 0
137 148 0
133 144 0
138 149 0
144 153 0
137 146 0
145 157 0
137 147 0
143 154 0
142 151 0
141 149 0
143 155 0
134 145 0
141 152 0
140 146 0
143 152 0
146 156 0
140 149 0
136 145 0
145 153 0
149 158 0
141 150 0
134 143 0
135 143 0
146 155 0
141 148 0
150 160 0
141 150 0
142 149 0
146 156 0
146 154 0
141 148 0
133 135 0
147 153 0
144 152 0
142 147 0
140 146 0
143 148 0
148 156 0
148 155 0
147 156 0
143 150 0
152 162 0
152 159 0
146 151 0
144 148 0
149 159 0
139 147 0
144 151 0
141 148 0
140 146 0
146 151 0
140 146 0
145 151 0
136 140 0
147 152 0
143 148 0
144 147 0
142 146 0
144 151 0
147 154 0
152 161 0
147 157 0
149 155 0
152 161 0
150 158 0
150 160 0
152 159 0
147 153 0
147 152 0
157 167 0
150 159 0
158 168 0
154 161 0
153 161 0
156 164 0
149 155 0
151 160 0
155 165 0
151 160 0
156 167 0
156 165 0
152 165 0
150 159 0
153 163 0
171 193 0
174 196 0
169 191 0
173 196 0
171 192 0
174 197 0
174 197 0
173 194 0
176 198 0
172 195 0
172 193 0
174 196 0
170 193 0
171 193 0
169 191 0
175 197 0
172 194 0
173 194 0
168 190 0
168 189 0
172 194 0
174 195 0
171 193 0
172 194 0
172 195 0
173 195 0
171 193 0
171 193 0
169 190 0
171 193 0
171 192 0
170 192 0
173 194 0
166 187 0
168 190 0
170 192 0
173 195 0
168 191 0
164 185 0
172 192 0
167 189 0
166 187 0
166 187 0
167 188 0
172 194 0
170 192 0
169 191 0
164 186 0
172 194 0
166 188 0
168 190 0
166 188 0
168 190 0
167 189 0
165 188 0
160 182 0
167 189 0
170 192 0
168 189 0
166 187 0
165 186 0
164 186 0
167 190 0
167 189 0
165 187 0
168 189 0
160 183 0
163 186 0
163 185 0
161 183 0
162 185 0
170 192 0
164 187 0
164 186 0
164 186 0
159 182 0
168 189 0
159 182 0
167 189 0
161 184 0
158 180 0
161 183 0
163 185 0
165 188 0
158 181 0
165 188 0
161 183 0
156 179 0
157 179 0
159 182 0
156 178 0
159 182 0
153 176 0
157 180 0
165 187 0
158 181 0
154 177 0
159 182 0
160 182 0
147 169 0
163 185 0
157 179 0
161 185 0
161 184 0
158 180 0
156 179 0
152 175 0
165 187 0
151 174 0
157 179 0
159 182 0
147 170 0
159 180 0
164 186 0
157 180 0
161 182 0
156 177 0
159 183 0
153 175 0
158 181 0
155 179 0
156 179 0
157 181 0
153 176 0
156 179 0
150 172 0
156 177 0
156 179 0
157 180 0
156 178 0
148 170 0
156 179 0
147 170 0
154 176 0
156 178 0
152 174 0
153 175 0
158 180 0
153 176 0
151 172 0
152 174 0
157 179 0
157 179 0
148 171 0
152 173 0
150 173 0
153 174 0
150 171 0
150 171 0
150 172 0
153 175 0
146 168 0
156 179 0
140 163 0
148 170 0
146 168 0
157 178 0
157 178 0
146 167 0
149 171 0
148 170 0
147 168 0
151 173 0
142 163 0
148 170 0
149 170 0
142 163 0
146 167 0
150 171 0
142 163 0
142 163 0
138 159 0
153 175 0
150 171 0
148 169 0
140 161 0
143 164 0
147 168 0
149 172 0
145 167 0
140 161 0
141 162 0
147 168 0
149 171 0
137 156 0
141 161 0
138 159 0
144 167 0
137 157 0
134 153 0
148 170 0
143 164 0
144 165 0
144 165 0
142 163 0
142 163 0
130 149 0
139 161 0
135 155 0
135 156 0
146 167 0
137 158 0
142 162 0
144 164 0
136 157 0
148 167 0
139 159 0
137 158 0
144 164 0
140 160 0
144 164 0
144 164 0
132 153 0
141 163 0
124 145 0
142 162 0
143 163 0
137 157 0
146 167 0
137 156 0
144 164 0
140 161 0
139 159 0
146 165 0
142 162 0
143 164 0
137 158 0
137 157 0
143 162 0
143 163 0
146 165 0
136 156 0
140 159 0
135 154 0
132 150 0
139 158 0
143 164 0
147 165 0
141 161 0
137 157 0
128 147 0
142 162 0
140 157 0
139 159 0
144 162 0
138 156 0
143 164 0
136 154 0
136 154 0
133 151 0
140 160 0
135 153 0
141 160 0
140 159 0
145 164 0
141 161 0
144 164 0
140 159 0
135 153 0
140 159 0
142 159 0
148 167 0
139 157 0
146 165 0
142 162 0
146 164 0
148 166 0
138 155 0
144 163 0
140 157 0
135 152 0
147 163 0
140 160 0
140 157 0
146 162 0
137 154 0
147 163 0
140 157 0
135 152 0
149 169 0
148 166 0
138 155 0
135 151 0
148 165 0
147 163 0
137 152 0
138 154 0
149 165 0
141 155 0
145 161 0
146 161 0
148 162 0
140 156 0
139 154 0
147 161 0
141 157 0
143 156 0
145 161 0
151 169 0
139 152 0
145 161 0
148 161 0
150 165 0
145 159 0
146 160 0
149 164 0
143 155 0
145 158 0
148 162 0
138 152 0
140 154 0
140 152 0
148 161 0
145 157 0
137 149 0
140 154 0
144 155 0
145 159 0
140 153 0
138 153 0
142 153 0
141 151 0
136 149 0
136 145 0
143 154 0
141 151 0
146 160 0
152 162 0
138 145 0
142 154 0
142 152 0
133 141 0
145 153 0
137 145 0
141 151 0
146 155 0
142 151 0
145 154 0
139 149 0
138 148 0
135 140 0
143 152 0
141 151 0
141 148 0
149 159 0
146 155 0
139 147 0
141 149 0
137 144 0
143 150 0
144 151 0
144 151 0
140 145 0
134 140 0
145 152 0
147 154 0
149 157 0
141 149 0
152 158 0
144 151 0
150 160 0
151 162 0
137 142 0
146 149 0
149 153 0
141 147 0
151 160 0
137 144 0
149 156 0
146 154 0
142 147 0
146 155 0
137 142 0
138 143 0
152 161 0
148 153 0
148 157 0
153 160 0
144 150 0
149 158 0
152 160 0
150 159 0
148 157 0
151 160 0
153 162 0
158 166 0
159 171 0
156 166 0
149 159 0
154 165 0
158 166 0
154 164 0
153 163 0
154 162 0
150 160 0
156 166 0
151 163 0
156 165 0
155 166 0
156 166 0
170 191 0
171 194 0
171 194 0
175 197 0
176 197 0
174 196 0
172 193 0
173 195 0
173 195 0
173 196 0
172 194 0
170 192 0
170 194 0
174 195 0
167 189 0
171 193 0
174 196 0
169 190 0
174 196 0
173 194 0
175 196 0
170 192 0
170 191 0
173 194 0
170 192 0
170 191 0
170 192 0
164 187 0
173 195 0
171 193 0
172 193 0
169 191 0
172 194 0
170 192 0
173 195 0
169 191 0
168 189 0
172 194 0
166 188 0
177 199 0
169 190 0
170 191 0
170 192 0
167 189 0
167 190 0
169 191 0
171 193 0
171 193 0
162 184 0
166 188 0
168 190 0
167 189 0
166 189 0
166 189 0
166 189 0
168 191 0
166 188 0
167 189 0
168 190 0
170 193 0
165 188 0
167 188 0
165 186 0
162 185 0
165 186 0
162 184 0
162 185 0
159 182 0
165 187 0
163 185 0
153 175 0
166 189 0
161 184 0
162 184 0
159 181 0
158 180 0
161 183 0
168 189 0
161 183 0
161 184 0
163 184 0
166 188 0
154 176 0
162 184 0
160 181 0
159 181 0
166 189 0
156 179 0
159 181 0
162 185 0
163 185 0
156 177 0
161 183 0
160 183 0
157 179 0
159 182 0
155 178 0
162 185 0
160 183 0
161 183 0
156 177 0
158 181 0
161 184 0
161 184 0
160 182 0
158 181 0
152 175 0
162 185 0
156 179 0
159 181 0
161 184 0
158 181 0
155 178 0
160 182 0
159 182 0
150 172 0
159 181 0
156 179 0
157 181 0
159 181 0
155 177 0
157 179 0
158 181 0
157 179 0
160 183 0
160 183 0
155 179 0
157 179 0
151 173 0
153 175 0
160 182 0
154 177 0
158 180 0
153 175 0
149 172 0
158 180 0
158 180 0
148 170 0
153 175 0
153 176 0
147 169 0
151 174 0
152 175 0
153 174 0
147 168 0
150 171 0
152 175 0
139 161 0
150 172 0
154 177 0
145 167 0
150 172 0
151 173 0
150 171 0
143 165 0
147 169 0
154 177 0
153 175 0
142 163 0
149 171 0
141 163 0
157 180 0
151 172 0
143 165 0
149 171 0
145 167 0
146 168 0
149 171 0
145 166 0
147 169 0
144 165 0
146 167 0
143 165 0
151 173 0
140 162 0
147 168 0
145 165 0
144 166 0
149 170 0
149 171 0
146 168 0
153 174 0
148 170 0
141 162 0
140 162 0
143 164 0
147 169 0
151 172 0
144 165 0
134 156 0
144 164 0
147 167 0
138 159 0
140 161 0
133 154 0
149 170 0
144 163 0
138 159 0
138 159 0
149 170 0
139 160 0
141 162 0
139 160 0
143 164 0
137 159 0
151 171 0
144 165 0
136 157 0
135 156 0
132 152 0
138 159 0
137 157 0
139 158 0
140 160 0
142 163 0
136 157 0
135 155 0
135 156 0
147 166 0
147 166 0
140 161 0
131 152 0
147 169 0
140 159 0
139 160 0
145 165 0
135 156 0
142 162 0
143 164 0
142 162 0
137 157 0
143 162 0
132 150 0
144 163 0
143 163 0
152 171 0
138 157 0
149 169 0
143 162 0
137 156 0
133 153 0
144 164 0
144 165 0
137 156 0
138 157 0
141 161 0
143 163 0
138 157 0
145 165 0
141 159 0
142 159 0
139 158 0
136 155 0
147 168 0
141 160 0
138 157 0
144 160 0
141 158 0
143 161 0
146 166 0
136 154 0
145 162 0
138 155 0
151 171 0
159 177 0
147 166 0
140 156 0
146 165 0
139 156 0
142 160 0
146 163 0
148 167 0
147 164 0
136 155 0
148 164 0
141 157 0
145 161 0
138 156 0
138 154 0
136 155 0
142 162 0
149 165 0
142 158 0
149 165 0
144 161 0
144 159 0
150 168 0
139 155 0
139 155 0
141 155 0
150 167 0
142 157 0
142 157 0
145 161 0
148 164 0
148 165 0
144 158 0
142 157 0
141 156 0
149 164 0
147 163 0
139 153 0
146 160 0
138 152 0
146 160 0
143 155 0
146 160 0
142 155 0
142 152 0
138 151 0
143 156 0
144 157 0
145 159 0
131 144 0
147 159 0
141 154 0
154 169 0
140 155 0
147 163 0
141 154 0
142 155 0
144 157 0
139 148 0
145 157 0
147 160 0
148 160 0
148 161 0
145 154 0
143 153 0
141 153 0
150 163 0
144 156 0
139 149 0
146 157 0
146 156 0
141 149 0
149 159 0
145 153 0
137 144 0
149 158 0
146 154 0
142 153 0
149 157 0
146 155 0
148 157 0
142 151 0
139 148 0
141 149 0
146 157 0
148 157 0
147 159 0
143 155 0
142 150 0
137 146 0
141 148 0
141 148 0
143 152 0
144 150 0
146 155 0
148 156 0
152 161 0
152 163 0
137 141 0
145 154 0
148 152 0
151 158 0
145 151 0
146 153 0
141 150 0
157 169 0
140 145 0
149 159 0
146 151 0
151 159 0
145 153 0
150 157 0
143 150 0
152 159 0
142 149 0
153 160 0
147 155 0
149 157 0
145 151 0
149 160 0
146 154 0
154 160 0
146 154 0
152 158 0
148 158 0
148 157 0
147 155 0
155 165 0
155 163 0
157 165 0
146 157 0
145 152 0
151 158 0
151 162 0
155 165 0
156 168 0
169 191 0
172 193 0
172 194 0
173 195 0
173 194 0
171 194 0
173 196 0
170 192 0
171 194 0
170 192 0
173 196 0
168 190 0
169 191 0
168 190 0
172 194 0
172 194 0
171 193 0
170 192 0
169 190 0
172 195 0
167 189 0
171 194 0
167 190 0
172 194 0
172 194 0
174 196 0
171 194 0
168 190 0
169 191 0
169 191 0
171 193 0
170 191 0
169 191 0
168 190 0
170 192 0
168 190 0
165 186 0
170 193 0
171 193 0
172 194 0
166 188 0
170 192 0
170 192 0
166 188 0
170 191 0
169 191 0
170 192 0
168 190 0
166 187 0
160 182 0
167 188 0
164 186 0
168 191 0
170 193 0
165 187 0
168 188 0
166 188 0
164 185 0
163 185 0
162 184 0
164 186 0
163 185 0
161 185 0
169 191 0
170 192 0
165 188 0
161 183 0
165 187 0
165 188 0
166 188 0
164 186 0
164 186 0
165 189 0
161 183 0
158 180 0
161 183 0
165 188 0
162 186 0
158 180 0
164 186 0
165 188 0
165 188 0
163 185 0
161 185 0
161 184 0
158 180 0
152 176 0
163 185 0
166 189 0
163 186 0
159 181 0
164 186 0
159 181 0
158 180 0
163 186 0
160 182 0
159 180 0
158 181 0
154 176 0
155 178 0
158 182 0
156 178 0
157 179 0
159 181 0
155 178 0
160 183 0
154 177 0
163 185 0
161 183 0
147 170 0
152 174 0
161 183 0
156 179 0
160 184 0
153 176 0
157 180 0
158 181 0
158 181 0
155 177 0
157 180 0
164 187 0
152 174 0
156 179 0
160 183 0
153 176 0
155 176 0
153 177 0
153 175 0
152 175 0
151 173 0
157 180 0
154 176 0
151 172 0
157 180 0
154 177 0
148 170 0
155 177 0
155 178 0
151 174 0
145 168 0
152 174 0
155 176 0
158 181 0
150 171 0
152 174 0
148 169 0
154 174 0
151 174 0
152 172 0
155 177 0
150 173 0
150 173 0
158 180 0
151 173 0
146 168 0
148 170 0
151 172 0
155 177 0
153 175 0
148 171 0
147 170 0
151 173 0
157 180 0
151 173 0
150 172 0
152 174 0
144 166 0
149 170 0
149 171 0
147 170 0
141 163 0
144 164 0
139 161 0
141 162 0
147 168 0
140 163 0
150 171 0
147 169 0
153 175 0
144 166 0
153 176 0
136 158 0
132 153 0
146 167 0
148 169 0
147 169 0
146 167 0
138 160 0
150 170 0
151 170 0
146 167 0
150 170 0
145 166 0
144 167 0
140 161 0
149 171 0
145 165 0
142 163 0
141 161 0
141 162 0
141 162 0
132 151 0
140 161 0
137 157 0
139 160 0
155 178 0
141 162 0
139 159 0
136 156 0
145 166 0
148 167 0
130 150 0
133 152 0
138 158 0
134 154 0
145 164 0
141 161 0
138 157 0
153 175 0
138 158 0
136 155 0
130 150 0
141 162 0
139 158 0
147 168 0
143 164 0
147 167 0
142 163 0
141 161 0
154 175 0
138 157 0
140 161 0
144 164 0
143 162 0
136 156 0
138 157 0
142 162 0
144 163 0
147 163 0
137 157 0
140 159 0
138 158 0
140 161 0
147 167 0
143 161 0
146 166 0
139 158 0
132 152 0
145 165 0
141 160 0
142 161 0
139 159 0
140 160 0
151 169 0
137 155 0
144 164 0
138 154 0
146 165 0
152 171 0
139 157 0
145 164 0
147 166 0
142 160 0
138 156 0
150 168 0
140 160 0
142 161 0
146 164 0
148 167 0
139 157 0
148 167 0
143 162 0
152 171 0
147 165 0
141 158 0
143 160 0
141 158 0
135 152 0
146 165 0
149 167 0
152 169 0
140 156 0
144 159 0
150 167 0
140 156 0
142 159 0
133 148 0
144 160 0
145 159 0
131 149 0
149 167 0
148 164 0
148 164 0
138 153 0
144 159 0
143 159 0
134 149 0
140 155 0
143 158 0
144 159 0
143 159 0
140 152 0
147 163 0
146 161 0
147 160 0
145 161 0
146 161 0
141 155 0
140 153 0
139 154 0
141 152 0
144 158 0
149 163 0
137 154 0
139 155 0
145 159 0
147 159 0
139 153 0
151 166 0
146 160 0
152 166 0
139 151 0
149 164 0
143 153 0
143 153 0
150 165 0
146 155 0
136 146 0
146 154 0
147 157 0
150 163 0
141 152 0
142 152 0
141 151 0
141 150 0
145 155 0
150 162 0
146 156 0
145 155 0
138 147 0
148 158 0
147 157 0
145 155 0
146 156 0
141 148 0
146 157 0
145 153 0
144 155 0
142 150 0
140 150 0
138 146 0
152 164 0
153 161 0
145 156 0
149 159 0
145 155 0
146 155 0
141 145 0
151 160 0
140 147 0
142 150 0
156 164 0
145 152 0
147 158 0
146 156 0
150 157 0
151 159 0
149 158 0
144 149 0
156 165 0
146 152 0
144 153 0
146 154 0
144 151 0
150 157 0
148 154 0
148 155 0
152 163 0
155 165 0
139 146 0
147 152 0
147 154 0
149 158 0
151 157 0
155 165 0
149 157 0
147 153 0
151 159 0
152 160 0
149 157 0
152 162 0
157 168 0
148 158 0
148 153 0
153 162 0
154 163 0
152 161 0
153 166 0
148 160 0
155 165 0
176 197 0
171 194 0
174 196 0
173 195 0
172 194 0
175 197 0
171 193 0
171 194 0
165 186 0
172 194 0
172 194 0
170 193 0
174 195 0
170 192 0
166 188 0
168 191 0
172 193 0
171 194 0
174 195 0
170 192 0
171 193 0
170 192 0
169 190 0
168 191 0
170 193 0
171 193 0
172 194 0
172 194 0
169 192 0
169 190 0
168 190 0
171 192 0
169 193 0
171 193 0
171 193 0
171 193 0
170 191 0
166 188 0
170 192 0
166 188 0
162 184 0
168 190 0
167 188 0
166 188 0
173 196 0
165 187 0
167 190 0
171 192 0
167 190 0
162 184 0
169 190 0
165 186 0
165 187 0
165 187 0
163 184 0
165 187 0
167 189 0
164 186 0
168 190 0
165 188 0
165 188 0
166 188 0
162 185 0
166 188 0
166 188 0
164 186 0
163 186 0
165 188 0
165 187 0
167 190 0
162 186 0
164 187 0
169 191 0
166 188 0
162 185 0
166 189 0
162 185 0
162 185 0
160 183 0
164 186 0
165 188 0
165 187 0
163 185 0
161 183 0
155 177 0
162 184 0
159 181 0
158 181 0
160 183 0
158 180 0
158 180 0
156 178 0
160 182 0
158 179 0
159 181 0
158 181 0
158 181 0
161 183 0
159 182 0
157 180 0
162 185 0
164 187 0
155 177 0
154 176 0
160 181 0
165 186 0
160 183 0
160 183 0
161 184 0
162 184 0
154 177 0
157 179 0
156 179 0
155 177 0
157 180 0
157 179 0
153 175 0
156 179 0
158 179 0
144 167 0
154 177 0
153 175 0
153 176 0
155 177 0
161 184 0
154 177 0
155 178 0
156 178 0
152 174 0
153 175 0
156 179 0
149 172 0
154 176 0
156 179 0
155 177 0
156 180 0
156 178 0
147 168 0
144 166 0
152 175 0
152 175 0
151 174 0
153 176 0
154 175 0
152 175 0
155 178 0
150 172 0
151 173 0
143 166 0
150 173 0
153 174 0
154 176 0
143 165 0
144 166 0
154 176 0
150 173 0
141 163 0
143 165 0
149 170 0
151 173 0
157 179 0
145 167 0
141 163 0
154 176 0
147 169 0
152 174 0
150 171 0
148 170 0
148 170 0
147 169 0
147 169 0
153 175 0
147 170 0
156 178 0
140 163 0
147 167 0
146 168 0
155 177 0
148 170 0
144 165 0
139 160 0
140 161 0
139 160 0
144 167 0
142 162 0
142 164 0
143 165 0
143 166 0
147 168 0
149 171 0
139 159 0
151 173 0
145 167 0
141 162 0
144 165 0
144 165 0
144 166 0
149 169 0
143 165 0
149 170 0
144 164 0
144 164 0
147 167 0
149 170 0
140 160 0
145 164 0
150 170 0
137 157 0
151 171 0
141 161 0
139 160 0
145 167 0
134 155 0
143 163 0
140 160 0
141 160 0
146 165 0
137 156 0
142 161 0
145 166 0
145 166 0
136 155 0
144 163 0
143 163 0
151 171 0
139 158 0
144 164 0
151 171 0
146 167 0
140 160 0
139 160 0
142 161 0
142 162 0
133 154 0
141 161 0
140 160 0
137 156 0
145 165 0
146 166 0
142 162 0
140 160 0
142 161 0
141 161 0
145 166 0
146 164 0
148 166 0
146 166 0
149 169 0
150 170 0
140 158 0
145 167 0
142 161 0
139 157 0
145 166 0
146 165 0
141 162 0
146 165 0
145 163 0
144 162 0
149 170 0
141 159 0
141 159 0
142 158 0
147 166 0
145 165 0
148 166 0
150 169 0
146 165 0
147 166 0
147 166 0
142 160 0
144 162 0
149 166 0
146 164 0
151 169 0
142 161 0
137 154 0
138 156 0
138 155 0
142 160 0
146 162 0
143 161 0
146 164 0
139 154 0
143 160 0
140 157 0
146 163 0
144 161 0
151 165 0
144 161 0
144 158 0
149 167 0
152 171 0
147 162 0
145 161 0
150 167 0
149 167 0
138 155 0
133 148 0
139 155 0
140 156 0
144 158 0
142 159 0
149 163 0
142 156 0
151 166 0
142 156 0
143 158 0
147 162 0
146 162 0
142 157 0
143 157 0
142 154 0
149 163 0
151 166 0
141 156 0
146 159 0
139 151 0
141 154 0
137 151 0
138 151 0
147 158 0
141 156 0
143 156 0
148 162 0
138 151 0
148 161 0
151 164 0
141 152 0
146 156 0
141 153 0
141 148 0
146 158 0
146 156 0
144 155 0
141 154 0
141 152 0
149 161 0
144 153 0
139 146 0
149 161 0
145 155 0
148 160 0
142 149 0
150 159 0
137 147 0
156 166 0
151 161 0
146 156 0
148 158 0
155 165 0
147 156 0
150 159 0
144 153 0
147 158 0
147 152 0
148 157 0
155 164 0
147 154 0
136 143 0
149 159 0
139 149 0
139 147 0
138 146 0
142 150 0
150 160 0
144 152 0
145 152 0
147 154 0
144 151 0
149 158 0
147 159 0
141 148 0
147 151 0
150 157 0
149 159 0
145 151 0
153 165 0
147 154 0
151 162 0
145 154 0
151 161 0
146 158 0
147 156 0
149 158 0
159 172 0
142 148 0
153 163 0
156 165 0
156 165 0
151 160 0
151 160 0
151 159 0
158 168 0
153 163 0
151 161 0
150 158 0
146 154 0
150 157 0
159 170 0
172 195 0
171 193 0
170 192 0
167 191 0
170 192 0
172 194 0
175 197 0
171 193 0
168 191 0
170 192 0
171 194 0
172 194 0
172 194 0
172 194 0
171 193 0
171 192 0
170 192 0
169 191 0
168 190 0
169 191 0
166 189 0
167 190 0
168 191 0
175 197 0
170 192 0
173 195 0
167 189 0
169 191 0
171 193 0
174 197 0
170 193 0
166 188 0
167 190 0
171 193 0
162 184 0
169 192 0
171 192 0
168 190 0
167 189 0
166 188 0
170 191 0
169 192 0
162 185 0
167 189 0
167 189 0
168 190 0
169 192 0
166 188 0
163 185 0
170 192 0
165 187 0
168 190 0
166 189 0
161 183 0
161 184 0
165 188 0
166 189 0
167 190 0
163 187 0
162 185 0
172 193 0
170 192 0
164 186 0
164 186 0
167 189 0
168 191 0
162 185 0
162 184 0
156 179 0
156 179 0
161 184 0
166 190 0
165 187 0
163 185 0
163 186 0
163 185 0
159 181 0
159 182 0
165 188 0
163 186 0
160 183 0
165 186 0
157 179 0
161 184 0
158 181 0
156 179 0
159 182 0
157 180 0
162 184 0
161 184 0
164 187 0
160 183 0
161 184 0
157 181 0
158 180 0
161 183 0
162 185 0
161 184 0
160 184 0
161 184 0
155 178 0
161 185 0
163 186 0
157 180 0
151 174 0
159 180 0
155 178 0
159 181 0
158 181 0
156 178 0
155 178 0
160 182 0
159 181 0
158 180 0
151 174 0
159 182 0
158 182 0
155 177 0
158 181 0
156 178 0
158 181 0
161 184 0
154 176 0
160 182 0
146 169 0
152 174 0
162 185 0
163 185 0
153 175 0
155 177 0
160 182 0
154 175 0
151 174 0
162 184 0
155 178 0
153 176 0
151 174 0
161 183 0
155 177 0
156 178 0
150 174 0
147 169 0
148 170 0
151 174 0
154 176 0
147 170 0
158 180 0
156 176 0
148 170 0
154 177 0
143 164 0
151 174 0
152 174 0
154 175 0
153 175 0
150 172 0
150 172 0
145 167 0
147 168 0
146 167 0
146 168 0
149 171 0
152 174 0
152 173 0
154 176 0
147 169 0
149 172 0
153 175 0
144 166 0
148 170 0
144 165 0
146 168 0
145 166 0
148 169 0
149 171 0
153 173 0
142 164 0
148 170 0
141 163 0
144 166 0
138 160 0
153 174 0
145 166 0
141 162 0
144 166 0
146 166 0
147 167 0
150 171 0
143 163 0
151 173 0
147 168 0
145 166 0
144 166 0
142 163 0
149 170 0
140 162 0
151 172 0
140 161 0
150 171 0
147 169 0
148 170 0
151 172 0
144 165 0
146 167 0
158 179 0
143 164 0
151 171 0
144 164 0
147 170 0
140 161 0
143 164 0
142 162 0
153 173 0
148 168 0
143 162 0
145 165 0
145 165 0
143 163 0
146 166 0
145 165 0
142 164 0
146 167 0
133 152 0
142 163 0
143 165 0
152 171 0
143 164 0
140 160 0
135 154 0
143 163 0
135 155 0
145 166 0
144 163 0
145 165 0
142 163 0
135 156 0
143 165 0
149 170 0
145 164 0
147 167 0
141 162 0
144 163 0
132 151 0
140 160 0
142 162 0
142 161 0
140 159 0
140 160 0
144 164 0
139 158 0
145 164 0
148 168 0
144 162 0
146 165 0
147 164 0
145 163 0
143 161 0
147 167 0
144 162 0
145 164 0
140 159 0
139 159 0
140 157 0
146 165 0
142 159 0
140 158 0
149 168 0
145 163 0
150 169 0
140 159 0
134 153 0
142 160 0
149 168 0
147 165 0
141 158 0
140 159 0
144 163 0
147 164 0
136 153 0
148 166 0
147 163 0
142 158 0
144 162 0
144 164 0
147 165 0
151 166 0
138 153 0
142 156 0
142 160 0
144 158 0
141 157 0
141 160 0
143 158 0
154 172 0
138 153 0
147 164 0
141 158 0
133 146 0
140 158 0
141 155 0
153 170 0
144 161 0
148 165 0
148 164 0
143 159 0
147 162 0
156 172 0
148 164 0
144 160 0
147 163 0
144 161 0
143 158 0
144 159 0
152 168 0
149 164 0
139 150 0
149 164 0
151 165 0
148 162 0
152 167 0
147 160 0
145 160 0
150 163 0
148 162 0
146 158 0
147 159 0
145 159 0
148 161 0
141 154 0
142 151 0
144 156 0
141 151 0
145 158 0
149 161 0
143 155 0
142 151 0
146 158 0
149 161 0
138 149 0
148 158 0
141 153 0
147 157 0
151 159 0
144 157 0
147 157 0
146 156 0
144 155 0
146 158 0
146 155 0
145 155 0
140 150 0
139 147 0
151 160 0
144 153 0
141 149 0
139 148 0
148 160 0
148 156 0
147 157 0
140 147 0
144 153 0
136 143 0
147 156 0
145 153 0
145 154 0
146 156 0
141 150 0
144 152 0
149 158 0
150 161 0
147 158 0
148 157 0
150 158 0
150 158 0
147 156 0
149 156 0
151 159 0
148 156 0
150 159 0
147 158 0
151 159 0
145 152 0
146 155 0
145 153 0
147 153 0
146 155 0
162 173 0
157 165 0
156 166 0
156 165 0
152 159 0
148 157 0
153 164 0
154 163 0
150 160 0
158 168 0
150 156 0
160 169 0
155 165 0
156 165 0
173 195 0
173 195 0
169 191 0
169 191 0
171 194 0
172 194 0
172 194 0
171 194 0
165 187 0
171 194 0
173 195 0
172 194 0
172 194 0
174 195 0
169 192 0
170 193 0
168 191 0
170 192 0
171 193 0
170 191 0
166 189 0
166 188 0
170 193 0
174 195 0
165 187 0
169 191 0
170 191 0
168 190 0
170 192 0
171 193 0
172 193 0
172 194 0
166 188 0
168 190 0
170 192 0
172 194 0
165 187 0
169 191 0
167 189 0
168 191 0
169 191 0
168 190 0
172 194 0
166 189 0
167 189 0
167 189 0
166 189 0
167 189 0
164 187 0
167 189 0
169 191 0
164 186 0
162 184 0
159 182 0
165 188 0
166 188 0
162 185 0
169 192 0
160 181 0
158 180 0
164 187 0
170 193 0
165 187 0
162 184 0
162 185 0
159 180 0
161 184 0
163 186 0
166 187 0
167 189 0
160 182 0
170 193 0
158 180 0
168 191 0
161 183 0
164 186 0
165 187 0
162 185 0
157 179 0
162 184 0
157 179 0
161 184 0
160 181 0
160 183 0
160 181 0
160 183 0
160 183 0
162 184 0
164 187 0
157 180 0
163 186 0
155 177 0
166 189 0
155 179 0
164 187 0
158 180 0
162 184 0
156 178 0
163 185 0
158 181 0
153 174 0
159 182 0
156 178 0
160 183 0
161 182 0
162 185 0
160 183 0
157 178 0
163 186 0
157 179 0
163 185 0
159 182 0
161 183 0
160 182 0
163 184 0
162 185 0
154 176 0
150 172 0
156 179 0
154 177 0
154 176 0
154 175 0
154 177 0
160 183 0
150 172 0
152 175 0
152 174 0
160 183 0
162 185 0
161 183 0
156 178 0
149 171 0
150 172 0
156 179 0
154 176 0
152 174 0
146 168 0
148 170 0
151 171 0
156 178 0
155 177 0
152 173 0
139 161 0
147 169 0
157 179 0
154 175 0
144 166 0
158 181 0
151 174 0
148 169 0
146 168 0
152 174 0
149 172 0
147 170 0
144 167 0
154 177 0
153 174 0
153 174 0
146 168 0
152 174 0
144 165 0
142 164 0
151 173 0
147 168 0
146 168 0
152 174 0
153 175 0
143 164 0
150 172 0
146 167 0
150 173 0
150 172 0
157 179 0
155 176 0
153 175 0
154 175 0
146 168 0
143 165 0
140 161 0
139 160 0
140 160 0
148 170 0
148 171 0
151 173 0
141 162 0
150 172 0
138 157 0
144 164 0
151 171 0
140 161 0
137 158 0
149 170 0
148 168 0
140 161 0
141 162 0
140 161 0
137 158 0
147 169 0
138 160 0
145 167 0
149 170 0
141 164 0
140 162 0
139 161 0
140 160 0
143 164 0
150 170 0
153 176 0
133 153 0
148 169 0
150 172 0
148 167 0
138 159 0
136 157 0
143 164 0
147 167 0
145 167 0
149 171 0
142 162 0
141 161 0
142 162 0
150 171 0
143 165 0
146 165 0
139 160 0
148 169 0
148 170 0
137 158 0
148 168 0
146 167 0
142 161 0
146 166 0
141 161 0
142 161 0
140 161 0
146 164 0
136 157 0
142 161 0
140 160 0
144 165 0
137 158 0
144 164 0
151 172 0
141 160 0
142 163 0
141 162 0
140 161 0
144 161 0
139 158 0
141 159 0
146 166 0
144 162 0
147 166 0
147 167 0
142 159 0
151 170 0
149 169 0
145 167 0
146 166 0
146 166 0
137 156 0
148 169 0
144 163 0
138 155 0
143 162 0
140 157 0
147 165 0
139 157 0
146 166 0
149 167 0
147 163 0
145 163 0
147 167 0
146 164 0
149 166 0
144 162 0
151 169 0
143 160 0
130 147 0
144 163 0
144 161 0
145 162 0
147 166 0
152 169 0
140 156 0
147 166 0
152 171 0
141 159 0
145 162 0
149 167 0
146 160 0
146 163 0
140 155 0
148 165 0
141 158 0
147 165 0
148 165 0
140 153 0
137 153 0
144 161 0
147 167 0
147 163 0
145 159 0
155 171 0
152 169 0
151 167 0
150 165 0
147 160 0
145 160 0
146 163 0
142 156 0
145 158 0
153 166 0
142 154 0
150 167 0
140 153 0
143 158 0
141 154 0
141 155 0
150 162 0
140 154 0
149 162 0
149 162 0
138 150 0
150 166 0
148 163 0
147 160 0
151 163 0
149 163 0
145 159 0
148 165 0
145 157 0
139 151 0
152 164 0
139 150 0
149 158 0
143 156 0
133 143 0
144 154 0
147 159 0
141 151 0
142 152 0
148 157 0
146 155 0
148 159 0
146 156 0
142 150 0
143 153 0
152 166 0
142 154 0
151 164 0
149 156 0
141 151 0
143 152 0
149 161 0
151 162 0
142 149 0
148 157 0
157 168 0
148 158 0
150 159 0
148 159 0
146 154 0
149 157 0
151 163 0
149 158 0
154 162 0
146 153 0
146 157 0
153 163 0
149 156 0
146 153 0
155 166 0
149 158 0
156 165 0
149 158 0
147 156 0
148 154 0
150 158 0
155 166 0
152 160 0
143 151 0
151 160 0
148 157 0
155 165 0
151 157 0
152 161 0
155 166 0
147 154 0
156 164 0
161 172 0
150 158 0
156 168 0
153 164 0
157 167 0
151 160 0
150 162 0
157 168 0
153 164 0
153 163 0
169 190 0
173 195 0
173 195 0
173 196 0
174 196 0
173 195 0
173 195 0
169 191 0
173 195 0
169 191 0
172 195 0
170 192 0
169 191 0
169 190 0
170 191 0
169 191 0
172 194 0
169 191 0
171 194 0
168 191 0
173 195 0
168 190 0
170 192 0
169 191 0
165 188 0
168 190 0
168 190 0
170 192 0
162 184 0
163 185 0
169 191 0
171 194 0
172 194 0
168 190 0
170 192 0
163 185 0
166 188 0
168 190 0
167 189 0
168 191 0
170 192 0
169 190 0
165 187 0
168 191 0
166 189 0
172 194 0
165 187 0
166 189 0
164 186 0
166 188 0
166 188 0
163 185 0
168 190 0
164 187 0
164 185 0
164 186 0
170 193 0
167 190 0
165 187 0
166 189 0
165 187 0
164 186 0
164 186 0
162 184 0
163 186 0
160 184 0
165 188 0
161 182 0
166 188 0
168 191 0
164 186 0
165 187 0
161 184 0
165 188 0
167 190 0
162 185 0
159 182 0
151 173 0
163 186 0
165 187 0
165 189 0
158 181 0
161 183 0
163 187 0
154 177 0
167 189 0
161 184 0
157 181 0
158 181 0
167 189 0
157 179 0
152 175 0
163 186 0
159 182 0
166 188 0
160 183 0
160 183 0
157 179 0
162 184 0
163 187 0
157 180 0
162 185 0
158 181 0
161 183 0
161 183 0
159 182 0
158 181 0
160 182 0
154 178 0
160 183 0
162 185 0
151 174 0
160 183 0
160 183 0
155 178 0
155 177 0
156 179 0
161 184 0
156 179 0
157 180 0
155 179 0
157 180 0
155 179 0
154 178 0
155 177 0
155 177 0
159 182 0
150 173 0
157 179 0
156 178 0
154 176 0
157 180 0
152 174 0
151 174 0
155 178 0
154 177 0
147 169 0
154 176 0
159 181 0
160 182 0
156 177 0
157 180 0
157 178 0
148 171 0
153 176 0
150 174 0
154 176 0
149 171 0
150 172 0
150 173 0
155 177 0
156 179 0
155 176 0
153 176 0
150 171 0
150 172 0
159 182 0
153 175 0
155 178 0
144 166 0
154 176 0
156 177 0
148 169 0
150 172 0
152 175 0
150 173 0
152 173 0
146 168 0
155 178 0
145 167 0
144 165 0
144 166 0
136 158 0
156 178 0
144 166 0
154 177 0
146 169 0
152 173 0
151 173 0
145 167 0
144 165 0
143 164 0
145 168 0
147 168 0
145 166 0
144 165 0
150 170 0
148 170 0
145 167 0
145 166 0
145 167 0
145 167 0
147 167 0
137 157 0
141 162 0
141 162 0
145 166 0
151 172 0
142 163 0
144 166 0
144 165 0
146 165 0
139 160 0
144 166 0
149 170 0
145 165 0
147 167 0
149 169 0
146 167 0
153 175 0
143 165 0
138 161 0
146 167 0
139 161 0
147 167 0
145 165 0
141 161 0
141 162 0
146 168 0
141 161 0
147 167 0
146 166 0
151 172 0
145 166 0
137 158 0
151 172 0
144 164 0
144 163 0
143 163 0
141 162 0
146 165 0
143 163 0
143 163 0
138 157 0
144 164 0
146 167 0
143 164 0
143 161 0
140 159 0
137 156 0
145 163 0
135 154 0
145 164 0
140 161 0
146 167 0
147 166 0
146 166 0
148 167 0
153 172 0
149 168 0
152 171 0
139 158 0
147 167 0
150 169 0
151 171 0
142 161 0
150 170 0
146 166 0
142 160 0
148 168 0
149 167 0
146 167 0
136 155 0
145 164 0
139 158 0
149 168 0
145 163 0
150 168 0
143 162 0
142 160 0
148 167 0
144 162 0
141 157 0
148 167 0
147 165 0
150 168 0
150 170 0
145 163 0
153 172 0
144 161 0
150 167 0
145 162 0
143 160 0
146 162 0
146 163 0
141 156 0
145 160 0
144 162 0
138 155 0
141 158 0
150 169 0
149 166 0
142 156 0
143 160 0
145 163 0
149 166 0
151 168 0
146 159 0
150 168 0
150 168 0
139 155 0
139 156 0
147 164 0
144 159 0
150 165 0
145 160 0
146 161 0
149 165 0
142 156 0
147 165 0
153 167 0
143 160 0
140 154 0
152 166 0
147 163 0
142 156 0
147 160 0
143 157 0
148 161 0
149 163 0
145 157 0
149 163 0
145 159 0
141 154 0
148 161 0
151 164 0
147 163 0
145 159 0
148 161 0
149 165 0
146 156 0
146 157 0
151 164 0
145 155 0
138 150 0
150 162 0
145 158 0
148 160 0
143 155 0
150 163 0
149 164 0
143 155 0
141 151 0
149 160 0
154 165 0
142 150 0
143 155 0
148 158 0
147 158 0
151 161 0
143 152 0
142 154 0
145 155 0
141 150 0
154 165 0
151 160 0
146 157 0
147 160 0
147 157 0
148 159 0
160 171 0
142 151 0
146 155 0
144 153 0
148 159 0
143 151 0
146 155 0
153 162 0
157 166 0
157 169 0
148 156 0
143 153 0
144 154 0
146 154 0
148 157 0
148 157 0
153 161 0
153 161 0
150 160 0
146 154 0
152 163 0
155 162 0
149 158 0
154 162 0
148 155 0
153 162 0
150 160 0
146 155 0
152 160 0
153 160 0
150 155 0
146 155 0
152 163 0
147 153 0
153 166 0
149 158 0
159 170 0
153 162 0
157 170 0
156 167 0
170 192 0
173 195 0
168 190 0
174 196 0
176 198 0
167 189 0
170 192 0
171 193 0
171 193 0
171 193 0
170 192 0
172 194 0
172 195 0
175 197 0
170 193 0
170 193 0
171 194 0
172 194 0
171 192 0
169 191 0
172 195 0
173 196 0
167 189 0
168 190 0
171 193 0
174 196 0
167 189 0
169 191 0
169 191 0
168 190 0
167 190 0
164 186 0
171 192 0
166 189 0
167 189 0
170 192 0
167 190 0
173 195 0
169 191 0
166 188 0
165 188 0
168 190 0
167 190 0
169 191 0
162 184 0
164 186 0
164 187 0
162 184 0
166 189 0
169 191 0
165 187 0
164 186 0
164 187 0
164 186 0
163 187 0
169 191 0
169 191 0
163 186 0
166 189 0
166 188 0
166 189 0
158 180 0
165 187 0
161 184 0
164 186 0
164 187 0
162 184 0
161 184 0
160 183 0
162 186 0
159 182 0
163 185 0
162 185 0
160 183 0
165 188 0
160 182 0
168 191 0
159 181 0
160 183 0
158 182 0
165 187 0
161 185 0
160 183 0
163 186 0
163 186 0
163 186 0
166 188 0
163 186 0
158 181 0
165 187 0
162 185 0
158 180 0
164 187 0
160 183 0
155 178 0
157 179 0
161 182 0
160 181 0
160 183 0
166 189 0
154 176 0
164 187 0
157 179 0
155 178 0
162 183 0
158 181 0
157 180 0
162 183 0
157 180 0
156 179 0
152 174 0
161 183 0
156 178 0
153 176 0
156 179 0
156 177 0
154 177 0
154 178 0
155 178 0
164 187 0
160 183 0
156 179 0
160 182 0
148 172 0
153 176 0
158 180 0
153 175 0
154 176 0
153 175 0
161 184 0
162 184 0
156 178 0
153 175 0
155 177 0
154 176 0
155 178 0
155 178 0
157 179 0
159 182 0
155 178 0
155 177 0
149 170 0
146 168 0
159 182 0
162 184 0
156 179 0
153 176 0
157 180 0
148 169 0
155 177 0
149 170 0
152 175 0
153 176 0
153 175 0
151 174 0
154 176 0
150 172 0
140 162 0
149 171 0
144 166 0
141 163 0
153 174 0
147 169 0
148 169 0
150 174 0
156 179 0
148 169 0
153 176 0
150 171 0
155 177 0
146 167 0
142 165 0
148 170 0
147 169 0
152 174 0
149 172 0
148 170 0
154 176 0
154 175 0
144 166 0
139 161 0
150 171 0
146 166 0
148 169 0
150 172 0
143 165 0
155 177 0
147 168 0
148 170 0
144 166 0
148 169 0
147 168 0
142 163 0
155 176 0
145 167 0
146 167 0
151 172 0
139 159 0
149 170 0
143 164 0
147 168 0
150 171 0
146 166 0
144 165 0
137 157 0
146 167 0
146 167 0
142 165 0
152 173 0
145 166 0
154 176 0
138 158 0
134 152 0
146 166 0
146 166 0
139 159 0
137 157 0
143 164 0
141 162 0
141 162 0
148 168 0
141 160 0
151 171 0
152 174 0
150 171 0
150 170 0
146 166 0
146 166 0
135 155 0
136 155 0
146 166 0
143 163 0
148 168 0
145 165 0
153 174 0
146 165 0
140 160 0
137 158 0
146 166 0
144 165 0
138 157 0
157 179 0
137 157 0
142 161 0
147 166 0
153 174 0
146 166 0
142 161 0
141 161 0
146 165 0
141 160 0
144 164 0
154 173 0
139 158 0
146 165 0
142 161 0
152 171 0
145 163 0
146 166 0
142 161 0
152 172 0
142 159 0
148 166 0
146 165 0
139 160 0
142 161 0
145 165 0
151 171 0
145 163 0
148 167 0
140 159 0
149 166 0
147 165 0
150 169 0
147 166 0
136 155 0
141 161 0
144 163 0
147 165 0
146 163 0
135 154 0
152 170 0
154 174 0
149 168 0
141 157 0
143 159 0
147 164 0
151 168 0
145 162 0
146 165 0
145 162 0
146 164 0
150 168 0
137 154 0
150 169 0
147 163 0
149 167 0
152 169 0
147 162 0
149 166 0
151 168 0
144 161 0
145 161 0
147 163 0
154 172 0
136 149 0
146 163 0
149 165 0
147 164 0
146 162 0
144 159 0
146 160 0
146 162 0
157 174 0
146 161 0
141 156 0
144 160 0
150 166 0
154 170 0
143 156 0
148 160 0
153 167 0
148 161 0
139 152 0
142 156 0
148 160 0
153 168 0
149 161 0
150 165 0
155 169 0
147 163 0
149 160 0
147 162 0
151 165 0
133 145 0
143 156 0
144 157 0
150 164 0
151 164 0
149 161 0
141 151 0
142 155 0
142 154 0
151 163 0
150 162 0
143 157 0
143 154 0
144 157 0
150 160 0
149 161 0
146 154 0
145 155 0
141 153 0
145 153 0
142 150 0
154 166 0
140 148 0
145 156 0
143 153 0
145 155 0
143 154 0
148 158 0
155 168 0
145 153 0
150 161 0
148 156 0
147 158 0
147 157 0
153 163 0
153 163 0
148 157 0
152 163 0
144 153 0
151 160 0
151 162 0
151 163 0
155 167 0
149 159 0
148 159 0
153 162 0
154 163 0
151 161 0
155 168 0
157 169 0
146 151 0
148 154 0
150 156 0
154 164 0
150 156 0
142 150 0
155 165 0
158 169 0
151 158 0
148 158 0
154 163 0
156 165 0
153 164 0
158 167 0
153 166 0
157 166 0
172 195 0
169 191 0
172 194 0
169 192 0
167 189 0
174 196 0
170 192 0
173 196 0
171 193 0
172 194 0
168 191 0
171 193 0
173 195 0
171 193 0
162 185 0
169 192 0
170 192 0
169 192 0
170 192 0
171 194 0
172 194 0
168 191 0
171 192 0
171 193 0
168 190 0
174 196 0
167 189 0
167 189 0
166 189 0
169 191 0
164 186 0
169 191 0
168 190 0
164 186 0
167 189 0
171 192 0
163 185 0
165 187 0
170 193 0
163 186 0
170 192 0
166 188 0
167 190 0
166 189 0
165 186 0
163 187 0
163 186 0
168 189 0
166 189 0
166 188 0
160 182 0
166 188 0
164 186 0
168 190 0
164 186 0
161 184 0
164 187 0
162 185 0
163 186 0
165 188 0
165 188 0
165 187 0
161 183 0
160 183 0
161 184 0
167 189 0
167 190 0
156 179 0
164 187 0
167 190 0
163 186 0
162 186 0
168 191 0
161 184 0
159 182 0
159 182 0
160 182 0
155 178 0
161 183 0
157 180 0
161 184 0
167 189 0
165 187 0
159 182 0
162 185 0
155 178 0
159 181 0
165 188 0
161 185 0
160 182 0
156 179 0
153 175 0
160 182 0
165 188 0
158 180 0
160 183 0
166 189 0
154 177 0
164 187 0
157 180 0
159 183 0
157 181 0
156 179 0
160 183 0
156 178 0
154 177 0
156 178 0
152 174 0
161 183 0
155 178 0
155 178 0
162 184 0
157 180 0
154 177 0
152 175 0
155 178 0
166 189 0
152 174 0
155 179 0
158 181 0
153 177 0
165 187 0
157 180 0
155 177 0
158 180 0
158 180 0
155 177 0
159 182 0
149 172 0
154 177 0
149 171 0
150 173 0
157 179 0
154 176 0
146 168 0
154 177 0
154 176 0
146 168 0
153 175 0
154 175 0
154 177 0
152 175 0
150 171 0
161 184 0
152 173 0
156 177 0
149 172 0
151 174 0
149 170 0
149 171 0
151 173 0
152 174 0
153 175 0
147 169 0
148 170 0
149 171 0
147 168 0
156 178 0
150 172 0
144 166 0
150 172 0
147 169 0
154 176 0
155 179 0
150 171 0
155 176 0
146 168 0
145 168 0
149 172 0
148 169 0
148 171 0
143 163 0
145 167 0
152 174 0
147 170 0
144 166 0
148 170 0
150 171 0
149 170 0
152 174 0
155 177 0
144 166 0
138 159 0
154 176 0
147 168 0
144 167 0
151 173 0
150 171 0
141 163 0
145 167 0
151 174 0
151 172 0
141 163 0
139 160 0
150 170 0
147 170 0
143 164 0
149 170 0
144 165 0
150 172 0
152 174 0
155 178 0
148 169 0
154 176 0
147 168 0
144 165 0
150 172 0
142 164 0
144 164 0
146 168 0
145 166 0
144 166 0
149 170 0
145 164 0
143 164 0
142 163 0
144 165 0
144 164 0
136 157 0
147 169 0
149 169 0
151 172 0
149 170 0
149 171 0
146 167 0
141 160 0
149 166 0
149 170 0
144 165 0
149 170 0
146 168 0
144 164 0
148 169 0
150 171 0
144 164 0
148 168 0
151 170 0
143 163 0
148 169 0
145 166 0
148 169 0
152 169 0
144 164 0
144 164 0
150 170 0
145 165 0
144 163 0
145 165 0
139 159 0
139 158 0
145 164 0
149 167 0
145 166 0
142 163 0
155 175 0
145 166 0
144 164 0
143 162 0
154 175 0
146 165 0
142 162 0
148 166 0
146 163 0
151 169 0
150 170 0
150 170 0
143 161 0
142 160 0
148 168 0
142 161 0
143 163 0
145 162 0
142 160 0
142 160 0
149 167 0
148 169 0
150 170 0
142 161 0
148 168 0
151 169 0
141 158 0
142 159 0
146 165 0
150 167 0
143 161 0
148 166 0
145 164 0
146 162 0
142 159 0
147 164 0
148 167 0
155 172 0
152 171 0
147 166 0
145 161 0
148 166 0
149 166 0
145 161 0
145 163 0
150 166 0
143 160 0
146 163 0
146 162 0
148 164 0
143 157 0
148 164 0
150 167 0
150 168 0
139 153 0
148 164 0
149 164 0
152 169 0
149 166 0
147 161 0
152 169 0
145 159 0
142 156 0
151 168 0
147 163 0
146 161 0
145 161 0
148 161 0
150 166 0
139 154 0
149 164 0
142 158 0
150 164 0
148 163 0
147 161 0
146 159 0
143 159 0
141 154 0
146 158 0
145 160 0
150 162 0
149 161 0
145 159 0
147 160 0
149 163 0
157 171 0
146 159 0
146 160 0
141 152 0
152 164 0
153 163 0
155 168 0
148 161 0
150 163 0
143 157 0
147 159 0
150 160 0
143 154 0
148 157 0
148 159 0
144 156 0
142 150 0
149 159 0
145 154 0
152 161 0
146 158 0
153 164 0
144 155 0
145 153 0
146 157 0
152 163 0
150 163 0
151 162 0
145 157 0
152 162 0
151 163 0
151 158 0
146 157 0
147 154 0
143 153 0
147 156 0
144 154 0
140 149 0
159 169 0
151 158 0
151 163 0
148 155 0
151 160 0
152 162 0
150 162 0
142 150 0
155 166 0
153 165 0
156 167 0
157 168 0
151 162 0
152 163 0
156 167 0
149 160 0
150 160 0
151 164 0
151 161 0
147 159 0
153 166 0
156 166 0
156 167 0
172 194 0
176 198 0
175 197 0
171 194 0
172 195 0
168 191 0
167 189 0
172 194 0
169 191 0
170 193 0
170 192 0
172 194 0
167 189 0
171 192 0
171 193 0
172 194 0
171 194 0
171 193 0
171 193 0
172 195 0
172 195 0
167 189 0
170 192 0
169 190 0
170 193 0
166 189 0
167 189 0
169 192 0
164 188 0
169 191 0
168 189 0
172 195 0
172 194 0
168 190 0
164 186 0
167 188 0
165 188 0
167 188 0
166 188 0
163 186 0
163 186 0
166 189 0
167 189 0
166 188 0
164 186 0
165 187 0
168 190 0
164 186 0
170 192 0
164 186 0
166 189 0
165 187 0
165 188 0
163 186 0
171 193 0
164 186 0
162 184 0
157 180 0
166 188 0
163 186 0
161 183 0
165 188 0
163 184 0
165 187 0
166 189 0
164 187 0
163 186 0
162 184 0
166 189 0
161 184 0
159 181 0
159 182 0
164 186 0
160 183 0
162 184 0
163 186 0
167 189 0
163 185 0
165 188 0
162 185 0
160 184 0
163 185 0
162 185 0
164 185 0
157 179 0
165 187 0
164 186 0
158 180 0
163 185 0
157 180 0
160 183 0
152 174 0
157 180 0
156 179 0
163 187 0
151 174 0
155 179 0
157 179 0
158 181 0
155 178 0
154 177 0
155 179 0
160 183 0
165 188 0
152 173 0
153 176 0
159 182 0
157 179 0
156 179 0
161 184 0
156 179 0
160 183 0
162 185 0
158 181 0
159 180 0
159 182 0
164 186 0
165 187 0
165 187 0
160 183 0
157 179 0
155 178 0
161 184 0
152 174 0
152 175 0
161 183 0
154 177 0
160 183 0
152 175 0
152 174 0
159 181 0
154 177 0
158 181 0
164 187 0
155 177 0
152 174 0
156 179 0
161 183 0
151 173 0
152 175 0
150 171 0
155 177 0
149 171 0
155 176 0
145 167 0
159 180 0
154 177 0
155 178 0
156 178 0
159 181 0
150 172 0
149 171 0
152 174 0
151 173 0
154 176 0
151 173 0
156 178 0
151 174 0
153 174 0
153 175 0
151 172 0
146 169 0
161 183 0
151 173 0
154 176 0
153 175 0
146 167 0
150 171 0
144 166 0
152 174 0
140 162 0
143 166 0
154 177 0
146 167 0
149 171 0
150 172 0
146 168 0
154 177 0
152 174 0
147 169 0
157 179 0
155 177 0
147 170 0
148 171 0
141 161 0
145 166 0
142 163 0
149 171 0
150 171 0
155 177 0
142 164 0
146 168 0
142 164 0
153 175 0
154 176 0
147 168 0
144 166 0
147 169 0
149 170 0
146 167 0
141 163 0
139 160 0
144 167 0
141 162 0
157 178 0
147 167 0
146 168 0
141 161 0
147 168 0
145 166 0
145 165 0
146 167 0
142 162 0
147 168 0
146 165 0
142 162 0
144 165 0
139 159 0
146 168 0
141 160 0
144 164 0
146 167 0
155 177 0
141 162 0
151 173 0
141 159 0
142 162 0
146 167 0
147 167 0
151 172 0
146 166 0
140 160 0
143 163 0
144 163 0
145 167 0
146 166 0
149 169 0
144 164 0
142 162 0
146 167 0
145 168 0
145 165 0
152 172 0
148 168 0
149 168 0
138 157 0
149 169 0
143 162 0
152 173 0
157 178 0
155 175 0
148 168 0
131 150 0
144 164 0
150 171 0
145 164 0
152 172 0
142 160 0
150 168 0
145 166 0
143 161 0
145 163 0
154 176 0
147 166 0
149 169 0
140 160 0
139 158 0
145 163 0
147 165 0
144 163 0
139 159 0
143 163 0
145 163 0
153 172 0
150 169 0
150 171 0
153 171 0
151 171 0
146 164 0
152 171 0
148 165 0
143 162 0
138 154 0
148 166 0
142 161 0
152 171 0
143 161 0
144 163 0
142 160 0
149 166 0
146 163 0
156 175 0
150 166 0
141 156 0
148 164 0
154 171 0
148 165 0
144 162 0
152 172 0
146 164 0
144 163 0
149 165 0
150 165 0
151 169 0
147 161 0
150 166 0
150 168 0
144 160 0
146 164 0
147 163 0
150 166 0
144 158 0
152 166 0
152 168 0
148 164 0
150 168 0
157 175 0
148 163 0
152 167 0
143 157 0
140 155 0
141 154 0
151 165 0
140 154 0
145 159 0
142 156 0
147 161 0
148 163 0
146 162 0
155 169 0
157 173 0
156 171 0
151 165 0
146 159 0
142 155 0
147 158 0
153 166 0
153 166 0
144 156 0
142 156 0
148 160 0
144 156 0
149 161 0
149 161 0
152 162 0
144 158 0
148 161 0
149 164 0
154 167 0
151 163 0
153 165 0
141 151 0
143 153 0
149 162 0
156 168 0
147 160 0
144 155 0
148 158 0
139 148 0
151 162 0
157 171 0
145 154 0
142 152 0
148 160 0
148 160 0
147 157 0
149 160 0
141 151 0
155 168 0
150 160 0
150 162 0
154 166 0
146 154 0
145 156 0
152 163 0
150 160 0
155 165 0
143 152 0
151 163 0
151 162 0
148 157 0
151 160 0
147 156 0
157 168 0
154 164 0
147 157 0
150 160 0
150 162 0
154 164 0
152 165 0
151 161 0
152 160 0
161 172 0
145 154 0
147 156 0
145 155 0
153 165 0
148 159 0
155 166 0
156 166 0
170 193 0
168 189 0
172 194 0
171 194 0
171 193 0
167 190 0
171 194 0
173 195 0
169 192 0
171 194 0
169 192 0
171 193 0
166 188 0
167 189 0
168 191 0
164 187 0
168 191 0
167 190 0
173 195 0
170 193 0
168 190 0
169 192 0
169 191 0
169 191 0
168 190 0
169 191 0
169 191 0
166 188 0
165 187 0
168 190 0
165 187 0
167 189 0
170 193 0
168 191 0
165 188 0
170 192 0
171 193 0
167 189 0
163 186 0
164 187 0
171 193 0
166 189 0
170 192 0
163 186 0
159 182 0
167 189 0
164 186 0
167 190 0
163 185 0
164 187 0
167 189 0
166 189 0
170 192 0
163 185 0
161 183 0
163 185 0
164 187 0
165 187 0
161 183 0
163 185 0
167 190 0
158 181 0
160 183 0
167 189 0
168 191 0
160 183 0
166 188 0
163 187 0
169 190 0
162 185 0
162 185 0
163 185 0
160 183 0
162 184 0
162 185 0
160 184 0
161 183 0
161 184 0
161 184 0
156 179 0
161 183 0
165 188 0
163 186 0
156 180 0
164 186 0
163 186 0
153 176 0
159 182 0
161 184 0
158 181 0
159 182 0
162 184 0
153 177 0
155 179 0
165 188 0
161 183 0
164 188 0
160 183 0
158 180 0
163 186 0
159 182 0
153 176 0
158 180 0
164 187 0
161 183 0
159 181 0
158 181 0
154 177 0
153 176 0
157 178 0
162 185 0
150 173 0
157 179 0
157 180 0
160 183 0
154 176 0
157 180 0
156 179 0
157 179 0
160 182 0
156 178 0
162 185 0
161 184 0
153 176 0
157 179 0
155 177 0
156 178 0
158 181 0
156 179 0
149 171 0
154 176 0
150 172 0
154 177 0
158 181 0
150 173 0
155 176 0
146 168 0
157 180 0
152 174 0
154 176 0
150 171 0
155 176 0
146 167 0
154 175 0
158 180 0
154 177 0
152 174 0
155 177 0
162 183 0
151 173 0
154 176 0
152 174 0
151 172 0
154 177 0
147 169 0
150 172 0
154 177 0
151 172 0
155 177 0
150 172 0
150 172 0
150 172 0
145 167 0
150 173 0
143 166 0
155 177 0
151 173 0
152 174 0
150 173 0
157 179 0
153 176 0
150 171 0
152 174 0
152 173 0
148 169 0
145 167 0
151 174 0
150 172 0
147 168 0
152 174 0
156 179 0
146 169 0
147 168 0
147 169 0
152 173 0
157 180 0
155 177 0
147 168 0
139 162 0
152 174 0
148 169 0
146 168 0
151 173 0
147 168 0
144 166 0
147 170 0
141 162 0
149 171 0
152 174 0
150 172 0
153 174 0
138 159 0
142 163 0
148 170 0
136 157 0
148 168 0
141 161 0
148 170 0
153 173 0
153 173 0
148 169 0
138 159 0
149 171 0
127 147 0
151 172 0
141 162 0
139 161 0
146 168 0
139 160 0
149 170 0
146 167 0
151 171 0
147 169 0
147 169 0
147 168 0
151 172 0
151 172 0
141 161 0
152 172 0
141 161 0
152 174 0
153 173 0
142 163 0
149 169 0
144 165 0
149 171 0
141 162 0
150 170 0
147 168 0
142 162 0
150 171 0
149 170 0
145 165 0
151 171 0
147 167 0
145 165 0
145 165 0
150 171 0
140 162 0
146 164 0
146 166 0
154 173 0
142 162 0
146 166 0
143 163 0
151 170 0
148 167 0
144 165 0
148 168 0
143 162 0
151 171 0
144 162 0
143 162 0
150 169 0
149 169 0
149 168 0
141 159 0
141 161 0
141 161 0
146 166 0
151 170 0
144 163 0
150 170 0
147 166 0
150 170 0
144 161 0
149 168 0
140 158 0
157 178 0
145 164 0
146 166 0
149 167 0
148 166 0
148 167 0
140 157 0
145 165 0
147 165 0
153 172 0
147 165 0
144 161 0
145 164 0
148 166 0
152 171 0
145 163 0
140 158 0
152 171 0
151 167 0
147 165 0
148 166 0
151 170 0
143 159 0
156 174 0
142 159 0
149 166 0
146 163 0
147 162 0
149 165 0
146 163 0
144 160 0
153 169 0
151 168 0
143 160 0
144 161 0
155 171 0
143 159 0
143 158 0
147 162 0
156 172 0
144 159 0
146 163 0
154 172 0
144 160 0
147 161 0
147 165 0
153 170 0
148 162 0
149 162 0
157 171 0
151 167 0
154 167 0
152 166 0
148 161 0
154 169 0
147 159 0
145 158 0
151 165 0
151 165 0
146 157 0
150 162 0
153 168 0
144 157 0
151 163 0
148 160 0
144 158 0
156 171 0
145 156 0
144 156 0
146 159 0
142 154 0
144 153 0
149 161 0
154 166 0
158 171 0
155 167 0
151 165 0
148 158 0
150 162 0
143 155 0
147 161 0
151 165 0
152 165 0
149 156 0
145 155 0
149 160 0
150 161 0
152 165 0
143 153 0
144 156 0
151 162 0
149 160 0
150 159 0
148 160 0
149 159 0
153 162 0
146 154 0
152 163 0
149 159 0
148 159 0
147 157 0
152 163 0
154 165 0
149 157 0
153 164 0
152 165 0
157 169 0
147 157 0
155 167 0
156 168 0
155 165 0
149 160 0
155 167 0
148 159 0
154 166 0
153 165 0
152 163 0
160 170 0
156 167 0
150 161 0
154 163 0
156 168 0
170 193 0
171 194 0
175 197 0
170 192 0
167 190 0
168 190 0
170 193 0
169 191 0
170 192 0
170 192 0
168 191 0
164 187 0
168 190 0
169 191 0
171 193 0
169 191 0
174 195 0
165 188 0
172 194 0
168 191 0
170 192 0
169 192 0
165 188 0
172 195 0
169 191 0
164 186 0
170 193 0
166 188 0
166 188 0
167 189 0
170 192 0
165 188 0
170 193 0
166 189 0
166 189 0
168 190 0
167 190 0
169 193 0
159 182 0
162 184 0
161 183 0
165 187 0
169 191 0
170 193 0
167 189 0
166 189 0
168 191 0
167 189 0
168 190 0
167 190 0
165 189 0
162 185 0
160 183 0
164 186 0
167 189 0
170 192 0
167 191 0
167 190 0
168 190 0
164 186 0
166 189 0
168 191 0
159 181 0
162 185 0
164 187 0
162 184 0
165 189 0
161 184 0
168 191 0
164 186 0
163 186 0
161 184 0
157 180 0
167 190 0
160 183 0
168 190 0
166 189 0
168 190 0
163 186 0
158 181 0
162 185 0
161 183 0
162 185 0
162 185 0
159 182 0
153 177 0
162 184 0
164 186 0
164 187 0
157 180 0
164 186 0
158 180 0
154 176 0
160 182 0
158 181 0
159 182 0
163 186 0
160 183 0
163 186 0
154 177 0
161 184 0
159 182 0
165 189 0
161 183 0
159 182 0
158 181 0
162 185 0
162 186 0
154 177 0
158 181 0
159 181 0
161 185 0
157 179 0
153 176 0
160 183 0
159 182 0
156 179 0
157 180 0
148 171 0
153 176 0
156 179 0
152 174 0
159 182 0
155 178 0
155 177 0
163 185 0
157 180 0
154 176 0
163 185 0
148 171 0
154 177 0
154 176 0
153 176 0
157 180 0
155 176 0
156 179 0
156 179 0
150 173 0
152 175 0
155 178 0
146 169 0
153 176 0
158 180 0
156 179 0
150 173 0
148 171 0
154 177 0
149 170 0
156 178 0
155 177 0
152 174 0
158 181 0
151 173 0
153 175 0
161 184 0
153 176 0
155 177 0
158 181 0
162 185 0
154 176 0
151 175 0
148 171 0
154 174 0
147 169 0
147 170 0
158 181 0
157 180 0
150 170 0
145 166 0
144 167 0
152 174 0
149 172 0
150 173 0
153 175 0
154 177 0
151 172 0
153 176 0
151 174 0
155 177 0
154 174 0
150 172 0
143 164 0
150 172 0
146 168 0
152 173 0
146 168 0
152 175 0
149 171 0
147 169 0
145 167 0
147 170 0
146 168 0
147 168 0
150 172 0
147 169 0
146 166 0
146 168 0
147 169 0
157 177 0
153 174 0
150 172 0
143 164 0
151 173 0
151 172 0
152 172 0
147 168 0
149 169 0
140 160 0
149 171 0
147 168 0
148 169 0
146 167 0
151 173 0
146 166 0
147 169 0
145 166 0
141 162 0
141 161 0
151 171 0
157 179 0
145 166 0
148 169 0
143 165 0
145 166 0
148 169 0
136 157 0
151 173 0
155 175 0
149 170 0
144 163 0
147 167 0
144 166 0
147 166 0
136 156 0
147 168 0
155 175 0
147 168 0
148 167 0
140 159 0
152 173 0
146 164 0
151 171 0
151 172 0
146 167 0
143 162 0
149 169 0
147 167 0
145 165 0
149 169 0
145 165 0
149 167 0
145 165 0
151 170 0
146 166 0
151 171 0
142 160 0
152 173 0
148 167 0
149 171 0
142 161 0
153 172 0
154 175 0
145 165 0
148 167 0
147 166 0
151 171 0
144 163 0
147 166 0
144 163 0
148 167 0
155 175 0
150 168 0
147 166 0
151 170 0
153 173 0
145 164 0
147 165 0
142 162 0
150 169 0
152 171 0
146 165 0
154 173 0
157 175 0
149 168 0
153 171 0
138 157 0
151 170 0
148 166 0
151 168 0
155 173 0
150 168 0
143 162 0
153 172 0
150 169 0
143 162 0
153 168 0
147 164 0
150 167 0
143 160 0
149 166 0
153 173 0
155 173 0
143 160 0
150 167 0
153 170 0
148 166 0
154 172 0
145 160 0
146 165 0
148 168 0
146 164 0
150 168 0
147 164 0
141 158 0
146 162 0
146 161 0
142 156 0
150 167 0
150 167 0
140 155 0
151 167 0
149 164 0
155 172 0
149 163 0
146 161 0
150 165 0
151 166 0
146 160 0
152 168 0
153 168 0
150 164 0
155 171 0
150 165 0
143 158 0
151 165 0
149 163 0
146 160 0
142 155 0
148 161 0
149 163 0
146 161 0
144 156 0
147 160 0
155 170 0
145 160 0
156 171 0
146 161 0
151 165 0
141 153 0
148 160 0
154 168 0
151 165 0
145 157 0
153 164 0
144 155 0
155 168 0
144 157 0
152 163 0
144 158 0
145 156 0
150 159 0
153 164 0
148 161 0
158 171 0
151 164 0
139 149 0
145 156 0
149 161 0
146 157 0
154 164 0
155 166 0
152 165 0
146 155 0
155 167 0
148 157 0
160 173 0
157 169 0
151 161 0
152 164 0
145 155 0
151 163 0
149 160 0
146 157 0
146 156 0
151 161 0
149 158 0
151 160 0
149 161 0
155 166 0
155 167 0
158 170 0
151 163 0
157 166 0
151 164 0
145 160 0
155 166 0
154 165 0
158 170 0
155 164 0
154 165 0
173 195 0
167 190 0
170 192 0
163 185 0
171 193 0
162 184 0
171 192 0
169 192 0
169 191 0
169 192 0
169 191 0
175 196 0
169 191 0
165 187 0
168 190 0
167 189 0
164 186 0
167 189 0
170 193 0
169 192 0
168 190 0
171 194 0
167 189 0
168 191 0
168 191 0
168 190 0
167 189 0
167 190 0
165 187 0
165 188 0
165 188 0
166 188 0
166 189 0
170 192 0
162 185 0
166 190 0
166 189 0
163 186 0
168 190 0
169 192 0
166 189 0
169 191 0
166 188 0
162 185 0
165 187 0
164 187 0
169 191 0
166 189 0
162 185 0
166 189 0
166 189 0
164 187 0
165 188 0
165 187 0
171 193 0
165 188 0
164 187 0
163 186 0
165 187 0
161 185 0
166 190 0
166 188 0
160 182 0
164 188 0
163 186 0
164 186 0
156 178 0
162 186 0
164 187 0
160 183 0
161 184 0
165 188 0
163 185 0
165 188 0
156 178 0
164 187 0
165 189 0
160 182 0
165 188 0
167 190 0
160 183 0
163 186 0
165 186 0
163 186 0
159 182 0
162 184 0
167 189 0
162 185 0
156 179 0
160 183 0
160 183 0
161 184 0
165 187 0
167 189 0
160 183 0
159 181 0
154 177 0
155 177 0
157 178 0
156 179 0
157 180 0
168 191 0
167 190 0
164 187 0
166 189 0
156 179 0
155 177 0
156 178 0
159 182 0
165 189 0
156 179 0
157 180 0
158 181 0
160 182 0
152 175 0
158 181 0
160 183 0
158 181 0
154 177 0
156 178 0
156 178 0
158 181 0
155 177 0
161 183 0
155 179 0
152 175 0
154 177 0
147 169 0
159 180 0
155 179 0
163 185 0
157 179 0
156 177 0
163 185 0
151 173 0
153 176 0
152 176 0
152 174 0
159 181 0
153 176 0
157 180 0
157 179 0
147 171 0
155 178 0
162 185 0
158 180 0
153 176 0
159 181 0
161 183 0
153 176 0
155 177 0
149 170 0
154 176 0
150 172 0
153 175 0
155 177 0
146 169 0
145 166 0
145 167 0
151 173 0
158 180 0
140 162 0
153 176 0
144 166 0
152 174 0
148 170 0
147 168 0
161 183 0
151 173 0
154 177 0
157 179 0
151 173 0
150 171 0
150 171 0
153 176 0
156 178 0
155 178 0
145 166 0
154 176 0
153 176 0
146 167 0
154 176 0
147 168 0
142 164 0
151 172 0
145 167 0
150 172 0
148 170 0
148 170 0
149 170 0
151 173 0
142 164 0
151 173 0
152 174 0
141 162 0
151 171 0
152 173 0
145 165 0
154 176 0
153 176 0
146 167 0
145 167 0
146 168 0
146 167 0
146 168 0
144 166 0
146 167 0
140 163 0
145 166 0
152 173 0
162 184 0
151 171 0
149 170 0
144 166 0
140 161 0
149 169 0
141 161 0
149 170 0
137 157 0
147 168 0
146 166 0
145 166 0
147 167 0
144 163 0
144 163 0
143 163 0
150 171 0
146 165 0
149 169 0
150 172 0
146 166 0
146 167 0
145 165 0
152 172 0
146 167 0
137 157 0
147 167 0
145 166 0
147 167 0
150 172 0
144 164 0
147 167 0
147 168 0
146 166 0
145 166 0
147 167 0
148 169 0
139 159 0
149 169 0
149 169 0
149 169 0
147 167 0
147 168 0
149 167 0
150 172 0
142 162 0
151 169 0
146 167 0
150 170 0
146 166 0
149 169 0
145 165 0
153 172 0
145 164 0
147 165 0
147 168 0
147 167 0
149 167 0
148 168 0
146 167 0
154 173 0
145 164 0
146 164 0
145 163 0
147 164 0
142 160 0
155 174 0
143 160 0
153 170 0
150 170 0
151 172 0
148 167 0
135 153 0
136 155 0
141 158 0
146 165 0
151 170 0
150 167 0
147 166 0
148 168 0
145 164 0
149 166 0
153 172 0
148 165 0
138 155 0
147 164 0
148 164 0
144 162 0
144 161 0
153 171 0
144 162 0
147 164 0
148 165 0
146 162 0
147 165 0
154 173 0
151 170 0
145 162 0
146 162 0
146 163 0
149 166 0
146 162 0
147 166 0
149 165 0
149 165 0
151 168 0
149 162 0
150 168 0
154 169 0
151 168 0
145 160 0
150 168 0
145 159 0
149 165 0
147 162 0
150 164 0
145 161 0
148 162 0
153 171 0
151 165 0
151 166 0
147 163 0
149 161 0
149 166 0
148 162 0
143 156 0
154 167 0
149 166 0
145 158 0
162 177 0
153 168 0
143 156 0
150 163 0
150 164 0
157 173 0
151 164 0
148 161 0
148 160 0
147 159 0
149 162 0
141 151 0
148 160 0
143 156 0
150 164 0
156 167 0
152 164 0
149 161 0
148 158 0
151 161 0
154 166 0
145 154 0
151 159 0
146 158 0
152 165 0
147 158 0
152 163 0
149 160 0
151 160 0
150 161 0
150 162 0
156 168 0
149 160 0
150 161 0
152 165 0
155 169 0
151 164 0
152 160 0
157 170 0
153 166 0
147 158 0
152 163 0
152 162 0
155 165 0
152 162 0
153 164 0
153 165 0
155 164 0
146 154 0
159 169 0
157 168 0
154 165 0
155 168 0
155 166 0
152 164 0
156 167 0
156 167 0
149 161 0
147 156 0
150 159 0
150 162 0
169 191 0
172 195 0
167 189 0
169 192 0
166 189 0
167 190 0
169 193 0
166 189 0
169 192 0
168 190 0
171 194 0
171 193 0
170 193 0
170 192 0
173 195 0
167 189 0
172 194 0
166 190 0
167 190 0
169 192 0
172 194 0
173 195 0
167 189 0
169 190 0
172 194 0
165 187 0
169 190 0
164 186 0
168 191 0
167 189 0
167 189 0
167 190 0
165 188 0
170 192 0
168 189 0
166 189 0
169 192 0
165 187 0
167 190 0
164 186 0
170 193 0
169 190 0
168 191 0
163 185 0
163 185 0
169 192 0
166 189 0
169 191 0
167 191 0
167 189 0
165 187 0
165 188 0
163 186 0
161 185 0
159 181 0
171 194 0
161 184 0
162 185 0
161 183 0
164 186 0
161 184 0
162 185 0
160 182 0
163 186 0
158 181 0
163 187 0
163 187 0
160 183 0
162 184 0
165 187 0
167 189 0
160 183 0
163 186 0
164 186 0
168 191 0
157 180 0
163 185 0
160 183 0
160 183 0
158 180 0
161 183 0
157 179 0
162 186 0
159 183 0
157 179 0
165 188 0
159 182 0
158 181 0
161 184 0
158 182 0
167 190 0
165 188 0
156 179 0
167 190 0
161 184 0
164 186 0
160 182 0
159 182 0
155 178 0
164 187 0
149 171 0
158 181 0
166 188 0
155 178 0
158 181 0
161 184 0
164 187 0
156 179 0
161 184 0
158 181 0
161 184 0
164 186 0
157 180 0
158 182 0
157 181 0
154 176 0
162 184 0
156 179 0
156 179 0
161 185 0
162 185 0
156 179 0
161 183 0
158 180 0
149 171 0
163 186 0
157 180 0
157 179 0
156 179 0
157 180 0
150 172 0
155 177 0
159 182 0
151 173 0
157 180 0
161 184 0
158 181 0
158 181 0
158 180 0
157 180 0
165 188 0
150 172 0
152 174 0
154 176 0
148 169 0
147 169 0
155 178 0
151 173 0
155 178 0
150 173 0
150 173 0
160 182 0
158 181 0
147 169 0
148 170 0
147 170 0
151 174 0
151 174 0
152 175 0
148 171 0
143 165 0
153 174 0
150 172 0
161 183 0
153 174 0
155 178 0
151 172 0
157 180 0
156 177 0
155 176 0
151 174 0
149 171 0
152 175 0
159 181 0
149 170 0
153 174 0
148 169 0
152 174 0
143 164 0
146 168 0
146 168 0
147 170 0
151 173 0
149 171 0
152 173 0
144 165 0
144 166 0
147 168 0
150 170 0
147 169 0
144 166 0
151 173 0
154 176 0
147 169 0
142 164 0
142 163 0
151 172 0
145 168 0
142 164 0
149 170 0
140 163 0
154 176 0
151 172 0
159 180 0
146 169 0
146 169 0
148 169 0
147 167 0
151 170 0
143 163 0
146 167 0
145 166 0
148 169 0
148 170 0
153 174 0
149 171 0
144 165 0
148 171 0
153 173 0
147 168 0
149 171 0
150 170 0
143 165 0
145 166 0
146 166 0
146 168 0
143 163 0
149 169 0
144 165 0
149 168 0
146 166 0
152 174 0
149 169 0
146 167 0
148 169 0
150 170 0
150 171 0
151 171 0
148 168 0
147 168 0
152 173 0
148 167 0
152 173 0
144 164 0
148 167 0
151 171 0
143 163 0
146 167 0
148 168 0
142 161 0
143 163 0
146 165 0
154 172 0
147 168 0
148 168 0
148 169 0
143 161 0
151 169 0
145 166 0
147 166 0
148 166 0
149 167 0
145 163 0
150 169 0
151 171 0
151 170 0
150 170 0
150 169 0
148 169 0
153 174 0
143 163 0
146 166 0
154 175 0
152 171 0
153 171 0
148 166 0
149 167 0
145 165 0
147 166 0
154 173 0
152 172 0
144 164 0
156 173 0
142 162 0
144 164 0
142 162 0
149 167 0
153 171 0
149 166 0
146 162 0
147 166 0
150 167 0
142 158 0
160 179 0
153 171 0
145 162 0
149 169 0
155 173 0
141 158 0
150 166 0
153 171 0
145 164 0
148 166 0
153 172 0
142 159 0
150 168 0
150 168 0
156 173 0
142 160 0
159 174 0
150 168 0
145 160 0
149 166 0
148 167 0
149 165 0
147 164 0
147 163 0
145 162 0
144 160 0
146 160 0
159 177 0
153 167 0
149 166 0
147 162 0
151 169 0
149 163 0
147 163 0
155 171 0
145 159 0
152 167 0
147 162 0
151 167 0
162 178 0
150 163 0
150 164 0
147 163 0
146 163 0
151 162 0
152 166 0
144 159 0
150 163 0
147 161 0
154 171 0
152 167 0
157 171 0
147 160 0
150 162 0
152 167 0
151 163 0
152 168 0
153 166 0
148 160 0
146 160 0
156 170 0
149 158 0
153 165 0
147 160 0
152 169 0
150 163 0
155 166 0
149 162 0
147 158 0
140 150 0
148 162 0
152 164 0
151 164 0
154 166 0
154 165 0
148 158 0
152 164 0
151 165 0
160 173 0
148 156 0
152 165 0
150 162 0
153 164 0
149 160 0
152 165 0
157 171 0
151 165 0
156 168 0
150 160 0
157 170 0
146 156 0
155 167 0
154 167 0
153 167 0
153 163 0
154 167 0
151 162 0
155 164 0
156 169 0
151 161 0
155 165 0
154 164 0
154 166 0
150 161 0
156 165 0
148 160 0
152 165 0
170 193 0
173 195 0
173 195 0
168 191 0
167 190 0
170 193 0
161 183 0
170 192 0
170 193 0
167 190 0
170 193 0
169 191 0
167 189 0
171 193 0
168 189 0
171 194 0
170 193 0
169 192 0
171 193 0
166 189 0
169 191 0
170 192 0
168 190 0
168 191 0
167 190 0
167 190 0
166 189 0
169 192 0
169 192 0
169 191 0
165 187 0
167 190 0
166 189 0
166 189 0
165 188 0
164 187 0
169 192 0
170 192 0
170 192 0
168 190 0
166 188 0
161 184 0
166 189 0
168 190 0
164 187 0
168 191 0
168 190 0
161 184 0
163 186 0
160 183 0
165 186 0
163 186 0
168 190 0
165 186 0
164 186 0
167 190 0
165 188 0
161 183 0
167 189 0
165 189 0
164 187 0
158 181 0
160 182 0
157 178 0
160 184 0
162 185 0
160 183 0
166 189 0
164 187 0
155 178 0
162 184 0
169 193 0
159 182 0
161 185 0
158 180 0
162 185 0
160 184 0
162 185 0
166 189 0
162 184 0
161 183 0
165 188 0
164 187 0
166 189 0
161 185 0
156 179 0
164 186 0
166 189 0
160 184 0
161 185 0
161 184 0
156 178 0
158 181 0
160 181 0
159 181 0
155 178 0
152 174 0
160 181 0
158 180 0
157 180 0
160 182 0
158 182 0
158 181 0
161 183 0
159 182 0
158 181 0
159 182 0
160 185 0
156 178 0
154 177 0
156 178 0
156 178 0
159 182 0
159 182 0
162 185 0
161 184 0
151 174 0
162 185 0
156 179 0
156 178 0
159 181 0
156 178 0
161 183 0
162 184 0
155 178 0
159 182 0
159 182 0
154 177 0
157 180 0
153 175 0
155 178 0
160 183 0
152 176 0
151 173 0
158 180 0
155 178 0
154 176 0
157 180 0
152 174 0
156 178 0
154 175 0
154 176 0
156 179 0
158 180 0
148 170 0
161 183 0
156 179 0
159 181 0
154 176 0
147 169 0
150 173 0
158 180 0
149 172 0
150 172 0
147 169 0
152 174 0
148 171 0
157 180 0
149 172 0
151 175 0
152 173 0
152 174 0
154 176 0
153 176 0
149 172 0
153 175 0
150 172 0
148 170 0
155 176 0
152 175 0
148 171 0
154 176 0
155 177 0
156 179 0
155 176 0
151 173 0
145 166 0
148 171 0
146 168 0
154 175 0
143 166 0
149 170 0
153 176 0
149 171 0
149 170 0
153 175 0
148 169 0
149 171 0
141 162 0
144 166 0
144 165 0
146 168 0
150 173 0
150 172 0
142 162 0
154 176 0
144 165 0
148 169 0
144 165 0
150 170 0
150 172 0
151 172 0
147 170 0
150 171 0
142 164 0
148 168 0
147 168 0
148 170 0
144 164 0
155 177 0
149 170 0
149 170 0
146 168 0
151 173 0
146 167 0
150 171 0
155 176 0
153 173 0
155 176 0
148 168 0
141 162 0
150 171 0
147 167 0
152 172 0
149 171 0
144 166 0
151 170 0
151 173 0
141 162 0
137 157 0
147 166 0
136 157 0
148 168 0
145 165 0
153 173 0
156 178 0
152 171 0
147 168 0
148 170 0
146 166 0
145 167 0
141 162 0
150 170 0
147 167 0
154 173 0
143 166 0
149 170 0
151 171 0
145 165 0
152 174 0
152 171 0
150 170 0
150 172 0
153 172 0
152 171 0
144 164 0
146 167 0
147 167 0
145 165 0
151 170 0
157 178 0
154 175 0
148 168 0
145 165 0
151 171 0
139 158 0
148 167 0
142 163 0
147 167 0
147 167 0
146 164 0
145 162 0
147 167 0
142 159 0
150 169 0
153 171 0
153 174 0
154 174 0
148 167 0
149 167 0
149 169 0
148 168 0
153 171 0
141 158 0
145 164 0
148 167 0
145 163 0
151 171 0
156 174 0
151 169 0
146 167 0
147 164 0
143 160 0
152 171 0
148 166 0
149 167 0
149 166 0
152 170 0
145 162 0
152 170 0
147 166 0
148 165 0
145 162 0
143 161 0
141 158 0
154 171 0
148 164 0
148 168 0
148 165 0
152 169 0
147 165 0
150 164 0
149 165 0
151 168 0
155 171 0
149 166 0
150 167 0
145 160 0
147 163 0
154 170 0
150 169 0
148 165 0
153 171 0
153 172 0
142 154 0
146 161 0
153 170 0
150 167 0
153 170 0
146 160 0
154 169 0
150 164 0
150 166 0
153 169 0
147 162 0
149 164 0
150 168 0
148 165 0
155 171 0
148 163 0
143 156 0
134 147 0
149 164 0
153 169 0
153 167 0
148 159 0
152 168 0
149 163 0
154 168 0
156 172 0
146 159 0
146 158 0
154 168 0
150 165 0
158 172 0
150 162 0
155 169 0
146 158 0
150 161 0
150 163 0
153 166 0
139 153 0
154 168 0
151 162 0
147 156 0
149 163 0
150 164 0
156 169 0
146 159 0
147 160 0
151 163 0
152 164 0
153 167 0
155 168 0
147 159 0
149 160 0
145 156 0
160 171 0
150 160 0
149 161 0
153 163 0
158 170 0
150 161 0
153 164 0
154 166 0
158 170 0
153 165 0
158 168 0
153 168 0
153 165 0
157 166 0
151 163 0
159 170 0
154 163 0
158 170 0
155 167 0
155 166 0
160 175 0
155 167 0
155 168 0
169 192 0
168 190 0
168 190 0
174 196 0
172 195 0
170 192 0
168 191 0
168 190 0
165 188 0
172 195 0
168 190 0
165 188 0
173 196 0
164 186 0
166 188 0
171 193 0
167 189 0
168 190 0
169 192 0
169 191 0
166 188 0
166 189 0
164 187 0
171 194 0
172 194 0
167 191 0
168 190 0
166 189 0
166 190 0
166 190 0
169 191 0
164 187 0
164 187 0
172 194 0
162 184 0
165 188 0
167 191 0
168 191 0
167 190 0
162 185 0
170 192 0
162 185 0
168 191 0
169 192 0
163 186 0
162 185 0
170 193 0
168 190 0
166 189 0
160 183 0
166 189 0
168 190 0
166 188 0
162 186 0
160 183 0
160 182 0
166 188 0
164 187 0
165 187 0
167 190 0
163 185 0
164 188 0
167 188 0
161 183 0
161 183 0
160 183 0
165 188 0
158 180 0
159 181 0
167 190 0
165 188 0
165 188 0
167 190 0
159 182 0
161 184 0
162 186 0
159 182 0
156 178 0
160 183 0
160 183 0
161 183 0
163 186 0
162 185 0
157 179 0
157 180 0
158 181 0
162 186 0
158 180 0
160 183 0
162 184 0
166 188 0
163 185 0
156 179 0
160 182 0
158 181 0
162 184 0
164 187 0
156 178 0
162 185 0
167 190 0
161 184 0
162 185 0
164 187 0
159 181 0
163 186 0
160 182 0
158 181 0
157 180 0
167 190 0
163 185 0
162 183 0
153 176 0
160 183 0
158 181 0
156 178 0
159 181 0
160 183 0
159 181 0
160 183 0
158 181 0
160 183 0
159 182 0
154 177 0
156 179 0
157 181 0
157 179 0
157 180 0
160 183 0
163 185 0
158 180 0
162 185 0
154 177 0
157 179 0
154 176 0
153 176 0
163 185 0
162 185 0
162 184 0
159 181 0
150 172 0
154 175 0
148 171 0
158 180 0
153 176 0
153 175 0
154 176 0
160 183 0
162 184 0
152 175 0
163 185 0
150 172 0
158 179 0
153 175 0
161 183 0
158 179 0
151 173 0
153 176 0
151 173 0
153 176 0
159 181 0
148 170 0
148 170 0
161 184 0
149 172 0
147 169 0
154 175 0
154 176 0
155 177 0
154 177 0
147 169 0
152 174 0
154 176 0
149 170 0
155 177 0
152 174 0
152 174 0
144 165 0
155 177 0
156 178 0
147 169 0
153 175 0
151 172 0
154 175 0
148 169 0
153 176 0
149 169 0
145 167 0
152 175 0
152 174 0
153 176 0
153 175 0
151 173 0
141 163 0
149 169 0
150 171 0
153 175 0
153 175 0
151 173 0
144 165 0
148 170 0
147 168 0
148 167 0
149 171 0
145 166 0
139 161 0
146 168 0
150 172 0
158 180 0
146 165 0
146 168 0
141 163 0
151 172 0
158 180 0
156 178 0
140 162 0
149 170 0
150 173 0
148 168 0
153 173 0
137 157 0
150 171 0
147 168 0
142 162 0
142 163 0
144 165 0
154 175 0
157 178 0
146 167 0
145 164 0
143 165 0
137 156 0
148 169 0
143 164 0
155 177 0
152 173 0
147 168 0
142 162 0
151 172 0
149 169 0
152 173 0
151 172 0
142 163 0
149 170 0
152 172 0
150 171 0
152 174 0
149 169 0
154 176 0
148 170 0
150 171 0
152 173 0
150 170 0
152 173 0
156 176 0
152 172 0
152 173 0
149 169 0
151 172 0
155 174 0
149 168 0
149 170 0
146 167 0
144 165 0
149 169 0
146 164 0
152 172 0
149 170 0
150 170 0
145 165 0
145 164 0
146 167 0
150 171 0
148 167 0
154 173 0
140 160 0
157 177 0
148 168 0
146 166 0
156 176 0
147 167 0
155 176 0
147 165 0
145 165 0
147 166 0
146 164 0
149 168 0
150 170 0
150 168 0
156 173 0
153 174 0
158 177 0
152 171 0
149 168 0
150 167 0
146 163 0
149 167 0
151 170 0
146 163 0
155 174 0
142 160 0
155 174 0
152 169 0
157 175 0
150 167 0
148 168 0
150 167 0
151 168 0
144 160 0
150 167 0
149 166 0
143 158 0
147 164 0
152 170 0
153 173 0
153 171 0
141 156 0
146 162 0
145 163 0
150 167 0
153 167 0
151 167 0
161 178 0
148 164 0
150 169 0
153 172 0
149 164 0
145 159 0
150 166 0
149 164 0
154 172 0
149 165 0
146 162 0
150 164 0
157 176 0
147 160 0
158 177 0
146 162 0
151 165 0
147 163 0
149 162 0
153 168 0
149 164 0
148 164 0
147 161 0
143 156 0
149 162 0
149 163 0
150 164 0
152 166 0
156 168 0
147 162 0
149 161 0
148 164 0
145 159 0
150 164 0
149 164 0
153 169 0
152 168 0
150 163 0
152 165 0
146 159 0
151 164 0
147 159 0
154 167 0
154 167 0
152 166 0
154 168 0
154 167 0
154 168 0
151 165 0
149 158 0
154 169 0
152 163 0
154 170 0
149 160 0
151 165 0
145 158 0
152 165 0
154 169 0
157 169 0
152 165 0
148 160 0
156 171 0
164 175 0
153 166 0
157 171 0
152 163 0
146 156 0
158 173 0
157 170 0
153 165 0
150 161 0
148 159 0
159 171 0
154 167 0
155 167 0
157 168 0
151 160 0
156 168 0
154 167 0
169 191 0
167 190 0
173 196 0
169 191 0
169 190 0
170 192 0
169 192 0
169 192 0
169 192 0
172 195 0
166 190 0
170 193 0
167 189 0
168 190 0
170 192 0
166 189 0
170 192 0
168 190 0
166 189 0
166 188 0
167 190 0
166 188 0
166 189 0
166 189 0
171 192 0
167 191 0
164 186 0
165 188 0
168 191 0
169 192 0
169 192 0
166 188 0
162 185 0
165 187 0
164 186 0
164 186 0
165 187 0
162 185 0
169 192 0
166 187 0
168 191 0
168 191 0
166 189 0
162 185 0
160 183 0
164 187 0
168 190 0
170 192 0
164 186 0
171 194 0
166 188 0
161 183 0
159 182 0
161 184 0
166 188 0
165 188 0
162 185 0
163 185 0
166 189 0
164 187 0
169 193 0
168 191 0
170 192 0
166 190 0
159 181 0
158 180 0
165 188 0
163 185 0
160 182 0
162 184 0
161 184 0
167 189 0
160 182 0
156 178 0
160 183 0
158 181 0
164 185 0
161 184 0
163 186 0
162 184 0
164 186 0
161 184 0
160 182 0
163 186 0
158 181 0
155 178 0
156 178 0
163 186 0
159 183 0
159 182 0
157 180 0
155 178 0
159 182 0
162 186 0
162 185 0
164 187 0
155 178 0
163 186 0
160 182 0
161 185 0
160 183 0
158 181 0
159 182 0
162 184 0
157 178 0
163 185 0
162 186 0
155 179 0
159 181 0
159 182 0
149 169 0
161 183 0
153 176 0
154 177 0
158 180 0
159 182 0
153 175 0
154 177 0
154 176 0
163 186 0
159 181 0
156 179 0
154 178 0
157 179 0
157 179 0
153 175 0
160 182 0
155 178 0
160 182 0
156 177 0
159 181 0
161 183 0
155 177 0
160 183 0
156 178 0
158 182 0
155 177 0
153 177 0
153 174 0
153 175 0
157 181 0
153 177 0
164 187 0
160 181 0
158 180 0
158 180 0
153 175 0
154 177 0
154 176 0
150 173 0
159 181 0
153 175 0
156 178 0
157 180 0
151 173 0
147 169 0
151 173 0
144 166 0
146 167 0
156 177 0
150 174 0
150 172 0
151 174 0
152 174 0
154 177 0
149 172 0
150 173 0
153 175 0
151 172 0
150 172 0
150 171 0
147 170 0
154 175 0
148 171 0
150 173 0
147 169 0
154 176 0
155 176 0
159 181 0
151 172 0
152 173 0
155 177 0
150 172 0
149 171 0
158 180 0
152 175 0
143 164 0
150 172 0
154 176 0
148 169 0
147 170 0
146 168 0
151 173 0
155 177 0
142 164 0
150 172 0
149 171 0
149 170 0
152 175 0
151 172 0
150 172 0
149 170 0
153 175 0
151 174 0
153 175 0
150 173 0
147 169 0
147 169 0
142 161 0
145 166 0
144 165 0
143 162 0
154 174 0
157 179 0
153 174 0
153 174 0
152 173 0
152 172 0
150 172 0
144 164 0
145 166 0
147 168 0
143 164 0
143 164 0
149 170 0
153 176 0
152 174 0
155 177 0
150 171 0
144 164 0
145 165 0
148 170 0
147 167 0
147 168 0
150 171 0
146 168 0
152 173 0
157 178 0
156 176 0
143 163 0
144 166 0
143 163 0
150 171 0
142 164 0
143 162 0
148 171 0
150 170 0
151 170 0
157 178 0
147 168 0
144 163 0
151 173 0
149 168 0
148 168 0
155 177 0
151 171 0
150 172 0
147 167 0
148 169 0
157 177 0
149 168 0
150 171 0
153 174 0
147 168 0
157 179 0
155 175 0
153 174 0
152 172 0
152 172 0
149 170 0
139 158 0
152 171 0
150 170 0
152 173 0
144 162 0
150 171 0
146 164 0
151 170 0
150 171 0
145 164 0
152 172 0
150 170 0
153 172 0
142 161 0
148 166 0
152 169 0
141 159 0
153 171 0
153 174 0
145 163 0
148 167 0
149 168 0
153 172 0
155 173 0
143 162 0
142 160 0
136 155 0
149 167 0
151 170 0
154 172 0
152 171 0
148 167 0
151 169 0
153 171 0
156 173 0
158 175 0
145 164 0
145 161 0
151 169 0
151 170 0
149 166 0
151 168 0
149 167 0
155 173 0
151 169 0
148 165 0
156 173 0
147 163 0
144 160 0
147 162 0
141 156 0
155 171 0
150 166 0
152 168 0
142 157 0
148 163 0
151 167 0
142 157 0
141 156 0
154 171 0
146 161 0
154 170 0
147 162 0
155 168 0
154 171 0
150 166 0
146 162 0
148 164 0
154 171 0
155 169 0
150 164 0
152 168 0
145 163 0
150 163 0
148 163 0
152 168 0
151 166 0
150 164 0
156 169 0
151 166 0
156 172 0
146 158 0
151 164 0
150 165 0
147 161 0
144 157 0
155 168 0
156 171 0
149 165 0
148 160 0
147 162 0
151 165 0
146 162 0
149 160 0
153 164 0
149 164 0
147 160 0
149 162 0
155 165 0
147 159 0
152 165 0
155 169 0
155 168 0
155 167 0
146 159 0
153 166 0
153 167 0
150 162 0
153 164 0
151 163 0
155 167 0
143 157 0
148 159 0
150 162 0
157 172 0
152 162 0
150 163 0
153 169 0
148 158 0
156 168 0
155 170 0
146 157 0
150 162 0
157 169 0
160 170 0
156 169 0
149 159 0
153 167 0
151 164 0
148 157 0
171 194 0
171 193 0
169 192 0
173 196 0
169 191 0
169 192 0
166 190 0
168 190 0
170 192 0
165 188 0
169 192 0
175 197 0
169 191 0
166 189 0
166 188 0
169 191 0
167 189 0
167 189 0
168 191 0
167 189 0
168 191 0
168 191 0
169 191 0
171 194 0
166 189 0
169 192 0
168 190 0
167 190 0
165 187 0
167 190 0
167 190 0
168 191 0
166 189 0
169 191 0
160 183 0
167 189 0
161 184 0
163 186 0
163 186 0
168 191 0
168 191 0
157 179 0
163 186 0
167 190 0
162 184 0
158 181 0
165 188 0
166 189 0
167 189 0
167 189 0
170 192 0
162 185 0
162 185 0
167 190 0
164 187 0
162 184 0
163 185 0
168 191 0
165 188 0
163 185 0
166 189 0
164 187 0
162 184 0
156 179 0
163 186 0
164 186 0
165 188 0
164 187 0
159 183 0
163 186 0
163 185 0
162 186 0
165 188 0
158 180 0
154 177 0
163 186 0
161 184 0
165 188 0
162 185 0
156 179 0
163 185 0
159 182 0
164 186 0
166 189 0
164 187 0
163 186 0
160 183 0
160 184 0
166 189 0
160 182 0
164 187 0
161 184 0
162 183 0
161 184 0
160 183 0
161 183 0
158 181 0
160 183 0
162 184 0
162 185 0
155 177 0
154 177 0
163 186 0
160 183 0
162 184 0
152 174 0
160 183 0
165 188 0
158 181 0
165 188 0
155 178 0
156 179 0
156 180 0
162 185 0
156 178 0
161 184 0
155 178 0
162 184 0
160 183 0
159 181 0
156 178 0
159 183 0
157 180 0
156 179 0
157 179 0
151 173 0
157 179 0
152 174 0
156 179 0
160 182 0
153 176 0
146 169 0
151 173 0
154 176 0
159 182 0
155 177 0
159 181 0
157 180 0
159 181 0
165 187 0
161 184 0
154 177 0
155 177 0
156 177 0
144 166 0
152 175 0
156 177 0
156 178 0
151 172 0
152 175 0
156 179 0
157 179 0
161 184 0
154 176 0
160 182 0
156 178 0
148 170 0
157 180 0
150 173 0
143 165 0
148 169 0
150 170 0
153 174 0
149 170 0
153 175 0
150 173 0
155 177 0
148 169 0
149 172 0
141 163 0
149 172 0
145 167 0
152 174 0
155 176 0
144 165 0
149 171 0
153 175 0
153 176 0
151 173 0
151 173 0
153 177 0
155 177 0
150 172 0
154 176 0
143 164 0
147 169 0
145 168 0
150 171 0
156 178 0
156 178 0
153 176 0
156 179 0
156 178 0
154 176 0
152 174 0
157 178 0
153 175 0
143 165 0
142 163 0
143 165 0
149 172 0
148 169 0
154 175 0
153 175 0
145 167 0
150 172 0
156 176 0
151 171 0
148 169 0
152 172 0
144 164 0
156 178 0
140 162 0
151 173 0
153 174 0
156 177 0
146 167 0
145 164 0
149 169 0
152 174 0
145 166 0
148 168 0
149 169 0
147 167 0
148 167 0
154 175 0
146 167 0
151 173 0
154 175 0
159 181 0
144 165 0
152 172 0
159 179 0
147 167 0
147 168 0
146 167 0
149 169 0
158 180 0
152 172 0
154 176 0
151 172 0
148 168 0
151 173 0
154 176 0
149 169 0
147 168 0
156 176 0
143 164 0
145 166 0
147 166 0
152 172 0
155 175 0
152 171 0
155 177 0
152 172 0
154 174 0
149 168 0
153 174 0
145 165 0
147 167 0
148 167 0
147 167 0
153 173 0
153 174 0
153 173 0
154 175 0
150 170 0
148 167 0
159 179 0
149 168 0
148 169 0
150 171 0
146 166 0
145 164 0
145 164 0
146 164 0
148 168 0
149 169 0
156 176 0
149 168 0
151 168 0
152 171 0
150 168 0
153 172 0
149 167 0
148 168 0
145 165 0
149 168 0
153 173 0
146 163 0
148 166 0
150 167 0
151 172 0
150 169 0
154 173 0
153 172 0
149 167 0
147 167 0
141 159 0
137 153 0
151 170 0
150 169 0
153 172 0
147 164 0
143 162 0
152 170 0
154 173 0
150 167 0
156 175 0
157 174 0
154 174 0
151 168 0
146 161 0
152 171 0
158 173 0
150 166 0
150 167 0
149 166 0
148 167 0
141 158 0
156 174 0
151 168 0
150 166 0
148 164 0
149 166 0
150 166 0
147 163 0
150 165 0
142 159 0
148 164 0
152 168 0
142 158 0
143 159 0
146 162 0
146 163 0
142 157 0
160 176 0
149 164 0
148 165 0
150 163 0
146 161 0
147 162 0
146 163 0
149 164 0
153 169 0
146 160 0
144 157 0
151 165 0
153 167 0
150 166 0
151 165 0
151 163 0
150 162 0
157 171 0
149 164 0
153 168 0
154 170 0
149 163 0
153 165 0
159 175 0
143 156 0
144 155 0
142 155 0
151 166 0
151 165 0
155 170 0
147 162 0
150 163 0
151 165 0
150 160 0
146 161 0
150 164 0
153 164 0
148 160 0
158 171 0
155 169 0
155 167 0
154 166 0
153 166 0
154 166 0
143 153 0
151 164 0
161 177 0
148 161 0
155 170 0
148 160 0
157 169 0
149 162 0
155 165 0
149 160 0
151 161 0
155 169 0
154 167 0
154 165 0
161 174 0
150 161 0
157 170 0
160 172 0
152 163 0
154 164 0
169 191 0
170 193 0
168 191 0
169 191 0
166 190 0
170 193 0
172 195 0
166 188 0
171 193 0
169 191 0
168 191 0
165 188 0
166 187 0
161 184 0
167 190 0
170 193 0
165 188 0
170 193 0
171 194 0
167 189 0
162 186 0
168 191 0
165 187 0
168 191 0
164 188 0
164 186 0
169 191 0
163 187 0
168 191 0
166 189 0
169 191 0
165 189 0
168 191 0
162 186 0
165 187 0
166 188 0
168 190 0
168 191 0
165 188 0
167 190 0
168 190 0
163 186 0
163 186 0
164 187 0
163 186 0
164 187 0
166 189 0
165 188 0
167 190 0
160 183 0
165 188 0
165 188 0
164 187 0
162 186 0
161 185 0
161 184 0
161 183 0
167 189 0
159 182 0
160 181 0
159 182 0
162 186 0
165 188 0
165 188 0
160 182 0
168 192 0
160 183 0
157 179 0
158 181 0
163 185 0
166 188 0
160 183 0
164 186 0
162 186 0
162 185 0
161 184 0
163 185 0
161 183 0
165 187 0
158 180 0
156 179 0
160 183 0
161 183 0
165 188 0
160 183 0
160 183 0
167 190 0
164 187 0
158 181 0
161 185 0
161 184 0
162 185 0
160 183 0
164 187 0
162 185 0
153 175 0
158 181 0
162 185 0
159 181 0
162 185 0
165 187 0
164 187 0
162 184 0
159 181 0
166 189 0
160 184 0
162 185 0
160 182 0
160 183 0
162 185 0
158 180 0
158 181 0
161 184 0
154 177 0
159 181 0
156 179 0
158 181 0
159 181 0
161 184 0
158 181 0
158 180 0
160 182 0
157 179 0
158 181 0
157 179 0
157 179 0
163 184 0
159 181 0
149 171 0
161 184 0
151 172 0
158 180 0
164 187 0
160 182 0
156 179 0
148 171 0
159 181 0
161 183 0
161 183 0
163 187 0
159 182 0
157 180 0
156 178 0
156 179 0
151 174 0
157 179 0
156 179 0
150 173 0
156 180 0
152 173 0
154 176 0
165 186 0
158 180 0
157 180 0
144 167 0
145 167 0
155 177 0
150 171 0
146 169 0
156 177 0
161 183 0
150 170 0
152 174 0
152 176 0
144 166 0
155 178 0
152 174 0
155 176 0
153 174 0
146 168 0
147 167 0
152 173 0
151 173 0
150 173 0
156 178 0
152 175 0
153 175 0
155 177 0
155 178 0
153 176 0
155 177 0
158 180 0
148 170 0
149 171 0
158 180 0
149 170 0
146 168 0
148 170 0
150 172 0
151 173 0
150 172 0
153 175 0
149 171 0
152 174 0
154 177 0
150 171 0
157 179 0
146 168 0
152 172 0
154 176 0
147 170 0
154 175 0
147 169 0
147 168 0
147 169 0
145 165 0
145 166 0
156 178 0
146 168 0
146 168 0
145 167 0
148 170 0
152 172 0
139 160 0
146 169 0
143 165 0
148 169 0
154 175 0
139 159 0
147 170 0
141 162 0
155 176 0
152 174 0
152 174 0
152 173 0
145 166 0
151 172 0
149 170 0
146 167 0
154 174 0
148 170 0
151 171 0
148 169 0
152 173 0
148 169 0
150 172 0
150 170 0
151 173 0
149 169 0
148 169 0
160 181 0
145 166 0
146 167 0
147 167 0
154 174 0
149 169 0
149 169 0
152 173 0
152 172 0
148 166 0
141 163 0
152 174 0
152 173 0
151 169 0
152 173 0
149 169 0
147 166 0
150 171 0
154 175 0
149 170 0
148 168 0
147 167 0
148 167 0
147 168 0
153 174 0
156 176 0
155 175 0
148 168 0
150 170 0
156 176 0
154 174 0
152 172 0
146 165 0
143 162 0
153 173 0
154 174 0
147 166 0
147 167 0
152 172 0
150 171 0
147 165 0
141 159 0
156 175 0
153 172 0
150 169 0
153 174 0
154 173 0
149 170 0
141 159 0
150 168 0
144 164 0
155 173 0
157 176 0
146 167 0
154 171 0
148 166 0
148 168 0
150 169 0
155 172 0
149 168 0
154 173 0
150 166 0
152 171 0
152 168 0
147 165 0
152 167 0
152 171 0
147 165 0
156 175 0
151 167 0
156 174 0
154 171 0
149 167 0
152 170 0
153 172 0
148 167 0
147 165 0
150 168 0
150 167 0
154 171 0
154 172 0
156 174 0
152 170 0
151 169 0
150 169 0
148 164 0
150 165 0
146 164 0
150 166 0
151 169 0
149 166 0
156 174 0
148 163 0
152 168 0
153 170 0
150 165 0
149 164 0
160 175 0
148 163 0
148 162 0
151 165 0
145 161 0
151 163 0
151 166 0
154 170 0
150 166 0
155 172 0
148 162 0
150 164 0
154 168 0
155 169 0
151 167 0
152 168 0
151 167 0
151 164 0
153 167 0
154 166 0
152 166 0
150 167 0
153 170 0
150 165 0
150 164 0
156 167 0
147 160 0
155 169 0
148 162 0
157 170 0
156 169 0
155 170 0
152 164 0
155 172 0
147 160 0
150 164 0
148 162 0
158 174 0
143 156 0
158 171 0
150 163 0
147 157 0
152 166 0
157 171 0
153 166 0
152 164 0
153 167 0
153 163 0
150 163 0
145 157 0
151 163 0
155 166 0
153 167 0
154 164 0
156 171 0
156 169 0
152 167 0
150 161 0
153 166 0
162 175 0
152 164 0
152 164 0
159 173 0
169 192 0
173 196 0
170 193 0
167 190 0
169 191 0
168 191 0
165 188 0
171 193 0
170 193 0
170 193 0
167 190 0
167 189 0
171 193 0
169 192 0
170 192 0
168 191 0
167 189 0
168 191 0
165 188 0
170 193 0
163 185 0
169 192 0
170 192 0
169 191 0
171 193 0
167 190 0
164 186 0
169 192 0
168 191 0
170 193 0
168 191 0
166 189 0
165 188 0
161 185 0
168 190 0
163 186 0
162 185 0
168 190 0
166 189 0
161 185 0
161 183 0
164 187 0
165 188 0
165 188 0
165 188 0
160 183 0
168 190 0
162 185 0
163 186 0
165 187 0
163 186 0
166 189 0
161 184 0
163 186 0
162 185 0
159 182 0
163 185 0
161 184 0
158 180 0
160 183 0
162 186 0
158 180 0
164 187 0
161 182 0
160 183 0
159 183 0
160 183 0
158 181 0
160 182 0
161 184 0
166 189 0
166 189 0
158 180 0
168 191 0
160 183 0
163 186 0
163 186 0
159 182 0
164 186 0
165 188 0
161 184 0
162 185 0
165 187 0
165 188 0
162 185 0
160 183 0
156 180 0
155 178 0
160 184 0
166 190 0
157 180 0
161 183 0
162 184 0
163 186 0
156 178 0
158 181 0
155 178 0
165 186 0
161 184 0
167 190 0
160 184 0
157 179 0
164 187 0
157 180 0
163 185 0
166 189 0
159 183 0
160 183 0
159 182 0
159 182 0
160 182 0
159 181 0
161 183 0
154 177 0
159 183 0
159 182 0
159 182 0
155 178 0
161 186 0
154 177 0
163 185 0
157 180 0
157 180 0
152 175 0
157 179 0
156 179 0
160 182 0
155 177 0
157 180 0
156 179 0
161 183 0
152 173 0
158 181 0
155 178 0
154 177 0
149 170 0
158 180 0
160 183 0
148 171 0
156 179 0
150 172 0
153 176 0
152 174 0
150 173 0
162 185 0
152 174 0
149 171 0
156 179 0
160 182 0
155 176 0
162 184 0
152 175 0
158 180 0
155 177 0
150 172 0
156 178 0
146 169 0
156 178 0
157 179 0
158 182 0
155 177 0
156 177 0
152 174 0
157 178 0
151 173 0
149 171 0
149 172 0
156 178 0
149 172 0
161 183 0
148 169 0
147 168 0
153 176 0
154 176 0
150 171 0
149 171 0
144 165 0
157 179 0
160 183 0
150 172 0
151 174 0
151 172 0
152 172 0
154 176 0
145 166 0
153 175 0
147 170 0
149 171 0
143 165 0
155 177 0
158 180 0
156 179 0
146 168 0
150 172 0
144 165 0
154 176 0
151 173 0
149 171 0
148 170 0
157 179 0
149 171 0
148 169 0
147 169 0
151 171 0
148 170 0
137 158 0
153 175 0
150 172 0
151 173 0
152 174 0
144 165 0
149 171 0
157 179 0
147 169 0
148 168 0
151 173 0
145 168 0
150 172 0
153 175 0
156 177 0
155 175 0
149 169 0
156 178 0
150 172 0
150 170 0
149 170 0
144 165 0
146 167 0
147 170 0
136 156 0
151 172 0
144 165 0
150 171 0
154 176 0
149 171 0
150 170 0
151 174 0
151 170 0
154 173 0
144 165 0
148 170 0
147 169 0
156 178 0
149 170 0
154 175 0
144 165 0
146 166 0
153 173 0
152 174 0
157 178 0
149 170 0
151 172 0
148 167 0
151 173 0
153 174 0
152 175 0
149 169 0
155 176 0
154 174 0
147 167 0
141 161 0
152 172 0
154 173 0
145 165 0
146 167 0
147 169 0
150 170 0
148 168 0
153 174 0
154 173 0
145 164 0
153 173 0
151 172 0
150 169 0
153 171 0
153 174 0
149 168 0
151 172 0
148 167 0
150 170 0
150 171 0
153 173 0
148 167 0
146 164 0
148 168 0
155 173 0
153 172 0
155 173 0
149 168 0
148 168 0
153 173 0
145 164 0
161 181 0
151 168 0
155 175 0
147 164 0
154 172 0
148 167 0
148 165 0
152 170 0
154 169 0
149 167 0
140 159 0
149 168 0
152 171 0
148 165 0
159 177 0
148 165 0
146 165 0
155 175 0
155 172 0
152 168 0
157 174 0
153 172 0
145 165 0
148 165 0
153 169 0
151 166 0
150 167 0
155 173 0
152 171 0
153 170 0
147 165 0
143 160 0
151 168 0
156 173 0
156 173 0
149 165 0
151 168 0
153 168 0
150 165 0
151 169 0
154 170 0
149 163 0
154 169 0
148 166 0
149 165 0
156 172 0
144 160 0
153 169 0
150 166 0
150 165 0
146 163 0
140 155 0
157 171 0
153 169 0
146 160 0
156 172 0
149 163 0
149 165 0
143 157 0
152 168 0
141 154 0
150 166 0
152 166 0
149 164 0
145 160 0
153 168 0
155 170 0
161 177 0
158 173 0
159 173 0
157 172 0
146 158 0
150 164 0
155 170 0
157 170 0
155 171 0
159 171 0
151 165 0
150 161 0
146 159 0
146 158 0
157 169 0
150 163 0
157 171 0
151 161 0
150 163 0
152 168 0
151 163 0
157 172 0
152 165 0
149 162 0
154 166 0
153 165 0
149 163 0
148 160 0
154 166 0
153 166 0
152 164 0
151 162 0
153 166 0
148 161 0
154 167 0
158 172 0
156 171 0
155 166 0
157 172 0
151 166 0
153 165 0
168 191 0
171 194 0
166 189 0
168 190 0
170 192 0
167 189 0
168 191 0
165 188 0
168 191 0
164 188 0
164 186 0
168 191 0
167 190 0
165 188 0
165 188 0
169 192 0
168 191 0
165 188 0
169 191 0
166 190 0
166 189 0
166 188 0
165 188 0
169 192 0
162 185 0
165 188 0
166 188 0
167 189 0
165 187 0
163 186 0
170 192 0
173 195 0
168 192 0
168 190 0
167 190 0
168 190 0
170 192 0
166 190 0
165 189 0
160 183 0
167 190 0
163 186 0
168 190 0
169 191 0
163 186 0
166 189 0
163 185 0
169 192 0
160 182 0
159 182 0
160 182 0
165 187 0
163 186 0
162 185 0
167 190 0
166 189 0
160 183 0
166 188 0
164 186 0
159 182 0
159 183 0
165 187 0
159 182 0
156 179 0
163 187 0
163 187 0
158 182 0
163 186 0
167 190 0
165 188 0
163 186 0
158 181 0
166 189 0
164 188 0
164 187 0
159 182 0
162 186 0
158 181 0
166 188 0
157 180 0
159 181 0
160 183 0
163 187 0
162 184 0
164 186 0
161 182 0
162 185 0
160 183 0
160 182 0
155 178 0
162 185 0
159 182 0
164 187 0
164 187 0
162 185 0
164 186 0
161 184 0
163 187 0
159 183 0
159 182 0
163 187 0
154 177 0
158 181 0
161 184 0
160 184 0
154 177 0
162 185 0
156 180 0
159 182 0
162 185 0
159 182 0
162 185 0
157 180 0
159 183 0
154 177 0
163 186 0
160 183 0
149 171 0
156 180 0
158 180 0
160 183 0
160 183 0
166 189 0
160 182 0
157 180 0
158 181 0
152 174 0
150 173 0
154 176 0
159 182 0
158 180 0
164 187 0
163 185 0
160 181 0
154 177 0
161 184 0
162 184 0
159 182 0
150 173 0
159 182 0
160 183 0
153 176 0
150 172 0
152 175 0
157 178 0
153 176 0
156 180 0
153 174 0
156 177 0
152 175 0
153 177 0
158 180 0
152 173 0
153 175 0
145 167 0
154 176 0
160 183 0
154 176 0
157 180 0
151 173 0
157 181 0
148 171 0
155 179 0
153 175 0
157 179 0
158 180 0
156 178 0
151 173 0
151 173 0
150 173 0
157 178 0
158 179 0
152 176 0
159 181 0
153 175 0
146 169 0
147 169 0
158 181 0
150 172 0
152 174 0
146 167 0
149 171 0
153 174 0
155 176 0
148 169 0
155 177 0
149 172 0
153 175 0
158 180 0
151 173 0
147 170 0
155 177 0
154 176 0
142 162 0
158 180 0
145 166 0
146 168 0
154 174 0
151 172 0
149 172 0
158 180 0
148 169 0
152 173 0
155 176 0
154 177 0
148 169 0
153 174 0
150 171 0
144 165 0
149 171 0
144 166 0
155 176 0
146 167 0
153 176 0
146 168 0
147 168 0
155 176 0
153 175 0
151 173 0
149 170 0
150 173 0
149 171 0
150 171 0
145 167 0
143 166 0
151 171 0
144 163 0
147 168 0
142 163 0
150 170 0
156 177 0
144 166 0
143 164 0
145 165 0
148 169 0
145 166 0
145 165 0
151 172 0
158 179 0
146 167 0
154 175 0
153 174 0
159 180 0
150 172 0
150 172 0
153 174 0
148 168 0
155 176 0
151 170 0
138 158 0
147 168 0
145 166 0
150 171 0
144 164 0
151 171 0
151 171 0
156 178 0
150 170 0
152 172 0
147 167 0
142 162 0
152 172 0
150 171 0
151 171 0
155 176 0
144 163 0
157 179 0
151 173 0
156 176 0
154 173 0
153 174 0
151 173 0
152 171 0
155 175 0
155 174 0
150 169 0
154 173 0
152 173 0
142 160 0
150 168 0
151 170 0
153 175 0
148 167 0
153 174 0
156 174 0
150 170 0
155 176 0
146 167 0
149 168 0
146 166 0
148 167 0
148 167 0
147 165 0
147 165 0
147 166 0
151 170 0
150 168 0
151 171 0
151 170 0
145 163 0
148 168 0
152 171 0
154 174 0
150 169 0
154 174 0
148 167 0
154 170 0
154 173 0
145 162 0
157 177 0
153 171 0
154 172 0
155 174 0
148 166 0
148 166 0
157 176 0
150 168 0
148 165 0
153 172 0
149 168 0
149 168 0
147 164 0
151 167 0
157 176 0
151 168 0
153 168 0
150 164 0
147 164 0
154 173 0
153 169 0
149 166 0
153 170 0
153 171 0
156 173 0
160 178 0
149 166 0
153 168 0
149 165 0
144 161 0
154 170 0
145 157 0
152 169 0
150 166 0
154 169 0
149 164 0
149 164 0
145 160 0
153 172 0
155 172 0
152 168 0
146 160 0
143 157 0
150 165 0
149 166 0
154 168 0
151 167 0
154 169 0
148 161 0
146 160 0
153 169 0
153 165 0
152 167 0
159 175 0
151 161 0
152 167 0
147 162 0
146 157 0
158 175 0
152 167 0
150 167 0
155 173 0
156 172 0
152 168 0
153 170 0
153 167 0
147 159 0
151 166 0
156 169 0
152 165 0
161 177 0
153 165 0
152 167 0
152 166 0
149 161 0
153 165 0
152 165 0
158 170 0
152 166 0
160 175 0
156 168 0
153 165 0
155 167 0
160 174 0
142 154 0
159 172 0
151 163 0
154 168 0
154 169 0
151 163 0
154 167 0
166 189 0
166 190 0
169 192 0
170 192 0
166 188 0
170 193 0
169 193 0
166 189 0
170 192 0
168 191 0
165 187 0
166 189 0
163 185 0
164 186 0
172 196 0
164 187 0
166 189 0
171 194 0
168 190 0
162 185 0
168 191 0
165 187 0
164 187 0
168 190 0
170 193 0
165 188 0
163 186 0
168 191 0
167 189 0
166 189 0
170 192 0
169 191 0
160 183 0
167 191 0
165 188 0
168 190 0
165 188 0
167 190 0
166 188 0
166 189 0
168 192 0
166 189 0
163 186 0
165 188 0
167 189 0
162 185 0
165 187 0
162 184 0
160 184 0
166 189 0
164 187 0
166 189 0
168 192 0
164 187 0
162 186 0
166 189 0
166 189 0
166 189 0
161 185 0
165 187 0
165 188 0
165 188 0
162 185 0
167 189 0
166 188 0
163 187 0
166 189 0
159 182 0
166 189 0
164 187 0
162 185 0
166 187 0
158 180 0
164 187 0
160 183 0
160 183 0
163 186 0
162 185 0
167 190 0
163 186 0
164 186 0
167 190 0
162 185 0
159 181 0
156 178 0
157 180 0
161 184 0
161 184 0
161 183 0
159 182 0
166 188 0
167 190 0
162 184 0
161 183 0
159 182 0
164 186 0
159 182 0
162 185 0
155 179 0
161 184 0
165 188 0
158 181 0
161 184 0
157 180 0
157 179 0
158 180 0
161 184 0
161 184 0
155 177 0
157 179 0
162 185 0
155 178 0
161 185 0
162 185 0
162 185 0
160 183 0
157 181 0
156 179 0
158 180 0
160 183 0
163 185 0
161 184 0
161 184 0
158 181 0
154 176 0
154 176 0
159 182 0
163 186 0
160 183 0
150 172 0
158 180 0
156 179 0
159 182 0
161 183 0
156 179 0
154 176 0
158 182 0
155 177 0
159 183 0
154 177 0
152 175 0
164 186 0
159 181 0
153 176 0
156 179 0
161 183 0
160 183 0
154 177 0
153 175 0
155 177 0
148 170 0
158 180 0
156 178 0
153 176 0
155 177 0
150 173 0
152 175 0
158 180 0
155 176 0
150 173 0
151 174 0
157 179 0
158 179 0
157 180 0
157 177 0
148 170 0
159 182 0
151 173 0
157 179 0
158 180 0
160 181 0
151 174 0
160 183 0
161 185 0
151 173 0
153 175 0
145 167 0
153 176 0
148 170 0
152 173 0
153 174 0
158 181 0
154 176 0
151 172 0
150 171 0
156 178 0
150 173 0
153 175 0
150 172 0
152 174 0
158 181 0
154 176 0
146 168 0
149 172 0
156 178 0
156 179 0
143 164 0
154 177 0
155 177 0
148 170 0
152 173 0
153 175 0
150 170 0
153 174 0
159 180 0
143 165 0
146 168 0
154 177 0
157 177 0
150 171 0
157 178 0
146 167 0
152 174 0
159 181 0
151 172 0
155 175 0
157 178 0
153 175 0
149 172 0
144 165 0
154 175 0
150 172 0
152 174 0
149 169 0
152 173 0
150 170 0
153 174 0
139 161 0
151 173 0
151 172 0
154 175 0
145 166 0
147 166 0
145 167 0
149 168 0
147 169 0
153 173 0
155 175 0
151 172 0
146 167 0
152 175 0
152 173 0
150 173 0
151 171 0
160 181 0
149 169 0
144 163 0
154 176 0
149 169 0
157 180 0
138 159 0
143 164 0
152 171 0
151 169 0
148 167 0
152 173 0
151 171 0
154 175 0
149 169 0
150 170 0
148 168 0
160 178 0
148 167 0
153 174 0
155 173 0
155 177 0
156 179 0
149 168 0
149 168 0
152 172 0
151 172 0
155 174 0
153 174 0
150 169 0
151 171 0
152 173 0
152 171 0
154 173 0
148 168 0
149 167 0
153 174 0
150 170 0
156 174 0
156 174 0
143 162 0
153 172 0
152 171 0
153 171 0
152 171 0
152 171 0
147 165 0
151 170 0
153 173 0
152 171 0
148 167 0
153 172 0
151 171 0
147 165 0
152 173 0
152 171 0
149 169 0
158 177 0
149 166 0
152 170 0
146 164 0
150 169 0
154 171 0
149 167 0
152 169 0
158 177 0
151 169 0
149 166 0
153 172 0
148 166 0
159 178 0
154 171 0
147 165 0
154 171 0
150 169 0
152 172 0
153 170 0
148 166 0
149 166 0
154 172 0
147 163 0
158 178 0
153 171 0
152 169 0
153 171 0
149 166 0
149 166 0
152 170 0
153 170 0
152 170 0
146 161 0
149 165 0
156 171 0
148 163 0
148 164 0
149 163 0
149 163 0
153 171 0
157 173 0
147 163 0
148 165 0
145 158 0
148 163 0
147 165 0
143 159 0
148 164 0
147 164 0
157 172 0
153 170 0
152 168 0
155 171 0
149 165 0
160 175 0
153 168 0
145 159 0
153 171 0
154 169 0
152 169 0
153 166 0
151 166 0
151 166 0
153 167 0
149 162 0
155 170 0
152 167 0
154 171 0
151 165 0
151 166 0
151 165 0
150 165 0
146 159 0
153 165 0
158 172 0
154 168 0
153 166 0
158 174 0
155 167 0
154 168 0
153 165 0
156 172 0
153 167 0
156 170 0
155 169 0
159 172 0
154 169 0
149 162 0
152 165 0
155 168 0
150 161 0
160 177 0
153 166 0
160 174 0
161 175 0
156 171 0
158 174 0
155 164 0
171 194 0
168 191 0
167 189 0
166 188 0
164 187 0
166 189 0
170 193 0
170 192 0
166 188 0
172 195 0
166 189 0
171 194 0
168 192 0
167 190 0
169 192 0
165 187 0
166 189 0
168 190 0
166 189 0
164 188 0
167 190 0
171 194 0
168 190 0
163 186 0
170 192 0
167 190 0
166 188 0
159 182 0
163 185 0
165 188 0
166 189 0
163 184 0
166 188 0
165 189 0
166 189 0
166 189 0
166 189 0
166 190 0
163 187 0
166 188 0
169 193 0
164 187 0
167 190 0
165 188 0
159 182 0
167 189 0
159 181 0
163 185 0
169 192 0
166 189 0
162 186 0
161 184 0
169 191 0
163 185 0
156 179 0
164 187 0
160 182 0
163 185 0
167 191 0
166 189 0
161 184 0
158 181 0
166 188 0
157 180 0
165 188 0
159 182 0
155 178 0
156 179 0
164 188 0
161 185 0
156 180 0
158 180 0
165 187 0
165 188 0
159 181 0
156 178 0
161 183 0
160 183 0
162 185 0
162 184 0
156 178 0
162 186 0
157 180 0
162 185 0
160 183 0
164 187 0
163 186 0
164 188 0
159 181 0
161 185 0
161 184 0
162 186 0
164 186 0
160 183 0
159 182 0
158 181 0
163 185 0
154 178 0
161 184 0
162 184 0
162 186 0
158 181 0
162 184 0
154 177 0
159 181 0
161 182 0
161 184 0
164 187 0
156 180 0
164 186 0
156 179 0
160 183 0
153 177 0
157 179 0
164 187 0
150 172 0
158 181 0
158 179 0
161 183 0
157 181 0
162 184 0
162 184 0
157 179 0
155 178 0
156 179 0
161 184 0
149 172 0
160 184 0
154 176 0
162 184 0
162 184 0
161 183 0
153 175 0
155 178 0
155 178 0
155 177 0
149 171 0
154 176 0
161 183 0
159 180 0
153 175 0
156 179 0
154 177 0
157 179 0
157 179 0
157 180 0
155 178 0
161 184 0
154 176 0
156 179 0
159 182 0
152 175 0
145 168 0
152 174 0
154 176 0
151 174 0
153 176 0
154 176 0
150 173 0
149 172 0
153 175 0
150 172 0
154 177 0
157 179 0
151 174 0
151 174 0
150 172 0
150 172 0
152 173 0
153 174 0
147 169 0
145 168 0
155 177 0
146 168 0
154 176 0
154 175 0
150 172 0
151 173 0
145 166 0
150 172 0
159 182 0
151 174 0
157 181 0
153 175 0
154 176 0
154 175 0
162 184 0
157 180 0
151 174 0
146 168 0
159 182 0
153 175 0
151 173 0
156 177 0
146 169 0
150 171 0
144 165 0
151 171 0
153 175 0
147 168 0
149 172 0
152 173 0
158 179 0
148 170 0
150 171 0
149 171 0
153 175 0
151 172 0
141 161 0
151 173 0
142 163 0
152 173 0
156 177 0
152 173 0
150 170 0
151 172 0
156 178 0
147 168 0
152 172 0
149 170 0
149 170 0
149 170 0
152 174 0
144 166 0
151 172 0
154 175 0
154 176 0
152 174 0
147 167 0
149 170 0
150 172 0
142 163 0
153 174 0
143 164 0
156 177 0
152 173 0
148 168 0
155 176 0
157 177 0
145 166 0
151 173 0
140 159 0
149 170 0
146 167 0
149 169 0
142 163 0
150 169 0
142 161 0
146 166 0
153 172 0
150 172 0
159 179 0
156 176 0
149 169 0
148 169 0
156 177 0
147 167 0
153 174 0
157 177 0
148 167 0
149 168 0
147 166 0
157 179 0
141 160 0
149 168 0
154 173 0
151 170 0
150 171 0
153 173 0
145 164 0
145 162 0
152 171 0
155 177 0
150 170 0
143 162 0
154 174 0
152 174 0
160 182 0
151 171 0
157 177 0
150 169 0
154 175 0
144 164 0
152 174 0
156 175 0
149 169 0
153 174 0
149 168 0
147 165 0
151 174 0
155 175 0
155 174 0
149 169 0
146 165 0
147 166 0
153 173 0
151 170 0
152 170 0
149 168 0
152 170 0
142 158 0
155 173 0
150 168 0
154 173 0
149 167 0
145 164 0
149 166 0
146 164 0
154 173 0
158 176 0
152 171 0
150 169 0
146 162 0
148 166 0
154 174 0
157 176 0
164 182 0
154 171 0
158 176 0
154 171 0
160 178 0
145 163 0
143 160 0
143 161 0
160 178 0
151 171 0
149 167 0
149 168 0
156 173 0
153 170 0
150 164 0
151 168 0
163 182 0
150 166 0
148 163 0
152 169 0
155 171 0
152 169 0
148 164 0
151 166 0
158 173 0
156 173 0
153 168 0
150 168 0
150 167 0
148 163 0
144 160 0
147 162 0
151 164 0
155 170 0
149 164 0
154 170 0
150 164 0
152 166 0
155 172 0
149 165 0
159 173 0
153 166 0
155 171 0
152 167 0
150 167 0
154 173 0
151 166 0
153 166 0
148 162 0
149 164 0
158 173 0
157 171 0
153 165 0
154 169 0
156 170 0
148 160 0
151 166 0
154 171 0
145 156 0
156 172 0
157 170 0
152 166 0
153 166 0
153 168 0
160 174 0
154 168 0
157 172 0
154 170 0
148 162 0
158 173 0
157 172 0
155 170 0
159 173 0
152 166 0
150 162 0
153 168 0
156 171 0
154 166 0
155 169 0
157 171 0
157 171 0
151 165 0
159 173 0
158 172 0
167 190 0
169 192 0
161 184 0
165 188 0
166 189 0
166 189 0
172 195 0
162 184 0
168 190 0
167 190 0
167 189 0
166 188 0
172 195 0
170 192 0
166 188 0
163 186 0
163 186 0
163 186 0
160 182 0
163 186 0
169 192 0
168 190 0
166 190 0
168 190 0
167 190 0
171 194 0
164 186 0
168 190 0
164 187 0
168 191 0
167 190 0
163 187 0
166 189 0
166 189 0
168 190 0
169 192 0
165 188 0
165 188 0
168 191 0
162 184 0
164 187 0
158 181 0
168 191 0
166 189 0
162 184 0
164 187 0
160 183 0
168 191 0
164 187 0
161 184 0
165 188 0
168 191 0
162 185 0
165 188 0
164 187 0
162 186 0
166 190 0
164 187 0
160 182 0
162 184 0
160 183 0
165 188 0
163 187 0
165 188 0
160 183 0
165 188 0
167 190 0
160 184 0
159 181 0
164 187 0
160 184 0
166 188 0
160 183 0
164 186 0
166 189 0
162 185 0
168 191 0
164 187 0
160 183 0
163 187 0
162 185 0
163 186 0
164 187 0
164 187 0
163 186 0
159 182 0
159 182 0
158 180 0
161 183 0
161 184 0
166 190 0
162 185 0
162 186 0
162 185 0
162 184 0
161 184 0
161 184 0
158 181 0
156 179 0
163 185 0
160 183 0
157 180 0
159 181 0
163 186 0
162 185 0
163 185 0
159 182 0
158 180 0
160 183 0
156 178 0
153 176 0
162 186 0
159 182 0
155 178 0
160 182 0
158 181 0
159 181 0
158 182 0
163 186 0
156 178 0
160 183 0
162 185 0
158 182 0
158 181 0
160 182 0
154 175 0
153 176 0
162 184 0
159 181 0
150 172 0
156 178 0
158 181 0
153 175 0
151 173 0
154 177 0
154 176 0
160 183 0
154 179 0
163 186 0
154 176 0
158 180 0
158 181 0
152 175 0
150 173 0
155 176 0
163 186 0
157 179 0
155 177 0
154 176 0
159 181 0
152 174 0
146 168 0
157 181 0
153 175 0
151 174 0
154 177 0
148 170 0
148 170 0
153 174 0
157 180 0
159 182 0
152 174 0
163 186 0
156 178 0
156 178 0
156 178 0
153 175 0
151 174 0
140 162 0
150 173 0
152 173 0
156 179 0
152 175 0
154 177 0
155 177 0
152 173 0
155 176 0
153 176 0
154 177 0
152 175 0
153 176 0
155 177 0
155 176 0
152 173 0
153 175 0
160 181 0
150 172 0
151 172 0
152 174 0
158 181 0
155 177 0
146 166 0
151 174 0
156 179 0
150 171 0
149 171 0
154 175 0
154 176 0
149 171 0
148 170 0
142 163 0
149 171 0
154 176 0
141 161 0
155 177 0
151 172 0
154 175 0
153 173 0
142 165 0
152 174 0
145 166 0
162 184 0
156 177 0
155 177 0
148 171 0
151 172 0
149 170 0
155 176 0
141 162 0
156 177 0
152 173 0
151 174 0
151 171 0
147 169 0
150 172 0
151 172 0
144 167 0
152 173 0
151 171 0
142 163 0
154 175 0
156 178 0
150 172 0
155 177 0
153 173 0
149 170 0
154 173 0
153 174 0
151 170 0
150 171 0
147 166 0
148 168 0
144 164 0
147 167 0
149 170 0
153 174 0
146 165 0
151 173 0
153 175 0
142 162 0
151 172 0
154 175 0
148 169 0
142 163 0
148 170 0
156 176 0
157 178 0
146 166 0
142 162 0
150 170 0
146 168 0
147 167 0
156 176 0
143 163 0
148 167 0
153 172 0
152 172 0
152 173 0
148 168 0
149 168 0
150 169 0
153 174 0
152 172 0
154 174 0
158 175 0
151 170 0
154 175 0
153 175 0
156 176 0
145 165 0
154 174 0
155 176 0
153 173 0
148 169 0
149 169 0
150 171 0
155 175 0
147 167 0
153 173 0
155 172 0
158 179 0
150 169 0
146 165 0
143 163 0
155 174 0
146 164 0
147 165 0
150 165 0
152 170 0
156 175 0
158 179 0
151 169 0
151 171 0
155 174 0
147 166 0
158 177 0
155 172 0
148 168 0
149 166 0
146 165 0
153 171 0
155 174 0
153 171 0
152 173 0
161 178 0
149 166 0
153 171 0
159 178 0
154 172 0
150 167 0
155 170 0
147 164 0
150 169 0
150 170 0
158 177 0
157 176 0
145 162 0
158 177 0
157 174 0
155 173 0
149 169 0
155 173 0
157 173 0
152 168 0
147 165 0
145 161 0
153 172 0
145 162 0
150 167 0
159 176 0
160 176 0
152 168 0
149 165 0
156 172 0
152 167 0
154 170 0
153 172 0
152 168 0
152 170 0
151 169 0
157 172 0
144 157 0
158 176 0
147 160 0
148 163 0
155 173 0
154 168 0
154 169 0
153 168 0
147 161 0
148 165 0
159 177 0
154 170 0
158 176 0
154 169 0
153 167 0
157 171 0
151 166 0
156 171 0
152 163 0
149 164 0
158 174 0
151 163 0
153 168 0
151 164 0
153 168 0
141 154 0
150 165 0
154 168 0
157 171 0
152 168 0
155 169 0
155 169 0
155 169 0
156 170 0
151 165 0
149 165 0
153 166 0
155 169 0
158 172 0
147 158 0
160 172 0
156 170 0
154 167 0
160 175 0
161 174 0
156 169 0
158 172 0
158 173 0
159 175 0
165 187 0
167 190 0
168 192 0
171 193 0
170 192 0
171 194 0
166 188 0
170 192 0
166 189 0
168 190 0
161 184 0
164 186 0
168 191 0
161 184 0
169 192 0
168 190 0
169 191 0
168 191 0
167 191 0
163 186 0
165 189 0
165 189 0
166 188 0
166 189 0
167 190 0
168 191 0
169 192 0
168 192 0
162 185 0
166 189 0
166 189 0
168 191 0
168 191 0
160 183 0
165 188 0
165 188 0
164 188 0
162 185 0
162 185 0
165 187 0
161 184 0
163 187 0
162 185 0
161 184 0
164 188 0
167 189 0
169 192 0
160 182 0
168 192 0
167 189 0
161 184 0
165 187 0
166 189 0
165 189 0
164 187 0
164 187 0
160 183 0
164 186 0
166 189 0
167 190 0
162 184 0
163 186 0
160 184 0
160 184 0
168 191 0
161 184 0
158 180 0
164 187 0
163 186 0
158 180 0
164 187 0
162 185 0
162 184 0
162 186 0
159 182 0
162 184 0
161 184 0
157 179 0
163 186 0
163 186 0
168 191 0
159 182 0
168 191 0
158 181 0
163 187 0
158 181 0
156 179 0
159 181 0
163 185 0
156 179 0
160 183 0
164 187 0
161 184 0
158 180 0
160 183 0
166 189 0
161 183 0
161 184 0
162 186 0
159 183 0
164 186 0
161 185 0
162 184 0
162 185 0
158 180 0
160 182 0
160 184 0
159 182 0
162 185 0
163 186 0
158 181 0
159 182 0
156 179 0
156 178 0
156 179 0
165 188 0
161 184 0
160 184 0
159 181 0
162 185 0
159 182 0
162 185 0
157 179 0
160 182 0
158 180 0
158 180 0
161 184 0
161 183 0
153 176 0
158 182 0
152 175 0
158 180 0
158 181 0
154 176 0
145 167 0
158 181 0
156 178 0
154 177 0
155 178 0
152 176 0
156 179 0
154 176 0
155 178 0
157 180 0
156 179 0
151 172 0
154 177 0
154 177 0
160 183 0
147 169 0
154 176 0
151 174 0
162 184 0
154 176 0
154 176 0
159 181 0
153 175 0
159 181 0
156 178 0
155 178 0
156 180 0
159 182 0
155 178 0
154 176 0
159 181 0
151 174 0
157 178 0
158 182 0
155 176 0
158 181 0
154 175 0
154 176 0
151 173 0
158 180 0
156 179 0
151 173 0
150 172 0
150 173 0
149 171 0
156 177 0
152 173 0
150 172 0
154 176 0
154 176 0
151 172 0
150 172 0
148 170 0
152 174 0
152 174 0
152 173 0
151 174 0
154 176 0
157 178 0
149 168 0
148 170 0
143 164 0
148 169 0
156 178 0
146 168 0
149 170 0
153 175 0
151 173 0
158 180 0
155 176 0
151 174 0
148 170 0
149 172 0
154 176 0
149 171 0
145 165 0
149 170 0
147 168 0
152 174 0
151 174 0
150 173 0
156 175 0
154 176 0
153 174 0
153 174 0
148 170 0
161 182 0
158 179 0
155 177 0
146 167 0
154 176 0
151 173 0
152 173 0
157 179 0
154 175 0
146 168 0
152 172 0
150 172 0
155 176 0
154 175 0
149 172 0
151 172 0
153 173 0
153 174 0
146 167 0
157 177 0
154 174 0
149 169 0
153 174 0
155 177 0
148 169 0
150 170 0
149 170 0
158 178 0
153 174 0
149 170 0
153 174 0
151 172 0
153 173 0
149 171 0
155 176 0
156 176 0
154 174 0
153 174 0
154 175 0
148 169 0
155 174 0
144 164 0
160 181 0
147 169 0
157 178 0
150 168 0
154 175 0
149 169 0
148 167 0
148 166 0
159 179 0
146 167 0
151 170 0
154 175 0
149 170 0
150 170 0
151 172 0
147 166 0
139 157 0
150 170 0
150 169 0
152 172 0
161 181 0
151 172 0
152 173 0
154 174 0
138 157 0
145 166 0
148 168 0
151 171 0
148 169 0
151 170 0
151 170 0
151 173 0
152 172 0
154 173 0
148 167 0
159 177 0
149 169 0
150 169 0
149 169 0
151 172 0
152 172 0
149 166 0
155 175 0
148 167 0
152 171 0
148 163 0
156 174 0
155 173 0
157 177 0
155 173 0
153 174 0
156 175 0
149 168 0
146 163 0
156 175 0
156 174 0
152 169 0
145 164 0
147 165 0
149 165 0
152 169 0
142 159 0
158 176 0
148 164 0
157 176 0
146 163 0
154 173 0
150 169 0
152 167 0
153 169 0
154 171 0
153 171 0
155 173 0
157 173 0
147 163 0
153 169 0
151 170 0
154 173 0
151 169 0
155 173 0
147 163 0
152 168 0
149 165 0
153 169 0
154 172 0
154 172 0
150 165 0
150 168 0
150 168 0
157 174 0
150 164 0
156 172 0
160 178 0
155 172 0
153 167 0
159 175 0
153 168 0
148 166 0
151 167 0
154 169 0
156 173 0
152 169 0
145 159 0
155 170 0
152 167 0
151 168 0
158 174 0
159 176 0
157 172 0
153 168 0
148 164 0
147 161 0
157 173 0
156 172 0
153 167 0
158 173 0
155 172 0
150 165 0
154 167 0
153 167 0
155 171 0
152 167 0
157 172 0
157 170 0
159 172 0
150 164 0
158 172 0
153 167 0
162 174 0
151 165 0
154 169 0
157 170 0
153 167 0
157 169 0
149 163 0
156 170 0
148 162 0
159 173 0
168 190 0
170 193 0
165 187 0
165 188 0
170 193 0
166 189 0
173 195 0
164 186 0
168 190 0
169 192 0
164 187 0
166 189 0
163 186 0
164 187 0
166 189 0
164 186 0
167 190 0
162 185 0
167 189 0
159 181 0
169 192 0
164 188 0
164 187 0
165 189 0
163 186 0
162 184 0
165 188 0
166 187 0
171 194 0
168 191 0
165 188 0
159 182 0
164 186 0
171 194 0
165 188 0
163 186 0
168 191 0
157 179 0
165 188 0
169 191 0
161 184 0
158 181 0
166 189 0
162 185 0
167 190 0
166 190 0
161 184 0
163 186 0
163 185 0
168 191 0
165 187 0
168 191 0
162 185 0
165 188 0
165 188 0
167 190 0
164 187 0
162 186 0
160 183 0
163 186 0
160 183 0
161 184 0
160 182 0
160 183 0
159 181 0
163 185 0
164 186 0
162 186 0
164 187 0
158 181 0
165 187 0
163 187 0
159 181 0
164 188 0
161 184 0
165 188 0
163 186 0
162 185 0
166 189 0
155 178 0
165 189 0
155 178 0
163 186 0
165 188 0
164 187 0
162 185 0
162 186 0
160 183 0
162 186 0
166 189 0
157 180 0
158 181 0
159 182 0
160 182 0
159 182 0
158 181 0
163 185 0
162 185 0
160 183 0
158 181 0
162 184 0
158 181 0
164 186 0
157 180 0
163 186 0
159 182 0
161 184 0
159 183 0
159 182 0
157 180 0
154 177 0
160 183 0
151 173 0
157 180 0
167 189 0
163 186 0
160 183 0
154 175 0
161 183 0
154 177 0
158 181 0
163 186 0
157 179 0
161 184 0
160 182 0
159 182 0
148 169 0
159 182 0
161 185 0
158 181 0
166 189 0
154 177 0
166 188 0
162 185 0
154 176 0
154 176 0
161 183 0
156 179 0
155 176 0
157 179 0
155 177 0
157 179 0
159 182 0
159 182 0
152 174 0
153 176 0
154 175 0
156 178 0
155 177 0
161 183 0
156 179 0
154 177 0
155 177 0
155 178 0
152 175 0
155 178 0
158 180 0
164 186 0
156 179 0
162 185 0
158 182 0
150 172 0
153 177 0
156 178 0
157 180 0
155 177 0
152 174 0
158 180 0
151 173 0
152 174 0
163 186 0
153 176 0
154 176 0
152 174 0
152 175 0
149 172 0
151 173 0
154 177 0
160 182 0
151 172 0
154 177 0
154 176 0
155 178 0
150 172 0
155 177 0
160 182 0
146 167 0
159 181 0
158 180 0
159 180 0
150 171 0
159 179 0
150 171 0
153 174 0
154 175 0
155 176 0
153 176 0
153 174 0
148 169 0
153 174 0
157 178 0
152 174 0
156 177 0
150 171 0
157 178 0
155 177 0
150 171 0
148 169 0
155 177 0
142 165 0
155 175 0
154 176 0
142 163 0
152 173 0
154 176 0
157 179 0
148 170 0
143 163 0
154 176 0
155 177 0
145 165 0
151 172 0
154 175 0
153 175 0
152 174 0
152 173 0
156 178 0
148 169 0
158 180 0
145 167 0
144 165 0
155 176 0
157 178 0
155 176 0
145 166 0
152 172 0
154 175 0
150 170 0
148 169 0
153 176 0
156 178 0
149 170 0
156 176 0
154 175 0
146 168 0
151 171 0
151 172 0
151 170 0
154 175 0
153 174 0
151 171 0
155 175 0
151 172 0
153 175 0
147 169 0
147 168 0
147 167 0
153 175 0
160 180 0
151 169 0
140 160 0
150 171 0
151 170 0
147 166 0
155 176 0
152 172 0
155 174 0
155 176 0
151 171 0
149 168 0
163 184 0
153 175 0
144 166 0
152 173 0
154 175 0
153 172 0
154 174 0
151 172 0
152 170 0
151 171 0
154 173 0
150 169 0
149 171 0
152 170 0
155 176 0
147 167 0
153 170 0
157 178 0
146 164 0
154 175 0
154 175 0
156 175 0
153 172 0
149 168 0
153 173 0
149 167 0
156 175 0
153 173 0
153 171 0
148 166 0
150 169 0
153 173 0
156 177 0
146 164 0
153 171 0
153 172 0
155 175 0
147 166 0
149 168 0
156 175 0
155 174 0
146 165 0
158 177 0
151 169 0
152 171 0
153 173 0
161 180 0
147 164 0
156 172 0
145 162 0
146 163 0
160 178 0
152 171 0
154 169 0
150 168 0
150 169 0
158 177 0
147 164 0
159 178 0
153 171 0
150 167 0
148 165 0
159 178 0
151 168 0
150 166 0
156 174 0
153 171 0
151 166 0
151 167 0
156 172 0
146 163 0
163 180 0
151 168 0
152 169 0
159 179 0
148 163 0
144 160 0
158 173 0
147 163 0
157 175 0
162 177 0
153 166 0
158 176 0
156 169 0
151 168 0
158 175 0
155 171 0
150 165 0
152 170 0
148 162 0
152 167 0
160 176 0
153 170 0
156 172 0
156 172 0
147 161 0
146 160 0
157 172 0
155 170 0
154 169 0
151 167 0
155 170 0
151 167 0
158 174 0
158 173 0
158 172 0
155 167 0
150 166 0
155 172 0
153 168 0
150 163 0
152 166 0
157 171 0
156 169 0
153 166 0
156 172 0
151 163 0
148 162 0
153 168 0
147 160 0
151 164 0
156 170 0
156 169 0
154 168 0
161 176 0
157 173 0
152 166 0
149 162 0
157 171 0
158 173 0
169 192 0
163 185 0
166 189 0
165 188 0
167 189 0
168 191 0
165 189 0
166 190 0
167 189 0
168 192 0
167 190 0
167 190 0
174 196 0
169 192 0
165 188 0
165 188 0
167 190 0
168 190 0
170 193 0
166 189 0
170 193 0
166 189 0
165 188 0
169 192 0
166 190 0
165 187 0
168 192 0
167 190 0
163 186 0
163 185 0
166 190 0
165 187 0
166 189 0
166 190 0
165 188 0
159 181 0
161 183 0
168 190 0
166 188 0
162 185 0
162 184 0
160 183 0
169 192 0
165 188 0
166 188 0
165 188 0
166 189 0
165 188 0
165 188 0
164 185 0
161 185 0
166 189 0
163 186 0
165 187 0
165 189 0
165 187 0
165 189 0
167 190 0
165 188 0
165 187 0
161 183 0
158 180 0
160 182 0
166 189 0
160 184 0
165 188 0
164 188 0
165 188 0
159 181 0
161 184 0
161 184 0
158 181 0
160 182 0
160 183 0
165 188 0
161 184 0
163 186 0
159 181 0
167 189 0
161 184 0
157 180 0
166 189 0
165 187 0
163 185 0
168 192 0
161 184 0
162 184 0
163 186 0
165 188 0
163 185 0
161 183 0
157 179 0
164 187 0
158 181 0
158 181 0
165 188 0
150 172 0
163 187 0
156 179 0
161 184 0
164 187 0
161 183 0
158 180 0
157 180 0
157 180 0
155 178 0
162 185 0
155 178 0
159 181 0
150 172 0
164 187 0
163 187 0
157 180 0
159 181 0
166 190 0
160 183 0
161 185 0
157 180 0
158 181 0
157 179 0
159 181 0
160 182 0
158 182 0
160 181 0
154 176 0
152 175 0
159 181 0
158 180 0
152 174 0
151 173 0
161 184 0
159 182 0
155 178 0
158 181 0
160 183 0
154 177 0
158 180 0
156 178 0
159 182 0
159 182 0
155 177 0
157 180 0
157 179 0
155 177 0
158 181 0
160 183 0
161 185 0
162 185 0
157 179 0
158 182 0
158 181 0
153 175 0
152 175 0
153 175 0
151 173 0
156 179 0
156 178 0
157 179 0
157 180 0
155 178 0
152 174 0
162 185 0
156 178 0
159 182 0
154 176 0
154 177 0
148 170 0
155 177 0
154 175 0
149 171 0
157 180 0
153 176 0
156 178 0
152 175 0
149 171 0
150 173 0
152 174 0
153 176 0
152 174 0
152 175 0
159 181 0
153 174 0
150 171 0
151 173 0
151 173 0
152 173 0
154 177 0
151 172 0
160 184 0
154 176 0
154 176 0
156 178 0
149 171 0
153 175 0
155 178 0
150 172 0
155 178 0
156 178 0
157 179 0
148 170 0
151 174 0
141 162 0
154 175 0
148 171 0
151 172 0
152 174 0
150 172 0
153 175 0
150 173 0
153 173 0
149 171 0
153 173 0
159 181 0
149 169 0
149 171 0
151 172 0
149 170 0
156 176 0
156 178 0
144 165 0
153 174 0
151 173 0
152 174 0
149 170 0
152 172 0
153 175 0
149 171 0
146 167 0
151 171 0
147 168 0
147 168 0
154 175 0
144 166 0
153 175 0
148 168 0
150 171 0
151 171 0
157 179 0
145 165 0
154 174 0
153 173 0
155 177 0
152 173 0
158 180 0
152 172 0
154 175 0
152 171 0
146 166 0
150 171 0
156 177 0
157 178 0
151 171 0
157 178 0
144 164 0
156 177 0
152 173 0
144 164 0
151 172 0
146 166 0
156 175 0
146 166 0
149 170 0
149 170 0
150 169 0
147 169 0
156 178 0
161 180 0
153 174 0
146 168 0
158 179 0
148 168 0
154 174 0
147 167 0
155 174 0
149 170 0
149 168 0
153 175 0
149 168 0
152 173 0
149 168 0
156 177 0
155 174 0
142 162 0
155 176 0
156 177 0
159 181 0
148 168 0
153 174 0
155 175 0
153 172 0
152 172 0
156 175 0
160 180 0
153 173 0
149 171 0
151 169 0
158 178 0
149 169 0
154 173 0
157 176 0
152 170 0
156 177 0
155 173 0
157 176 0
154 173 0
143 161 0
159 176 0
155 174 0
155 174 0
146 164 0
150 169 0
153 170 0
159 176 0
152 170 0
147 164 0
151 167 0
153 171 0
153 171 0
150 169 0
157 176 0
154 171 0
153 170 0
148 164 0
159 179 0
158 177 0
156 174 0
150 170 0
147 163 0
151 169 0
151 168 0
156 175 0
139 155 0
153 171 0
156 174 0
149 166 0
154 171 0
154 170 0
156 172 0
152 170 0
149 166 0
150 167 0
157 174 0
155 170 0
154 171 0
149 166 0
150 165 0
153 169 0
148 164 0
153 171 0
158 173 0
152 169 0
148 165 0
153 169 0
155 171 0
146 163 0
154 172 0
152 168 0
151 169 0
152 168 0
153 169 0
146 163 0
155 172 0
151 167 0
157 175 0
153 166 0
157 173 0
158 175 0
154 170 0
156 172 0
149 165 0
145 161 0
153 166 0
155 173 0
152 167 0
153 168 0
154 170 0
154 168 0
155 171 0
156 172 0
157 174 0
151 166 0
147 162 0
154 168 0
157 170 0
156 173 0
156 172 0
151 165 0
154 170 0
158 174 0
155 168 0
162 177 0
157 168 0
148 162 0
148 163 0
161 176 0
160 174 0
158 175 0
149 164 0
155 170 0
154 169 0
169 191 0
167 189 0
168 192 0
167 189 0
172 195 0
164 188 0
167 190 0
165 189 0
165 188 0
169 192 0
167 189 0
163 185 0
172 194 0
169 192 0
166 189 0
170 192 0
167 190 0
164 187 0
166 190 0
169 192 0
174 197 0
165 188 0
170 192 0
170 192 0
162 184 0
166 189 0
166 189 0
165 188 0
162 185 0
165 189 0
167 190 0
170 192 0
170 192 0
164 187 0
166 189 0
167 190 0
169 192 0
164 187 0
165 188 0
170 194 0
161 184 0
165 188 0
160 182 0
167 190 0
166 189 0
168 191 0
163 185 0
167 190 0
164 186 0
163 185 0
164 187 0
163 187 0
169 193 0
163 186 0
164 187 0
160 183 0
162 185 0
163 187 0
165 187 0
163 186 0
170 192 0
164 187 0
160 184 0
165 188 0
165 187 0
163 186 0
164 187 0
161 184 0
157 181 0
158 181 0
163 187 0
166 188 0
165 188 0
165 189 0
167 190 0
162 184 0
162 184 0
162 184 0
162 185 0
164 187 0
165 187 0
169 192 0
158 181 0
164 186 0
159 182 0
167 191 0
159 182 0
157 180 0
164 187 0
164 187 0
162 184 0
160 184 0
165 186 0
151 174 0
163 187 0
159 182 0
159 183 0
164 186 0
159 182 0
159 182 0
161 185 0
160 183 0
160 184 0
155 178 0
162 185 0
158 181 0
160 183 0
159 182 0
158 181 0
161 184 0
163 186 0
163 186 0
156 178 0
156 179 0
163 185 0
166 189 0
160 182 0
160 182 0
159 181 0
157 180 0
161 184 0
155 178 0
156 180 0
161 184 0
159 182 0
157 180 0
161 184 0
161 184 0
154 177 0
159 182 0
159 183 0
160 183 0
156 178 0
155 176 0
157 180 0
147 170 0
159 181 0
157 179 0
158 181 0
159 181 0
156 178 0
154 177 0
149 172 0
162 185 0
153 175 0
156 178 0
151 172 0
154 177 0
155 177 0
153 175 0
154 177 0
159 183 0
156 178 0
162 184 0
159 181 0
157 179 0
160 183 0
149 172 0
157 180 0
153 176 0
159 182 0
148 170 0
153 175 0
154 176 0
153 176 0
158 181 0
154 175 0
152 175 0
153 175 0
151 172 0
148 171 0
161 183 0
160 182 0
155 177 0
156 177 0
149 171 0
163 186 0
152 174 0
151 173 0
152 174 0
153 175 0
149 173 0
147 168 0
156 178 0
142 164 0
155 177 0
155 177 0
157 179 0
152 174 0
155 176 0
156 179 0
151 175 0
156 178 0
154 175 0
156 178 0
147 170 0
148 169 0
146 168 0
151 173 0
159 181 0
148 169 0
153 174 0
150 171 0
146 168 0
154 176 0
150 172 0
155 177 0
155 178 0
146 166 0
155 176 0
158 179 0
155 178 0
152 174 0
149 171 0
150 171 0
142 165 0
149 169 0
154 175 0
147 169 0
151 173 0
155 176 0
147 166 0
151 172 0
147 169 0
146 167 0
151 172 0
149 168 0
144 167 0
155 176 0
150 173 0
151 172 0
152 173 0
156 176 0
155 176 0
156 178 0
150 172 0
153 173 0
151 171 0
149 171 0
152 172 0
157 178 0
150 169 0
153 176 0
147 167 0
153 175 0
151 172 0
153 174 0
153 174 0
156 178 0
140 162 0
155 177 0
157 179 0
155 174 0
150 172 0
147 167 0
151 171 0
153 174 0
153 175 0
153 172 0
155 176 0
155 177 0
157 176 0
150 169 0
156 176 0
160 182 0
153 172 0
150 171 0
145 165 0
156 176 0
151 172 0
152 173 0
148 168 0
152 170 0
151 171 0
157 176 0
149 168 0
153 172 0
149 170 0
157 178 0
155 175 0
150 170 0
150 170 0
157 177 0
153 173 0
151 171 0
150 170 0
152 170 0
151 171 0
153 172 0
144 163 0
149 167 0
151 172 0
148 166 0
155 175 0
151 171 0
151 170 0
153 172 0
156 175 0
156 177 0
154 174 0
150 170 0
156 175 0
153 170 0
152 168 0
158 176 0
153 172 0
154 173 0
146 164 0
153 173 0
153 170 0
155 174 0
148 168 0
150 167 0
153 172 0
155 173 0
151 170 0
153 172 0
158 177 0
156 174 0
158 176 0
152 170 0
149 168 0
150 168 0
155 173 0
153 170 0
154 172 0
155 175 0
150 169 0
159 179 0
153 172 0
151 170 0
152 169 0
156 175 0
156 174 0
152 171 0
157 173 0
154 169 0
149 166 0
155 172 0
156 173 0
154 172 0
153 171 0
149 163 0
156 174 0
155 173 0
157 175 0
148 163 0
152 169 0
154 171 0
149 167 0
157 173 0
154 170 0
156 175 0
151 169 0
148 165 0
156 172 0
154 171 0
152 170 0
148 164 0
153 169 0
157 173 0
153 171 0
152 168 0
147 163 0
152 168 0
158 173 0
151 167 0
153 168 0
152 166 0
143 157 0
152 168 0
153 171 0
149 163 0
154 169 0
153 170 0
155 170 0
155 171 0
159 175 0
156 171 0
148 163 0
153 166 0
154 170 0
155 170 0
153 166 0
160 177 0
159 175 0
151 165 0
156 174 0
155 170 0
150 163 0
154 167 0
157 172 0
156 172 0
160 176 0
152 167 0
154 169 0
150 165 0
152 164 0
157 171 0
158 170 0
168 191 0
168 191 0
170 193 0
169 192 0
163 186 0
167 190 0
166 189 0
172 196 0
169 192 0
168 191 0
164 187 0
168 190 0
165 188 0
166 189 0
168 190 0
164 187 0
165 188 0
166 189 0
172 195 0
170 191 0
169 191 0
167 190 0
162 186 0
166 189 0
167 191 0
169 193 0
165 188 0
165 189 0
168 191 0
162 186 0
163 187 0
167 190 0
168 190 0
160 184 0
164 187 0
167 191 0
163 186 0
170 194 0
162 185 0
165 188 0
162 185 0
163 186 0
166 189 0
170 192 0
162 186 0
161 185 0
164 188 0
157 180 0
168 191 0
166 189 0
162 185 0
161 185 0
163 187 0
164 186 0
158 182 0
161 185 0
162 186 0
166 189 0
165 188 0
166 189 0
165 188 0
166 188 0
162 186 0
170 193 0
166 189 0
164 186 0
165 188 0
165 187 0
158 181 0
164 187 0
159 181 0
161 184 0
164 188 0
162 185 0
165 187 0
162 185 0
159 182 0
163 186 0
167 190 0
159 181 0
155 177 0
158 180 0
165 189 0
161 183 0
161 185 0
159 183 0
162 185 0
163 186 0
160 184 0
156 179 0
159 181 0
159 181 0
157 180 0
154 176 0
163 185 0
161 185 0
162 185 0
158 181 0
162 185 0
158 182 0
160 182 0
163 185 0
159 181 0
163 186 0
163 186 0
161 184 0
162 186 0
161 183 0
161 184 0
155 178 0
160 182 0
153 177 0
156 179 0
165 189 0
158 182 0
153 176 0
162 185 0
161 183 0
163 186 0
156 179 0
159 182 0
163 185 0
159 181 0
159 181 0
156 180 0
159 181 0
159 182 0
155 177 0
158 181 0
155 177 0
153 177 0
156 178 0
159 181 0
159 182 0
161 185 0
158 180 0
159 182 0
162 186 0
162 185 0
152 174 0
154 178 0
157 180 0
152 175 0
154 177 0
158 180 0
156 179 0
155 177 0
153 175 0
156 179 0
151 173 0
158 180 0
154 178 0
154 177 0
152 174 0
153 176 0
158 181 0
155 178 0
160 183 0
157 178 0
163 185 0
158 181 0
158 182 0
159 181 0
162 185 0
159 181 0
157 178 0
156 178 0
157 178 0
160 182 0
161 183 0
162 183 0
156 177 0
155 176 0
156 177 0
149 171 0
154 177 0
159 181 0
155 178 0
148 170 0
153 175 0
151 172 0
153 176 0
154 178 0
156 178 0
151 173 0
154 177 0
154 176 0
149 172 0
141 161 0
160 182 0
154 176 0
150 172 0
151 174 0
155 177 0
155 176 0
154 174 0
150 172 0
154 175 0
151 174 0
160 181 0
154 177 0
147 168 0
149 171 0
150 173 0
153 175 0
152 174 0
153 176 0
147 168 0
150 171 0
156 178 0
153 175 0
151 172 0
152 173 0
141 163 0
151 173 0
155 177 0
152 173 0
150 172 0
152 174 0
152 173 0
154 176 0
150 172 0
150 170 0
156 177 0
156 176 0
154 174 0
158 179 0
157 179 0
151 171 0
151 172 0
148 170 0
156 178 0
151 172 0
150 172 0
151 173 0
156 178 0
145 166 0
158 179 0
148 169 0
149 171 0
150 170 0
146 166 0
149 170 0
153 174 0
143 164 0
159 181 0
151 172 0
149 168 0
150 170 0
151 171 0
150 170 0
155 176 0
155 176 0
153 175 0
148 169 0
152 174 0
150 171 0
153 175 0
156 178 0
144 165 0
153 174 0
152 173 0
152 173 0
151 172 0
148 169 0
152 171 0
151 170 0
151 169 0
150 172 0
149 170 0
156 178 0
152 173 0
153 172 0
148 168 0
154 175 0
151 172 0
154 173 0
154 175 0
153 175 0
151 172 0
156 176 0
157 178 0
151 171 0
157 178 0
151 171 0
147 167 0
151 170 0
156 176 0
158 178 0
151 172 0
156 177 0
160 181 0
156 177 0
156 176 0
152 173 0
156 175 0
155 174 0
155 175 0
154 174 0
155 173 0
161 180 0
152 171 0
149 169 0
158 178 0
152 172 0
157 175 0
154 174 0
146 165 0
152 171 0
154 172 0
153 173 0
153 172 0
145 165 0
149 169 0
150 170 0
153 171 0
149 167 0
150 167 0
155 175 0
155 173 0
157 177 0
160 180 0
147 167 0
146 164 0
151 170 0
151 167 0
152 169 0
153 172 0
154 171 0
157 175 0
156 174 0
160 178 0
154 171 0
148 167 0
145 164 0
151 169 0
152 166 0
155 176 0
152 171 0
153 171 0
154 172 0
149 166 0
158 176 0
154 171 0
145 162 0
152 168 0
153 171 0
149 165 0
147 164 0
146 162 0
154 172 0
151 168 0
154 171 0
154 171 0
153 170 0
155 171 0
152 169 0
158 177 0
159 176 0
153 169 0
149 166 0
151 167 0
149 165 0
153 167 0
147 161 0
154 170 0
153 169 0
154 171 0
161 178 0
153 169 0
149 163 0
153 170 0
158 173 0
154 171 0
160 175 0
161 178 0
153 166 0
152 165 0
159 174 0
154 171 0
156 171 0
156 172 0
153 168 0
155 170 0
159 176 0
155 170 0
157 171 0
154 168 0
156 172 0
154 170 0
152 165 0
158 174 0
154 168 0
155 168 0
160 173 0
154 171 0
155 172 0
156 170 0
158 172 0
151 165 0
167 191 0
171 193 0
167 190 0
165 188 0
165 187 0
166 189 0
165 187 0
167 190 0
169 192 0
170 193 0
167 191 0
165 188 0
169 192 0
167 190 0
165 189 0
167 191 0
168 191 0
168 192 0
169 192 0
168 191 0
165 189 0
166 189 0
167 190 0
168 190 0
166 189 0
166 188 0
164 187 0
162 184 0
164 188 0
168 191 0
167 191 0
164 188 0
169 193 0
163 186 0
164 187 0
165 188 0
165 187 0
170 194 0
164 188 0
167 189 0
163 187 0
165 188 0
163 185 0
162 186 0
165 187 0
167 191 0
161 183 0
165 188 0
162 185 0
161 184 0
163 186 0
166 189 0
165 188 0
162 186 0
165 189 0
163 185 0
164 187 0
164 187 0
162 185 0
162 185 0
165 188 0
161 184 0
160 183 0
163 186 0
168 190 0
163 186 0
168 191 0
167 190 0
163 187 0
161 185 0
164 186 0
163 187 0
161 185 0
172 195 0
164 187 0
161 184 0
160 182 0
165 188 0
158 181 0
155 176 0
156 179 0
166 188 0
159 182 0
161 184 0
160 183 0
162 184 0
155 179 0
162 186 0
163 186 0
163 185 0
165 188 0
164 187 0
158 181 0
161 184 0
165 187 0
163 186 0
161 184 0
158 182 0
158 181 0
159 183 0
161 185 0
156 180 0
164 187 0
157 180 0
158 180 0
159 181 0
158 181 0
164 187 0
161 185 0
162 186 0
153 176 0
158 181 0
160 182 0
161 183 0
154 177 0
161 184 0
162 185 0
160 182 0
158 181 0
156 178 0
162 185 0
153 176 0
156 180 0
161 184 0
160 182 0
154 176 0
154 176 0
163 186 0
156 180 0
159 182 0
161 184 0
155 176 0
161 184 0
158 181 0
159 180 0
160 183 0
160 183 0
160 183 0
164 188 0
161 185 0
157 181 0
158 181 0
159 182 0
159 182 0
161 184 0
161 184 0
158 182 0
158 180 0
154 176 0
157 180 0
154 176 0
152 174 0
161 182 0
151 173 0
159 182 0
155 177 0
157 179 0
153 175 0
158 180 0
158 181 0
157 179 0
157 180 0
159 181 0
156 180 0
152 173 0
157 179 0
154 176 0
152 173 0
155 177 0
153 174 0
157 180 0
155 177 0
149 171 0
150 173 0
160 182 0
157 179 0
153 175 0
154 176 0
154 175 0
152 174 0
150 173 0
159 180 0
155 178 0
155 176 0
159 181 0
160 182 0
157 179 0
153 175 0
155 176 0
149 172 0
153 175 0
161 183 0
155 179 0
152 172 0
156 178 0
148 170 0
150 170 0
153 174 0
150 172 0
148 170 0
147 169 0
152 173 0
152 174 0
155 176 0
150 171 0
152 174 0
157 180 0
156 177 0
158 181 0
154 174 0
148 169 0
157 179 0
153 175 0
156 178 0
147 168 0
152 174 0
162 183 0
153 175 0
149 170 0
154 176 0
156 178 0
154 176 0
149 170 0
153 175 0
156 177 0
150 172 0
146 167 0
152 174 0
150 171 0
154 177 0
147 168 0
159 182 0
155 175 0
152 172 0
151 172 0
155 177 0
154 175 0
149 170 0
152 173 0
156 178 0
153 175 0
150 171 0
157 179 0
153 175 0
154 174 0
156 178 0
148 169 0
153 174 0
153 175 0
148 169 0
156 177 0
150 172 0
154 176 0
156 177 0
152 172 0
157 178 0
151 170 0
158 179 0
157 180 0
154 173 0
147 168 0
160 182 0
149 169 0
153 174 0
150 170 0
151 171 0
152 173 0
152 172 0
156 177 0
153 172 0
146 167 0
153 174 0
149 167 0
148 169 0
149 170 0
156 177 0
148 168 0
151 173 0
153 174 0
155 176 0
155 175 0
155 175 0
145 167 0
153 173 0
156 176 0
152 172 0
154 174 0
151 172 0
152 173 0
156 177 0
163 184 0
157 176 0
150 170 0
157 176 0
147 165 0
152 171 0
154 175 0
158 178 0
147 167 0
150 170 0
155 173 0
149 169 0
157 176 0
151 172 0
151 171 0
144 161 0
151 170 0
156 174 0
151 172 0
156 174 0
154 173 0
158 178 0
160 177 0
142 161 0
154 173 0
152 171 0
150 169 0
159 177 0
155 175 0
150 168 0
149 166 0
153 172 0
158 176 0
158 178 0
146 163 0
151 169 0
155 173 0
149 163 0
155 174 0
152 168 0
156 175 0
156 172 0
154 171 0
155 173 0
151 170 0
152 169 0
154 173 0
160 177 0
153 171 0
155 175 0
162 181 0
155 172 0
156 174 0
154 173 0
151 168 0
153 172 0
154 172 0
157 173 0
154 171 0
156 173 0
147 163 0
154 174 0
157 176 0
153 170 0
155 171 0
156 172 0
151 169 0
154 171 0
159 176 0
148 166 0
162 178 0
161 178 0
151 168 0
152 166 0
161 178 0
148 164 0
154 171 0
159 175 0
151 168 0
150 166 0
157 175 0
157 173 0
157 173 0
154 170 0
158 177 0
158 177 0
159 175 0
161 178 0
152 166 0
154 170 0
157 173 0
158 175 0
153 169 0
154 170 0
158 175 0
153 167 0
158 174 0
148 163 0
152 165 0
159 175 0
157 172 0
154 170 0
156 170 0
153 167 0
160 174 0
152 167 0
155 169 0
153 168 0
158 175 0
151 166 0
