P3
400 225
255
204 226 255
204 226 255
204 226 255
204 226 255
204 226 255
204 226 255
204 226 255
204 226 255
204 226 255
204 226 255
204 226 255
204 226 255
204 226 255
204 226 255
204 226 255
203 226 255
203 226 255
203 226 255
203 226 255
203 226 255
200 222 255
186 207 255
176 195 255
167 186 255
143 159 255
163 182 255
136 151 255
125 139 255
123 137 255
109 121 255
113 125 255
70 78 255
75 84 255
64 71 255
73 81 255
45 50 255
49 55 255
35 39 255
28 31 255
20 22 255
0 0 255
0 0 255
20 22 255
0 0 255
35 39 255
45 50 255
53 59 255
53 59 254
66 74 255
75 84 255
83 92 255
106 119 255
92 103 255
106 119 255
127 142 255
139 155 255
148 165 255
152 169 255
164 183 255
174 194 255
189 211 255
189 211 255
201 224 255
200 224 255
200 224 255
200 224 255
200 224 255
200 224 255
200 224 255
200 224 255
200 224 255
200 224 255
200 224 255
200 224 255
200 224 255
200 224 255
200 224 255
199 224 255
199 224 255
199 224 255
199 223 255
199 223 255
199 223 255
199 223 255
199 223 255
199 223 255
199 223 255
199 223 255
199 223 255
199 223 255
199 223 255
199 223 255
198 223 255
198 223 255
198 223 255
198 223 255
198 223 255
198 223 255
198 223 255
198 223 255
198 223 255
198 223 255
198 223 255
198 223 255
198 223 255
198 223 255
197 223 255
197 222 255
197 222 255
197 222 255
197 222 255
197 222 255
197 222 255
197 222 255
197 222 255
197 222 255
197 222 255
197 222 255
197 222 255
197 222 255
197 222 255
196 222 255
196 222 255
196 222 255
196 222 255
196 222 255
196 222 255
196 222 255
196 222 255
196 222 255
196 222 255
196 222 255
196 222 255
196 222 255
196 222 255
196 221 255
196 221 255
195 221 255
195 221 255
195 221 255
195 221 255
195 221 255
195 221 255
195 221 255
195 221 255
195 221 255
195 221 255
195 221 255
195 221 255
195 221 255
195 221 255
195 221 255
195 221 255
195 221 255
195 221 255
194 221 255
194 221 255
194 221 255
194 221 255
194 221 255
194 221 255
194 221 255
194 221 255
194 221 255
194 221 255
194 221 255
194 221 255
194 221 255
194 221 255
194 221 255
194 221 255
194 221 255
194 221 255
194 221 255
194 221 255
194 221 255
194 221 255
194 220 255
194 220 255
194 220 255
194 220 255
194 220 255
194 220 255
194 220 255
194 220 255
194 220 255
193 220 255
193 220 255
193 220 255
193 220 255
193 220 255
193 220 255
193 220 255
193 220 255
193 220 255
193 220 255
193 220 255
193 220 255
193 220 255
193 220 255
193 220 255
193 220 255
193 220 255
193 220 255
193 220 255
193 220 255
193 220 255
193 220 255
193 220 255
193 220 255
193 220 255
193 220 255
193 220 255
193 220 255
194 220 255
194 220 255
194 220 255
194 220 255
194 220 255
194 220 255
194 220 255
194 220 255
194 220 255
194 221 255
194 221 255
194 221 255
194 221 255
194 221 255
194 221 255
194 221 255
194 221 255
194 221 255
194 221 255
194 221 255
194 221 255
194 221 255
194 221 255
194 221 255
194 221 255
194 221 255
194 221 255
194 221 255
194 221 255
194 221 255
194 221 255
195 221 255
195 221 255
195 221 255
195 221 255
195 221 255
195 221 255
195 221 255
195 221 255
195 221 255
195 221 255
195 221 255
195 221 255
195 221 255
195 221 255
195 221 255
195 221 255
195 221 255
195 221 255
196 221 255
196 221 255
196 222 255
196 222 255
196 222 255
196 222 255
196 222 255
196 222 255
196 222 255
196 222 255
196 222 255
196 222 255
196 222 255
196 222 255
196 222 255
196 222 255
197 222 255
197 222 255
197 222 255
197 222 255
197 222 255
197 222 255
197 222 255
197 222 255
197 222 255
197 222 255
197 222 255
197 222 255
197 222 255
197 222 255
197 223 255
198 223 255
198 223 255
198 223 255
198 223 255
198 223 255
198 223 255
198 223 255
198 223 255
198 223 255
198 223 255
198 223 255
198 223 255
198 223 255
198 223 255
199 223 255
199 223 255
199 223 255
199 223 255
199 223 255
199 223 255
199 223 255
199 223 255
199 223 255
199 223 255
199 223 255
199 223 255
199 224 255
199 224 255
199 224 255
200 224 255
200 224 255
200 224 255
200 224 255
200 224 255
200 224 255
200 224 255
200 224 255
200 224 255
200 224 255
200 224 255
200 224 255
200 224 255
200 224 255
201 224 255
201 218 249
200 211 241
201 195 223
200 179 204
202 175 199
201 169 193
202 150 171
201 149 169
201 133 151
204 127 144
202 116 133
204 103 117
205 81 92
207 81 92
205 59 67
202 67 76
202 63 72
204 45 51
204 39 44
203 22 25
207 0 0
201 0 0
204 0 0
205 22 25
204 31 36
204 45 51
205 67 76
204 71 80
203 90 102
203 87 99
203 95 108
206 119 135
205 108 122
205 142 161
201 146 165
202 162 184
205 164 186
202 180 204
203 195 221
203 199 226
205 203 230
203 220 249
203 226 255
203 226 255
203 226 255
203 226 255
203 226 255
204 226 255
204 226 255
204 226 255
204 226 255
204 226 255
204 226 255
204 226 255
204 226 255
204 226 255
204 226 255
204 226 255
204 226 255
204 226 255
204 226 255
204 226 255
204 226 255
204 226 255
204 226 255
204 226 255
204 226 255
204 226 255
204 226 255
204 226 255
204 226 255
204 226 255
204 226 255
201 223 255
184 205 255
172 190 255
141 156 255
135 150 255
117 129 255
107 119 255
70 78 255
35 39 255
0 0 255
0 0 255
0 0 255
0 0 255
0 0 255
0 0 255
0 0 255
0 0 255
0 0 255
0 0 255
0 0 255
0 0 255
0 0 255
0 0 255
0 0 255
0 0 255
0 0 255
0 0 255
0 0 255
0 0 255
0 0 255
0 0 255
0 0 255
0 0 255
0 0 255
0 0 255
0 0 255
0 0 255
0 0 255
0 0 255
0 0 255
0 0 255
0 0 255
0 0 254
0 0 255
0 0 255
0 0 255
0 0 255
0 0 255
0 0 255
0 0 255
0 0 255
49 55 255
77 87 255
117 130 255
133 148 255
137 153 255
137 153 255
170 190 255
187 209 255
196 219 255
200 224 255
200 224 255
200 224 255
200 224 255
200 224 255
200 224 255
200 224 255
200 224 255
200 224 255
199 224 255
199 224 255
199 223 255
199 223 255
199 223 255
199 223 255
199 223 255
199 223 255
199 223 255
199 223 255
199 223 255
199 223 255
199 223 255
199 223 255
198 223 255
198 223 255
198 223 255
198 223 255
198 223 255
198 223 255
198 223 255
198 223 255
198 223 255
198 223 255
198 223 255
198 223 255
198 223 255
198 223 255
197 223 255
197 222 255
197 222 255
197 222 255
197 222 255
197 222 255
197 222 255
197 222 255
197 222 255
197 222 255
197 222 255
197 222 255
197 222 255
197 222 255
197 222 255
196 222 255
196 222 255
196 222 255
196 222 255
196 222 255
196 222 255
196 222 255
196 222 255
196 222 255
196 222 255
196 222 255
196 222 255
196 222 255
196 222 255
196 222 255
196 221 255
195 221 255
195 221 255
195 221 255
195 221 255
195 221 255
195 221 255
195 221 255
195 221 255
195 221 255
195 221 255
195 221 255
195 221 255
195 221 255
195 221 255
195 221 255
195 221 255
195 221 255
195 221 255
195 221 255
194 221 255
194 221 255
194 221 255
194 221 255
194 221 255
194 221 255
194 221 255
194 221 255
194 221 255
194 221 255
194 221 255
194 221 255
194 221 255
194 221 255
194 221 255
194 221 255
194 221 255
194 221 255
194 221 255
194 221 255
194 221 255
194 221 255
194 221 255
194 221 255
194 221 255
194 220 255
194 220 255
194 220 255
194 220 255
194 220 255
194 220 255
194 220 255
194 220 255
194 220 255
194 220 255
194 220 255
194 220 255
194 220 255
194 220 255
194 220 255
194 220 255
194 220 255
194 220 255
194 220 255
194 220 255
194 220 255
194 220 255
194 220 255
194 220 255
194 220 255
194 220 255
194 220 255
194 220 255
194 220 255
194 220 255
194 220 255
194 220 255
194 220 255
194 220 255
194 221 255
194 221 255
194 221 255
194 221 255
194 221 255
194 221 255
194 221 255
194 221 255
194 221 255
194 221 255
194 221 255
194 221 255
194 221 255
194 221 255
194 221 255
194 221 255
194 221 255
194 221 255
194 221 255
194 221 255
194 221 255
194 221 255
194 221 255
194 221 255
194 221 255
195 221 255
195 221 255
195 221 255
195 221 255
195 221 255
195 221 255
195 221 255
195 221 255
195 221 255
195 221 255
195 221 255
195 221 255
195 221 255
195 221 255
195 221 255
195 221 255
195 221 255
195 221 255
195 221 255
196 221 255
196 221 255
196 222 255
196 222 255
196 222 255
196 222 255
196 222 255
196 222 255
196 222 255
196 222 255
196 222 255
196 222 255
196 222 255
196 222 255
196 222 255
196 222 255
197 222 255
197 222 255
197 222 255
197 222 255
197 222 255
197 222 255
197 222 255
197 222 255
197 222 255
197 222 255
197 222 255
197 222 255
197 222 255
197 222 255
197 223 255
198 223 255
198 223 255
198 223 255
198 223 255
198 223 255
198 223 255
198 223 255
198 223 255
198 223 255
198 223 255
198 223 255
198 223 255
198 223 255
198 223 255
199 223 255
199 223 255
199 223 255
199 223 255
199 223 255
199 223 255
199 223 255
199 223 255
199 223 255
199 223 255
199 223 255
199 223 255
199 224 255
199 224 255
199 224 255
200 224 255
200 224 255
200 224 255
200 224 255
200 224 255
200 224 255
200 224 255
200 224 255
200 222 253
201 200 228
200 173 198
200 179 204
201 158 181
203 132 151
201 112 128
203 92 105
202 44 51
201 0 0
203 0 0
202 0 0
203 0 0
202 0 0
204 0 0
202 0 0
202 0 0
206 0 0
204 0 0
200 0 0
203 0 0
202 0 0
205 0 0
205 0 0
204 0 0
205 0 0
202 0 0
202 0 0
204 0 0
204 0 0
205 0 0
202 0 0
207 0 0
205 0 0
204 0 0
203 0 0
203 0 0
204 0 0
208 0 0
205 0 0
205 0 0
203 0 0
205 0 0
204 0 0
205 0 0
207 0 0
204 0 0
205 0 0
204 0 0
205 0 0
205 0 0
203 45 51
204 78 88
202 103 117
205 125 142
203 151 171
206 176 199
204 188 212
204 208 236
204 219 248
204 226 255
204 226 255
204 226 255
204 226 255
204 226 255
204 226 255
204 226 255
204 226 255
204 226 255
204 226 255
204 226 255
205 226 255
205 226 255
204 226 255
204 226 255
202 224 255
182 201 255
172 190 255
147 163 255
112 124 255
104 115 255
40 45 255
0 0 255
0 0 255
0 0 255
0 0 255
0 0 255
0 0 255
0 0 255
0 0 255
0 0 255
0 0 255
0 0 255
0 0 255
0 0 255
0 0 255
0 0 255
0 0 255
0 0 255
0 0 255
0 0 255
0 0 255
0 0 255
0 0 255
0 0 255
0 0 255
0 0 255
0 0 255
0 0 255
0 0 255
0 0 255
0 0 255
0 0 255
0 0 255
0 0 255
0 0 255
0 0 255
0 0 255
0 0 255
0 0 255
0 0 255
0 0 254
0 0 255
0 0 255
0 0 255
0 0 255
0 0 255
0 0 255
0 0 255
0 0 255
0 0 255
0 0 254
0 0 255
0 0 255
0 0 255
0 0 255
0 0 255
0 0 255
0 0 253
0 0 255
0 0 255
0 0 255
75 83 254
94 105 255
125 140 255
157 176 255
168 188 255
183 205 255
198 221 255
200 224 255
200 224 255
200 224 255
200 224 255
199 224 255
199 224 255
199 223 255
199 223 255
199 223 255
199 223 255
199 223 255
199 223 255
199 223 255
199 223 255
199 223 255
199 223 255
199 223 255
199 223 255
198 223 255
198 223 255
198 223 255
198 223 255
198 223 255
198 223 255
198 223 255
198 223 255
198 223 255
198 223 255
198 223 255
198 223 255
198 223 255
198 223 255
197 223 255
197 222 255
197 222 255
197 222 255
197 222 255
197 222 255
197 222 255
197 222 255
197 222 255
197 222 255
197 222 255
197 222 255
197 222 255
197 222 255
197 222 255
196 222 255
196 222 255
196 222 255
196 222 255
196 222 255
196 222 255
196 222 255
196 222 255
196 222 255
196 222 255
196 222 255
196 222 255
196 222 255
196 222 255
196 222 255
196 221 255
195 221 255
195 221 255
195 221 255
195 221 255
195 221 255
195 221 255
195 221 255
195 221 255
195 221 255
195 221 255
195 221 255
195 221 255
195 221 255
195 221 255
195 221 255
195 221 255
195 221 255
195 221 255
195 221 255
195 221 255
194 221 255
194 221 255
194 221 255
194 221 255
194 221 255
194 221 255
194 221 255
194 221 255
194 221 255
194 221 255
194 221 255
194 221 255
194 221 255
194 221 255
194 221 255
194 221 255
194 221 255
194 221 255
194 221 255
194 221 255
194 221 255
194 221 255
194 221 255
194 221 255
194 221 255
194 221 255
194 221 255
194 221 255
194 221 255
194 221 255
194 221 255
194 221 255
194 220 255
194 220 255
194 220 255
194 220 255
194 220 255
194 220 255
194 220 255
194 220 255
194 220 255
194 220 255
194 220 255
194 220 255
194 220 255
194 220 255
194 220 255
194 221 255
194 221 255
194 221 255
194 221 255
194 221 255
194 221 255
194 221 255
194 221 255
194 221 255
194 221 255
194 221 255
194 221 255
194 221 255
194 221 255
194 221 255
194 221 255
194 221 255
194 221 255
194 221 255
194 221 255
194 221 255
194 221 255
194 221 255
194 221 255
194 221 255
194 221 255
194 221 255
194 221 255
194 221 255
194 221 255
195 221 255
195 221 255
195 221 255
195 221 255
195 221 255
195 221 255
195 221 255
195 221 255
195 221 255
195 221 255
195 221 255
195 221 255
195 221 255
195 221 255
195 221 255
195 221 255
195 221 255
195 221 255
195 221 255
195 221 255
195 221 255
196 221 255
196 222 255
196 222 255
196 222 255
196 222 255
196 222 255
196 222 255
196 222 255
196 222 255
196 222 255
196 222 255
196 222 255
196 222 255
196 222 255
196 222 255
196 222 255
197 222 255
197 222 255
197 222 255
197 222 255
197 222 255
197 222 255
197 222 255
197 222 255
197 222 255
197 222 255
197 222 255
197 222 255
197 222 255
197 222 255
197 223 255
198 223 255
198 223 255
198 223 255
198 223 255
198 223 255
198 223 255
198 223 255
198 223 255
198 223 255
198 223 255
198 223 255
198 223 255
198 223 255
198 223 255
199 223 255
199 223 255
199 223 255
199 223 255
199 223 255
199 223 255
199 223 255
199 223 255
199 223 255
199 223 255
199 223 255
199 223 255
199 224 255
199 224 255
200 224 255
200 224 255
200 224 255
200 224 255
200 221 253
200 206 236
202 184 211
200 158 181
199 124 142
204 114 130
201 50 57
203 0 0
200 0 0
203 0 0
202 0 0
200 0 0
203 0 0
205 0 0
201 0 0
203 0 0
203 0 0
203 0 0
206 0 0
205 0 0
206 0 0
205 0 0
204 0 0
203 0 0
206 0 0
200 0 0
205 0 0
203 0 0
205 0 0
204 0 0
204 0 0
204 0 0
205 0 0
209 0 0
205 0 0
206 0 0
205 0 0
207 0 0
208 0 0
204 0 0
204 0 0
208 0 0
206 0 0
207 0 0
206 0 0
205 0 0
203 0 0
208 0 0
205 0 0
209 0 0
205 0 0
205 0 0
204 0 0
207 0 0
205 0 0
207 0 0
208 0 0
204 0 0
205 0 0
206 0 0
208 0 0
205 0 0
206 0 0
208 0 0
208 0 0
204 0 0
205 0 0
205 75 84
208 87 99
203 143 161
207 160 181
204 184 207
205 202 228
205 223 252
204 226 255
204 226 255
205 226 255
205 226 255
172 191 255
147 163 255
117 130 255
76 84 255
20 22 255
0 0 255
0 0 255
0 0 255
0 0 255
0 0 255
0 0 255
0 0 255
0 0 255
0 0 255
0 0 255
0 0 255
0 0 255
0 0 255
0 0 255
0 0 255
0 0 255
0 0 255
0 0 255
0 0 255
0 0 255
0 0 255
0 0 255
0 0 255
0 0 255
0 0 255
0 0 255
0 0 255
0 0 255
0 0 255
0 0 255
0 0 255
0 0 255
0 0 255
0 0 254
0 0 255
0 0 255
0 0 255
0 0 254
0 0 255
0 0 255
0 0 255
0 0 254
0 0 255
0 0 255
0 0 255
0 0 255
0 0 255
0 0 255
0 0 255
0 0 255
0 0 254
0 0 255
0 0 255
0 0 255
0 0 255
0 0 255
0 0 255
0 0 254
0 0 255
0 0 255
0 0 255
0 0 255
0 0 255
0 0 255
0 0 255
0 0 255
0 0 254
0 0 255
0 0 255
0 0 254
0 0 252
0 0 255
34 38 255
82 92 254
115 128 254
144 161 255
169 190 255
187 210 254
200 224 255
199 224 255
199 224 255
199 223 255
199 223 255
199 223 255
199 223 255
199 223 255
199 223 255
199 223 255
199 223 255
199 223 255
199 223 255
199 223 255
199 223 255
198 223 255
198 223 255
198 223 255
198 223 255
198 223 255
198 223 255
198 223 255
198 223 255
198 223 255
198 223 255
198 223 255
198 223 255
198 223 255
198 223 255
197 223 255
197 222 255
197 222 255
197 222 255
197 222 255
197 222 255
197 222 255
197 222 255
197 222 255
197 222 255
197 222 255
197 222 255
197 222 255
197 222 255
197 222 255
196 222 255
196 222 255
196 222 255
196 222 255
196 222 255
196 222 255
196 222 255
196 222 255
196 222 255
196 222 255
196 222 255
196 222 255
196 222 255
196 222 255
196 222 255
196 222 255
196 221 255
195 221 255
195 221 255
195 221 255
195 221 255
195 221 255
195 221 255
195 221 255
195 221 255
195 221 255
195 221 255
195 221 255
195 221 255
195 221 255
195 221 255
195 221 255
195 221 255
195 221 255
195 221 255
195 221 255
195 221 255
195 221 255
194 221 255
194 221 255
194 221 255
194 221 255
194 221 255
194 221 255
194 221 255
194 221 255
194 221 255
194 221 255
194 221 255
194 221 255
194 221 255
194 221 255
194 221 255
194 221 255
194 221 255
194 221 255
194 221 255
194 221 255
194 221 255
194 221 255
194 221 255
194 221 255
194 221 255
194 221 255
194 221 255
194 221 255
194 221 255
194 221 255
194 221 255
194 221 255
194 221 255
194 221 255
194 221 255
194 221 255
194 221 255
194 221 255
194 221 255
194 221 255
194 221 255
194 221 255
194 221 255
194 221 255
194 221 255
194 221 255
194 221 255
194 221 255
194 221 255
194 221 255
194 221 255
194 221 255
194 221 255
194 221 255
194 221 255
194 221 255
194 221 255
194 221 255
194 221 255
194 221 255
194 221 255
194 221 255
194 221 255
194 221 255
194 221 255
194 221 255
194 221 255
194 221 255
194 221 255
194 221 255
195 221 255
195 221 255
195 221 255
195 221 255
195 221 255
195 221 255
195 221 255
195 221 255
195 221 255
195 221 255
195 221 255
195 221 255
195 221 255
195 221 255
195 221 255
195 221 255
195 221 255
195 221 255
195 221 255
195 221 255
195 221 255
196 221 255
196 222 255
196 222 255
196 222 255
196 222 255
196 222 255
196 222 255
196 222 255
196 222 255
196 222 255
196 222 255
196 222 255
196 222 255
196 222 255
196 222 255
196 222 255
196 222 255
197 222 255
197 222 255
197 222 255
197 222 255
197 222 255
197 222 255
197 222 255
197 222 255
197 222 255
197 222 255
197 222 255
197 222 255
197 222 255
197 222 255
197 223 255
198 223 255
198 223 255
198 223 255
198 223 255
198 223 255
198 223 255
198 223 255
198 223 255
198 223 255
198 223 255
198 223 255
198 223 255
198 223 255
198 223 255
199 223 255
199 223 255
199 223 255
199 223 255
199 223 255
199 223 255
199 223 255
199 223 255
199 223 255
199 223 255
199 223 255
199 223 255
199 224 255
199 224 255
200 224 255
198 213 244
199 187 214
200 166 189
200 124 142
200 95 108
204 44 51
203 0 0
201 0 0
202 0 0
202 0 0
203 0 0
202 0 0
207 0 0
205 0 0
202 0 0
202 0 0
200 0 0
203 0 0
202 0 0
204 0 0
207 0 0
203 0 0
203 0 0
206 0 0
205 0 0
206 0 0
203 0 0
206 0 0
205 0 0
205 0 0
204 0 0
205 0 0
205 0 0
205 0 0
206 0 0
204 0 0
203 0 0
205 0 0
204 0 0
206 0 0
208 0 0
206 0 0
206 0 0
210 0 0
203 0 0
207 0 0
203 0 0
203 0 0
206 0 0
206 0 0
208 0 0
206 0 0
206 0 0
204 0 0
209 0 0
204 0 0
207 0 0
206 0 0
204 0 0
204 0 0
204 0 0
208 0 0
208 0 0
207 0 0
207 0 0
204 0 0
207 0 0
207 0 0
205 0 0
203 0 0
206 0 0
210 0 0
209 0 0
205 0 0
205 0 0
205 0 0
205 0 0
204 0 0
207 39 44
206 98 111
206 134 151
208 169 191
205 200 226
0 0 255
0 0 255
0 0 255
0 0 255
0 0 255
0 0 255
0 0 255
0 0 255
0 0 255
0 0 255
0 0 255
0 0 255
0 0 255
0 0 255
0 0 255
0 0 255
0 0 255
0 0 255
0 0 255
0 0 255
0 0 255
0 0 255
0 0 255
0 0 255
0 0 255
0 0 255
0 0 255
0 0 255
0 0 255
0 0 255
0 0 255
0 0 255
0 0 255
0 0 255
0 0 255
0 0 255
0 0 255
0 0 255
0 0 255
0 0 255
0 0 255
0 0 255
0 0 254
0 0 255
0 0 255
0 0 255
0 0 255
0 0 255
0 0 255
0 0 253
0 0 255
0 0 255
0 0 255
0 0 255
0 0 255
0 0 255
0 0 255
0 0 255
0 0 255
0 0 255
0 0 255
0 0 255
0 0 255
0 0 253
0 0 254
0 0 255
0 0 255
0 0 255
0 0 255
0 0 255
0 0 255
0 0 254
0 0 253
0 0 255
0 0 255
0 0 254
0 0 255
0 0 255
0 0 254
0 0 255
0 0 255
0 0 254
0 0 254
56 63 255
105 118 255
141 158 255
170 191 255
192 216 255
199 223 255
199 223 255
199 223 255
199 223 255
199 223 255
199 223 255
199 223 255
199 223 255
199 223 255
199 223 255
199 223 255
199 223 255
198 223 255
198 223 255
198 223 255
198 223 255
198 223 255
198 223 255
198 223 255
198 223 255
198 223 255
198 223 255
198 223 255
198 223 255
198 223 255
198 223 255
198 223 255
197 222 255
197 222 255
197 222 255
197 222 255
197 222 255
197 222 255
197 222 255
197 222 255
197 222 255
197 222 255
197 222 255
197 222 255
197 222 255
197 222 255
197 222 255
196 222 255
196 222 255
196 222 255
196 222 255
196 222 255
196 222 255
196 222 255
196 222 255
196 222 255
196 222 255
196 222 255
196 222 255
196 222 255
196 222 255
196 222 255
196 221 255
196 221 255
195 221 255
195 221 255
195 221 255
195 221 255
195 221 255
195 221 255
195 221 255
195 221 255
195 221 255
195 221 255
195 221 255
195 221 255
195 221 255
195 221 255
195 221 255
195 221 255
195 221 255
195 221 255
195 221 255
195 221 255
195 221 255
195 221 255
194 221 255
194 221 255
194 221 255
194 221 255
194 221 255
194 221 255
194 221 255
194 221 255
194 221 255
194 221 255
194 221 255
194 221 255
194 221 255
194 221 255
194 221 255
194 221 255
194 221 255
194 221 255
194 221 255
194 221 255
194 221 255
194 221 255
194 221 255
194 221 255
194 221 255
194 221 255
194 221 255
194 221 255
194 221 255
194 221 255
194 221 255
194 221 255
194 221 255
194 221 255
194 221 255
194 221 255
194 221 255
194 221 255
194 221 255
194 221 255
194 221 255
194 221 255
194 221 255
194 221 255
194 221 255
194 221 255
194 221 255
194 221 255
194 221 255
194 221 255
194 221 255
194 221 255
194 221 255
194 221 255
194 221 255
194 221 255
194 221 255
194 221 255
194 221 255
194 221 255
194 221 255
194 221 255
195 221 255
195 221 255
195 221 255
195 221 255
195 221 255
195 221 255
195 221 255
195 221 255
195 221 255
195 221 255
195 221 255
195 221 255
195 221 255
195 221 255
195 221 255
195 221 255
195 221 255
195 221 255
195 221 255
195 221 255
195 221 255
195 221 255
196 221 255
196 221 255
196 222 255
196 222 255
196 222 255
196 222 255
196 222 255
196 222 255
196 222 255
196 222 255
196 222 255
196 222 255
196 222 255
196 222 255
196 222 255
196 222 255
196 222 255
197 222 255
197 222 255
197 222 255
197 222 255
197 222 255
197 222 255
197 222 255
197 222 255
197 222 255
197 222 255
197 222 255
197 222 255
197 222 255
197 222 255
197 222 255
198 223 255
198 223 255
198 223 255
198 223 255
198 223 255
198 223 255
198 223 255
198 223 255
198 223 255
198 223 255
198 223 255
198 223 255
198 223 255
198 223 255
198 223 255
199 223 255
199 223 255
199 223 255
199 223 255
199 223 255
199 223 255
199 223 255
199 223 255
199 223 255
199 223 255
199 223 255
199 223 255
199 217 248
200 187 214
199 155 177
202 138 157
202 83 95
204 0 0
202 0 0
203 0 0
205 0 0
204 0 0
206 0 0
203 0 0
204 0 0
204 0 0
201 0 0
206 0 0
202 0 0
204 0 0
204 0 0
206 0 0
204 0 0
205 0 0
207 0 0
204 0 0
203 0 0
204 0 0
206 0 0
203 0 0
205 0 0
204 0 0
205 0 0
208 0 0
202 0 0
209 0 0
205 0 0
204 0 0
205 0 0
205 0 0
209 0 0
208 0 0
208 0 0
206 0 0
207 0 0
207 0 0
204 0 0
208 0 0
207 0 0
205 0 0
202 0 0
210 0 0
208 0 0
210 0 0
205 0 0
206 0 0
206 0 0
206 0 0
206 0 0
207 0 0
204 0 0
207 0 0
207 0 0
210 0 0
205 0 0
207 0 0
206 0 0
209 0 0
205 0 0
208 0 0
206 0 0
208 0 0
204 0 0
206 0 0
207 0 0
205 0 0
204 0 0
210 0 0
206 0 0
203 0 0
202 0 0
206 0 0
207 0 0
206 0 0
209 0 0
206 0 0
207 0 0
206 0 0
206 0 0
206 0 0
0 0 255
0 0 255
0 0 255
0 0 255
0 0 255
0 0 255
0 0 255
0 0 255
0 0 255
0 0 255
0 0 255
0 0 255
0 0 255
0 0 255
0 0 255
0 0 255
0 0 255
0 0 255
0 0 255
0 0 255
0 0 255
0 0 255
0 0 255
0 0 255
0 0 255
0 0 255
0 0 255
0 0 255
0 0 255
0 0 255
0 0 255
0 0 254
0 0 254
0 0 255
0 0 255
0 0 254
0 0 255
0 0 255
0 0 255
0 0 255
0 0 253
0 0 255
0 0 255
0 0 255
0 0 255
0 0 255
0 0 255
0 0 255
0 0 254
0 0 254
0 0 254
0 0 255
0 0 255
0 0 255
0 0 254
0 0 255
0 0 254
0 0 255
0 0 255
0 0 255
0 0 254
0 0 255
0 0 254
0 0 255
0 0 255
0 0 255
0 0 255
0 0 255
0 0 253
0 0 255
0 0 255
0 0 253
0 0 255
0 0 255
0 0 255
0 0 255
0 0 255
0 0 254
0 0 255
0 0 255
0 0 255
0 0 255
0 0 254
0 0 255
0 0 255
0 0 254
0 0 254
0 0 255
82 92 255
119 134 255
158 177 255
186 208 255
198 222 255
199 223 255
199 223 255
199 223 255
199 223 255
199 223 255
199 223 255
199 223 255
199 223 255
199 223 255
198 223 255
198 223 255
198 223 255
198 223 255
198 223 255
198 223 255
198 223 255
198 223 255
198 223 255
198 223 255
198 223 255
198 223 255
198 223 255
198 223 255
198 223 255
197 222 255
197 222 255
197 222 255
197 222 255
197 222 255
197 222 255
197 222 255
197 222 255
197 222 255
197 222 255
197 222 255
197 222 255
197 222 255
197 222 255
197 222 255
196 222 255
196 222 255
196 222 255
196 222 255
196 222 255
196 222 255
196 222 255
196 222 255
196 222 255
196 222 255
196 222 255
196 222 255
196 222 255
196 222 255
196 222 255
196 222 255
196 221 255
195 221 255
195 221 255
195 221 255
195 221 255
195 221 255
195 221 255
195 221 255
195 221 255
195 221 255
195 221 255
195 221 255
195 221 255
195 221 255
195 221 255
195 221 255
195 221 255
195 221 255
195 221 255
195 221 255
195 221 255
195 221 255
195 221 255
195 221 255
195 221 255
194 221 255
194 221 255
194 221 255
194 221 255
194 221 255
194 221 255
194 221 255
194 221 255
194 221 255
194 221 255
194 221 255
194 221 255
194 221 255
194 221 255
194 221 255
194 221 255
194 221 255
194 221 255
194 221 255
194 221 255
194 221 255
194 221 255
194 221 255
194 221 255
194 221 255
194 221 255
194 221 255
194 221 255
194 221 255
194 221 255
194 221 255
194 221 255
194 221 255
194 221 255
194 221 255
194 221 255
194 221 255
194 221 255
194 221 255
194 221 255
194 221 255
194 221 255
194 221 255
194 221 255
194 221 255
194 221 255
194 221 255
194 221 255
194 221 255
194 221 255
194 221 255
194 221 255
194 221 255
194 221 255
195 221 255
195 221 255
195 221 255
195 221 255
195 221 255
195 221 255
195 221 255
195 221 255
195 221 255
195 221 255
195 221 255
195 221 255
195 221 255
195 221 255
195 221 255
195 221 255
195 221 255
195 221 255
195 221 255
195 221 255
195 221 255
195 221 255
195 221 255
196 221 255
196 221 255
196 222 255
196 222 255
196 222 255
196 222 255
196 222 255
196 222 255
196 222 255
196 222 255
196 222 255
196 222 255
196 222 255
196 222 255
196 222 255
196 222 255
196 222 255
196 222 255
197 222 255
197 222 255
197 222 255
197 222 255
197 222 255
197 222 255
197 222 255
197 222 255
197 222 255
197 222 255
197 222 255
197 222 255
197 222 255
197 222 255
197 222 255
198 223 255
198 223 255
198 223 255
198 223 255
198 223 255
198 223 255
198 223 255
198 223 255
198 223 255
198 223 255
198 223 255
198 223 255
198 223 255
198 223 255
198 223 255
199 223 255
199 223 255
199 223 255
199 223 255
199 223 255
199 223 255
199 223 255
199 223 255
199 223 255
199 223 255
200 207 237
200 177 203
200 139 159
199 89 102
204 0 0
202 0 0
202 0 0
203 0 0
207 0 0
203 0 0
206 0 0
204 0 0
203 0 0
201 0 0
202 0 0
206 0 0
205 0 0
204 0 0
203 0 0
204 0 0
204 0 0
205 0 0
203 0 0
205 0 0
204 0 0
203 0 0
206 0 0
204 0 0
206 0 0
204 0 0
205 0 0
207 0 0
206 0 0
207 0 0
204 0 0
205 0 0
204 0 0
207 0 0
205 0 0
205 0 0
205 0 0
202 0 0
206 0 0
209 0 0
206 0 0
207 0 0
205 0 0
210 0 0
208 0 0
205 0 0
205 0 0
207 0 0
208 0 0
209 0 0
205 0 0
208 0 0
208 0 0
208 0 0
204 0 0
205 0 0
208 0 0
204 0 0
204 0 0
206 0 0
206 0 0
206 0 0
207 0 0
205 0 0
209 0 0
206 0 0
208 0 0
206 0 0
204 0 0
208 0 0
208 0 0
205 0 0
206 0 0
208 0 0
205 0 0
205 0 0
207 0 0
208 0 0
208 0 0
206 0 0
204 0 0
206 0 0
205 0 0
211 0 0
205 0 0
204 0 0
206 0 0
209 0 0
0 0 255
0 0 255
0 0 255
0 0 255
0 0 255
0 0 255
0 0 255
0 0 255
0 0 255
0 0 255
0 0 255
0 0 255
0 0 255
0 0 255
0 0 255
0 0 255
0 0 255
0 0 255
0 0 255
0 0 255
0 0 255
0 0 255
0 0 255
0 0 255
0 0 255
0 0 255
0 0 255
0 0 255
0 0 255
0 0 255
0 0 255
0 0 255
0 0 255
0 0 255
0 0 255
0 0 255
0 0 255
0 0 255
0 0 255
0 0 255
0 0 255
0 0 254
0 0 254
0 0 255
0 0 255
0 0 254
0 0 255
0 0 255
0 0 255
0 0 255
0 0 255
0 0 255
0 0 255
0 0 255
0 0 255
0 0 255
0 0 255
0 0 253
0 0 255
0 0 254
0 0 255
0 0 253
0 0 254
0 0 253
0 0 254
0 0 255
0 0 254
0 0 255
0 0 255
0 0 254
0 0 255
0 0 254
0 0 255
0 0 254
0 0 255
0 0 254
0 0 255
0 0 254
0 0 253
0 0 255
0 0 254
0 0 253
0 0 255
0 0 255
0 0 255
0 0 252
0 0 255
0 0 254
0 0 255
0 0 254
0 0 254
0 0 252
69 77 255
118 132 255
150 169 255
181 203 255
199 223 255
199 223 255
199 223 255
199 223 255
199 223 255
199 223 255
199 223 255
199 223 255
198 223 255
198 223 255
198 223 255
198 223 255
198 223 255
198 223 255
198 223 255
198 223 255
198 223 255
198 223 255
198 223 255
198 223 255
198 223 255
198 223 255
198 223 255
197 222 255
197 222 255
197 222 255
197 222 255
197 222 255
197 222 255
197 222 255
197 222 255
197 222 255
197 222 255
197 222 255
197 222 255
197 222 255
197 222 255
197 222 255
197 222 255
196 222 255
196 222 255
196 222 255
196 222 255
196 222 255
196 222 255
196 222 255
196 222 255
196 222 255
196 222 255
196 222 255
196 222 255
196 222 255
196 222 255
196 222 255
196 222 255
196 221 255
195 221 255
195 221 255
195 221 255
195 221 255
195 221 255
195 221 255
195 221 255
195 221 255
195 221 255
195 221 255
195 221 255
195 221 255
195 221 255
195 221 255
195 221 255
195 221 255
195 221 255
195 221 255
195 221 255
195 221 255
195 221 255
195 221 255
195 221 255
195 221 255
195 221 255
195 221 255
195 221 255
194 221 255
194 221 255
194 221 255
194 221 255
194 221 255
194 221 255
194 221 255
194 221 255
194 221 255
194 221 255
194 221 255
194 221 255
194 221 255
194 221 255
194 221 255
194 221 255
194 221 255
194 221 255
194 221 255
194 221 255
194 221 255
194 221 255
194 221 255
194 221 255
194 221 255
194 221 255
194 221 255
194 221 255
194 221 255
194 221 255
194 221 255
194 221 255
194 221 255
194 221 255
194 221 255
194 221 255
194 221 255
194 221 255
194 221 255
194 221 255
194 221 255
194 221 255
194 221 255
195 221 255
195 221 255
195 221 255
195 221 255
195 221 255
195 221 255
195 221 255
195 221 255
195 221 255
195 221 255
195 221 255
195 221 255
195 221 255
195 221 255
195 221 255
195 221 255
195 221 255
195 221 255
195 221 255
195 221 255
195 221 255
195 221 255
195 221 255
195 221 255
195 221 255
195 221 255
196 221 255
196 222 255
196 222 255
196 222 255
196 222 255
196 222 255
196 222 255
196 222 255
196 222 255
196 222 255
196 222 255
196 222 255
196 222 255
196 222 255
196 222 255
196 222 255
196 222 255
196 222 255
197 222 255
197 222 255
197 222 255
197 222 255
197 222 255
197 222 255
197 222 255
197 222 255
197 222 255
197 222 255
197 222 255
197 222 255
197 222 255
197 222 255
197 222 255
198 223 255
198 223 255
198 223 255
198 223 255
198 223 255
198 223 255
198 223 255
198 223 255
198 223 255
198 223 255
198 223 255
198 223 255
198 223 255
198 223 255
198 223 255
199 223 255
199 223 255
199 223 255
199 223 255
199 223 255
199 223 255
199 223 255
199 223 255
198 205 234
200 192 220
200 132 151
203 50 57
201 0 0
204 0 0
201 0 0
203 0 0
204 0 0
201 0 0
200 0 0
203 0 0
201 0 0
202 0 0
202 0 0
200 0 0
206 0 0
202 0 0
203 0 0
207 0 0
205 0 0
205 0 0
200 0 0
203 0 0
205 0 0
207 0 0
206 0 0
204 0 0
203 0 0
205 0 0
204 0 0
208 0 0
205 0 0
203 0 0
205 0 0
206 0 0
207 0 0
205 0 0
204 0 0
204 0 0
207 0 0
209 0 0
206 0 0
203 0 0
206 0 0
203 0 0
203 0 0
204 0 0
210 0 0
210 0 0
206 0 0
210 0 0
207 0 0
207 0 0
206 0 0
204 0 0
206 0 0
209 0 0
207 0 0
206 0 0
205 0 0
207 0 0
204 0 0
205 0 0
204 0 0
209 0 0
206 0 0
209 0 0
206 0 0
209 0 0
208 0 0
208 0 0
209 0 0
207 0 0
205 0 0
208 0 0
209 0 0
206 0 0
203 0 0
205 0 0
210 0 0
208 0 0
206 0 0
213 0 0
211 0 0
209 0 0
209 0 0
206 0 0
206 0 0
208 0 0
208 0 0
208 0 0
208 0 0
209 0 0
208 0 0
205 0 0
0 0 255
0 0 255
0 0 255
0 0 255
0 0 255
0 0 255
0 0 255
0 0 255
0 0 255
0 0 255
0 0 255
0 0 255
0 0 255
0 0 255
0 0 255
0 0 255
0 0 255
0 0 255
0 0 255
0 0 255
0 0 255
0 0 255
0 0 255
0 0 255
0 0 255
0 0 255
0 0 255
0 0 255
0 0 255
0 0 255
0 0 255
0 0 255
0 0 255
0 0 255
0 0 255
0 0 255
0 0 255
0 0 255
0 0 255
0 0 255
0 0 255
0 0 255
0 0 255
0 0 255
0 0 255
0 0 255
0 0 255
0 0 255
0 0 255
0 0 253
0 0 255
0 0 255
0 0 255
0 0 254
0 0 255
0 0 254
0 0 255
0 0 255
0 0 255
0 0 255
0 0 254
0 0 255
0 0 255
0 0 254
0 0 255
0 0 254
0 0 254
0 0 254
0 0 255
0 0 255
0 0 255
0 0 254
0 0 255
0 0 254
0 0 255
0 0 254
0 0 253
0 0 254
0 0 253
0 0 250
0 0 255
0 0 254
0 0 254
0 0 254
0 0 255
0 0 255
0 0 255
0 0 255
0 0 254
0 0 254
0 0 254
0 0 255
0 0 252
0 0 254
0 0 254
0 0 255
52 59 253
114 128 254
151 170 254
188 211 255
199 223 255
199 223 255
199 223 255
199 223 255
199 223 255
199 223 255
198 223 255
198 223 255
198 223 255
198 223 255
198 223 255
198 223 255
198 223 255
198 223 255
198 223 255
198 223 255
198 223 255
198 223 255
198 223 255
198 223 255
198 223 255
197 223 255
197 222 255
197 222 255
197 222 255
197 222 255
197 222 255
197 222 255
197 222 255
197 222 255
197 222 255
197 222 255
197 222 255
197 222 255
197 222 255
197 222 255
197 222 255
196 222 255
196 222 255
196 222 255
196 222 255
196 222 255
196 222 255
196 222 255
196 222 255
196 222 255
196 222 255
196 222 255
196 222 255
196 222 255
196 222 255
196 222 255
196 222 255
196 221 255
196 221 255
195 221 255
195 221 255
195 221 255
195 221 255
195 221 255
195 221 255
195 221 255
195 221 255
195 221 255
195 221 255
195 221 255
195 221 255
195 221 255
195 221 255
195 221 255
195 221 255
195 221 255
195 221 255
195 221 255
195 221 255
195 221 255
195 221 255
195 221 255
195 221 255
195 221 255
195 221 255
195 221 255
195 221 255
195 221 255
195 221 255
194 221 255
194 221 255
194 221 255
194 221 255
194 221 255
194 221 255
194 221 255
194 221 255
194 221 255
194 221 255
194 221 255
194 221 255
194 221 255
194 221 255
194 221 255
194 221 255
194 221 255
194 221 255
194 221 255
194 221 255
194 221 255
194 221 255
194 221 255
194 221 255
194 221 255
194 221 255
194 221 255
194 221 255
194 221 255
194 221 255
195 221 255
195 221 255
195 221 255
195 221 255
195 221 255
195 221 255
195 221 255
195 221 255
195 221 255
195 221 255
195 221 255
195 221 255
195 221 255
195 221 255
195 221 255
195 221 255
195 221 255
195 221 255
195 221 255
195 221 255
195 221 255
195 221 255
195 221 255
195 221 255
195 221 255
195 221 255
195 221 255
195 221 255
195 221 255
195 221 255
196 221 255
196 221 255
196 222 255
196 222 255
196 222 255
196 222 255
196 222 255
196 222 255
196 222 255
196 222 255
196 222 255
196 222 255
196 222 255
196 222 255
196 222 255
196 222 255
196 222 255
196 222 255
197 222 255
197 222 255
197 222 255
197 222 255
197 222 255
197 222 255
197 222 255
197 222 255
197 222 255
197 222 255
197 222 255
197 222 255
197 222 255
197 222 255
197 222 255
197 223 255
198 223 255
198 223 255
198 223 255
198 223 255
198 223 255
198 223 255
198 223 255
198 223 255
198 223 255
198 223 255
198 223 255
198 223 255
198 223 255
198 223 255
198 223 255
199 223 255
199 223 255
199 223 255
199 223 255
199 223 255
199 223 255
200 205 234
200 188 215
202 134 153
199 54 62
201 0 0
202 0 0
201 0 0
202 0 0
200 0 0
202 0 0
203 0 0
204 0 0
200 0 0
203 0 0
204 0 0
202 0 0
205 0 0
202 0 0
202 0 0
202 0 0
203 0 0
205 0 0
202 0 0
205 0 0
202 0 0
204 0 0
205 0 0
207 0 0
207 0 0
207 0 0
204 0 0
203 0 0
204 0 0
204 0 0
205 0 0
204 0 0
205 0 0
206 0 0
204 0 0
209 0 0
206 0 0
202 0 0
208 0 0
204 0 0
206 0 0
207 0 0
206 0 0
209 0 0
210 0 0
208 0 0
209 0 0
207 0 0
207 0 0
209 0 0
205 0 0
204 0 0
210 0 0
208 0 0
207 0 0
211 0 0
208 0 0
207 0 0
206 0 0
208 0 0
206 0 0
206 0 0
209 0 0
206 0 0
207 0 0
209 0 0
209 0 0
207 0 0
206 0 0
208 0 0
207 0 0
209 0 0
207 0 0
208 0 0
206 0 0
204 0 0
207 0 0
209 0 0
207 0 0
208 0 0
208 0 0
205 0 0
206 0 0
208 0 0
207 0 0
209 0 0
207 0 0
208 0 0
209 0 0
204 0 0
208 0 0
208 0 0
211 0 0
209 0 0
208 0 0
207 0 0
0 0 255
0 0 255
0 0 255
0 0 255
0 0 255
0 0 255
0 0 255
0 0 255
0 0 255
0 0 255
0 0 255
0 0 255
0 0 255
0 0 254
0 0 255
0 0 255
0 0 255
0 0 255
0 0 255
0 0 255
0 0 255
0 0 255
0 0 255
0 0 255
0 0 255
0 0 255
0 0 255
0 0 255
0 0 255
0 0 255
0 0 255
0 0 255
0 0 255
0 0 255
0 0 255
0 0 255
0 0 255
0 0 255
0 0 255
0 0 254
0 0 255
0 0 255
0 0 255
0 0 255
0 0 255
0 0 255
0 0 255
0 0 254
0 0 254
0 0 255
0 0 255
0 0 255
0 0 255
0 0 255
0 0 255
0 0 254
0 0 254
0 0 255
0 0 255
0 0 253
0 0 255
0 0 255
0 0 255
0 0 255
0 0 255
0 0 254
0 0 254
0 0 254
0 0 254
0 0 255
0 0 254
0 0 252
0 0 255
0 0 254
0 0 255
0 0 254
0 0 254
0 0 255
0 0 255
0 0 255
0 0 255
0 0 255
0 0 255
0 0 254
0 0 255
0 0 254
0 0 254
0 0 253
0 0 255
0 0 255
0 0 254
0 0 254
0 0 252
0 0 254
0 0 255
0 0 255
0 0 253
0 0 254
0 0 253
0 0 255
79 89 253
138 155 255
176 197 255
199 223 255
199 223 255
199 223 255
199 223 255
199 223 255
199 223 255
198 223 255
198 223 255
198 223 255
198 223 255
198 223 255
198 223 255
198 223 255
198 223 255
198 223 255
198 223 255
198 223 255
198 223 255
198 223 255
198 223 255
197 223 255
197 222 255
197 222 255
197 222 255
197 222 255
197 222 255
197 222 255
197 222 255
197 222 255
197 222 255
197 222 255
197 222 255
197 222 255
197 222 255
197 222 255
197 222 255
196 222 255
196 222 255
196 222 255
196 222 255
196 222 255
196 222 255
196 222 255
196 222 255
196 222 255
196 222 255
196 222 255
196 222 255
196 222 255
196 222 255
196 222 255
196 222 255
196 222 255
196 222 255
196 221 255
195 221 255
195 221 255
195 221 255
195 221 255
195 221 255
195 221 255
195 221 255
195 221 255
195 221 255
195 221 255
195 221 255
195 221 255
195 221 255
195 221 255
195 221 255
195 221 255
195 221 255
195 221 255
195 221 255
195 221 255
195 221 255
195 221 255
195 221 255
195 221 255
195 221 255
195 221 255
195 221 255
195 221 255
195 221 255
195 221 255
195 221 255
195 221 255
195 221 255
195 221 255
195 221 255
195 221 255
195 221 255
195 221 255
195 221 255
195 221 255
195 221 255
195 221 255
195 221 255
195 221 255
195 221 255
195 221 255
195 221 255
195 221 255
195 221 255
195 221 255
195 221 255
195 221 255
195 221 255
195 221 255
195 221 255
195 221 255
195 221 255
195 221 255
195 221 255
195 221 255
195 221 255
195 221 255
195 221 255
195 221 255
195 221 255
195 221 255
195 221 255
195 221 255
195 221 255
195 221 255
195 221 255
195 221 255
195 221 255
195 221 255
195 221 255
195 221 255
195 221 255
195 221 255
195 221 255
195 221 255
195 221 255
195 221 255
195 221 255
196 221 255
196 221 255
196 222 255
196 222 255
196 222 255
196 222 255
196 222 255
196 222 255
196 222 255
196 222 255
196 222 255
196 222 255
196 222 255
196 222 255
196 222 255
196 222 255
196 222 255
196 222 255
196 222 255
196 222 255
197 222 255
197 222 255
197 222 255
197 222 255
197 222 255
197 222 255
197 222 255
197 222 255
197 222 255
197 222 255
197 222 255
197 222 255
197 222 255
197 222 255
197 222 255
198 223 255
198 223 255
198 223 255
198 223 255
198 223 255
198 223 255
198 223 255
198 223 255
198 223 255
198 223 255
198 223 255
198 223 255
198 223 255
198 223 255
198 223 255
199 223 255
199 223 255
199 223 255
199 223 255
199 223 255
199 223 255
198 202 231
199 156 179
200 104 120
199 0 0
200 0 0
201 0 0
202 0 0
203 0 0
203 0 0
199 0 0
200 0 0
206 0 0
202 0 0
205 0 0
203 0 0
205 0 0
205 0 0
203 0 0
203 0 0
205 0 0
206 0 0
205 0 0
204 0 0
204 0 0
205 0 0
206 0 0
204 0 0
203 0 0
208 0 0
202 0 0
200 0 0
203 0 0
206 0 0
209 0 0
201 0 0
204 0 0
207 0 0
206 0 0
204 0 0
204 0 0
206 0 0
208 0 0
207 0 0
207 0 0
204 0 0
209 0 0
209 0 0
207 0 0
205 0 0
205 0 0
208 0 0
204 0 0
208 0 0
205 0 0
207 0 0
206 0 0
204 0 0
207 0 0
206 0 0
207 0 0
208 0 0
210 0 0
206 0 0
211 0 0
209 0 0
208 0 0
208 0 0
205 0 0
210 0 0
204 0 0
210 0 0
205 0 0
208 0 0
209 0 0
206 0 0
210 0 0
206 0 0
208 0 0
208 0 0
205 0 0
206 0 0
207 0 0
209 0 0
208 0 0
206 0 0
208 0 0
207 0 0
210 0 0
208 0 0
207 0 0
213 0 0
209 0 0
205 0 0
208 0 0
206 0 0
210 0 0
209 0 0
211 0 0
210 0 0
210 0 0
209 0 0
206 0 0
209 0 0
0 0 255
0 0 255
0 0 255
0 0 255
0 0 255
0 0 255
0 0 255
0 0 255
0 0 255
0 0 255
0 0 255
0 0 255
0 0 255
0 0 255
0 0 255
0 0 255
0 0 255
0 0 255
0 0 255
0 0 255
0 0 255
0 0 255
0 0 255
0 0 255
0 0 255
0 0 255
0 0 255
0 0 254
0 0 255
0 0 255
0 0 255
0 0 255
0 0 255
0 0 255
0 0 254
0 0 255
0 0 255
0 0 254
0 0 255
0 0 255
0 0 255
0 0 255
0 0 255
0 0 254
0 0 255
0 0 254
0 0 255
0 0 255
0 0 254
0 0 255
0 0 255
0 0 255
0 0 253
0 0 255
0 0 255
0 0 255
0 0 254
0 0 254
0 0 255
0 0 255
0 0 255
0 0 255
0 0 255
0 0 255
0 0 255
0 0 254
0 0 255
0 0 254
0 0 255
0 0 255
0 0 254
0 0 255
0 0 254
0 0 255
0 0 255
0 0 254
0 0 254
0 0 255
0 0 255
0 0 255
0 0 254
0 0 252
0 0 255
0 0 255
0 0 255
0 0 255
0 0 255
0 0 255
0 0 254
0 0 254
0 0 254
0 0 253
0 0 255
0 0 255
0 0 250
0 0 254
0 0 254
0 0 255
0 0 255
0 0 255
0 0 255
0 0 255
0 0 255
48 54 255
121 136 255
160 180 255
194 218 255
199 223 255
199 223 255
199 223 255
199 223 255
198 223 255
198 223 255
198 223 255
198 223 255
198 223 255
198 223 255
198 223 255
198 223 255
198 223 255
198 223 255
198 223 255
198 223 255
198 223 255
198 223 255
198 223 255
197 222 255
197 222 255
197 222 255
197 222 255
197 222 255
197 222 255
197 222 255
197 222 255
197 222 255
197 222 255
197 222 255
197 222 255
197 222 255
197 222 255
197 222 255
197 222 255
196 222 255
196 222 255
196 222 255
196 222 255
196 222 255
196 222 255
196 222 255
196 222 255
196 222 255
196 222 255
196 222 255
196 222 255
196 222 255
196 222 255
196 222 255
196 222 255
196 222 255
196 222 255
196 221 255
196 221 255
195 221 255
195 221 255
195 221 255
195 221 255
195 221 255
195 221 255
195 221 255
195 221 255
195 221 255
195 221 255
195 221 255
195 221 255
195 221 255
195 221 255
195 221 255
195 221 255
195 221 255
195 221 255
195 221 255
195 221 255
195 221 255
195 221 255
195 221 255
195 221 255
195 221 255
195 221 255
195 221 255
195 221 255
195 221 255
195 221 255
195 221 255
195 221 255
195 221 255
195 221 255
195 221 255
195 221 255
195 221 255
195 221 255
195 221 255
195 221 255
195 221 255
195 221 255
195 221 255
195 221 255
195 221 255
195 221 255
195 221 255
195 221 255
195 221 255
195 221 255
195 221 255
195 221 255
195 221 255
195 221 255
195 221 255
195 221 255
195 221 255
195 221 255
195 221 255
195 221 255
195 221 255
195 221 255
195 221 255
195 221 255
195 221 255
195 221 255
195 221 255
195 221 255
195 221 255
195 221 255
195 221 255
195 221 255
195 221 255
195 221 255
195 221 255
195 221 255
196 221 255
196 221 255
196 222 255
196 222 255
196 222 255
196 222 255
196 222 255
196 222 255
196 222 255
196 222 255
196 222 255
196 222 255
196 222 255
196 222 255
196 222 255
196 222 255
196 222 255
196 222 255
196 222 255
196 222 255
197 222 255
197 222 255
197 222 255
197 222 255
197 222 255
197 222 255
197 222 255
197 222 255
197 222 255
197 222 255
197 222 255
197 222 255
197 222 255
197 222 255
197 222 255
197 222 255
198 223 255
198 223 255
198 223 255
198 223 255
198 223 255
198 223 255
198 223 255
198 223 255
198 223 255
198 223 255
198 223 255
198 223 255
198 223 255
198 223 255
198 223 255
199 223 255
199 223 255
199 223 255
199 223 255
199 216 248
198 189 217
198 145 165
201 83 95
200 0 0
204 0 0
200 0 0
201 0 0
200 0 0
202 0 0
202 0 0
202 0 0
200 0 0
202 0 0
204 0 0
203 0 0
202 0 0
203 0 0
205 0 0
204 0 0
205 0 0
201 0 0
199 0 0
202 0 0
203 0 0
205 0 0
205 0 0
203 0 0
205 0 0
204 0 0
202 0 0
204 0 0
202 0 0
205 0 0
208 0 0
203 0 0
209 0 0
205 0 0
203 0 0
209 0 0
206 0 0
207 0 0
206 0 0
203 0 0
208 0 0
205 0 0
209 0 0
206 0 0
207 0 0
207 0 0
208 0 0
207 0 0
209 0 0
202 0 0
207 0 0
207 0 0
207 0 0
204 0 0
205 0 0
208 0 0
208 0 0
208 0 0
206 0 0
208 0 0
207 0 0
207 0 0
210 0 0
209 0 0
208 0 0
209 0 0
208 0 0
209 0 0
206 0 0
207 0 0
205 0 0
207 0 0
207 0 0
210 0 0
207 0 0
206 0 0
208 0 0
206 0 0
206 0 0
206 0 0
209 0 0
206 0 0
207 0 0
209 0 0
209 0 0
207 0 0
210 0 0
209 0 0
208 0 0
207 0 0
209 0 0
210 0 0
209 0 0
206 0 0
209 0 0
206 0 0
210 0 0
210 0 0
208 0 0
204 0 0
210 0 0
206 0 0
205 0 0
0 0 255
0 0 255
0 0 255
0 0 255
0 0 254
0 0 255
0 0 255
0 0 255
0 0 255
0 0 255
0 0 255
0 0 255
0 0 255
0 0 255
0 0 255
0 0 255
0 0 255
0 0 255
0 0 255
0 0 255
0 0 255
0 0 255
0 0 255
0 0 255
0 0 255
0 0 255
0 0 255
0 0 255
0 0 255
0 0 255
0 0 255
0 0 253
0 0 255
0 0 255
0 0 254
0 0 255
0 0 255
0 0 252
0 0 255
0 0 254
0 0 255
0 0 254
0 0 255
0 0 255
0 0 255
0 0 255
0 0 255
0 0 255
0 0 255
0 0 255
0 0 254
0 0 254
0 0 255
0 0 255
0 0 255
0 0 255
0 0 254
0 0 255
0 0 253
0 0 255
0 0 253
0 0 255
0 0 254
0 0 254
0 0 255
0 0 254
0 0 255
0 0 254
0 0 254
0 0 255
0 0 255
0 0 255
0 0 255
0 0 255
0 0 253
0 0 254
0 0 254
0 0 255
0 0 254
0 0 254
0 0 255
0 0 255
0 0 254
0 0 255
0 0 255
0 0 255
0 0 254
0 0 254
0 0 253
0 0 255
0 0 255
0 0 250
0 0 253
0 0 255
0 0 255
0 0 255
0 0 254
0 0 252
0 0 255
0 0 253
0 0 252
0 0 255
0 0 255
0 0 254
0 0 255
0 0 253
34 38 254
122 137 254
158 177 255
195 219 255
199 223 255
199 223 255
199 223 255
198 223 255
198 223 255
198 223 255
198 223 255
198 223 255
198 223 255
198 223 255
198 223 255
198 223 255
198 223 255
198 223 255
198 223 255
198 223 255
198 223 255
198 223 255
197 223 255
197 222 255
197 222 255
197 222 255
197 222 255
197 222 255
197 222 255
197 222 255
197 222 255
197 222 255
197 222 255
197 222 255
197 222 255
197 222 255
197 222 255
197 222 255
197 222 255
196 222 255
196 222 255
196 222 255
196 222 255
196 222 255
196 222 255
196 222 255
196 222 255
196 222 255
196 222 255
196 222 255
196 222 255
196 222 255
196 222 255
196 222 255
196 222 255
196 222 255
196 222 255
196 222 255
196 221 255
196 221 255
195 221 255
195 221 255
195 221 255
195 221 255
195 221 255
195 221 255
195 221 255
195 221 255
195 221 255
195 221 255
195 221 255
195 221 255
195 221 255
195 221 255
195 221 255
195 221 255
195 221 255
195 221 255
195 221 255
195 221 255
195 221 255
195 221 255
195 221 255
195 221 255
195 221 255
195 221 255
195 221 255
195 221 255
195 221 255
195 221 255
195 221 255
195 221 255
195 221 255
195 221 255
195 221 255
195 221 255
195 221 255
195 221 255
195 221 255
195 221 255
195 221 255
195 221 255
195 221 255
195 221 255
195 221 255
195 221 255
195 221 255
195 221 255
195 221 255
195 221 255
195 221 255
195 221 255
195 221 255
195 221 255
195 221 255
195 221 255
195 221 255
195 221 255
195 221 255
195 221 255
195 221 255
195 221 255
195 221 255
195 221 255
195 221 255
195 221 255
195 221 255
195 221 255
196 221 255
196 221 255
196 222 255
196 222 255
196 222 255
196 222 255
196 222 255
196 222 255
196 222 255
196 222 255
196 222 255
196 222 255
196 222 255
196 222 255
196 222 255
196 222 255
196 222 255
196 222 255
196 222 255
196 222 255
196 222 255
197 222 255
197 222 255
197 222 255
197 222 255
197 222 255
197 222 255
197 222 255
197 222 255
197 222 255
197 222 255
197 222 255
197 222 255
197 222 255
197 222 255
197 222 255
197 222 255
197 223 255
198 223 255
198 223 255
198 223 255
198 223 255
198 223 255
198 223 255
198 223 255
198 223 255
198 223 255
198 223 255
198 223 255
198 223 255
198 223 255
198 223 255
198 223 255
199 223 255
199 223 255
199 223 255
199 221 253
200 168 193
202 136 155
198 31 36
203 0 0
202 0 0
204 0 0
199 0 0
200 0 0
199 0 0
199 0 0
204 0 0
203 0 0
199 0 0
201 0 0
205 0 0
203 0 0
199 0 0
203 0 0
204 0 0
201 0 0
202 0 0
203 0 0
204 0 0
199 0 0
203 0 0
206 0 0
206 0 0
199 0 0
207 0 0
202 0 0
208 0 0
201 0 0
202 0 0
208 0 0
203 0 0
205 0 0
206 0 0
207 0 0
205 0 0
206 0 0
205 0 0
208 0 0
207 0 0
207 0 0
202 0 0
207 0 0
206 0 0
200 0 0
204 0 0
211 0 0
204 0 0
209 0 0
206 0 0
211 0 0
204 0 0
205 0 0
207 0 0
208 0 0
210 0 0
209 0 0
209 0 0
207 0 0
206 0 0
205 0 0
207 0 0
207 0 0
206 0 0
209 0 0
208 0 0
207 0 0
206 0 0
209 0 0
207 0 0
207 0 0
210 0 0
206 0 0
212 0 0
206 0 0
208 0 0
206 0 0
207 0 0
207 0 0
208 0 0
208 0 0
210 0 0
210 0 0
210 0 0
209 0 0
207 0 0
206 0 0
207 0 0
210 0 0
208 0 0
209 0 0
206 0 0
209 0 0
208 0 0
208 0 0
204 0 0
210 0 0
207 0 0
207 0 0
209 0 0
211 0 0
210 0 0
207 0 0
208 0 0
209 0 0
206 0 0
0 0 255
0 0 255
0 0 255
0 0 255
0 0 255
0 0 255
0 0 255
0 0 255
0 0 255
0 0 255
0 0 255
0 0 255
0 0 255
0 0 255
0 0 255
0 0 255
0 0 255
0 0 255
0 0 255
0 0 255
0 0 255
0 0 255
0 0 255
0 0 255
0 0 255
0 0 255
0 0 255
0 0 255
0 0 255
0 0 255
0 0 255
0 0 255
0 0 255
0 0 254
0 0 255
0 0 255
0 0 254
0 0 255
0 0 255
0 0 254
0 0 255
0 0 255
0 0 255
0 0 254
0 0 255
0 0 255
0 0 255
0 0 254
0 0 255
0 0 255
0 0 254
0 0 253
0 0 254
0 0 254
0 0 255
0 0 255
0 0 255
0 0 253
0 0 255
0 0 254
0 0 254
0 0 255
0 0 255
0 0 254
0 0 255
0 0 253
0 0 253
0 0 254
0 0 255
0 0 253
0 0 254
0 0 252
0 0 254
0 0 255
0 0 255
0 0 253
0 0 255
0 0 255
0 0 255
0 0 254
0 0 255
0 0 253
0 0 253
0 0 255
0 0 252
0 0 255
0 0 253
0 0 253
0 0 254
0 0 255
0 0 254
0 0 254
0 0 250
0 0 254
0 0 255
0 0 250
0 0 254
0 0 252
0 0 255
0 0 255
0 0 253
0 0 255
0 0 255
0 0 253
0 0 255
0 0 255
0 0 255
0 0 254
0 0 254
39 44 254
105 118 255
161 181 255
197 221 255
199 223 255
199 223 255
199 223 255
198 223 255
198 223 255
198 223 255
198 223 255
198 223 255
198 223 255
198 223 255
198 223 255
198 223 255
198 223 255
198 223 255
198 223 255
198 223 255
198 223 255
198 223 255
197 222 255
197 222 255
197 222 255
197 222 255
197 222 255
197 222 255
197 222 255
197 222 255
197 222 255
197 222 255
197 222 255
197 222 255
197 222 255
197 222 255
197 222 255
197 222 255
197 222 255
196 222 255
196 222 255
196 222 255
196 222 255
196 222 255
196 222 255
196 222 255
196 222 255
196 222 255
196 222 255
196 222 255
196 222 255
196 222 255
196 222 255
196 222 255
196 222 255
196 222 255
196 222 255
196 222 255
196 222 255
196 221 255
196 221 255
195 221 255
195 221 255
195 221 255
195 221 255
195 221 255
195 221 255
195 221 255
195 221 255
195 221 255
195 221 255
195 221 255
195 221 255
195 221 255
195 221 255
195 221 255
195 221 255
195 221 255
195 221 255
195 221 255
195 221 255
195 221 255
195 221 255
195 221 255
195 221 255
195 221 255
195 221 255
195 221 255
195 221 255
195 221 255
195 221 255
195 221 255
195 221 255
195 221 255
195 221 255
195 221 255
195 221 255
195 221 255
195 221 255
195 221 255
195 221 255
195 221 255
195 221 255
195 221 255
195 221 255
195 221 255
195 221 255
195 221 255
195 221 255
195 221 255
195 221 255
195 221 255
195 221 255
195 221 255
195 221 255
195 221 255
195 221 255
195 221 255
195 221 255
195 221 255
195 221 255
196 221 255
196 221 255
196 222 255
196 222 255
196 222 255
196 222 255
196 222 255
196 222 255
196 222 255
196 222 255
196 222 255
196 222 255
196 222 255
196 222 255
196 222 255
196 222 255
196 222 255
196 222 255
196 222 255
196 222 255
196 222 255
196 222 255
197 222 255
197 222 255
197 222 255
197 222 255
197 222 255
197 222 255
197 222 255
197 222 255
197 222 255
197 222 255
197 222 255
197 222 255
197 222 255
197 222 255
197 222 255
197 222 255
197 222 255
198 223 255
198 223 255
198 223 255
198 223 255
198 223 255
198 223 255
198 223 255
198 223 255
198 223 255
198 223 255
198 223 255
198 223 255
198 223 255
198 223 255
198 223 255
198 223 255
199 223 255
199 223 255
199 221 253
199 189 217
199 134 153
204 50 57
198 0 0
201 0 0
202 0 0
198 0 0
201 0 0
201 0 0
199 0 0
200 0 0
203 0 0
203 0 0
200 0 0
200 0 0
200 0 0
202 0 0
205 0 0
201 0 0
204 0 0
206 0 0
205 0 0
205 0 0
206 0 0
204 0 0
202 0 0
203 0 0
204 0 0
205 0 0
207 0 0
205 0 0
205 0 0
206 0 0
204 0 0
207 0 0
205 0 0
205 0 0
204 0 0
204 0 0
205 0 0
207 0 0
206 0 0
202 0 0
206 0 0
204 0 0
205 0 0
204 0 0
204 0 0
205 0 0
206 0 0
205 0 0
206 0 0
204 0 0
209 0 0
209 0 0
207 0 0
208 0 0
206 0 0
207 0 0
209 0 0
210 0 0
208 0 0
208 0 0
207 0 0
207 0 0
207 0 0
206 0 0
210 0 0
206 0 0
203 0 0
206 0 0
209 0 0
212 0 0
210 0 0
205 0 0
208 0 0
206 0 0
210 0 0
209 0 0
208 0 0
209 0 0
209 0 0
207 0 0
206 0 0
208 0 0
210 0 0
207 0 0
205 0 0
208 0 0
204 0 0
210 0 0
209 0 0
204 0 0
210 0 0
208 0 0
206 0 0
209 0 0
209 0 0
205 0 0
208 0 0
213 0 0
209 0 0
208 0 0
209 0 0
208 0 0
210 0 0
211 0 0
211 0 0
207 0 0
209 0 0
208 0 0
213 0 0
0 0 255
0 0 255
0 0 255
0 0 255
0 0 255
0 0 255
0 0 255
0 0 255
0 0 255
0 0 255
0 0 255
0 0 255
0 0 255
0 0 255
0 0 255
0 0 255
0 0 255
0 0 255
0 0 255
0 0 255
0 0 255
0 0 255
0 0 255
0 0 255
0 0 255
0 0 255
0 0 255
0 0 255
0 0 255
0 0 255
0 0 255
0 0 255
0 0 255
0 0 255
0 0 255
0 0 253
0 0 255
0 0 255
0 0 255
0 0 254
0 0 255
0 0 254
0 0 255
0 0 255
0 0 255
0 0 255
0 0 255
0 0 253
0 0 255
0 0 255
0 0 254
0 0 255
0 0 254
0 0 255
0 0 255
0 0 255
0 0 254
0 0 254
0 0 255
0 0 255
0 0 255
0 0 253
0 0 254
0 0 254
0 0 255
0 0 254
0 0 255
0 0 254
0 0 255
0 0 254
0 0 255
0 0 255
0 0 254
0 0 255
0 0 254
0 0 253
0 0 254
0 0 252
0 0 254
0 0 254
0 0 255
0 0 254
0 0 252
0 0 254
0 0 254
0 0 255
0 0 255
0 0 254
0 0 254
0 0 255
0 0 254
0 0 254
0 0 255
0 0 255
0 0 254
0 0 252
0 0 254
0 0 254
0 0 254
0 0 254
0 0 253
0 0 254
0 0 255
0 0 254
0 0 253
0 0 255
0 0 248
0 0 254
0 0 254
0 0 253
0 0 253
0 0 253
39 44 254
119 134 255
178 200 255
199 223 255
199 223 255
199 223 255
198 223 255
198 223 255
198 223 255
198 223 255
198 223 255
198 223 255
198 223 255
198 223 255
198 223 255
198 223 255
198 223 255
198 223 255
198 223 255
198 223 255
198 223 255
197 223 255
197 222 255
197 222 255
197 222 255
197 222 255
197 222 255
197 222 255
197 222 255
197 222 255
197 222 255
197 222 255
197 222 255
197 222 255
197 222 255
197 222 255
197 222 255
197 222 255
197 222 255
196 222 255
196 222 255
196 222 255
196 222 255
196 222 255
196 222 255
196 222 255
196 222 255
196 222 255
196 222 255
196 222 255
196 222 255
196 222 255
196 222 255
196 222 255
196 222 255
196 222 255
196 222 255
196 222 255
196 222 255
196 222 255
196 221 255
196 221 255
196 221 255
195 221 255
195 221 255
195 221 255
195 221 255
195 221 255
195 221 255
195 221 255
195 221 255
195 221 255
195 221 255
195 221 255
195 221 255
195 221 255
195 221 255
195 221 255
195 221 255
195 221 255
195 221 255
195 221 255
195 221 255
195 221 255
195 221 255
195 221 255
195 221 255
195 221 255
195 221 255
195 221 255
195 221 255
195 221 255
195 221 255
195 221 255
195 221 255
195 221 255
195 221 255
195 221 255
195 221 255
195 221 255
195 221 255
195 221 255
195 221 255
195 221 255
195 221 255
195 221 255
195 221 255
195 221 255
195 221 255
195 221 255
195 221 255
195 221 255
195 221 255
196 221 255
196 221 255
196 221 255
196 222 255
196 222 255
196 222 255
196 222 255
196 222 255
196 222 255
196 222 255
196 222 255
196 222 255
196 222 255
196 222 255
196 222 255
196 222 255
196 222 255
196 222 255
196 222 255
196 222 255
196 222 255
196 222 255
196 222 255
196 222 255
197 222 255
197 222 255
197 222 255
197 222 255
197 222 255
197 222 255
197 222 255
197 222 255
197 222 255
197 222 255
197 222 255
197 222 255
197 222 255
197 222 255
197 222 255
197 222 255
197 222 255
197 223 255
198 223 255
198 223 255
198 223 255
198 223 255
198 223 255
198 223 255
198 223 255
198 223 255
198 223 255
198 223 255
198 223 255
198 223 255
198 223 255
198 223 255
198 223 255
199 223 255
199 223 255
199 223 255
199 194 223
197 134 153
198 44 51
198 0 0
197 0 0
200 0 0
201 0 0
200 0 0
197 0 0
200 0 0
201 0 0
201 0 0
206 0 0
200 0 0
202 0 0
201 0 0
204 0 0
203 0 0
205 0 0
202 0 0
203 0 0
202 0 0
202 0 0
203 0 0
204 0 0
201 0 0
208 0 0
206 0 0
204 0 0
206 0 0
204 0 0
205 0 0
202 0 0
206 0 0
203 0 0
204 0 0
204 0 0
206 0 0
207 0 0
205 0 0
206 0 0
204 0 0
206 0 0
206 0 0
204 0 0
205 0 0
204 0 0
203 0 0
207 0 0
207 0 0
208 0 0
207 0 0
207 0 0
203 0 0
205 0 0
212 0 0
204 0 0
204 0 0
206 0 0
202 0 0
206 0 0
209 0 0
209 0 0
208 0 0
209 0 0
210 0 0
208 0 0
208 0 0
211 0 0
206 0 0
209 0 0
206 0 0
211 0 0
210 0 0
208 0 0
205 0 0
209 0 0
204 0 0
206 0 0
209 0 0
210 0 0
207 0 0
209 0 0
207 0 0
211 0 0
205 0 0
207 0 0
206 0 0
207 0 0
211 0 0
209 0 0
208 0 0
207 0 0
206 0 0
209 0 0
209 0 0
210 0 0
208 0 0
210 0 0
211 0 0
210 0 0
211 0 0
207 0 0
211 0 0
210 0 0
207 0 0
209 0 0
207 0 0
205 0 0
209 0 0
209 0 0
211 0 0
208 0 0
212 0 0
211 0 0
0 0 255
0 0 255
0 0 255
0 0 255
0 0 255
0 0 255
0 0 255
0 0 255
0 0 255
0 0 255
0 0 255
0 0 255
0 0 255
0 0 255
0 0 255
0 0 255
0 0 255
0 0 255
0 0 255
0 0 255
0 0 255
0 0 255
0 0 255
0 0 255
0 0 255
0 0 255
0 0 255
0 0 255
0 0 255
0 0 254
0 0 255
0 0 255
0 0 255
0 0 253
0 0 255
0 0 255
0 0 255
0 0 254
0 0 254
0 0 255
0 0 255
0 0 255
0 0 255
0 0 254
0 0 255
0 0 255
0 0 255
0 0 255
0 0 255
0 0 254
0 0 253
0 0 255
0 0 254
0 0 255
0 0 255
0 0 253
0 0 255
0 0 255
0 0 255
0 0 255
0 0 255
0 0 254
0 0 254
0 0 255
0 0 255
0 0 252
0 0 254
0 0 254
0 0 254
0 0 254
0 0 254
0 0 255
0 0 254
0 0 253
0 0 254
0 0 255
0 0 253
0 0 254
0 0 255
0 0 254
0 0 254
0 0 255
0 0 253
0 0 254
0 0 254
0 0 254
0 0 253
0 0 255
0 0 253
0 0 255
0 0 253
0 0 253
0 0 250
0 0 255
0 0 253
0 0 254
0 0 250
0 0 255
0 0 254
0 0 249
0 0 252
0 0 255
0 0 255
0 0 253
0 0 252
0 0 249
0 0 252
0 0 255
0 0 255
0 0 252
0 0 252
0 0 253
0 0 253
0 0 253
0 0 254
84 94 255
138 154 255
174 196 254
199 223 255
199 223 255
198 223 255
198 223 255
198 223 255
198 223 255
198 223 255
198 223 255
198 223 255
198 223 255
198 223 255
198 223 255
198 223 255
198 223 255
198 223 255
198 223 255
198 223 255
198 223 255
197 222 255
197 222 255
197 222 255
197 222 255
197 222 255
197 222 255
197 222 255
197 222 255
197 222 255
197 222 255
197 222 255
197 222 255
197 222 255
197 222 255
197 222 255
197 222 255
197 222 255
197 222 255
196 222 255
196 222 255
196 222 255
196 222 255
196 222 255
196 222 255
196 222 255
196 222 255
196 222 255
196 222 255
196 222 255
196 222 255
196 222 255
196 222 255
196 222 255
196 222 255
196 222 255
196 222 255
196 222 255
196 222 255
196 222 255
196 222 255
196 222 255
196 221 255
196 221 255
196 221 255
196 221 255
195 221 255
195 221 255
195 221 255
195 221 255
195 221 255
195 221 255
195 221 255
195 221 255
195 221 255
195 221 255
195 221 255
195 221 255
195 221 255
195 221 255
195 221 255
195 221 255
195 221 255
195 221 255
195 221 255
195 221 255
195 221 255
195 221 255
195 221 255
195 221 255
195 221 255
195 221 255
195 221 255
195 221 255
195 221 255
195 221 255
195 221 255
195 221 255
195 221 255
195 221 255
195 221 255
195 221 255
195 221 255
195 221 255
196 221 255
196 221 255
196 221 255
196 222 255
196 222 255
196 222 255
196 222 255
196 222 255
196 222 255
196 222 255
196 222 255
196 222 255
196 222 255
196 222 255
196 222 255
196 222 255
196 222 255
196 222 255
196 222 255
196 222 255
196 222 255
196 222 255
196 222 255
196 222 255
196 222 255
196 222 255
196 222 255
197 222 255
197 222 255
197 222 255
197 222 255
197 222 255
197 222 255
197 222 255
197 222 255
197 222 255
197 222 255
197 222 255
197 222 255
197 222 255
197 222 255
197 222 255
197 222 255
197 222 255
197 222 255
198 223 255
198 223 255
198 223 255
198 223 255
198 223 255
198 223 255
198 223 255
198 223 255
198 223 255
198 223 255
198 223 255
198 223 255
198 223 255
198 223 255
198 223 255
198 223 255
199 223 255
199 223 255
199 210 241
196 164 188
200 74 84
200 0 0
198 0 0
197 0 0
200 0 0
201 0 0
197 0 0
197 0 0
200 0 0
203 0 0
203 0 0
199 0 0
203 0 0
204 0 0
203 0 0
201 0 0
202 0 0
204 0 0
200 0 0
207 0 0
205 0 0
205 0 0
202 0 0
203 0 0
208 0 0
204 0 0
201 0 0
202 0 0
205 0 0
204 0 0
201 0 0
205 0 0
206 0 0
203 0 0
207 0 0
206 0 0
205 0 0
203 0 0
206 0 0
205 0 0
205 0 0
202 0 0
206 0 0
206 0 0
206 0 0
208 0 0
205 0 0
209 0 0
205 0 0
210 0 0
201 0 0
202 0 0
205 0 0
207 0 0
211 0 0
206 0 0
207 0 0
207 0 0
204 0 0
207 0 0
207 0 0
206 0 0
207 0 0
208 0 0
209 0 0
210 0 0
208 0 0
206 0 0
208 0 0
208 0 0
207 0 0
208 0 0
207 0 0
208 0 0
210 0 0
206 0 0
208 0 0
208 0 0
212 0 0
210 0 0
207 0 0
209 0 0
210 0 0
212 0 0
208 0 0
212 0 0
210 0 0
212 0 0
208 0 0
208 0 0
210 0 0
207 0 0
208 0 0
212 0 0
211 0 0
206 0 0
210 0 0
207 0 0
212 0 0
211 0 0
211 0 0
207 0 0
209 0 0
209 0 0
210 0 0
209 0 0
209 0 0
208 0 0
210 0 0
206 0 0
211 0 0
212 0 0
210 0 0
207 0 0
210 0 0
209 0 0
0 0 255
0 0 255
0 0 255
0 0 255
0 0 255
0 0 255
0 0 255
0 0 255
0 0 254
0 0 255
0 0 255
0 0 255
0 0 255
0 0 255
0 0 255
0 0 255
0 0 255
0 0 255
0 0 255
0 0 255
0 0 255
0 0 255
0 0 255
0 0 255
0 0 255
0 0 255
0 0 255
0 0 255
0 0 255
0 0 255
0 0 254
0 0 255
0 0 255
0 0 255
0 0 254
0 0 255
0 0 255
0 0 255
0 0 254
0 0 255
0 0 255
0 0 255
0 0 255
0 0 254
0 0 255
0 0 253
0 0 253
0 0 254
0 0 254
0 0 254
0 0 254
0 0 255
0 0 255
0 0 255
0 0 254
0 0 254
0 0 255
0 0 255
0 0 254
0 0 255
0 0 254
0 0 255
0 0 254
0 0 255
0 0 255
0 0 255
0 0 255
0 0 254
0 0 255
0 0 254
0 0 253
0 0 255
0 0 254
0 0 254
0 0 254
0 0 254
0 0 253
0 0 254
0 0 253
0 0 255
0 0 255
0 0 255
0 0 255
0 0 255
0 0 253
0 0 254
0 0 254
0 0 254
0 0 255
0 0 255
0 0 253
0 0 254
0 0 254
0 0 254
0 0 255
0 0 253
0 0 253
0 0 253
0 0 253
0 0 254
0 0 254
0 0 255
0 0 252
0 0 253
0 0 254
0 0 252
0 0 252
0 0 254
0 0 255
0 0 250
0 0 250
0 0 253
0 0 255
0 0 253
0 0 250
0 0 250
0 0 255
0 0 250
116 130 252
156 176 254
198 222 255
199 223 255
198 223 255
198 223 255
198 223 255
198 223 255
198 223 255
198 223 255
198 223 255
198 223 255
198 223 255
198 223 255
198 223 255
198 223 255
198 223 255
198 223 255
198 223 255
198 223 255
197 223 255
197 222 255
197 222 255
197 222 255
197 222 255
197 222 255
197 222 255
197 222 255
197 222 255
197 222 255
197 222 255
197 222 255
197 222 255
197 222 255
197 222 255
197 222 255
197 222 255
197 222 255
197 222 255
196 222 255
196 222 255
196 222 255
196 222 255
196 222 255
196 222 255
196 222 255
196 222 255
196 222 255
196 222 255
196 222 255
196 222 255
196 222 255
196 222 255
196 222 255
196 222 255
196 222 255
196 222 255
196 222 255
196 222 255
196 222 255
196 222 255
196 222 255
196 222 255
196 222 255
196 222 255
196 222 255
196 221 255
196 221 255
196 221 255
196 221 255
196 221 255
196 221 255
195 221 255
195 221 255
195 221 255
195 221 255
195 221 255
195 221 255
195 221 255
195 221 255
195 221 255
195 221 255
195 221 255
195 221 255
195 221 255
195 221 255
195 221 255
195 221 255
195 221 255
195 221 255
195 221 255
195 221 255
196 221 255
196 221 255
196 221 255
196 221 255
196 221 255
196 222 255
196 222 255
196 222 255
196 222 255
196 222 255
196 222 255
196 222 255
196 222 255
196 222 255
196 222 255
196 222 255
196 222 255
196 222 255
196 222 255
196 222 255
196 222 255
196 222 255
196 222 255
196 222 255
196 222 255
196 222 255
196 222 255
196 222 255
196 222 255
196 222 255
196 222 255
196 222 255
196 222 255
197 222 255
197 222 255
197 222 255
197 222 255
197 222 255
197 222 255
197 222 255
197 222 255
197 222 255
197 222 255
197 222 255
197 222 255
197 222 255
197 222 255
197 222 255
197 222 255
197 222 255
197 222 255
197 223 255
198 223 255
198 223 255
198 223 255
198 223 255
198 223 255
198 223 255
198 223 255
198 223 255
198 223 255
198 223 255
198 223 255
198 223 255
198 223 255
198 223 255
198 223 255
198 223 255
199 223 255
199 222 254
201 180 206
197 104 120
201 0 0
201 0 0
201 0 0
202 0 0
200 0 0
201 0 0
199 0 0
200 0 0
202 0 0
205 0 0
201 0 0
201 0 0
202 0 0
199 0 0
202 0 0
205 0 0
201 0 0
202 0 0
206 0 0
202 0 0
202 0 0
204 0 0
203 0 0
204 0 0
202 0 0
201 0 0
201 0 0
204 0 0
208 0 0
206 0 0
208 0 0
204 0 0
206 0 0
208 0 0
204 0 0
208 0 0
204 0 0
206 0 0
205 0 0
207 0 0
204 0 0
205 0 0
204 0 0
206 0 0
205 0 0
206 0 0
206 0 0
204 0 0
204 0 0
207 0 0
207 0 0
205 0 0
206 0 0
205 0 0
208 0 0
208 0 0
210 0 0
207 0 0
208 0 0
207 0 0
203 0 0
211 0 0
207 0 0
209 0 0
205 0 0
207 0 0
207 0 0
209 0 0
205 0 0
207 0 0
204 0 0
211 0 0
208 0 0
206 0 0
206 0 0
208 0 0
208 0 0
213 0 0
208 0 0
208 0 0
203 0 0
206 0 0
205 0 0
211 0 0
204 0 0
209 0 0
210 0 0
205 0 0
209 0 0
208 0 0
211 0 0
210 0 0
207 0 0
207 0 0
212 0 0
211 0 0
208 0 0
209 0 0
211 0 0
211 0 0
210 0 0
209 0 0
211 0 0
212 0 0
207 0 0
207 0 0
209 0 0
210 0 0
206 0 0
211 0 0
209 0 0
209 0 0
209 0 0
208 0 0
209 0 0
211 0 0
205 0 0
208 0 0
0 0 255
0 0 255
0 0 255
0 0 255
0 0 255
0 0 255
0 0 254
0 0 255
0 0 255
0 0 255
0 0 255
0 0 255
0 0 255
0 0 254
0 0 254
0 0 255
0 0 254
0 0 255
0 0 255
0 0 255
0 0 255
0 0 255
0 0 254
0 0 255
0 0 255
0 0 254
0 0 255
0 0 255
0 0 255
0 0 255
0 0 255
0 0 255
0 0 254
0 0 255
0 0 255
0 0 255
0 0 255
0 0 253
0 0 255
0 0 254
0 0 254
0 0 254
0 0 255
0 0 254
0 0 254
0 0 255
0 0 255
0 0 255
0 0 255
0 0 255
0 0 255
0 0 255
0 0 255
0 0 253
0 0 254
0 0 255
0 0 253
0 0 254
0 0 254
0 0 255
0 0 254
0 0 254
0 0 253
0 0 254
0 0 254
0 0 255
0 0 254
0 0 254
0 0 255
0 0 255
0 0 252
0 0 255
0 0 255
0 0 254
0 0 252
0 0 255
0 0 253
0 0 253
0 0 254
0 0 255
0 0 253
0 0 254
0 0 254
0 0 255
0 0 252
0 0 255
0 0 253
0 0 253
0 0 253
0 0 254
0 0 255
0 0 254
0 0 254
0 0 253
0 0 253
0 0 250
0 0 250
0 0 254
0 0 249
0 0 250
0 0 253
0 0 252
0 0 255
0 0 253
0 0 253
0 0 249
0 0 252
0 0 254
0 0 250
0 0 252
0 0 254
0 0 255
0 0 254
0 0 253
0 0 249
0 0 254
0 0 255
0 0 255
0 0 253
0 0 253
66 74 253
151 170 255
186 209 255
199 223 255
199 223 255
198 223 255
198 223 255
198 223 255
198 223 255
198 223 255
198 223 255
198 223 255
198 223 255
198 223 255
198 223 255
198 223 255
198 223 255
198 223 255
198 223 255
198 223 255
198 223 255
197 223 255
197 222 255
197 222 255
197 222 255
197 222 255
197 222 255
197 222 255
197 222 255
197 222 255
197 222 255
197 222 255
197 222 255
197 222 255
197 222 255
197 222 255
197 222 255
197 222 255
197 222 255
197 222 255
197 222 255
196 222 255
196 222 255
196 222 255
196 222 255
196 222 255
196 222 255
196 222 255
196 222 255
196 222 255
196 222 255
196 222 255
196 222 255
196 222 255
196 222 255
196 222 255
196 222 255
196 222 255
196 222 255
196 222 255
196 222 255
196 222 255
196 222 255
196 222 255
196 222 255
196 222 255
196 222 255
196 222 255
196 222 255
196 222 255
196 222 255
196 222 255
196 222 255
196 222 255
196 222 255
196 222 255
196 222 255
196 222 255
196 222 255
196 222 255
196 222 255
196 222 255
196 222 255
196 222 255
196 222 255
196 222 255
196 222 255
196 222 255
196 222 255
196 222 255
196 222 255
196 222 255
196 222 255
196 222 255
196 222 255
196 222 255
196 222 255
196 222 255
196 222 255
196 222 255
196 222 255
196 222 255
196 222 255
196 222 255
196 222 255
196 222 255
196 222 255
196 222 255
196 222 255
196 222 255
196 222 255
196 222 255
196 222 255
196 222 255
196 222 255
196 222 255
196 222 255
196 222 255
196 222 255
197 222 255
197 222 255
197 222 255
197 222 255
197 222 255
197 222 255
197 222 255
197 222 255
197 222 255
197 222 255
197 222 255
197 222 255
197 222 255
197 222 255
197 222 255
197 222 255
197 222 255
197 222 255
197 222 255
197 223 255
198 223 255
198 223 255
198 223 255
198 223 255
198 223 255
198 223 255
198 223 255
198 223 255
198 223 255
198 223 255
198 223 255
198 223 255
198 223 255
198 223 255
198 223 255
198 223 255
199 223 255
199 223 255
199 220 252
196 161 184
197 59 67
196 0 0
200 0 0
200 0 0
200 0 0
202 0 0
203 0 0
201 0 0
198 0 0
206 0 0
203 0 0
204 0 0
202 0 0
198 0 0
204 0 0
202 0 0
207 0 0
203 0 0
203 0 0
201 0 0
202 0 0
204 0 0
206 0 0
204 0 0
206 0 0
205 0 0
209 0 0
200 0 0
203 0 0
204 0 0
204 0 0
206 0 0
206 0 0
204 0 0
205 0 0
206 0 0
208 0 0
205 0 0
208 0 0
206 0 0
210 0 0
205 0 0
202 0 0
202 0 0
206 0 0
208 0 0
204 0 0
206 0 0
205 0 0
206 0 0
206 0 0
209 0 0
202 0 0
208 0 0
205 0 0
208 0 0
205 0 0
205 0 0
211 0 0
206 0 0
206 0 0
204 0 0
210 0 0
208 0 0
207 0 0
207 0 0
206 0 0
209 0 0
206 0 0
203 0 0
207 0 0
206 0 0
206 0 0
211 0 0
208 0 0
210 0 0
207 0 0
210 0 0
209 0 0
209 0 0
209 0 0
210 0 0
206 0 0
211 0 0
209 0 0
208 0 0
210 0 0
208 0 0
209 0 0
208 0 0
210 0 0
209 0 0
207 0 0
211 0 0
209 0 0
207 0 0
209 0 0
209 0 0
210 0 0
209 0 0
209 0 0
209 0 0
211 0 0
208 0 0
211 0 0
209 0 0
210 0 0
208 0 0
210 0 0
212 0 0
211 0 0
210 0 0
207 0 0
210 0 0
212 0 0
209 0 0
208 0 0
206 0 0
212 0 0
208 0 0
209 0 0
0 0 255
0 0 255
0 0 255
0 0 255
0 0 255
0 0 255
0 0 255
0 0 254
0 0 255
0 0 255
0 0 255
0 0 255
0 0 255
0 0 255
0 0 255
0 0 255
0 0 255
0 0 255
0 0 255
0 0 255
0 0 255
0 0 255
0 0 255
0 0 255
0 0 255
0 0 255
0 0 253
0 0 254
0 0 254
0 0 255
0 0 254
0 0 255
0 0 254
0 0 255
0 0 255
0 0 254
0 0 255
0 0 255
0 0 254
0 0 255
0 0 255
0 0 254
0 0 255
0 0 255
0 0 254
0 0 254
0 0 255
0 0 254
0 0 255
0 0 255
0 0 254
0 0 255
0 0 255
0 0 255
0 0 255
0 0 254
0 0 253
0 0 254
0 0 255
0 0 254
0 0 255
0 0 254
0 0 255
0 0 254
0 0 254
0 0 254
0 0 255
0 0 255
0 0 253
0 0 255
0 0 255
0 0 255
0 0 252
0 0 255
0 0 253
0 0 253
0 0 255
0 0 254
0 0 252
0 0 255
0 0 254
0 0 254
0 0 252
0 0 252
0 0 254
0 0 254
0 0 252
0 0 254
0 0 253
0 0 255
0 0 254
0 0 253
0 0 252
0 0 255
0 0 250
0 0 255
0 0 254
0 0 252
0 0 252
0 0 250
0 0 252
0 0 253
0 0 253
0 0 253
0 0 254
0 0 252
0 0 250
0 0 255
0 0 253
0 0 252
0 0 252
0 0 255
0 0 252
0 0 250
0 0 254
0 0 250
0 0 250
0 0 255
0 0 250
0 0 254
0 0 252
0 0 255
0 0 253
110 124 253
175 197 255
199 223 255
199 223 255
199 223 255
198 223 255
198 223 255
198 223 255
198 223 255
198 223 255
198 223 255
198 223 255
198 223 255
198 223 255
198 223 255
198 223 255
198 223 255
198 223 255
198 223 255
198 223 255
198 223 255
197 223 255
197 222 255
197 222 255
197 222 255
197 222 255
197 222 255
197 222 255
197 222 255
197 222 255
197 222 255
197 222 255
197 222 255
197 222 255
197 222 255
197 222 255
197 222 255
197 222 255
197 222 255
197 222 255
197 222 255
197 222 255
196 222 255
196 222 255
196 222 255
196 222 255
196 222 255
196 222 255
196 222 255
196 222 255
196 222 255
196 222 255
196 222 255
196 222 255
196 222 255
196 222 255
196 222 255
196 222 255
196 222 255
196 222 255
196 222 255
196 222 255
196 222 255
196 222 255
196 222 255
196 222 255
196 222 255
196 222 255
196 222 255
196 222 255
196 222 255
196 222 255
196 222 255
196 222 255
196 222 255
196 222 255
196 222 255
196 222 255
196 222 255
196 222 255
196 222 255
196 222 255
196 222 255
196 222 255
196 222 255
196 222 255
196 222 255
196 222 255
196 222 255
196 222 255
196 222 255
196 222 255
196 222 255
196 222 255
196 222 255
196 222 255
196 222 255
196 222 255
196 222 255
196 222 255
196 222 255
196 222 255
196 222 255
196 222 255
196 222 255
196 222 255
196 222 255
196 222 255
196 222 255
196 222 255
196 222 255
196 222 255
197 222 255
197 222 255
197 222 255
197 222 255
197 222 255
197 222 255
197 222 255
197 222 255
197 222 255
197 222 255
197 222 255
197 222 255
197 222 255
197 222 255
197 222 255
197 222 255
197 222 255
197 222 255
197 222 255
197 222 255
197 223 255
198 223 255
198 223 255
198 223 255
198 223 255
198 223 255
198 223 255
198 223 255
198 223 255
198 223 255
198 223 255
198 223 255
198 223 255
198 223 255
198 223 255
198 223 255
198 223 255
198 223 255
199 223 255
199 223 255
199 212 242
198 141 161
197 22 25
201 0 0
199 0 0
203 0 0
201 0 0
202 0 0
200 0 0
201 0 0
203 0 0
201 0 0
199 0 0
201 0 0
201 0 0
205 0 0
200 0 0
201 0 0
198 0 0
202 0 0
199 0 0
203 0 0
206 0 0
201 0 0
203 0 0
203 0 0
208 0 0
205 0 0
207 0 0
203 0 0
206 0 0
205 0 0
207 0 0
199 0 0
206 0 0
203 0 0
205 0 0
205 0 0
205 0 0
206 0 0
203 0 0
209 0 0
205 0 0
207 0 0
204 0 0
207 0 0
207 0 0
208 0 0
202 0 0
208 0 0
205 0 0
209 0 0
205 0 0
206 0 0
207 0 0
208 0 0
205 0 0
206 0 0
209 0 0
208 0 0
207 0 0
207 0 0
207 0 0
211 0 0
209 0 0
209 0 0
207 0 0
209 0 0
210 0 0
208 0 0
208 0 0
209 0 0
208 0 0
209 0 0
209 0 0
206 0 0
209 0 0
208 0 0
208 0 0
209 0 0
205 0 0
206 0 0
207 0 0
207 0 0
208 0 0
209 0 0
208 0 0
205 0 0
208 0 0
209 0 0
209 0 0
209 0 0
211 0 0
207 0 0
212 0 0
207 0 0
208 0 0
208 0 0
210 0 0
209 0 0
209 0 0
210 0 0
209 0 0
207 0 0
210 0 0
208 0 0
208 0 0
213 0 0
211 0 0
210 0 0
207 0 0
210 0 0
210 0 0
209 0 0
208 0 0
214 0 0
210 0 0
207 0 0
214 0 0
210 0 0
208 0 0
210 0 0
208 0 0
206 0 0
207 0 0
0 0 255
0 0 255
0 0 255
0 0 255
0 0 255
0 0 255
0 0 255
0 0 255
0 0 255
0 0 255
0 0 255
0 0 255
0 0 255
0 0 255
0 0 255
0 0 255
0 0 254
0 0 255
0 0 255
0 0 254
0 0 255
0 0 255
0 0 255
0 0 255
0 0 255
0 0 255
0 0 255
0 0 253
0 0 255
0 0 255
0 0 254
0 0 255
0 0 255
0 0 255
0 0 255
0 0 254
0 0 254
0 0 253
0 0 254
0 0 255
0 0 254
0 0 255
0 0 255
0 0 255
0 0 255
0 0 255
0 0 255
0 0 254
0 0 255
0 0 255
0 0 255
0 0 254
0 0 255
0 0 255
0 0 254
0 0 255
0 0 255
0 0 255
0 0 254
0 0 255
0 0 254
0 0 255
0 0 255
0 0 255
0 0 254
0 0 254
0 0 255
0 0 254
0 0 253
0 0 255
0 0 255
0 0 253
0 0 255
0 0 255
0 0 255
0 0 255
0 0 250
0 0 254
0 0 253
0 0 252
0 0 253
0 0 249
0 0 249
0 0 255
0 0 254
0 0 255
0 0 255
0 0 255
0 0 254
0 0 250
0 0 253
0 0 253
0 0 255
0 0 253
0 0 255
0 0 252
0 0 253
0 0 255
0 0 250
0 0 253
0 0 254
0 0 253
0 0 254
0 0 254
0 0 254
0 0 253
0 0 250
0 0 253
0 0 254
0 0 250
0 0 253
0 0 254
0 0 253
0 0 255
0 0 253
0 0 253
0 0 255
0 0 253
0 0 253
0 0 253
0 0 252
0 0 253
0 0 255
0 0 253
0 0 248
84 94 253
170 191 255
198 222 255
199 223 255
199 223 255
198 223 255
198 223 255
198 223 255
198 223 255
198 223 255
198 223 255
198 223 255
198 223 255
198 223 255
198 223 255
198 223 255
198 223 255
198 223 255
198 223 255
198 223 255
198 223 255
198 223 255
197 223 255
197 222 255
197 222 255
197 222 255
197 222 255
197 222 255
197 222 255
197 222 255
197 222 255
197 222 255
197 222 255
197 222 255
197 222 255
197 222 255
197 222 255
197 222 255
197 222 255
197 222 255
197 222 255
197 222 255
197 222 255
197 222 255
196 222 255
196 222 255
196 222 255
196 222 255
196 222 255
196 222 255
196 222 255
196 222 255
196 222 255
196 222 255
196 222 255
196 222 255
196 222 255
196 222 255
196 222 255
196 222 255
196 222 255
196 222 255
196 222 255
196 222 255
196 222 255
196 222 255
196 222 255
196 222 255
196 222 255
196 222 255
196 222 255
196 222 255
196 222 255
196 222 255
196 222 255
196 222 255
196 222 255
196 222 255
196 222 255
196 222 255
196 222 255
196 222 255
196 222 255
196 222 255
196 222 255
196 222 255
196 222 255
196 222 255
196 222 255
196 222 255
196 222 255
196 222 255
196 222 255
196 222 255
196 222 255
196 222 255
196 222 255
196 222 255
196 222 255
196 222 255
196 222 255
196 222 255
196 222 255
196 222 255
196 222 255
196 222 255
197 222 255
197 222 255
197 222 255
197 222 255
197 222 255
197 222 255
197 222 255
197 222 255
197 222 255
197 222 255
197 222 255
197 222 255
197 222 255
197 222 255
197 222 255
197 222 255
197 222 255
197 222 255
197 222 255
197 222 255
197 222 255
197 223 255
198 223 255
198 223 255
198 223 255
198 223 255
198 223 255
198 223 255
198 223 255
198 223 255
198 223 255
198 223 255
198 223 255
198 223 255
198 223 255
198 223 255
198 223 255
198 223 255
198 223 255
199 223 255
199 223 255
199 222 254
199 184 211
200 109 125
196 0 0
198 0 0
202 0 0
198 0 0
198 0 0
196 0 0
202 0 0
201 0 0
202 0 0
199 0 0
201 0 0
201 0 0
203 0 0
205 0 0
202 0 0
204 0 0
205 0 0
205 0 0
202 0 0
199 0 0
204 0 0
205 0 0
201 0 0
205 0 0
204 0 0
200 0 0
207 0 0
203 0 0
204 0 0
206 0 0
202 0 0
206 0 0
207 0 0
205 0 0
207 0 0
205 0 0
202 0 0
208 0 0
207 0 0
206 0 0
203 0 0
204 0 0
207 0 0
201 0 0
205 0 0
210 0 0
207 0 0
204 0 0
205 0 0
202 0 0
206 0 0
210 0 0
210 0 0
205 0 0
208 0 0
211 0 0
209 0 0
208 0 0
208 0 0
209 0 0
209 0 0
207 0 0
206 0 0
210 0 0
209 0 0
209 0 0
208 0 0
209 0 0
206 0 0
206 0 0
207 0 0
207 0 0
206 0 0
208 0 0
206 0 0
207 0 0
209 0 0
209 0 0
207 0 0
205 0 0
210 0 0
212 0 0
214 0 0
209 0 0
210 0 0
210 0 0
207 0 0
206 0 0
211 0 0
204 0 0
209 0 0
210 0 0
207 0 0
208 0 0
210 0 0
209 0 0
208 0 0
206 0 0
210 0 0
210 0 0
210 0 0
205 0 0
211 0 0
210 0 0
208 0 0
212 0 0
215 0 0
208 0 0
209 0 0
210 0 0
213 0 0
207 0 0
212 0 0
213 0 0
207 0 0
209 0 0
212 0 0
210 0 0
209 0 0
209 0 0
213 0 0
209 0 0
210 0 0
213 0 0
213 0 0
0 0 255
0 0 255
0 0 255
0 0 255
0 0 255
0 0 255
0 0 255
0 0 255
0 0 255
0 0 255
0 0 254
0 0 255
0 0 255
0 0 255
0 0 255
0 0 255
0 0 255
0 0 255
0 0 254
0 0 255
0 0 255
0 0 255
0 0 254
0 0 254
0 0 254
0 0 255
0 0 255
0 0 254
0 0 255
0 0 255
0 0 255
0 0 255
0 0 255
0 0 255
0 0 255
0 0 255
0 0 255
0 0 255
0 0 255
0 0 255
0 0 252
0 0 255
0 0 255
0 0 255
0 0 255
0 0 255
0 0 254
0 0 255
0 0 254
0 0 254
0 0 255
0 0 255
0 0 255
0 0 253
0 0 254
0 0 255
0 0 253
0 0 254
0 0 255
0 0 254
0 0 254
0 0 255
0 0 255
0 0 255
0 0 254
0 0 253
0 0 253
0 0 255
0 0 255
0 0 254
0 0 255
0 0 254
0 0 253
0 0 254
0 0 253
0 0 253
0 0 252
0 0 252
0 0 255
0 0 255
0 0 254
0 0 254
0 0 254
0 0 252
0 0 252
0 0 255
0 0 253
0 0 252
0 0 254
0 0 254
0 0 252
0 0 252
0 0 253
0 0 255
0 0 254
0 0 253
0 0 253
0 0 253
0 0 253
0 0 252
0 0 249
0 0 252
0 0 253
0 0 255
0 0 252
0 0 253
0 0 250
0 0 253
0 0 249
0 0 254
0 0 254
0 0 254
0 0 254
0 0 252
0 0 253
0 0 253
0 0 252
0 0 252
0 0 253
0 0 253
0 0 253
0 0 252
0 0 252
0 0 255
0 0 252
0 0 252
0 0 254
84 94 252
155 174 255
197 221 255
199 223 255
199 223 255
199 223 255
198 223 255
198 223 255
198 223 255
198 223 255
198 223 255
198 223 255
198 223 255
198 223 255
198 223 255
198 223 255
198 223 255
198 223 255
198 223 255
198 223 255
198 223 255
198 223 255
198 223 255
197 223 255
197 222 255
197 222 255
197 222 255
197 222 255
197 222 255
197 222 255
197 222 255
197 222 255
197 222 255
197 222 255
197 222 255
197 222 255
197 222 255
197 222 255
197 222 255
197 222 255
197 222 255
197 222 255
197 222 255
197 222 255
197 222 255
197 222 255
197 222 255
196 222 255
196 222 255
196 222 255
196 222 255
196 222 255
196 222 255
196 222 255
196 222 255
196 222 255
196 222 255
196 222 255
196 222 255
196 222 255
196 222 255
196 222 255
196 222 255
196 222 255
196 222 255
196 222 255
196 222 255
196 222 255
196 222 255
196 222 255
196 222 255
196 222 255
196 222 255
196 222 255
196 222 255
196 222 255
196 222 255
196 222 255
196 222 255
196 222 255
196 222 255
196 222 255
196 222 255
196 222 255
196 222 255
196 222 255
196 222 255
196 222 255
196 222 255
196 222 255
196 222 255
196 222 255
196 222 255
196 222 255
196 222 255
196 222 255
196 222 255
196 222 255
196 222 255
197 222 255
197 222 255
197 222 255
197 222 255
197 222 255
197 222 255
197 222 255
197 222 255
197 222 255
197 222 255
197 222 255
197 222 255
197 222 255
197 222 255
197 222 255
197 222 255
197 222 255
197 222 255
197 222 255
197 222 255
197 222 255
197 222 255
197 222 255
197 223 255
198 223 255
198 223 255
198 223 255
198 223 255
198 223 255
198 223 255
198 223 255
198 223 255
198 223 255
198 223 255
198 223 255
198 223 255
198 223 255
198 223 255
198 223 255
198 223 255
198 223 255
199 223 255
199 223 255
199 223 255
198 214 245
197 183 209
198 77 88
197 0 0
201 0 0
197 0 0
202 0 0
198 0 0
201 0 0
203 0 0
202 0 0
202 0 0
203 0 0
202 0 0
198 0 0
203 0 0
203 0 0
200 0 0
196 0 0
201 0 0
204 0 0
204 0 0
204 0 0
205 0 0
205 0 0
202 0 0
201 0 0
204 0 0
201 0 0
204 0 0
204 0 0
203 0 0
206 0 0
206 0 0
205 0 0
207 0 0
207 0 0
201 0 0
202 0 0
204 0 0
205 0 0
205 0 0
203 0 0
204 0 0
207 0 0
209 0 0
206 0 0
202 0 0
211 0 0
206 0 0
208 0 0
207 0 0
206 0 0
206 0 0
205 0 0
207 0 0
207 0 0
206 0 0
205 0 0
208 0 0
206 0 0
210 0 0
206 0 0
208 0 0
204 0 0
206 0 0
205 0 0
205 0 0
210 0 0
212 0 0
209 0 0
204 0 0
205 0 0
206 0 0
208 0 0
207 0 0
208 0 0
207 0 0
210 0 0
208 0 0
208 0 0
209 0 0
207 0 0
209 0 0
208 0 0
205 0 0
208 0 0
209 0 0
210 0 0
210 0 0
208 0 0
210 0 0
211 0 0
208 0 0
207 0 0
209 0 0
210 0 0
207 0 0
208 0 0
208 0 0
209 0 0
206 0 0
211 0 0
211 0 0
213 0 0
210 0 0
210 0 0
209 0 0
209 0 0
206 0 0
210 0 0
212 0 0
211 0 0
209 0 0
214 0 0
208 0 0
210 0 0
213 0 0
209 0 0
208 0 0
209 0 0
209 0 0
212 0 0
212 0 0
212 0 0
213 0 0
211 0 0
210 0 0
209 0 0
210 0 0
0 0 255
0 0 255
0 0 255
0 0 255
0 0 255
0 0 255
0 0 254
0 0 255
0 0 255
0 0 255
0 0 255
0 0 255
0 0 255
0 0 255
0 0 255
0 0 255
0 0 255
0 0 253
0 0 255
0 0 255
0 0 254
0 0 254
0 0 255
0 0 255
0 0 255
0 0 254
0 0 255
0 0 253
0 0 255
0 0 254
0 0 255
0 0 255
0 0 255
0 0 254
0 0 254
0 0 255
0 0 255
0 0 255
0 0 255
0 0 254
0 0 255
0 0 254
0 0 254
0 0 255
0 0 255
0 0 253
0 0 255
0 0 254
0 0 255
0 0 255
0 0 254
0 0 253
0 0 254
0 0 255
0 0 254
0 0 255
0 0 255
0 0 255
0 0 253
0 0 255
0 0 254
0 0 254
0 0 254
0 0 255
0 0 255
0 0 254
0 0 252
0 0 254
0 0 254
0 0 255
0 0 254
0 0 255
0 0 254
0 0 255
0 0 253
0 0 253
0 0 252
0 0 253
0 0 254
0 0 255
0 0 255
0 0 255
0 0 254
0 0 254
0 0 254
0 0 249
0 0 250
0 0 254
0 0 255
0 0 250
0 0 252
0 0 253
0 0 252
0 0 255
0 0 252
0 0 254
0 0 255
0 0 253
0 0 254
0 0 254
0 0 255
0 0 252
0 0 253
0 0 253
0 0 255
0 0 253
0 0 254
0 0 253
0 0 253
0 0 254
0 0 254
0 0 252
0 0 252
0 0 254
0 0 253
0 0 253
0 0 249
0 0 250
0 0 252
0 0 253
0 0 252
0 0 252
0 0 254
0 0 252
0 0 250
0 0 249
0 0 253
0 0 252
0 0 250
56 63 249
145 162 255
192 215 255
199 223 255
199 223 255
199 223 255
199 223 255
198 223 255
198 223 255
198 223 255
198 223 255
198 223 255
198 223 255
198 223 255
198 223 255
198 223 255
198 223 255
198 223 255
198 223 255
198 223 255
198 223 255
198 223 255
198 223 255
198 223 255
198 223 255
197 222 255
197 222 255
197 222 255
197 222 255
197 222 255
197 222 255
197 222 255
197 222 255
197 222 255
197 222 255
197 222 255
197 222 255
197 222 255
197 222 255
197 222 255
197 222 255
197 222 255
197 222 255
197 222 255
197 222 255
197 222 255
197 222 255
197 222 255
197 222 255
197 222 255
197 222 255
196 222 255
196 222 255
196 222 255
196 222 255
196 222 255
196 222 255
196 222 255
196 222 255
196 222 255
196 222 255
196 222 255
196 222 255
196 222 255
196 222 255
196 222 255
196 222 255
196 222 255
196 222 255
196 222 255
196 222 255
196 222 255
196 222 255
196 222 255
196 222 255
196 222 255
196 222 255
196 222 255
196 222 255
196 222 255
196 222 255
196 222 255
196 222 255
196 222 255
196 222 255
196 222 255
196 222 255
196 222 255
196 222 255
196 222 255
196 222 255
197 222 255
197 222 255
197 222 255
197 222 255
197 222 255
197 222 255
197 222 255
197 222 255
197 222 255
197 222 255
197 222 255
197 222 255
197 222 255
197 222 255
197 222 255
197 222 255
197 222 255
197 222 255
197 222 255
197 222 255
197 222 255
197 222 255
197 222 255
197 222 255
197 222 255
197 222 255
197 223 255
198 223 255
198 223 255
198 223 255
198 223 255
198 223 255
198 223 255
198 223 255
198 223 255
198 223 255
198 223 255
198 223 255
198 223 255
198 223 255
198 223 255
198 223 255
198 223 255
198 223 255
198 223 255
199 223 255
199 223 255
199 223 255
199 218 249
197 162 186
198 77 88
200 0 0
193 0 0
194 0 0
196 0 0
199 0 0
199 0 0
201 0 0
200 0 0
202 0 0
200 0 0
200 0 0
200 0 0
202 0 0
199 0 0
199 0 0
206 0 0
202 0 0
199 0 0
202 0 0
198 0 0
203 0 0
205 0 0
200 0 0
204 0 0
204 0 0
202 0 0
207 0 0
205 0 0
204 0 0
204 0 0
204 0 0
205 0 0
206 0 0
206 0 0
208 0 0
204 0 0
205 0 0
207 0 0
203 0 0
204 0 0
203 0 0
202 0 0
205 0 0
204 0 0
205 0 0
203 0 0
208 0 0
204 0 0
207 0 0
210 0 0
210 0 0
210 0 0
207 0 0
209 0 0
207 0 0
207 0 0
209 0 0
206 0 0
210 0 0
206 0 0
208 0 0
205 0 0
207 0 0
206 0 0
209 0 0
211 0 0
211 0 0
211 0 0
209 0 0
212 0 0
208 0 0
208 0 0
207 0 0
208 0 0
208 0 0
208 0 0
211 0 0
207 0 0
207 0 0
211 0 0
208 0 0
204 0 0
208 0 0
210 0 0
213 0 0
210 0 0
208 0 0
209 0 0
210 0 0
205 0 0
212 0 0
210 0 0
210 0 0
209 0 0
210 0 0
212 0 0
212 0 0
209 0 0
209 0 0
213 0 0
213 0 0
209 0 0
208 0 0
208 0 0
209 0 0
209 0 0
209 0 0
211 0 0
211 0 0
210 0 0
212 0 0
209 0 0
208 0 0
211 0 0
210 0 0
213 0 0
210 0 0
207 0 0
208 0 0
212 0 0
213 0 0
208 0 0
209 0 0
209 0 0
213 0 0
211 0 0
210 0 0
211 0 0
212 0 0
0 0 255
0 0 255
0 0 255
0 0 255
0 0 255
0 0 255
0 0 255
0 0 255
0 0 255
0 0 255
0 0 255
0 0 255
0 0 255
0 0 255
0 0 255
0 0 255
0 0 255
0 0 255
0 0 255
0 0 255
0 0 255
0 0 254
0 0 255
0 0 254
0 0 255
0 0 255
0 0 255
0 0 255
0 0 255
0 0 255
0 0 255
0 0 253
0 0 254
0 0 255
0 0 254
0 0 255
0 0 255
0 0 255
0 0 255
0 0 254
0 0 255
0 0 255
0 0 254
0 0 255
0 0 255
0 0 254
0 0 252
0 0 255
0 0 255
0 0 255
0 0 254
0 0 254
0 0 255
0 0 252
0 0 255
0 0 255
0 0 254
0 0 254
0 0 253
0 0 255
0 0 253
0 0 254
0 0 255
0 0 253
0 0 254
0 0 252
0 0 254
0 0 255
0 0 255
0 0 254
0 0 254
0 0 254
0 0 254
0 0 254
0 0 255
0 0 254
0 0 255
0 0 254
0 0 255
0 0 250
0 0 254
0 0 254
0 0 253
0 0 248
0 0 252
0 0 253
0 0 250
0 0 252
0 0 254
0 0 252
0 0 254
0 0 249
0 0 252
0 0 253
0 0 253
0 0 255
0 0 254
0 0 254
0 0 253
0 0 249
0 0 254
0 0 249
0 0 250
0 0 253
0 0 246
0 0 249
0 0 254
0 0 255
0 0 253
0 0 253
0 0 249
0 0 252
0 0 252
0 0 249
0 0 252
0 0 253
0 0 253
0 0 253
0 0 255
0 0 246
0 0 253
0 0 249
0 0 255
0 0 254
0 0 254
0 0 252
0 0 253
0 0 252
0 0 252
0 0 254
0 0 250
52 59 254
146 164 255
192 215 255
199 223 255
199 223 255
199 223 255
199 223 255
199 223 255
198 223 255
198 223 255
198 223 255
198 223 255
198 223 255
198 223 255
198 223 255
198 223 255
198 223 255
198 223 255
198 223 255
198 223 255
198 223 255
198 223 255
198 223 255
198 223 255
198 223 255
198 223 255
197 223 255
197 222 255
197 222 255
197 222 255
197 222 255
197 222 255
197 222 255
197 222 255
197 222 255
197 222 255
197 222 255
197 222 255
197 222 255
197 222 255
197 222 255
197 222 255
197 222 255
197 222 255
197 222 255
197 222 255
197 222 255
197 222 255
197 222 255
197 222 255
197 222 255
197 222 255
197 222 255
197 222 255
197 222 255
197 222 255
197 222 255
197 222 255
196 222 255
196 222 255
196 222 255
196 222 255
196 222 255
196 222 255
196 222 255
196 222 255
196 222 255
196 222 255
196 222 255
196 222 255
196 222 255
196 222 255
196 222 255
196 222 255
196 222 255
196 222 255
196 222 255
196 222 255
196 222 255
197 222 255
197 222 255
197 222 255
197 222 255
197 222 255
197 222 255
197 222 255
197 222 255
197 222 255
197 222 255
197 222 255
197 222 255
197 222 255
197 222 255
197 222 255
197 222 255
197 222 255
197 222 255
197 222 255
197 222 255
197 222 255
197 222 255
197 222 255
197 222 255
197 222 255
197 222 255
197 222 255
197 222 255
197 222 255
197 222 255
197 222 255
197 222 255
197 223 255
198 223 255
198 223 255
198 223 255
198 223 255
198 223 255
198 223 255
198 223 255
198 223 255
198 223 255
198 223 255
198 223 255
198 223 255
198 223 255
198 223 255
198 223 255
198 223 255
198 223 255
198 223 255
198 223 255
199 223 255
199 223 255
199 223 255
199 223 255
198 211 241
196 159 182
198 59 67
199 0 0
198 0 0
199 0 0
198 0 0
202 0 0
199 0 0
198 0 0
198 0 0
200 0 0
200 0 0
200 0 0
202 0 0
202 0 0
202 0 0
201 0 0
200 0 0
200 0 0
205 0 0
203 0 0
204 0 0
203 0 0
204 0 0
197 0 0
201 0 0
205 0 0
203 0 0
203 0 0
205 0 0
204 0 0
205 0 0
200 0 0
205 0 0
203 0 0
200 0 0
205 0 0
200 0 0
202 0 0
203 0 0
202 0 0
206 0 0
205 0 0
207 0 0
209 0 0
205 0 0
206 0 0
206 0 0
206 0 0
204 0 0
206 0 0
208 0 0
208 0 0
209 0 0
208 0 0
206 0 0
206 0 0
209 0 0
205 0 0
208 0 0
207 0 0
208 0 0
210 0 0
209 0 0
210 0 0
210 0 0
207 0 0
207 0 0
211 0 0
207 0 0
213 0 0
208 0 0
207 0 0
209 0 0
207 0 0
209 0 0
208 0 0
211 0 0
205 0 0
211 0 0
212 0 0
208 0 0
207 0 0
208 0 0
207 0 0
211 0 0
210 0 0
210 0 0
210 0 0
209 0 0
204 0 0
210 0 0
211 0 0
211 0 0
208 0 0
210 0 0
210 0 0
209 0 0
208 0 0
209 0 0
210 0 0
211 0 0
210 0 0
211 0 0
210 0 0
209 0 0
209 0 0
214 0 0
214 0 0
210 0 0
210 0 0
211 0 0
211 0 0
210 0 0
206 0 0
212 0 0
211 0 0
210 0 0
211 0 0
215 0 0
212 0 0
208 0 0
212 0 0
210 0 0
212 0 0
213 0 0
209 0 0
208 0 0
209 0 0
208 0 0
211 0 0
213 0 0
209 0 0
0 0 255
0 0 255
0 0 255
0 0 255
0 0 255
0 0 255
0 0 255
0 0 255
0 0 254
0 0 255
0 0 255
0 0 255
0 0 255
0 0 255
0 0 255
0 0 255
0 0 254
0 0 255
0 0 254
0 0 255
0 0 254
0 0 255
0 0 254
0 0 255
0 0 255
0 0 254
0 0 255
0 0 254
0 0 255
0 0 255
0 0 254
0 0 254
0 0 255
0 0 255
0 0 254
0 0 253
0 0 254
0 0 255
0 0 255
0 0 255
0 0 254
0 0 255
0 0 255
0 0 255
0 0 255
0 0 254
0 0 254
0 0 255
0 0 255
0 0 255
0 0 252
0 0 253
0 0 255
0 0 254
0 0 255
0 0 254
0 0 254
0 0 255
0 0 255
0 0 253
0 0 254
0 0 255
0 0 254
0 0 254
0 0 254
0 0 254
0 0 252
0 0 254
0 0 255
0 0 254
0 0 254
0 0 254
0 0 253
0 0 252
0 0 254
0 0 252
0 0 254
0 0 255
0 0 255
0 0 250
0 0 254
0 0 254
0 0 252
0 0 253
0 0 255
0 0 254
0 0 255
0 0 254
0 0 254
0 0 252
0 0 253
0 0 253
0 0 253
0 0 254
0 0 253
0 0 253
0 0 250
0 0 252
0 0 254
0 0 253
0 0 253
0 0 253
0 0 253
0 0 254
0 0 252
0 0 254
0 0 252
0 0 253
0 0 254
0 0 252
0 0 246
0 0 250
0 0 252
0 0 250
0 0 252
0 0 254
0 0 255
0 0 254
0 0 252
0 0 249
0 0 253
0 0 250
0 0 253
0 0 254
0 0 249
0 0 250
0 0 253
0 0 249
0 0 252
0 0 253
0 0 252
0 0 252
0 0 254
28 31 252
138 155 250
195 219 255
199 223 255
199 223 255
199 223 255
199 223 255
199 223 255
198 223 255
198 223 255
198 223 255
198 223 255
198 223 255
198 223 255
198 223 255
198 223 255
198 223 255
198 223 255
198 223 255
198 223 255
198 223 255
198 223 255
198 223 255
198 223 255
198 223 255
198 223 255
198 223 255
198 223 255
197 223 255
197 222 255
197 222 255
197 222 255
197 222 255
197 222 255
197 222 255
197 222 255
197 222 255
197 222 255
197 222 255
197 222 255
197 222 255
197 222 255
197 222 255
197 222 255
197 222 255
197 222 255
197 222 255
197 222 255
197 222 255
197 222 255
197 222 255
197 222 255
197 222 255
197 222 255
197 222 255
197 222 255
197 222 255
197 222 255
197 222 255
197 222 255
197 222 255
197 222 255
197 222 255
197 222 255
197 222 255
197 222 255
197 222 255
197 222 255
197 222 255
197 222 255
197 222 255
197 222 255
197 222 255
197 222 255
197 222 255
197 222 255
197 222 255
197 222 255
197 222 255
197 222 255
197 222 255
197 222 255
197 222 255
197 222 255
197 222 255
197 222 255
197 222 255
197 222 255
197 222 255
197 222 255
197 222 255
197 222 255
197 222 255
197 222 255
197 222 255
197 222 255
197 222 255
197 222 255
197 222 255
197 222 255
197 222 255
197 222 255
197 222 255
197 222 255
197 222 255
197 223 255
198 223 255
198 223 255
198 223 255
198 223 255
198 223 255
198 223 255
198 223 255
198 223 255
198 223 255
198 223 255
198 223 255
198 223 255
198 223 255
198 223 255
198 223 255
198 223 255
198 223 255
198 223 255
198 223 255
198 223 255
199 223 255
199 223 255
199 223 255
199 223 255
199 223 255
199 219 250
197 165 189
200 54 62
197 0 0
202 0 0
200 0 0
199 0 0
196 0 0
200 0 0
199 0 0
203 0 0
202 0 0
199 0 0
206 0 0
202 0 0
199 0 0
204 0 0
201 0 0
202 0 0
202 0 0
200 0 0
204 0 0
207 0 0
204 0 0
202 0 0
201 0 0
204 0 0
206 0 0
204 0 0
207 0 0
205 0 0
203 0 0
200 0 0
206 0 0
202 0 0
204 0 0
202 0 0
205 0 0
206 0 0
208 0 0
205 0 0
205 0 0
205 0 0
207 0 0
202 0 0
205 0 0
207 0 0
209 0 0
207 0 0
204 0 0
207 0 0
203 0 0
203 0 0
206 0 0
206 0 0
208 0 0
211 0 0
207 0 0
210 0 0
206 0 0
207 0 0
204 0 0
208 0 0
208 0 0
209 0 0
209 0 0
208 0 0
208 0 0
207 0 0
210 0 0
213 0 0
206 0 0
211 0 0
209 0 0
207 0 0
207 0 0
206 0 0
211 0 0
208 0 0
212 0 0
205 0 0
207 0 0
212 0 0
204 0 0
208 0 0
211 0 0
211 0 0
210 0 0
210 0 0
212 0 0
208 0 0
210 0 0
210 0 0
208 0 0
210 0 0
211 0 0
207 0 0
210 0 0
207 0 0
213 0 0
213 0 0
208 0 0
208 0 0
210 0 0
213 0 0
209 0 0
211 0 0
208 0 0
208 0 0
208 0 0
206 0 0
208 0 0
212 0 0
211 0 0
208 0 0
211 0 0
210 0 0
213 0 0
210 0 0
211 0 0
212 0 0
209 0 0
207 0 0
209 0 0
211 0 0
211 0 0
208 0 0
213 0 0
213 0 0
210 0 0
212 0 0
211 0 0
213 0 0
213 0 0
209 0 0
209 0 0
0 0 255
0 0 255
0 0 255
0 0 255
0 0 255
0 0 255
0 0 255
0 0 255
0 0 255
0 0 255
0 0 255
0 0 255
0 0 255
0 0 255
0 0 255
0 0 255
0 0 255
0 0 255
0 0 255
0 0 254
0 0 255
0 0 255
0 0 255
0 0 255
0 0 255
0 0 255
0 0 254
0 0 255
0 0 255
0 0 254
0 0 255
0 0 255
0 0 255
0 0 254
0 0 255
0 0 255
0 0 255
0 0 255
0 0 255
0 0 255
0 0 254
0 0 255
0 0 255
0 0 255
0 0 255
0 0 255
0 0 255
0 0 255
0 0 254
0 0 255
0 0 255
0 0 255
0 0 254
0 0 255
0 0 253
0 0 254
0 0 254
0 0 254
0 0 254
0 0 255
0 0 255
0 0 255
0 0 253
0 0 255
0 0 255
0 0 253
0 0 254
0 0 254
0 0 254
0 0 255
0 0 249
0 0 253
0 0 253
0 0 254
0 0 253
0 0 253
0 0 254
0 0 253
0 0 253
0 0 254
0 0 254
0 0 254
0 0 250
0 0 253
0 0 255
0 0 253
0 0 253
0 0 254
0 0 253
0 0 253
0 0 253
0 0 250
0 0 254
0 0 252
0 0 254
0 0 253
0 0 255
0 0 252
0 0 250
0 0 253
0 0 253
0 0 255
0 0 253
0 0 254
0 0 252
0 0 253
0 0 253
0 0 250
0 0 253
0 0 249
0 0 255
0 0 253
0 0 250
0 0 250
0 0 253
0 0 252
0 0 246
0 0 252
0 0 253
0 0 250
0 0 253
0 0 249
0 0 253
0 0 248
0 0 252
0 0 254
0 0 253
0 0 253
0 0 249
0 0 249
0 0 252
0 0 253
0 0 249
0 0 252
0 0 252
56 63 252
143 161 254
198 222 255
199 223 255
199 223 255
199 223 255
199 223 255
199 223 255
199 223 255
199 223 255
198 223 255
198 223 255
198 223 255
198 223 255
198 223 255
198 223 255
198 223 255
198 223 255
198 223 255
198 223 255
198 223 255
198 223 255
198 223 255
198 223 255
198 223 255
198 223 255
198 223 255
198 223 255
198 223 255
198 223 255
197 223 255
197 222 255
197 222 255
197 222 255
197 222 255
197 222 255
197 222 255
197 222 255
197 222 255
197 222 255
197 222 255
197 222 255
197 222 255
197 222 255
197 222 255
197 222 255
197 222 255
197 222 255
197 222 255
197 222 255
197 222 255
197 222 255
197 222 255
197 222 255
197 222 255
197 222 255
197 222 255
197 222 255
197 222 255
197 222 255
197 222 255
197 222 255
197 222 255
197 222 255
197 222 255
197 222 255
197 222 255
197 222 255
197 222 255
197 222 255
197 222 255
197 222 255
197 222 255
197 222 255
197 222 255
197 222 255
197 222 255
197 222 255
197 222 255
197 222 255
197 222 255
197 222 255
197 222 255
197 222 255
197 222 255
197 222 255
197 222 255
197 222 255
197 222 255
197 222 255
197 222 255
197 222 255
197 222 255
197 222 255
197 222 255
197 222 255
197 222 255
197 222 255
197 222 255
197 223 255
198 223 255
198 223 255
198 223 255
198 223 255
198 223 255
198 223 255
198 223 255
198 223 255
198 223 255
198 223 255
198 223 255
198 223 255
198 223 255
198 223 255
198 223 255
198 223 255
198 223 255
198 223 255
198 223 255
198 223 255
199 223 255
199 223 255
199 223 255
199 223 255
199 223 255
199 223 255
199 223 255
199 223 255
202 174 199
196 70 80
197 0 0
198 0 0
200 0 0
200 0 0
205 0 0
198 0 0
202 0 0
194 0 0
202 0 0
200 0 0
200 0 0
196 0 0
198 0 0
203 0 0
203 0 0
203 0 0
201 0 0
204 0 0
203 0 0
203 0 0
198 0 0
203 0 0
200 0 0
204 0 0
205 0 0
204 0 0
204 0 0
203 0 0
205 0 0
201 0 0
207 0 0
203 0 0
203 0 0
202 0 0
203 0 0
203 0 0
208 0 0
208 0 0
206 0 0
206 0 0
209 0 0
210 0 0
203 0 0
203 0 0
203 0 0
202 0 0
206 0 0
209 0 0
212 0 0
202 0 0
206 0 0
209 0 0
203 0 0
209 0 0
208 0 0
207 0 0
207 0 0
206 0 0
208 0 0
208 0 0
206 0 0
207 0 0
208 0 0
209 0 0
209 0 0
207 0 0
209 0 0
210 0 0
207 0 0
208 0 0
212 0 0
207 0 0
206 0 0
209 0 0
209 0 0
208 0 0
209 0 0
209 0 0
205 0 0
208 0 0
208 0 0
210 0 0
211 0 0
207 0 0
208 0 0
210 0 0
213 0 0
209 0 0
206 0 0
212 0 0
211 0 0
209 0 0
212 0 0
206 0 0
208 0 0
210 0 0
207 0 0
211 0 0
205 0 0
210 0 0
211 0 0
211 0 0
210 0 0
211 0 0
211 0 0
211 0 0
208 0 0
212 0 0
211 0 0
212 0 0
211 0 0
213 0 0
209 0 0
208 0 0
209 0 0
215 0 0
210 0 0
212 0 0
211 0 0
210 0 0
211 0 0
210 0 0
209 0 0
209 0 0
210 0 0
209 0 0
211 0 0
205 0 0
211 0 0
215 0 0
212 0 0
209 0 0
211 0 0
210 0 0
209 0 0
0 0 255
0 0 255
0 0 255
0 0 255
0 0 255
0 0 255
0 0 255
0 0 255
0 0 254
0 0 255
0 0 255
0 0 255
0 0 255
0 0 255
0 0 255
0 0 255
0 0 255
0 0 255
0 0 255
0 0 255
0 0 255
0 0 255
0 0 255
0 0 254
0 0 255
0 0 255
0 0 253
0 0 255
0 0 255
0 0 255
0 0 255
0 0 253
0 0 254
0 0 255
0 0 255
0 0 255
0 0 255
0 0 255
0 0 253
0 0 255
0 0 255
0 0 255
0 0 255
0 0 254
0 0 254
0 0 255
0 0 254
0 0 255
0 0 255
0 0 254
0 0 253
0 0 255
0 0 253
0 0 254
0 0 254
0 0 255
0 0 254
0 0 254
0 0 254
0 0 255
0 0 253
0 0 254
0 0 252
0 0 254
0 0 255
0 0 254
0 0 252
0 0 253
0 0 255
0 0 254
0 0 254
0 0 254
0 0 255
0 0 253
0 0 254
0 0 253
0 0 255
0 0 254
0 0 255
0 0 248
0 0 250
0 0 253
0 0 255
0 0 253
0 0 253
0 0 253
0 0 252
0 0 254
0 0 253
0 0 253
0 0 252
0 0 250
0 0 255
0 0 253
0 0 253
0 0 250
0 0 253
0 0 252
0 0 254
0 0 250
0 0 254
0 0 249
0 0 250
0 0 253
0 0 252
0 0 248
0 0 250
0 0 253
0 0 250
0 0 252
0 0 250
0 0 252
0 0 252
0 0 253
0 0 252
0 0 252
0 0 249
0 0 252
0 0 249
0 0 248
0 0 249
0 0 253
0 0 250
0 0 250
0 0 250
0 0 253
0 0 254
0 0 253
0 0 246
0 0 250
0 0 248
0 0 254
0 0 249
0 0 252
0 0 250
0 0 250
0 0 248
71 80 250
170 191 252
199 223 255
199 223 255
199 223 255
199 223 255
199 223 255
199 223 255
199 223 255
199 223 255
199 223 255
198 223 255
198 223 255
198 223 255
198 223 255
198 223 255
198 223 255
198 223 255
198 223 255
198 223 255
198 223 255
198 223 255
198 223 255
198 223 255
198 223 255
198 223 255
198 223 255
198 223 255
198 223 255
198 223 255
198 223 255
198 223 255
198 223 255
197 223 255
197 222 255
197 222 255
197 222 255
197 222 255
197 222 255
197 222 255
197 222 255
197 222 255
197 222 255
197 222 255
197 222 255
197 222 255
197 222 255
197 222 255
197 222 255
197 222 255
197 222 255
197 222 255
197 222 255
197 222 255
197 222 255
197 222 255
197 222 255
197 222 255
197 222 255
197 222 255
197 222 255
197 222 255
197 222 255
197 222 255
197 222 255
197 222 255
197 222 255
197 222 255
197 222 255
197 222 255
197 222 255
197 222 255
197 222 255
197 222 255
197 222 255
197 222 255
197 222 255
197 222 255
197 222 255
197 222 255
197 222 255
197 222 255
197 222 255
197 222 255
197 222 255
197 222 255
197 222 255
197 222 255
197 222 255
197 222 255
197 222 255
197 222 255
197 223 255
198 223 255
198 223 255
198 223 255
198 223 255
198 223 255
198 223 255
198 223 255
198 223 255
198 223 255
198 223 255
198 223 255
198 223 255
198 223 255
198 223 255
198 223 255
198 223 255
198 223 255
198 223 255
198 223 255
198 223 255
198 223 255
198 223 255
199 223 255
199 223 255
199 223 255
199 223 255
199 223 255
199 223 255
199 223 255
199 223 255
199 223 255
198 177 203
199 94 108
197 0 0
200 0 0
199 0 0
195 0 0
195 0 0
194 0 0
198 0 0
198 0 0
196 0 0
201 0 0
203 0 0
199 0 0
202 0 0
195 0 0
201 0 0
203 0 0
202 0 0
203 0 0
197 0 0
202 0 0
208 0 0
196 0 0
199 0 0
205 0 0
203 0 0
206 0 0
207 0 0
202 0 0
208 0 0
202 0 0
205 0 0
207 0 0
206 0 0
206 0 0
206 0 0
207 0 0
207 0 0
204 0 0
207 0 0
203 0 0
203 0 0
204 0 0
206 0 0
205 0 0
203 0 0
206 0 0
206 0 0
205 0 0
205 0 0
205 0 0
211 0 0
203 0 0
207 0 0
205 0 0
204 0 0
209 0 0
207 0 0
207 0 0
207 0 0
213 0 0
205 0 0
204 0 0
209 0 0
205 0 0
199 0 0
208 0 0
212 0 0
203 0 0
203 0 0
207 0 0
206 0 0
212 0 0
205 0 0
212 0 0
207 0 0
209 0 0
208 0 0
208 0 0
212 0 0
210 0 0
205 0 0
210 0 0
205 0 0
211 0 0
208 0 0
207 0 0
214 0 0
206 0 0
209 0 0
211 0 0
211 0 0
205 0 0
208 0 0
212 0 0
211 0 0
211 0 0
209 0 0
209 0 0
211 0 0
206 0 0
210 0 0
207 0 0
207 0 0
209 0 0
207 0 0
211 0 0
209 0 0
211 0 0
208 0 0
208 0 0
214 0 0
208 0 0
212 0 0
210 0 0
208 0 0
213 0 0
213 0 0
213 0 0
211 0 0
209 0 0
211 0 0
209 0 0
209 0 0
210 0 0
211 0 0
211 0 0
210 0 0
212 0 0
212 0 0
213 0 0
208 0 0
208 0 0
209 0 0
211 0 0
210 0 0
208 0 0
212 0 0
0 0 255
0 0 255
0 0 255
0 0 255
0 0 255
0 0 255
0 0 255
0 0 255
0 0 255
0 0 255
0 0 254
0 0 255
0 0 255
0 0 255
0 0 255
0 0 255
0 0 255
0 0 255
0 0 255
0 0 254
0 0 255
0 0 254
0 0 255
0 0 253
0 0 255
0 0 255
0 0 255
0 0 254
0 0 255
0 0 253
0 0 255
0 0 255
0 0 254
0 0 254
0 0 255
0 0 255
0 0 254
0 0 255
0 0 255
0 0 254
0 0 254
0 0 255
0 0 255
0 0 253
0 0 254
0 0 255
0 0 249
0 0 254
0 0 253
0 0 255
0 0 255
0 0 254
0 0 255
0 0 255
0 0 253
0 0 255
0 0 253
0 0 255
0 0 254
0 0 253
0 0 253
0 0 254
0 0 255
0 0 255
0 0 254
0 0 252
0 0 254
0 0 255
0 0 254
0 0 254
0 0 255
0 0 253
0 0 254
0 0 253
0 0 255
0 0 254
0 0 255
0 0 254
0 0 254
0 0 252
0 0 252
0 0 255
0 0 255
0 0 252
0 0 255
0 0 254
0 0 253
0 0 253
0 0 252
0 0 255
0 0 248
0 0 253
0 0 250
0 0 248
0 0 252
0 0 250
0 0 253
0 0 254
0 0 252
0 0 253
0 0 252
0 0 253
0 0 252
0 0 254
0 0 252
0 0 254
0 0 253
0 0 254
0 0 253
0 0 249
0 0 250
0 0 252
0 0 252
0 0 255
0 0 253
0 0 254
0 0 249
0 0 253
0 0 250
0 0 253
0 0 252
0 0 250
0 0 250
0 0 252
0 0 250
0 0 254
0 0 242
0 0 248
0 0 250
0 0 252
0 0 250
0 0 252
0 0 250
0 0 248
0 0 252
0 0 249
0 0 252
0 0 249
0 0 253
89 100 252
175 196 254
199 223 255
199 223 255
199 223 255
199 223 255
199 223 255
199 223 255
199 223 255
199 223 255
199 223 255
199 223 255
198 223 255
198 223 255
198 223 255
198 223 255
198 223 255
198 223 255
198 223 255
198 223 255
198 223 255
198 223 255
198 223 255
198 223 255
198 223 255
198 223 255
198 223 255
198 223 255
198 223 255
198 223 255
198 223 255
198 223 255
198 223 255
198 223 255
198 223 255
198 223 255
198 223 255
197 223 255
197 222 255
197 222 255
197 222 255
197 222 255
197 222 255
197 222 255
197 222 255
197 222 255
197 222 255
197 222 255
197 222 255
197 222 255
197 222 255
197 222 255
197 222 255
197 222 255
197 222 255
197 222 255
197 222 255
197 222 255
197 222 255
197 222 255
197 222 255
197 222 255
197 222 255
197 222 255
197 222 255
197 222 255
197 222 255
197 222 255
197 222 255
197 222 255
197 222 255
197 222 255
197 222 255
197 222 255
197 222 255
197 222 255
197 222 255
197 222 255
197 222 255
197 222 255
197 222 255
197 222 255
197 222 255
197 222 255
197 223 255
197 223 255
198 223 255
198 223 255
198 223 255
198 223 255
198 223 255
198 223 255
198 223 255
198 223 255
198 223 255
198 223 255
198 223 255
198 223 255
198 223 255
198 223 255
198 223 255
198 223 255
198 223 255
198 223 255
198 223 255
198 223 255
198 223 255
198 223 255
198 223 255
198 223 255
199 223 255
199 223 255
199 223 255
199 223 255
199 223 255
199 223 255
199 223 255
199 223 255
199 223 255
199 223 255
197 191 218
194 100 114
197 0 0
200 0 0
196 0 0
193 0 0
197 0 0
199 0 0
200 0 0
201 0 0
203 0 0
202 0 0
200 0 0
202 0 0
199 0 0
203 0 0
200 0 0
199 0 0
200 0 0
205 0 0
202 0 0
198 0 0
202 0 0
202 0 0
205 0 0
199 0 0
207 0 0
205 0 0
201 0 0
204 0 0
204 0 0
202 0 0
199 0 0
202 0 0
202 0 0
202 0 0
199 0 0
210 0 0
208 0 0
202 0 0
204 0 0
207 0 0
201 0 0
207 0 0
204 0 0
206 0 0
204 0 0
207 0 0
208 0 0
207 0 0
205 0 0
209 0 0
205 0 0
209 0 0
209 0 0
207 0 0
207 0 0
210 0 0
207 0 0
206 0 0
206 0 0
209 0 0
212 0 0
208 0 0
207 0 0
212 0 0
206 0 0
206 0 0
204 0 0
209 0 0
209 0 0
211 0 0
211 0 0
209 0 0
209 0 0
208 0 0
207 0 0
210 0 0
209 0 0
207 0 0
207 0 0
209 0 0
212 0 0
207 0 0
212 0 0
207 0 0
211 0 0
208 0 0
209 0 0
210 0 0
214 0 0
211 0 0
212 0 0
208 0 0
209 0 0
210 0 0
210 0 0
209 0 0
211 0 0
209 0 0
208 0 0
207 0 0
213 0 0
206 0 0
208 0 0
210 0 0
208 0 0
209 0 0
209 0 0
208 0 0
213 0 0
208 0 0
213 0 0
212 0 0
212 0 0
208 0 0
211 0 0
209 0 0
209 0 0
210 0 0
211 0 0
211 0 0
211 0 0
209 0 0
206 0 0
212 0 0
212 0 0
211 0 0
208 0 0
213 0 0
212 0 0
211 0 0
211 0 0
211 0 0
209 0 0
213 0 0
212 0 0
209 0 0
211 0 0
210 0 0
208 0 0
0 0 255
0 0 254
0 0 255
0 0 255
0 0 255
0 0 255
0 0 255
0 0 255
0 0 255
0 0 255
0 0 255
0 0 255
0 0 255
0 0 255
0 0 255
0 0 255
0 0 255
0 0 255
0 0 255
0 0 254
0 0 255
0 0 255
0 0 255
0 0 255
0 0 254
0 0 254
0 0 255
0 0 255
0 0 255
0 0 255
0 0 255
0 0 255
0 0 255
0 0 255
0 0 255
0 0 255
0 0 255
0 0 254
0 0 255
0 0 255
0 0 255
0 0 254
0 0 254
0 0 255
0 0 255
0 0 254
0 0 255
0 0 255
0 0 255
0 0 255
0 0 254
0 0 255
0 0 254
0 0 254
0 0 255
0 0 254
0 0 255
0 0 254
0 0 254
0 0 253
0 0 253
0 0 255
0 0 254
0 0 253
0 0 254
0 0 254
0 0 255
0 0 255
0 0 253
0 0 253
0 0 254
0 0 254
0 0 253
0 0 253
0 0 255
0 0 253
0 0 254
0 0 253
0 0 254
0 0 253
0 0 253
0 0 252
0 0 254
0 0 253
0 0 253
0 0 253
0 0 252
0 0 252
0 0 254
0 0 253
0 0 253
0 0 254
0 0 254
0 0 253
0 0 255
0 0 255
0 0 253
0 0 252
0 0 254
0 0 254
0 0 250
0 0 255
0 0 253
0 0 250
0 0 250
0 0 246
0 0 253
0 0 252
0 0 253
0 0 252
0 0 252
0 0 249
0 0 253
0 0 252
0 0 253
0 0 253
0 0 255
0 0 253
0 0 248
0 0 250
0 0 248
0 0 252
0 0 254
0 0 248
0 0 250
0 0 252
0 0 246
0 0 246
0 0 253
0 0 252
0 0 250
0 0 245
0 0 250
0 0 252
0 0 248
0 0 249
0 0 245
0 0 254
0 0 249
0 0 248
19 22 252
118 132 250
190 213 252
199 223 255
199 223 255
199 223 255
199 223 255
199 223 255
199 223 255
199 223 255
199 223 255
199 223 255
199 223 255
199 223 255
198 223 255
198 223 255
198 223 255
198 223 255
198 223 255
198 223 255
198 223 255
198 223 255
198 223 255
198 223 255
198 223 255
198 223 255
198 223 255
198 223 255
198 223 255
198 223 255
198 223 255
198 223 255
198 223 255
198 223 255
198 223 255
198 223 255
198 223 255
198 223 255
198 223 255
198 223 255
198 223 255
198 223 255
198 223 255
197 223 255
197 222 255
197 222 255
197 222 255
197 222 255
197 222 255
197 222 255
197 222 255
197 222 255
197 222 255
197 222 255
197 222 255
197 222 255
197 222 255
197 222 255
197 222 255
197 222 255
197 222 255
197 222 255
197 222 255
197 222 255
197 222 255
197 222 255
197 222 255
197 222 255
197 222 255
197 222 255
197 222 255
197 222 255
197 222 255
197 222 255
197 222 255
197 222 255
197 223 255
197 223 255
198 223 255
198 223 255
198 223 255
198 223 255
198 223 255
198 223 255
198 223 255
198 223 255
198 223 255
198 223 255
198 223 255
198 223 255
198 223 255
198 223 255
198 223 255
198 223 255
198 223 255
198 223 255
198 223 255
198 223 255
198 223 255
198 223 255
198 223 255
198 223 255
198 223 255
198 223 255
198 223 255
199 223 255
199 223 255
199 223 255
199 223 255
199 223 255
199 223 255
199 223 255
199 223 255
199 223 255
199 223 255
199 223 255
199 223 255
198 207 237
200 126 144
199 0 0
198 0 0
199 0 0
196 0 0
200 0 0
196 0 0
200 0 0
196 0 0
198 0 0
201 0 0
198 0 0
193 0 0
201 0 0
200 0 0
197 0 0
201 0 0
205 0 0
202 0 0
207 0 0
200 0 0
205 0 0
206 0 0
203 0 0
200 0 0
200 0 0
204 0 0
206 0 0
201 0 0
205 0 0
202 0 0
204 0 0
206 0 0
206 0 0
206 0 0
205 0 0
207 0 0
200 0 0
206 0 0
204 0 0
205 0 0
202 0 0
203 0 0
202 0 0
201 0 0
206 0 0
205 0 0
211 0 0
209 0 0
207 0 0
206 0 0
208 0 0
205 0 0
206 0 0
205 0 0
206 0 0
204 0 0
206 0 0
207 0 0
204 0 0
207 0 0
206 0 0
208 0 0
208 0 0
208 0 0
207 0 0
206 0 0
205 0 0
210 0 0
205 0 0
207 0 0
210 0 0
210 0 0
206 0 0
204 0 0
207 0 0
212 0 0
210 0 0
214 0 0
213 0 0
208 0 0
207 0 0
210 0 0
206 0 0
210 0 0
208 0 0
208 0 0
212 0 0
205 0 0
212 0 0
210 0 0
212 0 0
211 0 0
212 0 0
215 0 0
207 0 0
207 0 0
211 0 0
211 0 0
209 0 0
211 0 0
213 0 0
207 0 0
212 0 0
212 0 0
212 0 0
211 0 0
211 0 0
213 0 0
211 0 0
213 0 0
212 0 0
213 0 0
208 0 0
210 0 0
210 0 0
212 0 0
210 0 0
212 0 0
212 0 0
212 0 0
212 0 0
210 0 0
214 0 0
210 0 0
209 0 0
214 0 0
213 0 0
213 0 0
211 0 0
211 0 0
209 0 0
211 0 0
213 0 0
209 0 0
214 0 0
212 0 0
210 0 0
212 0 0
210 0 0
209 0 0
210 0 0
0 0 255
0 0 255
0 0 254
0 0 255
0 0 255
0 0 254
0 0 255
0 0 255
0 0 255
0 0 255
0 0 255
0 0 255
0 0 255
0 0 255
0 0 255
0 0 254
0 0 254
0 0 254
0 0 255
0 0 255
0 0 254
0 0 254
0 0 255
0 0 255
0 0 255
0 0 255
0 0 254
0 0 255
0 0 255
0 0 253
0 0 254
0 0 255
0 0 254
0 0 255
0 0 255
0 0 255
0 0 254
0 0 254
0 0 254
0 0 255
0 0 254
0 0 255
0 0 255
0 0 255
0 0 254
0 0 255
0 0 254
0 0 255
0 0 254
0 0 255
0 0 255
0 0 252
0 0 254
0 0 255
0 0 255
0 0 253
0 0 254
0 0 253
0 0 252
0 0 255
0 0 255
0 0 254
0 0 255
0 0 253
0 0 253
0 0 254
0 0 254
0 0 254
0 0 254
0 0 254
0 0 255
0 0 255
0 0 252
0 0 254
0 0 255
0 0 254
0 0 254
0 0 249
0 0 253
0 0 252
0 0 253
0 0 254
0 0 252
0 0 254
0 0 253
0 0 254
0 0 254
0 0 253
0 0 254
0 0 252
0 0 254
0 0 249
0 0 253
0 0 254
0 0 253
0 0 253
0 0 250
0 0 250
0 0 253
0 0 253
0 0 250
0 0 248
0 0 253
0 0 250
0 0 250
0 0 254
0 0 252
0 0 252
0 0 254
0 0 255
0 0 249
0 0 254
0 0 248
0 0 249
0 0 250
0 0 253
0 0 248
0 0 252
0 0 249
0 0 249
0 0 250
0 0 250
0 0 254
0 0 244
0 0 252
0 0 253
0 0 245
0 0 252
0 0 250
0 0 250
0 0 250
0 0 252
0 0 249
0 0 248
0 0 252
0 0 252
0 0 248
0 0 249
0 0 250
0 0 242
0 0 249
0 0 252
52 59 253
136 153 252
198 222 255
199 223 255
199 223 255
199 223 255
199 223 255
199 223 255
199 223 255
199 223 255
199 223 255
199 223 255
199 223 255
199 223 255
199 223 255
199 223 255
199 223 255
198 223 255
198 223 255
198 223 255
198 223 255
198 223 255
198 223 255
198 223 255
198 223 255
198 223 255
198 223 255
198 223 255
198 223 255
198 223 255
198 223 255
198 223 255
198 223 255
198 223 255
198 223 255
198 223 255
198 223 255
198 223 255
198 223 255
198 223 255
198 223 255
198 223 255
198 223 255
198 223 255
198 223 255
198 223 255
198 223 255
198 223 255
198 223 255
198 223 255
198 223 255
198 223 255
198 223 255
198 223 255
197 223 255
197 223 255
197 223 255
198 223 255
197 223 255
197 223 255
198 223 255
198 223 255
198 223 255
198 223 255
198 223 255
198 223 255
198 223 255
198 223 255
198 223 255
198 223 255
198 223 255
198 223 255
198 223 255
198 223 255
198 223 255
198 223 255
198 223 255
198 223 255
198 223 255
198 223 255
198 223 255
198 223 255
198 223 255
198 223 255
198 223 255
198 223 255
198 223 255
198 223 255
198 223 255
198 223 255
198 223 255
198 223 255
198 223 255
198 223 255
198 223 255
198 223 255
198 223 255
198 223 255
198 223 255
198 223 255
199 223 255
199 223 255
199 223 255
199 223 255
199 223 255
199 223 255
199 223 255
199 223 255
199 223 255
199 223 255
199 223 255
199 223 255
199 223 255
199 222 254
197 164 188
191 50 57
196 0 0
202 0 0
196 0 0
195 0 0
199 0 0
200 0 0
198 0 0
195 0 0
199 0 0
194 0 0
202 0 0
204 0 0
197 0 0
203 0 0
201 0 0
200 0 0
204 0 0
198 0 0
197 0 0
200 0 0
195 0 0
194 0 0
203 0 0
203 0 0
202 0 0
196 0 0
203 0 0
205 0 0
206 0 0
202 0 0
202 0 0
202 0 0
204 0 0
206 0 0
203 0 0
201 0 0
205 0 0
208 0 0
200 0 0
207 0 0
209 0 0
200 0 0
203 0 0
201 0 0
208 0 0
206 0 0
204 0 0
204 0 0
210 0 0
204 0 0
206 0 0
204 0 0
208 0 0
209 0 0
208 0 0
208 0 0
206 0 0
208 0 0
209 0 0
208 0 0
208 0 0
204 0 0
213 0 0
208 0 0
215 0 0
210 0 0
208 0 0
207 0 0
208 0 0
212 0 0
209 0 0
210 0 0
209 0 0
210 0 0
212 0 0
207 0 0
209 0 0
208 0 0
206 0 0
209 0 0
208 0 0
210 0 0
206 0 0
213 0 0
211 0 0
210 0 0
209 0 0
209 0 0
208 0 0
210 0 0
210 0 0
211 0 0
208 0 0
209 0 0
212 0 0
208 0 0
211 0 0
209 0 0
211 0 0
210 0 0
210 0 0
209 0 0
208 0 0
216 0 0
208 0 0
212 0 0
209 0 0
209 0 0
213 0 0
208 0 0
213 0 0
212 0 0
209 0 0
210 0 0
211 0 0
210 0 0
210 0 0
212 0 0
206 0 0
212 0 0
213 0 0
208 0 0
210 0 0
211 0 0
211 0 0
210 0 0
210 0 0
210 0 0
213 0 0
212 0 0
211 0 0
211 0 0
215 0 0
208 0 0
214 0 0
213 0 0
213 0 0
214 0 0
212 0 0
209 0 0
208 0 0
211 0 0
0 0 255
0 0 255
0 0 255
0 0 255
0 0 255
0 0 255
0 0 254
0 0 255
0 0 254
0 0 255
0 0 255
0 0 255
0 0 255
0 0 255
0 0 255
0 0 254
0 0 255
0 0 254
0 0 255
0 0 254
0 0 255
0 0 254
0 0 255
0 0 254
0 0 255
0 0 255
0 0 255
0 0 255
0 0 255
0 0 254
0 0 255
0 0 255
0 0 255
0 0 255
0 0 255
0 0 255
0 0 254
0 0 255
0 0 255
0 0 254
0 0 255
0 0 255
0 0 254
0 0 254
0 0 254
0 0 255
0 0 255
0 0 254
0 0 255
0 0 255
0 0 254
0 0 254
0 0 255
0 0 255
0 0 255
0 0 255
0 0 254
0 0 253
0 0 253
0 0 253
0 0 253
0 0 254
0 0 255
0 0 253
0 0 255
0 0 254
0 0 250
0 0 254
0 0 253
0 0 253
0 0 254
0 0 254
0 0 255
0 0 250
0 0 254
0 0 253
0 0 254
0 0 253
0 0 253
0 0 250
0 0 253
0 0 254
0 0 254
0 0 254
0 0 254
0 0 250
0 0 253
0 0 255
0 0 254
0 0 250
0 0 249
0 0 252
0 0 249
0 0 254
0 0 250
0 0 255
0 0 253
0 0 253
0 0 253
0 0 253
0 0 255
0 0 252
0 0 254
0 0 253
0 0 254
0 0 249
0 0 252
0 0 252
0 0 252
0 0 249
0 0 252
0 0 254
0 0 254
0 0 254
0 0 249
0 0 252
0 0 254
0 0 249
0 0 248
0 0 246
0 0 253
0 0 253
0 0 245
0 0 248
0 0 250
0 0 253
0 0 253
0 0 252
0 0 248
0 0 246
0 0 253
0 0 245
0 0 250
0 0 254
0 0 248
0 0 249
0 0 245
0 0 249
0 0 250
0 0 252
0 0 250
0 0 250
0 0 252
0 0 252
79 89 246
167 187 255
199 223 255
199 223 255
199 223 255
199 223 255
199 223 255
199 223 255
199 223 255
199 223 255
199 223 255
199 223 255
199 223 255
199 223 255
199 223 255
199 223 255
199 223 255
199 223 255
199 223 255
198 223 255
198 223 255
198 223 255
198 223 255
198 223 255
198 223 255
198 223 255
198 223 255
198 223 255
198 223 255
198 223 255
198 223 255
198 223 255
198 223 255
198 223 255
198 223 255
198 223 255
198 223 255
198 223 255
198 223 255
198 223 255
198 223 255
198 223 255
198 223 255
198 223 255
198 223 255
198 223 255
198 223 255
198 223 255
198 223 255
198 223 255
198 223 255
198 223 255
198 223 255
198 223 255
198 223 255
198 223 255
198 223 255
198 223 255
198 223 255
198 223 255
198 223 255
198 223 255
198 223 255
198 223 255
198 223 255
198 223 255
198 223 255
198 223 255
198 223 255
198 223 255
198 223 255
198 223 255
198 223 255
198 223 255
198 223 255
198 223 255
198 223 255
198 223 255
198 223 255
198 223 255
198 223 255
198 223 255
198 223 255
198 223 255
198 223 255
198 223 255
198 223 255
198 223 255
198 223 255
198 223 255
198 223 255
198 223 255
198 223 255
199 223 255
199 223 255
199 223 255
199 223 255
199 223 255
199 223 255
199 223 255
199 223 255
199 223 255
199 223 255
199 223 255
199 223 255
199 223 255
199 223 255
199 223 255
199 223 255
199 223 255
197 187 214
197 89 102
197 0 0
194 0 0
191 0 0
194 0 0
199 0 0
204 0 0
198 0 0
205 0 0
198 0 0
204 0 0
201 0 0
197 0 0
201 0 0
197 0 0
202 0 0
200 0 0
202 0 0
200 0 0
201 0 0
202 0 0
201 0 0
202 0 0
201 0 0
197 0 0
203 0 0
200 0 0
199 0 0
206 0 0
203 0 0
204 0 0
205 0 0
205 0 0
206 0 0
208 0 0
200 0 0
204 0 0
206 0 0
204 0 0
202 0 0
201 0 0
204 0 0
208 0 0
202 0 0
207 0 0
203 0 0
207 0 0
206 0 0
204 0 0
207 0 0
208 0 0
204 0 0
209 0 0
208 0 0
209 0 0
207 0 0
208 0 0
211 0 0
203 0 0
208 0 0
207 0 0
210 0 0
208 0 0
206 0 0
206 0 0
208 0 0
205 0 0
209 0 0
205 0 0
210 0 0
208 0 0
213 0 0
207 0 0
208 0 0
211 0 0
208 0 0
209 0 0
206 0 0
207 0 0
206 0 0
206 0 0
213 0 0
210 0 0
214 0 0
209 0 0
201 0 0
211 0 0
210 0 0
209 0 0
207 0 0
212 0 0
211 0 0
212 0 0
209 0 0
207 0 0
210 0 0
213 0 0
206 0 0
209 0 0
210 0 0
208 0 0
213 0 0
213 0 0
215 0 0
213 0 0
210 0 0
212 0 0
211 0 0
212 0 0
211 0 0
212 0 0
210 0 0
211 0 0
211 0 0
208 0 0
210 0 0
211 0 0
210 0 0
215 0 0
214 0 0
214 0 0
210 0 0
214 0 0
215 0 0
208 0 0
213 0 0
212 0 0
208 0 0
210 0 0
210 0 0
211 0 0
211 0 0
212 0 0
212 0 0
213 0 0
212 0 0
213 0 0
210 0 0
213 0 0
212 0 0
212 0 0
212 0 0
213 0 0
210 0 0
210 0 0
0 0 255
0 0 255
0 0 255
0 0 255
0 0 255
0 0 255
0 0 255
0 0 255
0 0 255
0 0 254
0 0 255
0 0 255
0 0 254
0 0 255
0 0 255
0 0 255
0 0 255
0 0 254
0 0 255
0 0 254
0 0 255
0 0 253
0 0 255
0 0 255
0 0 255
0 0 255
0 0 254
0 0 255
0 0 254
0 0 255
0 0 255
0 0 255
0 0 254
0 0 254
0 0 254
0 0 255
0 0 255
0 0 254
0 0 254
0 0 255
0 0 255
0 0 254
0 0 254
0 0 254
0 0 255
0 0 254
0 0 254
0 0 255
0 0 255
0 0 255
0 0 255
0 0 255
0 0 254
0 0 253
0 0 255
0 0 254
0 0 253
0 0 252
0 0 253
0 0 255
0 0 254
0 0 253
0 0 254
0 0 253
0 0 255
0 0 253
0 0 255
0 0 252
0 0 255
0 0 254
0 0 255
0 0 254
0 0 252
0 0 254
0 0 254
0 0 255
0 0 254
0 0 253
0 0 255
0 0 253
0 0 253
0 0 250
0 0 255
0 0 254
0 0 252
0 0 250
0 0 253
0 0 253
0 0 253
0 0 253
0 0 253
0 0 253
0 0 252
0 0 250
0 0 253
0 0 253
0 0 250
0 0 252
0 0 248
0 0 253
0 0 250
0 0 249
0 0 252
0 0 248
0 0 250
0 0 254
0 0 254
0 0 249
0 0 254
0 0 250
0 0 249
0 0 249
0 0 249
0 0 246
0 0 249
0 0 253
0 0 253
0 0 252
0 0 250
0 0 249
0 0 248
0 0 250
0 0 246
0 0 253
0 0 252
0 0 252
0 0 253
0 0 252
0 0 248
0 0 249
0 0 249
0 0 246
0 0 246
0 0 252
0 0 253
0 0 249
0 0 246
0 0 248
0 0 252
0 0 250
0 0 248
0 0 250
0 0 245
0 0 249
0 0 248
0 0 249
129 145 253
183 205 255
199 224 255
199 223 255
199 223 255
199 223 255
199 223 255
199 223 255
199 223 255
199 223 255
199 223 255
199 223 255
199 223 255
199 223 255
199 223 255
199 223 255
199 223 255
199 223 255
199 223 255
199 223 255
199 223 255
199 223 255
198 223 255
198 223 255
198 223 255
198 223 255
198 223 255
198 223 255
198 223 255
198 223 255
198 223 255
198 223 255
198 223 255
198 223 255
198 223 255
198 223 255
198 223 255
198 223 255
198 223 255
198 223 255
198 223 255
198 223 255
198 223 255
198 223 255
198 223 255
198 223 255
198 223 255
198 223 255
198 223 255
198 223 255
198 223 255
198 223 255
198 223 255
198 223 255
198 223 255
198 223 255
198 223 255
198 223 255
198 223 255
198 223 255
198 223 255
198 223 255
198 223 255
198 223 255
198 223 255
198 223 255
198 223 255
198 223 255
198 223 255
198 223 255
198 223 255
198 223 255
198 223 255
198 223 255
198 223 255
198 223 255
198 223 255
198 223 255
198 223 255
198 223 255
198 223 255
198 223 255
198 223 255
198 223 255
198 223 255
198 223 255
198 223 255
199 223 255
199 223 255
199 223 255
199 223 255
199 223 255
199 223 255
199 223 255
199 223 255
199 223 255
199 223 255
199 223 255
199 223 255
199 223 255
199 223 255
199 223 255
199 223 255
199 223 255
199 223 255
199 224 255
200 213 244
197 150 171
193 0 0
195 0 0
193 0 0
193 0 0
194 0 0
195 0 0
199 0 0
198 0 0
203 0 0
200 0 0
201 0 0
196 0 0
198 0 0
194 0 0
204 0 0
195 0 0
201 0 0
202 0 0
205 0 0
198 0 0
201 0 0
200 0 0
206 0 0
201 0 0
201 0 0
204 0 0
203 0 0
204 0 0
205 0 0
205 0 0
200 0 0
204 0 0
203 0 0
207 0 0
204 0 0
204 0 0
206 0 0
207 0 0
202 0 0
204 0 0
207 0 0
207 0 0
206 0 0
208 0 0
202 0 0
209 0 0
205 0 0
205 0 0
206 0 0
205 0 0
206 0 0
202 0 0
202 0 0
202 0 0
205 0 0
204 0 0
207 0 0
206 0 0
210 0 0
207 0 0
207 0 0
207 0 0
208 0 0
205 0 0
205 0 0
205 0 0
206 0 0
209 0 0
213 0 0
207 0 0
212 0 0
209 0 0
207 0 0
211 0 0
204 0 0
212 0 0
213 0 0
209 0 0
209 0 0
206 0 0
212 0 0
208 0 0
209 0 0
211 0 0
212 0 0
210 0 0
209 0 0
209 0 0
212 0 0
209 0 0
205 0 0
208 0 0
210 0 0
208 0 0
210 0 0
211 0 0
212 0 0
208 0 0
209 0 0
209 0 0
210 0 0
207 0 0
208 0 0
216 0 0
209 0 0
210 0 0
206 0 0
214 0 0
210 0 0
213 0 0
212 0 0
210 0 0
210 0 0
214 0 0
210 0 0
209 0 0
210 0 0
212 0 0
208 0 0
214 0 0
212 0 0
212 0 0
214 0 0
211 0 0
216 0 0
213 0 0
216 0 0
208 0 0
211 0 0
211 0 0
209 0 0
215 0 0
210 0 0
211 0 0
208 0 0
210 0 0
214 0 0
209 0 0
211 0 0
210 0 0
208 0 0
214 0 0
213 0 0
212 0 0
215 0 0
214 0 0
0 0 255
0 0 255
0 0 255
0 0 255
0 0 255
0 0 255
0 0 254
0 0 255
0 0 255
0 0 255
0 0 255
0 0 255
0 0 255
0 0 253
0 0 255
0 0 255
0 0 255
0 0 255
0 0 254
0 0 255
0 0 254
0 0 255
0 0 255
0 0 255
0 0 255
0 0 254
0 0 255
0 0 254
0 0 254
0 0 255
0 0 254
0 0 254
0 0 255
0 0 255
0 0 255
0 0 255
0 0 255
0 0 254
0 0 255
0 0 255
0 0 255
0 0 255
0 0 255
0 0 255
0 0 255
0 0 254
0 0 254
0 0 255
0 0 254
0 0 255
0 0 255
0 0 255
0 0 255
0 0 255
0 0 249
0 0 254
0 0 253
0 0 254
0 0 253
0 0 255
0 0 254
0 0 253
0 0 253
0 0 253
0 0 255
0 0 254
0 0 254
0 0 250
0 0 253
0 0 252
0 0 253
0 0 254
0 0 255
0 0 255
0 0 254
0 0 253
0 0 255
0 0 255
0 0 255
0 0 254
0 0 250
0 0 252
0 0 249
0 0 252
0 0 254
0 0 250
0 0 252
0 0 254
0 0 252
0 0 252
0 0 254
0 0 248
0 0 254
0 0 250
0 0 254
0 0 252
0 0 250
0 0 253
0 0 255
0 0 253
0 0 250
0 0 254
0 0 253
0 0 254
0 0 254
0 0 250
0 0 253
0 0 254
0 0 249
0 0 250
0 0 252
0 0 248
0 0 252
0 0 253
0 0 248
0 0 254
0 0 252
0 0 248
0 0 250
0 0 252
0 0 253
0 0 253
0 0 252
0 0 250
0 0 254
0 0 245
0 0 246
0 0 248
0 0 244
0 0 248
0 0 248
0 0 248
0 0 252
0 0 249
0 0 250
0 0 250
0 0 248
0 0 245
0 0 245
0 0 248
0 0 249
0 0 249
0 0 246
0 0 249
0 0 242
0 0 246
0 0 241
52 59 250
158 177 253
200 224 255
199 224 255
199 224 255
199 224 255
199 223 255
199 223 255
199 223 255
199 223 255
199 223 255
199 223 255
199 223 255
199 223 255
199 223 255
199 223 255
199 223 255
199 223 255
199 223 255
199 223 255
199 223 255
199 223 255
199 223 255
199 223 255
199 223 255
199 223 255
198 223 255
198 223 255
198 223 255
198 223 255
198 223 255
198 223 255
198 223 255
198 223 255
198 223 255
198 223 255
198 223 255
198 223 255
198 223 255
198 223 255
198 223 255
198 223 255
198 223 255
198 223 255
198 223 255
198 223 255
198 223 255
198 223 255
198 223 255
198 223 255
198 223 255
198 223 255
198 223 255
198 223 255
198 223 255
198 223 255
198 223 255
198 223 255
198 223 255
198 223 255
198 223 255
198 223 255
198 223 255
198 223 255
198 223 255
198 223 255
198 223 255
198 223 255
198 223 255
198 223 255
198 223 255
198 223 255
198 223 255
198 223 255
198 223 255
198 223 255
198 223 255
198 223 255
198 223 255
198 223 255
199 223 255
199 223 255
199 223 255
199 223 255
199 223 255
199 223 255
199 223 255
199 223 255
199 223 255
199 223 255
199 223 255
199 223 255
199 223 255
199 223 255
199 223 255
199 223 255
199 223 255
199 223 255
199 223 255
199 223 255
199 224 255
199 224 255
199 224 255
200 224 255
196 172 196
198 74 84
193 0 0
193 0 0
195 0 0
196 0 0
194 0 0
195 0 0
200 0 0
196 0 0
191 0 0
200 0 0
200 0 0
197 0 0
198 0 0
200 0 0
200 0 0
200 0 0
202 0 0
196 0 0
202 0 0
197 0 0
195 0 0
203 0 0
203 0 0
207 0 0
205 0 0
204 0 0
207 0 0
205 0 0
203 0 0
206 0 0
207 0 0
205 0 0
207 0 0
205 0 0
206 0 0
205 0 0
203 0 0
205 0 0
205 0 0
204 0 0
204 0 0
202 0 0
205 0 0
205 0 0
201 0 0
207 0 0
202 0 0
204 0 0
207 0 0
210 0 0
210 0 0
207 0 0
209 0 0
206 0 0
208 0 0
206 0 0
207 0 0
203 0 0
207 0 0
205 0 0
208 0 0
210 0 0
211 0 0
205 0 0
203 0 0
207 0 0
206 0 0
209 0 0
211 0 0
206 0 0
208 0 0
209 0 0
206 0 0
208 0 0
205 0 0
211 0 0
204 0 0
210 0 0
212 0 0
211 0 0
204 0 0
204 0 0
210 0 0
213 0 0
205 0 0
208 0 0
211 0 0
213 0 0
210 0 0
209 0 0
210 0 0
205 0 0
210 0 0
208 0 0
211 0 0
210 0 0
212 0 0
207 0 0
212 0 0
214 0 0
212 0 0
211 0 0
209 0 0
211 0 0
208 0 0
210 0 0
213 0 0
213 0 0
212 0 0
212 0 0
211 0 0
213 0 0
212 0 0
211 0 0
210 0 0
211 0 0
214 0 0
209 0 0
211 0 0
211 0 0
211 0 0
210 0 0
212 0 0
208 0 0
213 0 0
211 0 0
210 0 0
211 0 0
209 0 0
207 0 0
212 0 0
211 0 0
213 0 0
213 0 0
213 0 0
211 0 0
209 0 0
214 0 0
211 0 0
210 0 0
211 0 0
212 0 0
211 0 0
210 0 0
213 0 0
208 0 0
213 0 0
0 0 255
0 0 255
0 0 255
0 0 255
0 0 255
0 0 253
0 0 255
0 0 255
0 0 255
0 0 255
0 0 254
0 0 255
0 0 254
0 0 255
0 0 255
0 0 255
0 0 254
0 0 254
0 0 255
0 0 255
0 0 255
0 0 255
0 0 255
0 0 255
0 0 255
0 0 255
0 0 255
0 0 255
0 0 255
0 0 255
0 0 255
0 0 255
0 0 253
0 0 254
0 0 255
0 0 255
0 0 254
0 0 255
0 0 255
0 0 255
0 0 255
0 0 255
0 0 254
0 0 255
0 0 253
0 0 255
0 0 255
0 0 255
0 0 255
0 0 254
0 0 254
0 0 254
0 0 255
0 0 255
0 0 254
0 0 255
0 0 253
0 0 253
0 0 255
0 0 254
0 0 252
0 0 254
0 0 253
0 0 254
0 0 254
0 0 254
0 0 255
0 0 253
0 0 253
0 0 245
0 0 255
0 0 255
0 0 253
0 0 254
0 0 254
0 0 254
0 0 252
0 0 254
0 0 253
0 0 253
0 0 250
0 0 254
0 0 253
0 0 255
0 0 254
0 0 253
0 0 254
0 0 254
0 0 248
0 0 254
0 0 252
0 0 248
0 0 252
0 0 252
0 0 254
0 0 248
0 0 250
0 0 252
0 0 253
0 0 249
0 0 253
0 0 254
0 0 252
0 0 253
0 0 252
0 0 250
0 0 254
0 0 250
0 0 253
0 0 249
0 0 249
0 0 252
0 0 252
0 0 252
0 0 252
0 0 252
0 0 253
0 0 253
0 0 249
0 0 245
0 0 252
0 0 252
0 0 253
0 0 252
0 0 252
0 0 250
0 0 253
0 0 253
0 0 242
0 0 254
0 0 249
0 0 246
0 0 240
0 0 246
0 0 250
0 0 254
0 0 250
0 0 249
0 0 249
0 0 240
0 0 250
0 0 249
0 0 246
0 0 246
0 0 248
0 0 242
0 0 252
0 0 245
0 0 244
116 130 246
187 210 255
200 224 255
200 224 255
199 224 255
199 224 255
199 224 255
199 224 255
199 223 255
199 223 255
199 223 255
199 223 255
199 223 255
199 223 255
199 223 255
199 223 255
199 223 255
199 223 255
199 223 255
199 223 255
199 223 255
199 223 255
199 223 255
199 223 255
199 223 255
199 223 255
199 223 255
199 223 255
199 223 255
199 223 255
199 223 255
198 223 255
198 223 255
198 223 255
198 223 255
198 223 255
198 223 255
198 223 255
198 223 255
198 223 255
198 223 255
198 223 255
198 223 255
198 223 255
198 223 255
198 223 255
198 223 255
198 223 255
198 223 255
198 223 255
198 223 255
198 223 255
198 223 255
198 223 255
198 223 255
198 223 255
198 223 255
198 223 255
198 223 255
198 223 255
198 223 255
198 223 255
198 223 255
198 223 255
198 223 255
198 223 255
198 223 255
198 223 255
198 223 255
198 223 255
198 223 255
199 223 255
199 223 255
199 223 255
199 223 255
199 223 255
199 223 255
199 223 255
199 223 255
199 223 255
199 223 255
199 223 255
199 223 255
199 223 255
199 223 255
199 223 255
199 223 255
199 223 255
199 223 255
199 223 255
199 223 255
199 223 255
199 223 255
199 223 255
199 224 255
199 224 255
199 224 255
200 224 255
200 224 255
200 224 255
198 212 242
199 128 147
192 0 0
195 0 0
195 0 0
198 0 0
195 0 0
190 0 0
191 0 0
197 0 0
203 0 0
199 0 0
198 0 0
200 0 0
200 0 0
198 0 0
201 0 0
200 0 0
198 0 0
201 0 0
197 0 0
200 0 0
203 0 0
196 0 0
202 0 0
201 0 0
201 0 0
206 0 0
204 0 0
198 0 0
204 0 0
205 0 0
205 0 0
204 0 0
204 0 0
204 0 0
206 0 0
204 0 0
205 0 0
203 0 0
205 0 0
203 0 0
207 0 0
207 0 0
204 0 0
203 0 0
204 0 0
207 0 0
206 0 0
210 0 0
204 0 0
203 0 0
207 0 0
208 0 0
206 0 0
205 0 0
205 0 0
208 0 0
203 0 0
207 0 0
207 0 0
208 0 0
206 0 0
210 0 0
211 0 0
204 0 0
209 0 0
207 0 0
211 0 0
207 0 0
207 0 0
211 0 0
207 0 0
207 0 0
209 0 0
210 0 0
211 0 0
211 0 0
210 0 0
206 0 0
209 0 0
213 0 0
212 0 0
213 0 0
210 0 0
211 0 0
209 0 0
211 0 0
207 0 0
211 0 0
211 0 0
212 0 0
216 0 0
211 0 0
212 0 0
212 0 0
211 0 0
209 0 0
209 0 0
210 0 0
210 0 0
211 0 0
207 0 0
212 0 0
211 0 0
208 0 0
212 0 0
209 0 0
205 0 0
211 0 0
211 0 0
213 0 0
212 0 0
209 0 0
209 0 0
212 0 0
209 0 0
212 0 0
212 0 0
211 0 0
213 0 0
212 0 0
214 0 0
213 0 0
210 0 0
212 0 0
213 0 0
211 0 0
210 0 0
211 0 0
212 0 0
210 0 0
210 0 0
209 0 0
210 0 0
211 0 0
211 0 0
209 0 0
214 0 0
213 0 0
213 0 0
212 0 0
213 0 0
214 0 0
213 0 0
212 0 0
214 0 0
211 0 0
209 0 0
212 0 0
211 0 0
0 0 255
0 0 255
0 0 255
0 0 255
0 0 255
0 0 255
0 0 255
0 0 255
0 0 255
0 0 254
0 0 255
0 0 254
0 0 255
0 0 255
0 0 254
0 0 255
0 0 253
0 0 255
0 0 255
0 0 253
0 0 255
0 0 255
0 0 253
0 0 255
0 0 254
0 0 254
0 0 255
0 0 255
0 0 255
0 0 255
0 0 255
0 0 255
0 0 254
0 0 254
0 0 254
0 0 254
0 0 255
0 0 254
0 0 254
0 0 255
0 0 254
0 0 254
0 0 254
0 0 255
0 0 252
0 0 252
0 0 255
0 0 255
0 0 255
0 0 255
0 0 255
0 0 255
0 0 252
0 0 253
0 0 253
0 0 253
0 0 254
0 0 254
0 0 253
0 0 255
0 0 255
0 0 254
0 0 254
0 0 255
0 0 255
0 0 254
0 0 254
0 0 252
0 0 252
0 0 254
0 0 253
0 0 252
0 0 254
0 0 250
0 0 252
0 0 254
0 0 255
0 0 254
0 0 253
0 0 252
0 0 254
0 0 253
0 0 252
0 0 252
0 0 255
0 0 254
0 0 254
0 0 255
0 0 252
0 0 253
0 0 250
0 0 254
0 0 248
0 0 254
0 0 253
0 0 253
0 0 249
0 0 255
0 0 252
0 0 253
0 0 250
0 0 255
0 0 254
0 0 250
0 0 254
0 0 254
0 0 252
0 0 249
0 0 253
0 0 245
0 0 249
0 0 252
0 0 249
0 0 249
0 0 253
0 0 250
0 0 252
0 0 248
0 0 250
0 0 252
0 0 246
0 0 248
0 0 248
0 0 252
0 0 250
0 0 248
0 0 252
0 0 248
0 0 241
0 0 245
0 0 245
0 0 250
0 0 252
0 0 248
0 0 244
0 0 242
0 0 250
0 0 255
0 0 245
0 0 253
0 0 248
0 0 250
0 0 244
0 0 249
0 0 246
0 0 242
0 0 246
0 0 246
0 0 246
0 0 245
56 63 250
162 182 252
200 224 255
200 224 255
200 224 255
200 224 255
200 224 255
199 224 255
199 224 255
199 224 255
199 224 255
199 223 255
199 223 255
199 223 255
199 223 255
199 223 255
199 223 255
199 223 255
199 223 255
199 223 255
199 223 255
199 223 255
199 223 255
199 223 255
199 223 255
199 223 255
199 223 255
199 223 255
199 223 255
199 223 255
199 223 255
199 223 255
199 223 255
199 223 255
199 223 255
199 223 255
199 223 255
199 223 255
199 223 255
199 223 255
198 223 255
198 223 255
198 223 255
198 223 255
198 223 255
198 223 255
198 223 255
198 223 255
198 223 255
198 223 255
198 223 255
198 223 255
198 223 255
198 223 255
198 223 255
198 223 255
198 223 255
198 223 255
198 223 255
199 223 255
199 223 255
199 223 255
199 223 255
199 223 255
199 223 255
199 223 255
199 223 255
199 223 255
199 223 255
199 223 255
199 223 255
199 223 255
199 223 255
199 223 255
199 223 255
199 223 255
199 223 255
199 223 255
199 223 255
199 223 255
199 223 255
199 223 255
199 223 255
199 223 255
199 223 255
199 223 255
199 223 255
199 223 255
199 223 255
199 224 255
199 224 255
199 224 255
200 224 255
200 224 255
200 224 255
200 224 255
200 224 255
200 224 255
197 188 215
198 70 80
197 0 0
196 0 0
193 0 0
196 0 0
204 0 0
198 0 0
200 0 0
194 0 0
195 0 0
201 0 0
198 0 0
203 0 0
200 0 0
195 0 0
200 0 0
193 0 0
198 0 0
202 0 0
195 0 0
203 0 0
202 0 0
199 0 0
204 0 0
203 0 0
201 0 0
202 0 0
204 0 0
200 0 0
199 0 0
204 0 0
202 0 0
200 0 0
203 0 0
206 0 0
206 0 0
203 0 0
206 0 0
201 0 0
202 0 0
212 0 0
209 0 0
204 0 0
207 0 0
206 0 0
207 0 0
207 0 0
201 0 0
204 0 0
206 0 0
207 0 0
200 0 0
210 0 0
206 0 0
207 0 0
207 0 0
208 0 0
207 0 0
208 0 0
207 0 0
206 0 0
210 0 0
207 0 0
204 0 0
206 0 0
207 0 0
206 0 0
210 0 0
205 0 0
208 0 0
208 0 0
211 0 0
212 0 0
207 0 0
211 0 0
208 0 0
205 0 0
207 0 0
206 0 0
211 0 0
212 0 0
208 0 0
208 0 0
203 0 0
206 0 0
211 0 0
210 0 0
213 0 0
212 0 0
209 0 0
211 0 0
213 0 0
210 0 0
212 0 0
209 0 0
212 0 0
206 0 0
209 0 0
211 0 0
211 0 0
211 0 0
210 0 0
212 0 0
213 0 0
210 0 0
209 0 0
211 0 0
214 0 0
211 0 0
211 0 0
213 0 0
211 0 0
209 0 0
210 0 0
214 0 0
205 0 0
212 0 0
207 0 0
210 0 0
212 0 0
214 0 0
212 0 0
211 0 0
214 0 0
208 0 0
213 0 0
212 0 0
212 0 0
210 0 0
211 0 0
209 0 0
214 0 0
208 0 0
210 0 0
216 0 0
213 0 0
212 0 0
214 0 0
210 0 0
212 0 0
212 0 0
214 0 0
211 0 0
213 0 0
210 0 0
210 0 0
215 0 0
210 0 0
211 0 0
215 0 0
212 0 0
0 0 255
0 0 255
0 0 255
0 0 255
0 0 255
0 0 255
0 0 254
0 0 255
0 0 255
0 0 255
0 0 255
0 0 255
0 0 255
0 0 255
0 0 255
0 0 255
0 0 255
0 0 255
0 0 255
0 0 255
0 0 255
0 0 255
0 0 255
0 0 254
0 0 254
0 0 254
0 0 255
0 0 255
0 0 255
0 0 255
0 0 255
0 0 255
0 0 255
0 0 255
0 0 255
0 0 254
0 0 252
0 0 255
0 0 255
0 0 255
0 0 254
0 0 255
0 0 255
0 0 254
0 0 255
0 0 254
0 0 254
0 0 254
0 0 255
0 0 253
0 0 254
0 0 255
0 0 255
0 0 254
0 0 252
0 0 255
0 0 252
0 0 254
0 0 254
0 0 254
0 0 252
0 0 255
0 0 254
0 0 255
0 0 255
0 0 253
0 0 254
0 0 253
0 0 253
0 0 253
0 0 254
0 0 253
0 0 254
0 0 255
0 0 254
0 0 250
0 0 255
0 0 255
0 0 254
0 0 255
0 0 253
0 0 252
0 0 255
0 0 252
0 0 254
0 0 250
0 0 254
0 0 253
0 0 249
0 0 253
0 0 254
0 0 249
0 0 253
0 0 252
0 0 254
0 0 255
0 0 254
0 0 255
0 0 255
0 0 249
0 0 254
0 0 252
0 0 252
0 0 250
0 0 250
0 0 254
0 0 249
0 0 252
0 0 250
0 0 252
0 0 248
0 0 249
0 0 249
0 0 252
0 0 250
0 0 246
0 0 252
0 0 246
0 0 253
0 0 250
0 0 254
0 0 254
0 0 253
0 0 245
0 0 252
0 0 249
0 0 252
0 0 249
0 0 250
0 0 246
0 0 250
0 0 252
0 0 246
0 0 248
0 0 246
0 0 252
0 0 248
0 0 250
0 0 245
0 0 242
0 0 248
0 0 249
0 0 253
0 0 249
0 0 249
0 0 252
0 0 241
0 0 244
0 0 240
0 0 252
0 0 248
0 0 244
106 118 252
195 218 255
200 224 255
200 224 255
200 224 255
200 224 255
200 224 255
200 224 255
200 224 255
200 224 255
199 224 255
199 224 255
199 224 255
199 224 255
199 223 255
199 223 255
199 223 255
199 223 255
199 223 255
199 223 255
199 223 255
199 223 255
199 223 255
199 223 255
199 223 255
199 223 255
199 223 255
199 223 255
199 223 255
199 223 255
199 223 255
199 223 255
199 223 255
199 223 255
199 223 255
199 223 255
199 223 255
199 223 255
199 223 255
199 223 255
199 223 255
199 223 255
199 223 255
199 223 255
199 223 255
199 223 255
199 223 255
199 223 255
199 223 255
199 223 255
199 223 255
199 223 255
199 223 255
199 223 255
199 223 255
199 223 255
199 223 255
199 223 255
199 223 255
199 223 255
199 223 255
199 223 255
199 223 255
199 223 255
199 223 255
199 223 255
199 223 255
199 223 255
199 223 255
199 223 255
199 223 255
199 223 255
199 223 255
199 223 255
199 223 255
199 223 255
199 223 255
199 223 255
199 223 255
199 223 255
199 223 255
199 223 255
199 224 255
199 224 255
199 224 255
199 224 255
200 224 255
200 224 255
200 224 255
200 224 255
200 224 255
200 224 255
200 224 255
200 224 255
200 216 246
198 124 142
189 0 0
192 0 0
194 0 0
193 0 0
197 0 0
198 0 0
194 0 0
199 0 0
193 0 0
198 0 0
199 0 0
199 0 0
200 0 0
198 0 0
196 0 0
196 0 0
201 0 0
193 0 0
198 0 0
200 0 0
198 0 0
200 0 0
203 0 0
202 0 0
202 0 0
198 0 0
207 0 0
199 0 0
199 0 0
201 0 0
199 0 0
206 0 0
201 0 0
206 0 0
200 0 0
205 0 0
202 0 0
200 0 0
202 0 0
206 0 0
203 0 0
205 0 0
203 0 0
203 0 0
205 0 0
205 0 0
209 0 0
209 0 0
205 0 0
208 0 0
205 0 0
205 0 0
207 0 0
206 0 0
205 0 0
204 0 0
208 0 0
207 0 0
206 0 0
207 0 0
211 0 0
210 0 0
209 0 0
209 0 0
211 0 0
207 0 0
205 0 0
209 0 0
206 0 0
208 0 0
208 0 0
207 0 0
211 0 0
212 0 0
205 0 0
208 0 0
211 0 0
211 0 0
203 0 0
209 0 0
212 0 0
209 0 0
210 0 0
206 0 0
211 0 0
206 0 0
208 0 0
210 0 0
205 0 0
204 0 0
206 0 0
211 0 0
208 0 0
209 0 0
212 0 0
211 0 0
211 0 0
211 0 0
211 0 0
211 0 0
210 0 0
209 0 0
207 0 0
215 0 0
211 0 0
210 0 0
211 0 0
210 0 0
209 0 0
209 0 0
210 0 0
209 0 0
210 0 0
209 0 0
211 0 0
213 0 0
214 0 0
213 0 0
211 0 0
211 0 0
209 0 0
208 0 0
209 0 0
211 0 0
211 0 0
208 0 0
209 0 0
213 0 0
213 0 0
208 0 0
211 0 0
212 0 0
210 0 0
211 0 0
207 0 0
212 0 0
209 0 0
216 0 0
212 0 0
208 0 0
212 0 0
211 0 0
213 0 0
212 0 0
213 0 0
211 0 0
213 0 0
215 0 0
212 0 0
211 0 0
211 0 0
217 0 0
0 0 255
0 0 255
0 0 255
0 0 255
0 0 255
0 0 255
0 0 255
0 0 255
0 0 255
0 0 254
0 0 255
0 0 255
0 0 253
0 0 255
0 0 254
0 0 254
0 0 255
0 0 255
0 0 255
0 0 255
0 0 255
0 0 255
0 0 255
0 0 255
0 0 253
0 0 255
0 0 252
0 0 253
0 0 255
0 0 254
0 0 250
0 0 255
0 0 255
0 0 254
0 0 254
0 0 253
0 0 255
0 0 255
0 0 255
0 0 254
0 0 253
0 0 255
0 0 255
0 0 254
0 0 255
0 0 253
0 0 254
0 0 249
0 0 255
0 0 255
0 0 255
0 0 253
0 0 253
0 0 254
0 0 254
0 0 253
0 0 252
0 0 254
0 0 254
0 0 255
0 0 255
0 0 255
0 0 253
0 0 253
0 0 254
0 0 253
0 0 253
0 0 252
0 0 254
0 0 253
0 0 255
0 0 250
0 0 254
0 0 255
0 0 254
0 0 253
0 0 250
0 0 250
0 0 252
0 0 254
0 0 254
0 0 252
0 0 255
0 0 255
0 0 254
0 0 254
0 0 254
0 0 254
0 0 253
0 0 253
0 0 254
0 0 253
0 0 252
0 0 255
0 0 253
0 0 253
0 0 253
0 0 253
0 0 250
0 0 255
0 0 248
0 0 252
0 0 252
0 0 248
0 0 248
0 0 253
0 0 254
0 0 254
0 0 252
0 0 250
0 0 249
0 0 248
0 0 250
0 0 250
0 0 252
0 0 252
0 0 248
0 0 253
0 0 246
0 0 253
0 0 252
0 0 249
0 0 253
0 0 250
0 0 245
0 0 252
0 0 252
0 0 246
0 0 252
0 0 250
0 0 244
0 0 252
0 0 245
0 0 250
0 0 252
0 0 249
0 0 242
0 0 246
0 0 249
0 0 248
0 0 249
0 0 246
0 0 248
0 0 246
0 0 252
0 0 246
0 0 246
0 0 248
0 0 248
0 0 248
0 0 246
0 0 241
0 0 252
63 70 253
167 187 253
200 224 255
200 224 255
200 224 255
200 224 255
200 224 255
200 224 255
200 224 255
200 224 255
200 224 255
200 224 255
200 224 255
200 224 255
199 224 255
199 224 255
199 224 255
199 224 255
199 223 255
199 223 255
199 223 255
199 223 255
199 223 255
199 223 255
199 223 255
199 223 255
199 223 255
199 223 255
199 223 255
199 223 255
199 223 255
199 223 255
199 223 255
199 223 255
199 223 255
199 223 255
199 223 255
199 223 255
199 223 255
199 223 255
199 223 255
199 223 255
199 223 255
199 223 255
199 223 255
199 223 255
199 223 255
199 223 255
199 223 255
199 223 255
199 223 255
199 223 255
199 223 255
199 223 255
199 223 255
199 223 255
199 223 255
199 223 255
199 223 255
199 223 255
199 223 255
199 223 255
199 223 255
199 223 255
199 223 255
199 223 255
199 223 255
199 223 255
199 223 255
199 223 255
199 223 255
199 223 255
199 223 255
199 223 255
199 223 255
199 223 255
199 224 255
199 224 255
199 224 255
199 224 255
200 224 255
200 224 255
200 224 255
200 224 255
200 224 255
200 224 255
200 224 255
200 224 255
200 224 255
200 224 255
200 224 255
200 224 255
197 189 215
197 59 67
187 0 0
189 0 0
194 0 0
194 0 0
197 0 0
193 0 0
197 0 0
196 0 0
198 0 0
201 0 0
194 0 0
194 0 0
199 0 0
200 0 0
200 0 0
195 0 0
196 0 0
201 0 0
197 0 0
200 0 0
206 0 0
203 0 0
202 0 0
205 0 0
204 0 0
200 0 0
199 0 0
200 0 0
206 0 0
206 0 0
200 0 0
205 0 0
204 0 0
204 0 0
197 0 0
203 0 0
204 0 0
202 0 0
204 0 0
206 0 0
204 0 0
207 0 0
205 0 0
205 0 0
200 0 0
208 0 0
201 0 0
207 0 0
203 0 0
207 0 0
204 0 0
207 0 0
206 0 0
208 0 0
202 0 0
201 0 0
211 0 0
209 0 0
206 0 0
209 0 0
208 0 0
201 0 0
209 0 0
203 0 0
206 0 0
210 0 0
213 0 0
205 0 0
210 0 0
209 0 0
209 0 0
209 0 0
209 0 0
207 0 0
207 0 0
207 0 0
206 0 0
207 0 0
210 0 0
210 0 0
208 0 0
211 0 0
206 0 0
210 0 0
209 0 0
211 0 0
210 0 0
209 0 0
212 0 0
208 0 0
209 0 0
211 0 0
206 0 0
210 0 0
214 0 0
212 0 0
212 0 0
209 0 0
209 0 0
211 0 0
210 0 0
209 0 0
213 0 0
210 0 0
213 0 0
212 0 0
209 0 0
206 0 0
214 0 0
213 0 0
212 0 0
209 0 0
209 0 0
213 0 0
209 0 0
209 0 0
211 0 0
212 0 0
213 0 0
209 0 0
213 0 0
210 0 0
212 0 0
211 0 0
212 0 0
211 0 0
210 0 0
213 0 0
212 0 0
212 0 0
211 0 0
212 0 0
211 0 0
210 0 0
212 0 0
213 0 0
212 0 0
212 0 0
213 0 0
213 0 0
213 0 0
214 0 0
213 0 0
211 0 0
208 0 0
213 0 0
213 0 0
214 0 0
213 0 0
212 0 0
210 0 0
211 0 0
214 0 0
0 0 255
0 0 255
0 0 255
0 0 255
0 0 255
0 0 255
0 0 255
0 0 255
0 0 255
0 0 255
0 0 255
0 0 255
0 0 255
0 0 255
0 0 255
0 0 255
0 0 254
0 0 255
0 0 254
0 0 255
0 0 255
0 0 255
0 0 255
0 0 254
0 0 255
0 0 254
0 0 254
0 0 254
0 0 254
0 0 255
0 0 254
0 0 255
0 0 255
0 0 254
0 0 253
0 0 255
0 0 254
0 0 255
0 0 254
0 0 255
0 0 253
0 0 255
0 0 254
0 0 252
0 0 254
0 0 255
0 0 254
0 0 255
0 0 254
0 0 254
0 0 254
0 0 255
0 0 253
0 0 250
0 0 255
0 0 255
0 0 254
0 0 253
0 0 253
0 0 255
0 0 254
0 0 254
0 0 255
0 0 253
0 0 253
0 0 254
0 0 253
0 0 255
0 0 255
0 0 253
0 0 252
0 0 255
0 0 254
0 0 253
0 0 254
0 0 254
0 0 254
0 0 254
0 0 254
0 0 253
0 0 253
0 0 250
0 0 250
0 0 252
0 0 250
0 0 250
0 0 254
0 0 252
0 0 254
0 0 252
0 0 253
0 0 253
0 0 252
0 0 253
0 0 249
0 0 254
0 0 253
0 0 250
0 0 250
0 0 253
0 0 253
0 0 252
0 0 250
0 0 248
0 0 253
0 0 252
0 0 254
0 0 252
0 0 252
0 0 250
0 0 250
0 0 249
0 0 254
0 0 249
0 0 252
0 0 250
0 0 249
0 0 253
0 0 250
0 0 252
0 0 246
0 0 244
0 0 250
0 0 250
0 0 249
0 0 253
0 0 254
0 0 252
0 0 253
0 0 253
0 0 249
0 0 246
0 0 250
0 0 250
0 0 252
0 0 246
0 0 248
0 0 248
0 0 246
0 0 250
0 0 248
0 0 246
0 0 238
0 0 245
0 0 240
0 0 249
0 0 242
0 0 248
0 0 244
0 0 245
0 0 249
0 0 249
0 0 248
0 0 249
20 22 252
128 143 253
198 222 254
200 224 255
200 224 255
200 224 255
200 224 255
200 224 255
200 224 255
200 224 255
200 224 255
200 224 255
200 224 255
200 224 255
200 224 255
200 224 255
200 224 255
200 224 255
199 224 255
199 224 255
199 224 255
199 224 255
199 224 255
199 224 255
199 223 255
199 223 255
199 223 255
199 223 255
199 223 255
199 223 255
199 223 255
199 223 255
199 223 255
199 223 255
199 223 255
199 223 255
199 223 255
199 223 255
199 223 255
199 223 255
199 223 255
199 223 255
199 223 255
199 223 255
199 223 255
199 223 255
199 223 255
199 223 255
199 223 255
199 223 255
199 223 255
199 223 255
199 223 255
199 223 255
199 223 255
199 223 255
199 223 255
199 223 255
199 223 255
199 223 255
199 223 255
199 223 255
199 223 255
199 223 255
199 223 255
199 223 255
199 223 255
199 223 255
199 224 255
199 224 255
199 224 255
199 224 255
199 224 255
199 224 255
200 224 255
200 224 255
200 224 255
200 224 255
200 224 255
200 224 255
200 224 255
200 224 255
200 224 255
200 224 255
200 224 255
200 224 255
200 224 255
200 224 255
200 224 255
199 222 253
200 155 177
192 22 25
187 0 0
198 0 0
195 0 0
190 0 0
200 0 0
197 0 0
201 0 0
200 0 0
201 0 0
195 0 0
200 0 0
198 0 0
200 0 0
196 0 0
196 0 0
196 0 0
199 0 0
199 0 0
198 0 0
196 0 0
200 0 0
200 0 0
202 0 0
197 0 0
201 0 0
202 0 0
200 0 0
202 0 0
207 0 0
200 0 0
201 0 0
207 0 0
207 0 0
203 0 0
209 0 0
197 0 0
207 0 0
205 0 0
207 0 0
203 0 0
201 0 0
206 0 0
198 0 0
210 0 0
202 0 0
206 0 0
207 0 0
202 0 0
208 0 0
207 0 0
205 0 0
211 0 0
202 0 0
206 0 0
208 0 0
208 0 0
211 0 0
211 0 0
207 0 0
204 0 0
207 0 0
215 0 0
205 0 0
208 0 0
212 0 0
211 0 0
210 0 0
206 0 0
212 0 0
209 0 0
210 0 0
209 0 0
210 0 0
213 0 0
204 0 0
211 0 0
210 0 0
211 0 0
208 0 0
209 0 0
207 0 0
209 0 0
211 0 0
206 0 0
209 0 0
208 0 0
211 0 0
214 0 0
211 0 0
206 0 0
211 0 0
211 0 0
211 0 0
208 0 0
211 0 0
210 0 0
215 0 0
214 0 0
207 0 0
208 0 0
212 0 0
210 0 0
211 0 0
209 0 0
212 0 0
211 0 0
211 0 0
208 0 0
211 0 0
210 0 0
213 0 0
210 0 0
211 0 0
210 0 0
215 0 0
210 0 0
211 0 0
212 0 0
214 0 0
213 0 0
210 0 0
212 0 0
211 0 0
211 0 0
211 0 0
211 0 0
207 0 0
212 0 0
209 0 0
211 0 0
214 0 0
217 0 0
212 0 0
210 0 0
212 0 0
216 0 0
216 0 0
212 0 0
214 0 0
211 0 0
212 0 0
213 0 0
209 0 0
211 0 0
213 0 0
212 0 0
209 0 0
214 0 0
209 0 0
210 0 0
211 0 0
212 0 0
214 0 0
216 0 0
0 0 255
0 0 255
0 0 255
0 0 255
0 0 255
0 0 254
0 0 255
0 0 255
0 0 255
0 0 255
0 0 255
0 0 254
0 0 255
0 0 254
0 0 255
0 0 255
0 0 254
0 0 255
0 0 255
0 0 255
0 0 255
0 0 254
0 0 255
0 0 255
0 0 255
0 0 255
0 0 254
0 0 255
0 0 255
0 0 254
0 0 255
0 0 255
0 0 255
0 0 254
0 0 254
0 0 254
0 0 255
0 0 254
0 0 255
0 0 255
0 0 253
0 0 254
0 0 253
0 0 253
0 0 254
0 0 252
0 0 255
0 0 254
0 0 255
0 0 253
0 0 254
0 0 253
0 0 255
0 0 253
0 0 255
0 0 255
0 0 255
0 0 253
0 0 253
0 0 253
0 0 254
0 0 252
0 0 255
0 0 253
0 0 255
0 0 254
0 0 253
0 0 254
0 0 253
0 0 255
0 0 255
0 0 254
0 0 252
0 0 253
0 0 253
0 0 252
0 0 254
0 0 254
0 0 248
0 0 254
0 0 255
0 0 254
0 0 254
0 0 250
0 0 255
0 0 248
0 0 252
0 0 254
0 0 254
0 0 254
0 0 253
0 0 246
0 0 254
0 0 252
0 0 252
0 0 253
0 0 252
0 0 250
0 0 252
0 0 253
0 0 252
0 0 254
0 0 253
0 0 249
0 0 246
0 0 253
0 0 248
0 0 249
0 0 253
0 0 253
0 0 253
0 0 250
0 0 249
0 0 250
0 0 249
0 0 255
0 0 253
0 0 253
0 0 248
0 0 250
0 0 249
0 0 249
0 0 248
0 0 242
0 0 246
0 0 250
0 0 249
0 0 249
0 0 248
0 0 254
0 0 248
0 0 244
0 0 252
0 0 250
0 0 250
0 0 248
0 0 242
0 0 244
0 0 246
0 0 252
0 0 249
0 0 249
0 0 240
0 0 242
0 0 246
0 0 246
0 0 250
0 0 246
0 0 246
0 0 250
0 0 244
0 0 242
0 0 242
0 0 245
0 0 238
0 0 244
96 107 244
187 209 254
200 224 255
200 224 255
200 224 255
200 224 255
200 224 255
200 224 255
200 224 255
200 224 255
200 224 255
200 224 255
200 224 255
200 224 255
200 224 255
200 224 255
200 224 255
200 224 255
200 224 255
200 224 255
200 224 255
200 224 255
200 224 255
200 224 255
199 224 255
199 224 255
199 224 255
199 224 255
199 224 255
199 224 255
199 224 255
199 223 255
199 223 255
199 223 255
199 223 255
199 223 255
199 223 255
199 223 255
199 223 255
199 223 255
199 223 255
199 223 255
199 223 255
199 223 255
199 223 255
199 223 255
199 223 255
199 223 255
199 223 255
199 223 255
199 223 255
199 223 255
199 223 255
199 223 255
199 223 255
199 223 255
199 223 255
199 224 255
199 224 255
199 224 255
199 224 255
199 224 255
199 224 255
199 224 255
200 224 255
200 224 255
200 224 255
200 224 255
200 224 255
200 224 255
200 224 255
200 224 255
200 224 255
200 224 255
200 224 255
200 224 255
200 224 255
200 224 255
200 224 255
200 224 255
200 224 255
200 224 255
200 224 255
200 224 255
200 224 255
200 224 255
198 210 240
197 107 122
193 0 0
194 0 0
191 0 0
196 0 0
196 0 0
192 0 0
198 0 0
198 0 0
200 0 0
198 0 0
195 0 0
200 0 0
194 0 0
191 0 0
195 0 0
205 0 0
203 0 0
196 0 0
197 0 0
199 0 0
199 0 0
200 0 0
202 0 0
201 0 0
202 0 0
195 0 0
200 0 0
202 0 0
197 0 0
202 0 0
204 0 0
206 0 0
208 0 0
204 0 0
200 0 0
206 0 0
204 0 0
206 0 0
206 0 0
200 0 0
207 0 0
201 0 0
204 0 0
204 0 0
207 0 0
208 0 0
206 0 0
207 0 0
208 0 0
204 0 0
206 0 0
207 0 0
201 0 0
203 0 0
209 0 0
205 0 0
205 0 0
207 0 0
210 0 0
205 0 0
207 0 0
206 0 0
205 0 0
206 0 0
207 0 0
205 0 0
206 0 0
202 0 0
206 0 0
213 0 0
209 0 0
206 0 0
206 0 0
209 0 0
208 0 0
208 0 0
206 0 0
208 0 0
212 0 0
210 0 0
206 0 0
208 0 0
206 0 0
207 0 0
211 0 0
208 0 0
213 0 0
209 0 0
210 0 0
210 0 0
214 0 0
207 0 0
213 0 0
213 0 0
206 0 0
210 0 0
213 0 0
208 0 0
209 0 0
214 0 0
211 0 0
209 0 0
216 0 0
211 0 0
209 0 0
213 0 0
210 0 0
211 0 0
209 0 0
212 0 0
212 0 0
209 0 0
213 0 0
211 0 0
210 0 0
212 0 0
214 0 0
215 0 0
209 0 0
212 0 0
214 0 0
210 0 0
211 0 0
210 0 0
213 0 0
211 0 0
212 0 0
211 0 0
212 0 0
211 0 0
213 0 0
212 0 0
214 0 0
214 0 0
211 0 0
215 0 0
215 0 0
214 0 0
209 0 0
211 0 0
211 0 0
217 0 0
211 0 0
215 0 0
215 0 0
213 0 0
210 0 0
211 0 0
212 0 0
212 0 0
211 0 0
211 0 0
212 0 0
216 0 0
210 0 0
213 0 0
0 0 255
0 0 255
0 0 255
0 0 255
0 0 254
0 0 255
0 0 254
0 0 255
0 0 255
0 0 253
0 0 255
0 0 254
0 0 255
0 0 255
0 0 255
0 0 255
0 0 254
0 0 254
0 0 253
0 0 255
0 0 254
0 0 254
0 0 255
0 0 255
0 0 255
0 0 254
0 0 255
0 0 255
0 0 255
0 0 255
0 0 255
0 0 255
0 0 255
0 0 255
0 0 255
0 0 254
0 0 254
0 0 255
0 0 255
0 0 255
0 0 255
0 0 254
0 0 254
0 0 253
0 0 255
0 0 255
0 0 254
0 0 253
0 0 253
0 0 254
0 0 253
0 0 254
0 0 253
0 0 254
0 0 254
0 0 253
0 0 253
0 0 254
0 0 253
0 0 255
0 0 254
0 0 254
0 0 255
0 0 254
0 0 254
0 0 253
0 0 252
0 0 255
0 0 255
0 0 253
0 0 254
0 0 253
0 0 254
0 0 254
0 0 249
0 0 254
0 0 253
0 0 253
0 0 252
0 0 253
0 0 254
0 0 249
0 0 254
0 0 252
0 0 249
0 0 254
0 0 254
0 0 253
0 0 255
0 0 255
0 0 252
0 0 250
0 0 250
0 0 252
0 0 252
0 0 250
0 0 246
0 0 254
0 0 246
0 0 253
0 0 254
0 0 250
0 0 253
0 0 249
0 0 250
0 0 254
0 0 254
0 0 248
0 0 254
0 0 254
0 0 252
0 0 250
0 0 249
0 0 249
0 0 253
0 0 248
0 0 250
0 0 252
0 0 249
0 0 250
0 0 248
0 0 249
0 0 253
0 0 250
0 0 249
0 0 246
0 0 249
0 0 246
0 0 250
0 0 252
0 0 249
0 0 246
0 0 248
0 0 249
0 0 248
0 0 246
0 0 244
0 0 245
0 0 246
0 0 242
0 0 237
0 0 246
0 0 249
0 0 248
0 0 241
0 0 241
0 0 249
0 0 242
0 0 248
0 0 245
0 0 238
0 0 242
0 0 245
0 0 245
0 0 242
0 0 245
0 0 248
66 74 248
159 178 253
200 224 255
200 224 255
200 224 255
200 224 255
200 224 255
200 224 255
200 224 255
200 224 255
200 224 255
200 224 255
200 224 255
200 224 255
200 224 255
200 224 255
200 224 255
200 224 255
200 224 255
200 224 255
200 224 255
200 224 255
200 224 255
200 224 255
200 224 255
200 224 255
200 224 255
200 224 255
200 224 255
200 224 255
200 224 255
200 224 255
200 224 255
200 224 255
199 224 255
199 224 255
199 224 255
199 224 255
199 224 255
199 224 255
199 224 255
199 224 255
199 224 255
199 224 255
199 224 255
199 224 255
199 224 255
199 224 255
199 224 255
199 224 255
199 224 255
199 224 255
199 224 255
200 224 255
200 224 255
200 224 255
200 224 255
200 224 255
200 224 255
200 224 255
200 224 255
200 224 255
200 224 255
200 224 255
200 224 255
200 224 255
200 224 255
200 224 255
200 224 255
200 224 255
200 224 255
200 224 255
200 224 255
200 224 255
200 224 255
200 224 255
200 224 255
200 224 255
200 224 255
200 224 255
200 224 255
200 224 255
200 224 255
200 224 255
199 199 227
197 63 72
195 0 0
194 0 0
199 0 0
197 0 0
197 0 0
192 0 0
193 0 0
198 0 0
196 0 0
195 0 0
198 0 0
197 0 0
201 0 0
198 0 0
200 0 0
200 0 0
196 0 0
200 0 0
200 0 0
197 0 0
199 0 0
201 0 0
199 0 0
200 0 0
200 0 0
205 0 0
204 0 0
204 0 0
199 0 0
203 0 0
206 0 0
203 0 0
199 0 0
206 0 0
206 0 0
206 0 0
202 0 0
201 0 0
201 0 0
207 0 0
202 0 0
204 0 0
202 0 0
200 0 0
206 0 0
207 0 0
204 0 0
204 0 0
206 0 0
205 0 0
206 0 0
207 0 0
210 0 0
209 0 0
209 0 0
208 0 0
209 0 0
210 0 0
207 0 0
202 0 0
215 0 0
205 0 0
206 0 0
208 0 0
202 0 0
209 0 0
209 0 0
203 0 0
206 0 0
205 0 0
208 0 0
212 0 0
205 0 0
205 0 0
209 0 0
211 0 0
205 0 0
207 0 0
207 0 0
211 0 0
211 0 0
209 0 0
209 0 0
213 0 0
209 0 0
213 0 0
206 0 0
205 0 0
214 0 0
214 0 0
206 0 0
207 0 0
213 0 0
209 0 0
206 0 0
208 0 0
210 0 0
209 0 0
207 0 0
213 0 0
211 0 0
210 0 0
206 0 0
211 0 0
209 0 0
210 0 0
213 0 0
211 0 0
212 0 0
214 0 0
211 0 0
212 0 0
209 0 0
211 0 0
217 0 0
211 0 0
209 0 0
212 0 0
216 0 0
212 0 0
212 0 0
212 0 0
211 0 0
209 0 0
214 0 0
213 0 0
213 0 0
214 0 0
209 0 0
215 0 0
212 0 0
209 0 0
211 0 0
207 0 0
214 0 0
212 0 0
210 0 0
211 0 0
212 0 0
216 0 0
215 0 0
214 0 0
213 0 0
213 0 0
212 0 0
213 0 0
211 0 0
214 0 0
213 0 0
213 0 0
212 0 0
212 0 0
214 0 0
213 0 0
211 0 0
216 0 0
212 0 0
0 0 254
0 0 255
0 0 255
0 0 255
0 0 255
0 0 255
0 0 255
0 0 255
0 0 255
0 0 255
0 0 255
0 0 255
0 0 255
0 0 255
0 0 255
0 0 255
0 0 255
0 0 255
0 0 255
0 0 255
0 0 255
0 0 254
0 0 255
0 0 255
0 0 255
0 0 255
0 0 254
0 0 255
0 0 254
0 0 255
0 0 254
0 0 253
0 0 254
0 0 254
0 0 254
0 0 254
0 0 254
0 0 254
0 0 253
0 0 253
0 0 255
0 0 253
0 0 255
0 0 254
0 0 254
0 0 255
0 0 254
0 0 255
0 0 253
0 0 254
0 0 255
0 0 250
0 0 255
0 0 253
0 0 252
0 0 255
0 0 253
0 0 253
0 0 254
0 0 254
0 0 254
0 0 255
0 0 253
0 0 252
0 0 254
0 0 252
0 0 252
0 0 254
0 0 255
0 0 253
0 0 252
0 0 253
0 0 255
0 0 253
0 0 252
0 0 254
0 0 254
0 0 254
0 0 250
0 0 253
0 0 253
0 0 253
0 0 254
0 0 254
0 0 248
0 0 255
0 0 250
0 0 253
0 0 254
0 0 249
0 0 254
0 0 250
0 0 253
0 0 253
0 0 254
0 0 250
0 0 250
0 0 252
0 0 249
0 0 250
0 0 252
0 0 252
0 0 253
0 0 246
0 0 252
0 0 252
0 0 250
0 0 253
0 0 248
0 0 253
0 0 253
0 0 244
0 0 250
0 0 249
0 0 252
0 0 250
0 0 250
0 0 250
0 0 246
0 0 252
0 0 250
0 0 246
0 0 252
0 0 249
0 0 242
0 0 250
0 0 244
0 0 244
0 0 244
0 0 253
0 0 249
0 0 250
0 0 248
0 0 244
0 0 250
0 0 250
0 0 248
0 0 238
0 0 253
0 0 253
0 0 249
0 0 242
0 0 248
0 0 250
0 0 248
0 0 248
0 0 241
0 0 244
0 0 246
0 0 242
0 0 244
0 0 246
0 0 245
0 0 245
0 0 246
0 0 237
0 0 245
0 0 252
0 0 241
144 162 249
201 224 255
201 224 255
200 224 255
200 224 255
200 224 255
200 224 255
200 224 255
200 224 255
200 224 255
200 224 255
200 224 255
200 224 255
200 224 255
200 224 255
200 224 255
200 224 255
200 224 255
200 224 255
200 224 255
200 224 255
200 224 255
200 224 255
200 224 255
200 224 255
200 224 255
200 224 255
200 224 255
200 224 255
200 224 255
200 224 255
200 224 255
200 224 255
200 224 255
200 224 255
200 224 255
200 224 255
200 224 255
200 224 255
200 224 255
200 224 255
200 224 255
200 224 255
200 224 255
200 224 255
200 224 255
200 224 255
200 224 255
200 224 255
200 224 255
200 224 255
200 224 255
200 224 255
200 224 255
200 224 255
200 224 255
200 224 255
200 224 255
200 224 255
200 224 255
200 224 255
200 224 255
200 224 255
200 224 255
200 224 255
200 224 255
200 224 255
200 224 255
200 224 255
200 224 255
200 224 255
200 224 255
200 224 255
200 224 255
200 224 255
200 224 255
200 224 255
200 224 255
200 224 255
201 224 255
201 224 255
199 162 184
197 22 25
190 0 0
191 0 0
195 0 0
197 0 0
196 0 0
199 0 0
201 0 0
194 0 0
197 0 0
196 0 0
196 0 0
198 0 0
193 0 0
197 0 0
195 0 0
197 0 0
199 0 0
198 0 0
198 0 0
195 0 0
202 0 0
200 0 0
206 0 0
198 0 0
201 0 0
199 0 0
199 0 0
200 0 0
202 0 0
203 0 0
205 0 0
204 0 0
207 0 0
205 0 0
207 0 0
201 0 0
200 0 0
196 0 0
202 0 0
202 0 0
205 0 0
202 0 0
202 0 0
201 0 0
206 0 0
205 0 0
208 0 0
204 0 0
206 0 0
207 0 0
207 0 0
209 0 0
203 0 0
205 0 0
206 0 0
206 0 0
203 0 0
210 0 0
208 0 0
205 0 0
210 0 0
205 0 0
201 0 0
209 0 0
208 0 0
204 0 0
208 0 0
208 0 0
208 0 0
208 0 0
202 0 0
207 0 0
208 0 0
212 0 0
210 0 0
209 0 0
206 0 0
211 0 0
213 0 0
213 0 0
205 0 0
210 0 0
206 0 0
203 0 0
207 0 0
205 0 0
212 0 0
211 0 0
209 0 0
208 0 0
210 0 0
208 0 0
210 0 0
208 0 0
207 0 0
207 0 0
213 0 0
208 0 0
212 0 0
213 0 0
209 0 0
210 0 0
211 0 0
211 0 0
213 0 0
212 0 0
213 0 0
210 0 0
210 0 0
212 0 0
209 0 0
213 0 0
212 0 0
211 0 0
213 0 0
209 0 0
212 0 0
212 0 0
216 0 0
213 0 0
213 0 0
211 0 0
210 0 0
212 0 0
214 0 0
214 0 0
210 0 0
212 0 0
210 0 0
212 0 0
210 0 0
209 0 0
210 0 0
217 0 0
212 0 0
212 0 0
212 0 0
210 0 0
215 0 0
211 0 0
214 0 0
213 0 0
211 0 0
212 0 0
213 0 0
216 0 0
210 0 0
211 0 0
215 0 0
209 0 0
212 0 0
213 0 0
211 0 0
213 0 0
212 0 0
213 0 0
212 0 0
211 0 0
0 0 254
0 0 255
0 0 255
0 0 255
0 0 255
0 0 255
0 0 255
0 0 255
0 0 255
0 0 254
0 0 255
0 0 255
0 0 254
0 0 255
0 0 255
0 0 254
0 0 255
0 0 255
0 0 253
0 0 254
0 0 254
0 0 255
0 0 255
0 0 254
0 0 253
0 0 255
0 0 254
0 0 255
0 0 255
0 0 255
0 0 255
0 0 255
0 0 254
0 0 255
0 0 255
0 0 255
0 0 255
0 0 255
0 0 252
0 0 255
0 0 254
0 0 254
0 0 255
0 0 254
0 0 253
0 0 254
0 0 253
0 0 255
0 0 253
0 0 255
0 0 252
0 0 253
0 0 253
0 0 254
0 0 253
0 0 253
0 0 252
0 0 254
0 0 254
0 0 253
0 0 255
0 0 252
0 0 254
0 0 253
0 0 253
0 0 255
0 0 255
0 0 253
0 0 253
0 0 253
0 0 254
0 0 253
0 0 254
0 0 253
0 0 253
0 0 255
0 0 253
0 0 253
0 0 254
0 0 249
0 0 252
0 0 253
0 0 253
0 0 252
0 0 252
0 0 250
0 0 253
0 0 252
0 0 253
0 0 254
0 0 250
0 0 253
0 0 254
0 0 254
0 0 250
0 0 253
0 0 252
0 0 252
0 0 255
0 0 250
0 0 254
0 0 248
0 0 250
0 0 252
0 0 248
0 0 249
0 0 254
0 0 253
0 0 253
0 0 250
0 0 253
0 0 248
0 0 248
0 0 252
0 0 248
0 0 245
0 0 250
0 0 252
0 0 254
0 0 250
0 0 245
0 0 252
0 0 253
0 0 252
0 0 253
0 0 250
0 0 250
0 0 248
0 0 249
0 0 252
0 0 252
0 0 246
0 0 242
0 0 252
0 0 242
0 0 248
0 0 242
0 0 244
0 0 250
0 0 248
0 0 248
0 0 241
0 0 238
0 0 248
0 0 236
0 0 246
0 0 242
0 0 246
0 0 241
0 0 241
0 0 241
0 0 237
0 0 241
0 0 246
0 0 240
0 0 240
0 0 248
0 0 249
0 0 242
0 0 241
102 114 249
195 217 255
201 224 255
201 224 255
201 224 255
201 224 255
201 224 255
201 224 255
200 224 255
200 224 255
200 224 255
200 224 255
200 224 255
200 224 255
200 224 255
200 224 255
200 224 255
200 224 255
200 224 255
200 224 255
200 224 255
200 224 255
200 224 255
200 224 255
200 224 255
200 224 255
200 224 255
200 224 255
200 224 255
200 224 255
200 224 255
200 224 255
200 224 255
200 224 255
200 224 255
200 224 255
200 224 255
200 224 255
200 224 255
200 224 255
200 224 255
200 224 255
200 224 255
200 224 255
200 224 255
200 224 255
200 224 255
200 224 255
200 224 255
200 224 255
200 224 255
200 224 255
200 224 255
200 224 255
200 224 255
200 224 255
200 224 255
200 224 255
200 224 255
200 224 255
200 224 255
200 224 255
200 224 255
200 224 255
200 224 255
200 224 255
200 224 255
200 224 255
200 224 255
200 224 255
200 224 255
200 224 255
200 224 255
201 224 255
201 224 255
201 224 255
201 224 255
201 224 255
201 220 250
197 132 151
193 0 0
195 0 0
193 0 0
191 0 0
195 0 0
186 0 0
199 0 0
190 0 0
190 0 0
193 0 0
196 0 0
194 0 0
201 0 0
194 0 0
197 0 0
203 0 0
202 0 0
197 0 0
201 0 0
193 0 0
190 0 0
200 0 0
199 0 0
203 0 0
199 0 0
202 0 0
199 0 0
205 0 0
201 0 0
200 0 0
209 0 0
204 0 0
205 0 0
200 0 0
199 0 0
202 0 0
203 0 0
201 0 0
203 0 0
201 0 0
202 0 0
202 0 0
204 0 0
207 0 0
208 0 0
207 0 0
209 0 0
208 0 0
207 0 0
208 0 0
208 0 0
199 0 0
207 0 0
204 0 0
205 0 0
204 0 0
208 0 0
208 0 0
207 0 0
205 0 0
205 0 0
203 0 0
209 0 0
211 0 0
209 0 0
206 0 0
208 0 0
208 0 0
209 0 0
213 0 0
210 0 0
207 0 0
209 0 0
210 0 0
210 0 0
209 0 0
207 0 0
213 0 0
210 0 0
213 0 0
205 0 0
210 0 0
211 0 0
209 0 0
213 0 0
214 0 0
209 0 0
210 0 0
209 0 0
209 0 0
214 0 0
208 0 0
211 0 0
208 0 0
206 0 0
210 0 0
213 0 0
212 0 0
209 0 0
209 0 0
210 0 0
210 0 0
210 0 0
213 0 0
213 0 0
207 0 0
216 0 0
212 0 0
213 0 0
208 0 0
217 0 0
210 0 0
212 0 0
211 0 0
214 0 0
213 0 0
209 0 0
209 0 0
210 0 0
211 0 0
213 0 0
210 0 0
210 0 0
209 0 0
214 0 0
212 0 0
211 0 0
213 0 0
213 0 0
213 0 0
211 0 0
214 0 0
214 0 0
211 0 0
214 0 0
211 0 0
209 0 0
212 0 0
208 0 0
215 0 0
214 0 0
212 0 0
211 0 0
212 0 0
213 0 0
213 0 0
212 0 0
211 0 0
212 0 0
214 0 0
213 0 0
213 0 0
215 0 0
214 0 0
212 0 0
212 0 0
209 0 0
214 0 0
213 0 0
214 0 0
0 0 255
0 0 255
0 0 255
0 0 255
0 0 255
0 0 255
0 0 253
0 0 255
0 0 254
0 0 255
0 0 254
0 0 255
0 0 255
0 0 254
0 0 255
0 0 255
0 0 254
0 0 255
0 0 255
0 0 255
0 0 255
0 0 254
0 0 254
0 0 254
0 0 254
0 0 253
0 0 255
0 0 254
0 0 254
0 0 253
0 0 254
0 0 254
0 0 255
0 0 255
0 0 254
0 0 254
0 0 255
0 0 255
0 0 253
0 0 252
0 0 254
0 0 255
0 0 255
0 0 255
0 0 253
0 0 254
0 0 253
0 0 253
0 0 254
0 0 254
0 0 255
0 0 254
0 0 253
0 0 253
0 0 253
0 0 253
0 0 254
0 0 254
0 0 250
0 0 254
0 0 254
0 0 253
0 0 253
0 0 253
0 0 254
0 0 253
0 0 253
0 0 254
0 0 253
0 0 255
0 0 255
0 0 250
0 0 252
0 0 254
0 0 250
0 0 254
0 0 250
0 0 254
0 0 249
0 0 254
0 0 253
0 0 255
0 0 252
0 0 250
0 0 254
0 0 252
0 0 253
0 0 246
0 0 252
0 0 253
0 0 255
0 0 254
0 0 253
0 0 254
0 0 255
0 0 254
0 0 252
0 0 249
0 0 249
0 0 250
0 0 253
0 0 249
0 0 246
0 0 242
0 0 245
0 0 244
0 0 253
0 0 249
0 0 250
0 0 253
0 0 252
0 0 250
0 0 253
0 0 248
0 0 246
0 0 255
0 0 246
0 0 253
0 0 245
0 0 246
0 0 253
0 0 246
0 0 252
0 0 248
0 0 250
0 0 242
0 0 248
0 0 250
0 0 249
0 0 248
0 0 248
0 0 246
0 0 238
0 0 242
0 0 252
0 0 244
0 0 242
0 0 249
0 0 246
0 0 250
0 0 241
0 0 245
0 0 240
0 0 246
0 0 246
0 0 244
0 0 240
0 0 238
0 0 245
0 0 249
0 0 246
0 0 237
0 0 244
0 0 245
0 0 231
0 0 237
0 0 248
0 0 240
0 0 249
0 0 246
0 0 241
75 84 246
193 215 253
201 224 255
201 224 255
201 224 255
201 224 255
201 224 255
201 224 255
201 224 255
201 224 255
201 224 255
201 224 255
201 224 255
200 224 255
200 224 255
200 224 255
200 224 255
200 224 255
200 224 255
200 224 255
200 224 255
200 224 255
200 224 255
200 224 255
200 224 255
200 224 255
200 224 255
200 224 255
200 224 255
200 224 255
200 224 255
200 224 255
200 224 255
200 224 255
200 224 255
200 224 255
200 224 255
200 224 255
200 224 255
200 224 255
200 224 255
200 224 255
200 224 255
200 224 255
200 224 255
200 224 255
200 224 255
200 224 255
200 224 255
200 224 255
200 224 255
200 224 255
200 224 255
200 224 255
200 224 255
200 224 255
200 224 255
200 224 255
200 224 255
200 224 255
200 224 255
200 224 255
200 224 255
200 224 255
200 224 255
201 224 255
201 224 255
201 224 255
201 224 255
201 224 255
201 224 255
201 224 255
201 224 255
201 224 255
201 224 255
201 224 255
201 214 244
196 84 95
195 0 0
192 0 0
190 0 0
193 0 0
189 0 0
195 0 0
194 0 0
194 0 0
192 0 0
202 0 0
196 0 0
194 0 0
197 0 0
195 0 0
197 0 0
200 0 0
200 0 0
194 0 0
198 0 0
199 0 0
200 0 0
201 0 0
202 0 0
196 0 0
199 0 0
198 0 0
201 0 0
203 0 0
201 0 0
195 0 0
201 0 0
200 0 0
205 0 0
204 0 0
202 0 0
200 0 0
206 0 0
205 0 0
199 0 0
201 0 0
197 0 0
203 0 0
203 0 0
205 0 0
203 0 0
201 0 0
206 0 0
208 0 0
202 0 0
204 0 0
202 0 0
203 0 0
206 0 0
205 0 0
209 0 0
205 0 0
203 0 0
208 0 0
204 0 0
205 0 0
209 0 0
206 0 0
202 0 0
209 0 0
212 0 0
212 0 0
204 0 0
205 0 0
205 0 0
207 0 0
209 0 0
213 0 0
210 0 0
209 0 0
209 0 0
203 0 0
210 0 0
213 0 0
208 0 0
211 0 0
214 0 0
210 0 0
209 0 0
210 0 0
212 0 0
208 0 0
214 0 0
207 0 0
211 0 0
211 0 0
206 0 0
214 0 0
217 0 0
208 0 0
210 0 0
211 0 0
211 0 0
209 0 0
210 0 0
211 0 0
210 0 0
211 0 0
211 0 0
213 0 0
210 0 0
212 0 0
213 0 0
209 0 0
210 0 0
211 0 0
212 0 0
212 0 0
211 0 0
211 0 0
210 0 0
214 0 0
212 0 0
211 0 0
214 0 0
212 0 0
215 0 0
213 0 0
211 0 0
213 0 0
209 0 0
214 0 0
211 0 0
213 0 0
212 0 0
214 0 0
215 0 0
211 0 0
212 0 0
212 0 0
209 0 0
213 0 0
215 0 0
215 0 0
211 0 0
213 0 0
213 0 0
211 0 0
212 0 0
215 0 0
213 0 0
216 0 0
212 0 0
214 0 0
212 0 0
213 0 0
211 0 0
214 0 0
211 0 0
213 0 0
211 0 0
209 0 0
214 0 0
212 0 0
213 0 0
212 0 0
213 0 0
0 0 255
0 0 255
0 0 255
0 0 255
0 0 255
0 0 255
0 0 255
0 0 255
0 0 254
0 0 255
0 0 255
0 0 255
0 0 255
0 0 255
0 0 255
0 0 255
0 0 255
0 0 255
0 0 255
0 0 254
0 0 255
0 0 254
0 0 255
0 0 255
0 0 255
0 0 255
0 0 253
0 0 254
0 0 253
0 0 255
0 0 254
0 0 255
0 0 254
0 0 255
0 0 255
0 0 254
0 0 253
0 0 255
0 0 254
0 0 254
0 0 255
0 0 255
0 0 252
0 0 253
0 0 255
0 0 254
0 0 255
0 0 250
0 0 255
0 0 253
0 0 255
0 0 253
0 0 254
0 0 253
0 0 254
0 0 252
0 0 255
0 0 254
0 0 252
0 0 255
0 0 254
0 0 254
0 0 253
0 0 254
0 0 255
0 0 254
0 0 254
0 0 254
0 0 254
0 0 255
0 0 255
0 0 252
0 0 254
0 0 252
0 0 253
0 0 253
0 0 252
0 0 252
0 0 252
0 0 250
0 0 254
0 0 253
0 0 254
0 0 249
0 0 252
0 0 254
0 0 253
0 0 250
0 0 253
0 0 250
0 0 254
0 0 250
0 0 250
0 0 254
0 0 252
0 0 249
0 0 253
0 0 252
0 0 253
0 0 255
0 0 253
0 0 253
0 0 248
0 0 246
0 0 253
0 0 249
0 0 253
0 0 250
0 0 250
0 0 252
0 0 252
0 0 242
0 0 254
0 0 253
0 0 253
0 0 249
0 0 249
0 0 248
0 0 248
0 0 246
0 0 252
0 0 245
0 0 244
0 0 253
0 0 249
0 0 250
0 0 253
0 0 245
0 0 246
0 0 242
0 0 244
0 0 250
0 0 248
0 0 248
0 0 253
0 0 249
0 0 246
0 0 248
0 0 244
0 0 246
0 0 249
0 0 245
0 0 248
0 0 246
0 0 242
0 0 245
0 0 244
0 0 242
0 0 241
0 0 238
0 0 241
0 0 242
0 0 242
0 0 241
0 0 240
0 0 242
0 0 236
0 0 240
0 0 238
0 0 242
0 0 241
0 0 246
45 50 244
179 199 254
201 224 255
201 224 255
201 224 255
201 224 255
201 224 255
201 224 255
201 224 255
201 224 255
201 224 255
201 224 255
201 224 255
201 224 255
201 224 255
201 224 255
201 224 255
201 224 255
201 224 255
201 224 255
200 224 255
200 224 255
200 224 255
200 224 255
200 224 255
200 224 255
200 224 255
200 224 255
200 224 255
200 224 255
200 224 255
200 224 255
200 224 255
200 224 255
200 224 255
200 224 255
200 224 255
200 224 255
200 224 255
200 224 255
200 224 255
200 224 255
200 224 255
200 224 255
200 224 255
200 224 255
200 224 255
200 224 255
200 224 255
200 224 255
200 224 255
200 224 255
200 224 255
200 224 255
200 224 255
200 224 255
200 224 255
201 224 255
201 224 255
201 224 255
201 224 255
201 224 255
201 224 255
201 224 255
201 224 255
201 224 255
201 224 255
201 224 255
201 224 255
201 224 255
201 224 255
201 224 255
201 224 255
201 224 255
199 207 236
196 74 84
190 0 0
190 0 0
191 0 0
194 0 0
191 0 0
193 0 0
195 0 0
196 0 0
200 0 0
189 0 0
202 0 0
195 0 0
191 0 0
198 0 0
189 0 0
198 0 0
192 0 0
199 0 0
199 0 0
202 0 0
195 0 0
198 0 0
195 0 0
201 0 0
198 0 0
191 0 0
198 0 0
206 0 0
201 0 0
200 0 0
199 0 0
195 0 0
204 0 0
202 0 0
204 0 0
207 0 0
203 0 0
210 0 0
196 0 0
202 0 0
199 0 0
203 0 0
206 0 0
202 0 0
206 0 0
203 0 0
204 0 0
200 0 0
208 0 0
199 0 0
201 0 0
207 0 0
208 0 0
202 0 0
203 0 0
208 0 0
205 0 0
208 0 0
207 0 0
209 0 0
208 0 0
200 0 0
207 0 0
208 0 0
207 0 0
209 0 0
206 0 0
206 0 0
210 0 0
211 0 0
208 0 0
210 0 0
206 0 0
208 0 0
211 0 0
208 0 0
211 0 0
206 0 0
209 0 0
209 0 0
212 0 0
205 0 0
212 0 0
208 0 0
211 0 0
209 0 0
211 0 0
212 0 0
208 0 0
209 0 0
207 0 0
212 0 0
213 0 0
212 0 0
211 0 0
206 0 0
208 0 0
212 0 0
211 0 0
209 0 0
212 0 0
210 0 0
213 0 0
212 0 0
210 0 0
213 0 0
214 0 0
208 0 0
212 0 0
212 0 0
214 0 0
211 0 0
209 0 0
208 0 0
212 0 0
212 0 0
212 0 0
214 0 0
213 0 0
211 0 0
209 0 0
211 0 0
212 0 0
213 0 0
210 0 0
213 0 0
213 0 0
212 0 0
213 0 0
211 0 0
210 0 0
215 0 0
209 0 0
214 0 0
214 0 0
211 0 0
213 0 0
216 0 0
210 0 0
213 0 0
211 0 0
212 0 0
212 0 0
213 0 0
214 0 0
211 0 0
218 0 0
215 0 0
212 0 0
213 0 0
215 0 0
211 0 0
214 0 0
213 0 0
213 0 0
214 0 0
211 0 0
212 0 0
211 0 0
217 0 0
214 0 0
214 0 0
0 0 255
0 0 255
0 0 254
0 0 255
0 0 255
0 0 255
0 0 255
0 0 254
0 0 255
0 0 255
0 0 254
0 0 255
0 0 255
0 0 255
0 0 255
0 0 255
0 0 255
0 0 254
0 0 255
0 0 255
0 0 254
0 0 253
0 0 255
0 0 255
0 0 254
0 0 255
0 0 254
0 0 252
0 0 254
0 0 255
0 0 255
0 0 253
0 0 255
0 0 255
0 0 255
0 0 255
0 0 253
0 0 255
0 0 255
0 0 254
0 0 255
0 0 253
0 0 255
0 0 250
0 0 253
0 0 252
0 0 255
0 0 253
0 0 254
0 0 254
0 0 255
0 0 255
0 0 254
0 0 255
0 0 255
0 0 255
0 0 255
0 0 252
0 0 254
0 0 254
0 0 253
0 0 255
0 0 253
0 0 249
0 0 252
0 0 253
0 0 250
0 0 253
0 0 252
0 0 252
0 0 254
0 0 254
0 0 253
0 0 254
0 0 253
0 0 254
0 0 250
0 0 252
0 0 250
0 0 253
0 0 253
0 0 250
0 0 255
0 0 252
0 0 252
0 0 253
0 0 253
0 0 250
0 0 253
0 0 254
0 0 246
0 0 252
0 0 250
0 0 250
0 0 250
0 0 250
0 0 253
0 0 253
0 0 254
0 0 250
0 0 250
0 0 249
0 0 253
0 0 250
0 0 252
0 0 252
0 0 249
0 0 252
0 0 253
0 0 254
0 0 252
0 0 249
0 0 246
0 0 253
0 0 254
0 0 250
0 0 248
0 0 248
0 0 254
0 0 250
0 0 245
0 0 245
0 0 246
0 0 246
0 0 252
0 0 238
0 0 250
0 0 244
0 0 246
0 0 248
0 0 248
0 0 245
0 0 244
0 0 244
0 0 245
0 0 249
0 0 242
0 0 248
0 0 241
0 0 242
0 0 244
0 0 241
0 0 244
0 0 244
0 0 244
0 0 241
0 0 237
0 0 244
0 0 244
0 0 248
0 0 240
0 0 238
0 0 241
0 0 245
0 0 242
0 0 237
0 0 244
0 0 242
0 0 241
0 0 246
0 0 242
0 0 240
0 0 245
28 31 240
157 175 248
201 225 255
201 224 255
201 224 255
201 224 255
201 224 255
201 224 255
201 224 255
201 224 255
201 224 255
201 224 255
201 224 255
201 224 255
201 224 255
201 224 255
201 224 255
201 224 255
201 224 255
201 224 255
201 224 255
201 224 255
201 224 255
201 224 255
201 224 255
201 224 255
201 224 255
201 224 255
201 224 255
201 224 255
201 224 255
201 224 255
201 224 255
201 224 255
201 224 255
201 224 255
201 224 255
201 224 255
201 224 255
201 224 255
201 224 255
201 224 255
201 224 255
201 224 255
201 224 255
201 224 255
201 224 255
201 224 255
201 224 255
201 224 255
201 224 255
201 224 255
201 224 255
201 224 255
201 224 255
201 224 255
201 224 255
201 224 255
201 224 255
201 224 255
201 224 255
201 224 255
201 224 255
201 224 255
201 224 255
201 224 255
201 224 255
201 224 255
201 224 255
201 224 255
201 224 255
201 225 255
197 177 201
197 22 25
192 0 0
191 0 0
186 0 0
189 0 0
193 0 0
194 0 0
189 0 0
191 0 0
194 0 0
190 0 0
191 0 0
196 0 0
199 0 0
197 0 0
196 0 0
198 0 0
201 0 0
200 0 0
200 0 0
194 0 0
197 0 0
194 0 0
197 0 0
202 0 0
199 0 0
200 0 0
202 0 0
193 0 0
202 0 0
198 0 0
195 0 0
205 0 0
195 0 0
198 0 0
205 0 0
200 0 0
204 0 0
202 0 0
202 0 0
206 0 0
205 0 0
207 0 0
203 0 0
205 0 0
205 0 0
207 0 0
197 0 0
208 0 0
206 0 0
209 0 0
203 0 0
205 0 0
205 0 0
206 0 0
207 0 0
208 0 0
204 0 0
207 0 0
204 0 0
209 0 0
209 0 0
207 0 0
207 0 0
212 0 0
203 0 0
208 0 0
211 0 0
206 0 0
208 0 0
209 0 0
208 0 0
206 0 0
209 0 0
204 0 0
207 0 0
207 0 0
210 0 0
211 0 0
208 0 0
210 0 0
204 0 0
211 0 0
208 0 0
211 0 0
208 0 0
213 0 0
207 0 0
207 0 0
208 0 0
210 0 0
210 0 0
212 0 0
208 0 0
210 0 0
211 0 0
212 0 0
212 0 0
210 0 0
209 0 0
209 0 0
213 0 0
208 0 0
211 0 0
213 0 0
218 0 0
212 0 0
211 0 0
211 0 0
213 0 0
215 0 0
212 0 0
213 0 0
214 0 0
213 0 0
213 0 0
209 0 0
213 0 0
209 0 0
210 0 0
213 0 0
210 0 0
213 0 0
210 0 0
211 0 0
214 0 0
213 0 0
215 0 0
215 0 0
213 0 0
216 0 0
211 0 0
216 0 0
213 0 0
215 0 0
213 0 0
210 0 0
214 0 0
214 0 0
211 0 0
216 0 0
212 0 0
215 0 0
210 0 0
210 0 0
209 0 0
211 0 0
212 0 0
211 0 0
213 0 0
212 0 0
215 0 0
212 0 0
214 0 0
213 0 0
214 0 0
212 0 0
211 0 0
214 0 0
215 0 0
216 0 0
217 0 0
212 0 0
213 0 0
0 0 255
0 0 255
0 0 255
0 0 255
0 0 255
0 0 255
0 0 255
0 0 255
0 0 255
0 0 255
0 0 255
0 0 255
0 0 255
0 0 253
0 0 255
0 0 255
0 0 254
0 0 255
0 0 255
0 0 255
0 0 255
0 0 255
0 0 254
0 0 255
0 0 255
0 0 253
0 0 255
0 0 255
0 0 255
0 0 255
0 0 255
0 0 255
0 0 252
0 0 255
0 0 254
0 0 255
0 0 254
0 0 255
0 0 254
0 0 255
0 0 255
0 0 254
0 0 254
0 0 254
0 0 254
0 0 254
0 0 254
0 0 253
0 0 255
0 0 255
0 0 254
0 0 253
0 0 253
0 0 254
0 0 255
0 0 254
0 0 253
0 0 253
0 0 255
0 0 253
0 0 252
0 0 252
0 0 249
0 0 254
0 0 253
0 0 254
0 0 254
0 0 255
0 0 250
0 0 253
0 0 255
0 0 250
0 0 252
0 0 253
0 0 254
0 0 252
0 0 253
0 0 252
0 0 253
0 0 252
0 0 253
0 0 252
0 0 252
0 0 254
0 0 252
0 0 253
0 0 252
0 0 253
0 0 254
0 0 253
0 0 252
0 0 253
0 0 252
0 0 253
0 0 250
0 0 250
0 0 252
0 0 250
0 0 250
0 0 249
0 0 252
0 0 252
0 0 248
0 0 253
0 0 252
0 0 249
0 0 248
0 0 253
0 0 246
0 0 246
0 0 248
0 0 246
0 0 250
0 0 248
0 0 246
0 0 254
0 0 253
0 0 246
0 0 249
0 0 244
0 0 253
0 0 250
0 0 250
0 0 252
0 0 252
0 0 250
0 0 249
0 0 250
0 0 254
0 0 244
0 0 248
0 0 244
0 0 249
0 0 242
0 0 248
0 0 246
0 0 238
0 0 252
0 0 242
0 0 248
0 0 245
0 0 238
0 0 245
0 0 238
0 0 244
0 0 240
0 0 241
0 0 246
0 0 240
0 0 238
0 0 241
0 0 248
0 0 242
0 0 242
0 0 246
0 0 241
0 0 242
0 0 241
0 0 241
0 0 238
0 0 242
0 0 237
0 0 246
0 0 240
0 0 245
153 171 246
201 225 255
201 225 255
201 225 255
201 225 255
201 225 255
201 225 255
201 224 255
201 224 255
201 224 255
201 224 255
201 224 255
201 224 255
201 224 255
201 224 255
201 224 255
201 224 255
201 224 255
201 224 255
201 224 255
201 224 255
201 224 255
201 224 255
201 224 255
201 224 255
201 224 255
201 224 255
201 224 255
201 224 255
201 224 255
201 224 255
201 224 255
201 224 255
201 224 255
201 224 255
201 224 255
201 224 255
201 224 255
201 224 255
201 224 255
201 224 255
201 224 255
201 224 255
201 224 255
201 224 255
201 224 255
201 224 255
201 224 255
201 224 255
201 224 255
201 224 255
201 224 255
201 224 255
201 224 255
201 224 255
201 224 255
201 224 255
201 224 255
201 224 255
201 224 255
201 224 255
201 224 255
201 224 255
201 225 255
201 225 255
201 225 255
201 225 255
201 225 255
201 225 255
196 159 181
194 0 0
195 0 0
194 0 0
193 0 0
191 0 0
190 0 0
194 0 0
192 0 0
193 0 0
196 0 0
190 0 0
194 0 0
192 0 0
201 0 0
197 0 0
199 0 0
193 0 0
192 0 0
196 0 0
194 0 0
201 0 0
197 0 0
202 0 0
195 0 0
196 0 0
200 0 0
201 0 0
200 0 0
200 0 0
199 0 0
200 0 0
202 0 0
202 0 0
201 0 0
197 0 0
206 0 0
204 0 0
205 0 0
196 0 0
205 0 0
201 0 0
198 0 0
206 0 0
204 0 0
203 0 0
203 0 0
207 0 0
210 0 0
202 0 0
206 0 0
204 0 0
206 0 0
209 0 0
204 0 0
202 0 0
209 0 0
209 0 0
208 0 0
203 0 0
212 0 0
205 0 0
206 0 0
207 0 0
208 0 0
208 0 0
210 0 0
211 0 0
209 0 0
209 0 0
208 0 0
210 0 0
208 0 0
211 0 0
207 0 0
213 0 0
217 0 0
213 0 0
209 0 0
208 0 0
212 0 0
208 0 0
209 0 0
213 0 0
206 0 0
211 0 0
210 0 0
213 0 0
206 0 0
212 0 0
209 0 0
204 0 0
207 0 0
207 0 0
208 0 0
208 0 0
211 0 0
206 0 0
211 0 0
213 0 0
211 0 0
210 0 0
214 0 0
207 0 0
210 0 0
208 0 0
209 0 0
213 0 0
211 0 0
208 0 0
212 0 0
213 0 0
214 0 0
210 0 0
212 0 0
213 0 0
210 0 0
211 0 0
215 0 0
213 0 0
211 0 0
210 0 0
211 0 0
212 0 0
213 0 0
211 0 0
213 0 0
214 0 0
211 0 0
213 0 0
211 0 0
215 0 0
211 0 0
216 0 0
214 0 0
216 0 0
210 0 0
212 0 0
216 0 0
215 0 0
216 0 0
211 0 0
210 0 0
213 0 0
213 0 0
213 0 0
211 0 0
211 0 0
215 0 0
214 0 0
215 0 0
215 0 0
210 0 0
214 0 0
213 0 0
212 0 0
215 0 0
213 0 0
216 0 0
218 0 0
212 0 0
213 0 0
216 0 0
211 0 0
212 0 0
214 0 0
0 0 255
0 0 254
0 0 255
0 0 255
0 0 255
0 0 255
0 0 255
0 0 255
0 0 255
0 0 254
0 0 255
0 0 253
0 0 255
0 0 254
0 0 255
0 0 254
0 0 255
0 0 255
0 0 255
0 0 254
0 0 254
0 0 255
0 0 254
0 0 255
0 0 255
0 0 255
0 0 255
0 0 255
0 0 254
0 0 253
0 0 254
0 0 253
0 0 254
0 0 254
0 0 254
0 0 255
0 0 254
0 0 255
0 0 255
0 0 254
0 0 252
0 0 254
0 0 252
0 0 254
0 0 255
0 0 255
0 0 253
0 0 255
0 0 255
0 0 255
0 0 254
0 0 254
0 0 253
0 0 255
0 0 255
0 0 253
0 0 254
0 0 253
0 0 253
0 0 253
0 0 254
0 0 250
0 0 250
0 0 250
0 0 252
0 0 254
0 0 253
0 0 255
0 0 254
0 0 253
0 0 254
0 0 254
0 0 254
0 0 253
0 0 252
0 0 254
0 0 249
0 0 253
0 0 249
0 0 250
0 0 250
0 0 253
0 0 250
0 0 252
0 0 250
0 0 254
0 0 252
0 0 254
0 0 249
0 0 252
0 0 252
0 0 252
0 0 254
0 0 249
0 0 250
0 0 253
0 0 252
0 0 252
0 0 249
0 0 249
0 0 252
0 0 249
0 0 253
0 0 254
0 0 253
0 0 252
0 0 255
0 0 249
0 0 240
0 0 252
0 0 249
0 0 249
0 0 250
0 0 252
0 0 254
0 0 248
0 0 248
0 0 246
0 0 250
0 0 246
0 0 246
0 0 246
0 0 250
0 0 250
0 0 245
0 0 242
0 0 250
0 0 246
0 0 244
0 0 249
0 0 248
0 0 250
0 0 246
0 0 250
0 0 248
0 0 244
0 0 245
0 0 242
0 0 242
0 0 250
0 0 240
0 0 237
0 0 242
0 0 241
0 0 240
0 0 249
0 0 237
0 0 241
0 0 250
0 0 237
0 0 233
0 0 240
0 0 238
0 0 241
0 0 244
0 0 240
0 0 236
0 0 238
0 0 238
0 0 233
0 0 236
0 0 230
0 0 242
0 0 245
0 0 238
0 0 241
114 127 241
201 224 255
202 225 255
201 225 255
201 225 255
201 225 255
201 225 255
201 225 255
201 225 255
201 225 255
201 225 255
201 225 255
201 225 255
201 225 255
201 224 255
201 224 255
201 224 255
201 224 255
201 224 255
201 224 255
201 224 255
201 224 255
201 224 255
201 224 255
201 224 255
201 224 255
201 224 255
201 224 255
201 224 255
201 224 255
201 224 255
201 224 255
201 224 255
201 224 255
201 224 255
201 224 255
201 224 255
201 224 255
201 224 255
201 224 255
201 224 255
201 224 255
201 224 255
201 224 255
201 224 255
201 224 255
201 224 255
201 224 255
201 224 255
201 224 255
201 224 255
201 224 255
201 224 255
201 224 255
201 225 255
201 225 255
201 225 255
201 225 255
201 225 255
201 225 255
201 225 255
201 225 255
201 225 255
201 225 255
202 225 255
202 225 255
202 225 255
196 145 165
187 0 0
189 0 0
187 0 0
183 0 0
191 0 0
194 0 0
186 0 0
189 0 0
190 0 0
187 0 0
192 0 0
195 0 0
194 0 0
193 0 0
202 0 0
193 0 0
196 0 0
197 0 0
194 0 0
197 0 0
195 0 0
196 0 0
198 0 0
197 0 0
201 0 0
205 0 0
202 0 0
197 0 0
192 0 0
204 0 0
200 0 0
203 0 0
197 0 0
202 0 0
201 0 0
197 0 0
200 0 0
208 0 0
206 0 0
198 0 0
204 0 0
208 0 0
202 0 0
204 0 0
206 0 0
201 0 0
206 0 0
206 0 0
205 0 0
204 0 0
210 0 0
211 0 0
207 0 0
200 0 0
206 0 0
206 0 0
209 0 0
208 0 0
208 0 0
210 0 0
209 0 0
211 0 0
204 0 0
205 0 0
207 0 0
209 0 0
210 0 0
203 0 0
207 0 0
207 0 0
211 0 0
209 0 0
210 0 0
206 0 0
209 0 0
207 0 0
209 0 0
208 0 0
207 0 0
208 0 0
210 0 0
207 0 0
213 0 0
207 0 0
212 0 0
211 0 0
213 0 0
214 0 0
210 0 0
210 0 0
208 0 0
213 0 0
211 0 0
207 0 0
209 0 0
211 0 0
209 0 0
208 0 0
208 0 0
213 0 0
212 0 0
215 0 0
213 0 0
212 0 0
215 0 0
211 0 0
214 0 0
212 0 0
210 0 0
211 0 0
212 0 0
208 0 0
212 0 0
214 0 0
214 0 0
214 0 0
213 0 0
210 0 0
214 0 0
214 0 0
212 0 0
213 0 0
211 0 0
215 0 0
210 0 0
216 0 0
211 0 0
216 0 0
214 0 0
214 0 0
211 0 0
214 0 0
213 0 0
210 0 0
209 0 0
209 0 0
213 0 0
215 0 0
211 0 0
213 0 0
210 0 0
213 0 0
213 0 0
213 0 0
210 0 0
213 0 0
215 0 0
213 0 0
212 0 0
215 0 0
214 0 0
215 0 0
215 0 0
215 0 0
215 0 0
213 0 0
213 0 0
216 0 0
214 0 0
215 0 0
214 0 0
214 0 0
214 0 0
214 0 0
215 0 0
213 0 0
0 0 255
0 0 254
0 0 255
0 0 254
0 0 255
0 0 254
0 0 255
0 0 255
0 0 254
0 0 255
0 0 255
0 0 254
0 0 254
0 0 255
0 0 254
0 0 255
0 0 254
0 0 255
0 0 255
0 0 253
0 0 254
0 0 255
0 0 255
0 0 255
0 0 255
0 0 254
0 0 254
0 0 255
0 0 253
0 0 254
0 0 253
0 0 255
0 0 255
0 0 252
0 0 254
0 0 253
0 0 254
0 0 254
0 0 254
0 0 255
0 0 254
0 0 255
0 0 255
0 0 255
0 0 254
0 0 254
0 0 254
0 0 255
0 0 253
0 0 254
0 0 254
0 0 255
0 0 253
0 0 254
0 0 255
0 0 254
0 0 255
0 0 252
0 0 254
0 0 253
0 0 253
0 0 255
0 0 253
0 0 254
0 0 253
0 0 252
0 0 254
0 0 254
0 0 255
0 0 253
0 0 255
0 0 253
0 0 255
0 0 254
0 0 249
0 0 253
0 0 252
0 0 254
0 0 250
0 0 252
0 0 253
0 0 254
0 0 253
0 0 253
0 0 253
0 0 252
0 0 254
0 0 253
0 0 254
0 0 254
0 0 252
0 0 254
0 0 252
0 0 250
0 0 252
0 0 253
0 0 250
0 0 245
0 0 246
0 0 250
0 0 250
0 0 250
0 0 249
0 0 252
0 0 253
0 0 253
0 0 250
0 0 249
0 0 250
0 0 255
0 0 252
0 0 249
0 0 242
0 0 250
0 0 248
0 0 249
0 0 242
0 0 248
0 0 241
0 0 253
0 0 248
0 0 252
0 0 246
0 0 246
0 0 248
0 0 252
0 0 249
0 0 245
0 0 252
0 0 242
0 0 241
0 0 240
0 0 246
0 0 242
0 0 246
0 0 241
0 0 248
0 0 249
0 0 244
0 0 242
0 0 249
0 0 249
0 0 242
0 0 238
0 0 238
0 0 238
0 0 240
0 0 242
0 0 244
0 0 250
0 0 245
0 0 240
0 0 246
0 0 246
0 0 236
0 0 250
0 0 236
0 0 242
0 0 233
0 0 241
0 0 242
0 0 233
0 0 230
0 0 244
0 0 241
0 0 241
0 0 246
116 129 248
201 224 255
202 225 255
202 225 255
202 225 255
202 225 255
202 225 255
202 225 255
202 225 255
202 225 255
201 225 255
201 225 255
201 225 255
201 225 255
201 225 255
201 225 255
201 225 255
201 225 255
201 225 255
201 225 255
201 225 255
201 225 255
201 225 255
201 225 255
201 225 255
201 225 255
201 225 255
201 224 255
201 224 255
201 224 255
201 224 255
201 224 255
201 224 255
201 224 255
201 224 255
201 224 255
201 224 255
201 224 255
201 225 255
201 225 255
201 225 255
201 225 255
201 225 255
201 225 255
201 225 255
201 225 255
201 225 255
201 225 255
201 225 255
201 225 255
201 225 255
201 225 255
201 225 255
201 225 255
201 225 255
201 225 255
202 225 255
202 225 255
202 225 255
202 225 255
202 225 255
202 225 255
202 225 255
202 225 255
201 223 253
192 138 157
192 0 0
185 0 0
188 0 0
185 0 0
193 0 0
195 0 0
187 0 0
183 0 0
190 0 0
192 0 0
195 0 0
198 0 0
192 0 0
190 0 0
190 0 0
196 0 0
193 0 0
198 0 0
198 0 0
193 0 0
196 0 0
196 0 0
200 0 0
199 0 0
198 0 0
198 0 0
200 0 0
193 0 0
195 0 0
200 0 0
201 0 0
199 0 0
199 0 0
204 0 0
201 0 0
202 0 0
204 0 0
203 0 0
197 0 0
200 0 0
204 0 0
201 0 0
206 0 0
199 0 0
199 0 0
204 0 0
200 0 0
205 0 0
206 0 0
199 0 0
207 0 0
204 0 0
209 0 0
208 0 0
211 0 0
205 0 0
204 0 0
205 0 0
209 0 0
211 0 0
209 0 0
208 0 0
213 0 0
209 0 0
205 0 0
207 0 0
207 0 0
206 0 0
209 0 0
209 0 0
207 0 0
208 0 0
207 0 0
207 0 0
210 0 0
207 0 0
206 0 0
202 0 0
205 0 0
208 0 0
204 0 0
212 0 0
210 0 0
211 0 0
214 0 0
210 0 0
211 0 0
207 0 0
211 0 0
208 0 0
215 0 0
210 0 0
212 0 0
206 0 0
210 0 0
208 0 0
212 0 0
212 0 0
209 0 0
211 0 0
214 0 0
211 0 0
212 0 0
209 0 0
208 0 0
208 0 0
212 0 0
211 0 0
211 0 0
211 0 0
213 0 0
211 0 0
212 0 0
210 0 0
212 0 0
213 0 0
210 0 0
214 0 0
209 0 0
210 0 0
214 0 0
209 0 0
211 0 0
212 0 0
214 0 0
212 0 0
214 0 0
209 0 0
209 0 0
213 0 0
212 0 0
214 0 0
215 0 0
212 0 0
211 0 0
212 0 0
211 0 0
211 0 0
216 0 0
212 0 0
209 0 0
211 0 0
216 0 0
211 0 0
215 0 0
212 0 0
213 0 0
212 0 0
215 0 0
216 0 0
211 0 0
215 0 0
214 0 0
212 0 0
211 0 0
213 0 0
215 0 0
214 0 0
212 0 0
212 0 0
212 0 0
214 0 0
216 0 0
214 0 0
215 0 0
212 0 0
216 0 0
0 0 255
0 0 253
0 0 255
0 0 255
0 0 255
0 0 254
0 0 253
0 0 255
0 0 255
0 0 255
0 0 254
0 0 255
0 0 255
0 0 255
0 0 254
0 0 255
0 0 255
0 0 255
0 0 255
0 0 255
0 0 254
0 0 254
0 0 253
0 0 255
0 0 254
0 0 255
0 0 255
0 0 253
0 0 255
0 0 254
0 0 255
0 0 254
0 0 255
0 0 254
0 0 255
0 0 254
0 0 254
0 0 254
0 0 254
0 0 253
0 0 255
0 0 254
0 0 255
0 0 255
0 0 255
0 0 254
0 0 253
0 0 252
0 0 254
0 0 254
0 0 250
0 0 255
0 0 254
0 0 253
0 0 255
0 0 255
0 0 250
0 0 254
0 0 253
0 0 250
0 0 252
0 0 253
0 0 254
0 0 253
0 0 254
0 0 249
0 0 254
0 0 255
0 0 253
0 0 252
0 0 253
0 0 250
0 0 253
0 0 253
0 0 254
0 0 250
0 0 249
0 0 253
0 0 253
0 0 250
0 0 252
0 0 253
0 0 253
0 0 253
0 0 252
0 0 255
0 0 250
0 0 252
0 0 254
0 0 253
0 0 249
0 0 254
0 0 254
0 0 248
0 0 252
0 0 252
0 0 255
0 0 252
0 0 253
0 0 249
0 0 250
0 0 249
0 0 253
0 0 252
0 0 249
0 0 252
0 0 253
0 0 250
0 0 250
0 0 249
0 0 249
0 0 252
0 0 253
0 0 252
0 0 246
0 0 250
0 0 250
0 0 250
0 0 252
0 0 249
0 0 252
0 0 249
0 0 248
0 0 248
0 0 248
0 0 246
0 0 246
0 0 252
0 0 249
0 0 244
0 0 245
0 0 246
0 0 246
0 0 250
0 0 249
0 0 242
0 0 248
0 0 244
0 0 242
0 0 246
0 0 244
0 0 244
0 0 246
0 0 245
0 0 233
0 0 244
0 0 242
0 0 246
0 0 238
0 0 244
0 0 234
0 0 241
0 0 241
0 0 248
0 0 245
0 0 230
0 0 244
0 0 233
0 0 245
0 0 241
0 0 241
0 0 237
0 0 231
0 0 224
0 0 230
0 0 245
0 0 242
0 0 237
119 133 246
201 224 255
202 225 255
202 225 255
202 225 255
202 225 255
202 225 255
202 225 255
202 225 255
202 225 255
202 225 255
202 225 255
202 225 255
202 225 255
202 225 255
202 225 255
202 225 255
202 225 255
202 225 255
202 225 255
201 225 255
201 225 255
201 225 255
201 225 255
201 225 255
201 225 255
201 225 255
201 225 255
201 225 255
201 225 255
201 225 255
201 225 255
201 225 255
201 225 255
201 225 255
201 225 255
201 225 255
201 225 255
201 225 255
201 225 255
201 225 255
201 225 255
201 225 255
201 225 255
202 225 255
202 225 255
202 225 255
202 225 255
202 225 255
202 225 255
202 225 255
202 225 255
202 225 255
202 225 255
202 225 255
202 225 255
202 225 255
202 225 255
202 225 255
202 225 255
202 225 255
202 225 255
201 223 253
192 147 167
182 0 0
186 0 0
191 0 0
185 0 0
186 0 0
182 0 0
188 0 0
196 0 0
189 0 0
186 0 0
188 0 0
191 0 0
198 0 0
197 0 0
198 0 0
193 0 0
197 0 0
191 0 0
198 0 0
194 0 0
195 0 0
200 0 0
188 0 0
199 0 0
197 0 0
203 0 0
207 0 0
199 0 0
194 0 0
203 0 0
202 0 0
200 0 0
201 0 0
201 0 0
201 0 0
202 0 0
200 0 0
201 0 0
204 0 0
200 0 0
204 0 0
207 0 0
201 0 0
206 0 0
199 0 0
211 0 0
207 0 0
210 0 0
206 0 0
205 0 0
208 0 0
205 0 0
204 0 0
202 0 0
206 0 0
207 0 0
210 0 0
205 0 0
203 0 0
206 0 0
205 0 0
210 0 0
209 0 0
209 0 0
211 0 0
207 0 0
207 0 0
202 0 0
207 0 0
206 0 0
205 0 0
210 0 0
208 0 0
208 0 0
209 0 0
209 0 0
206 0 0
209 0 0
211 0 0
208 0 0
213 0 0
207 0 0
204 0 0
208 0 0
206 0 0
209 0 0
215 0 0
208 0 0
213 0 0
209 0 0
206 0 0
211 0 0
212 0 0
210 0 0
213 0 0
210 0 0
209 0 0
207 0 0
214 0 0
209 0 0
206 0 0
213 0 0
212 0 0
213 0 0
212 0 0
210 0 0
212 0 0
214 0 0
214 0 0
208 0 0
213 0 0
209 0 0
211 0 0
211 0 0
213 0 0
212 0 0
210 0 0
210 0 0
212 0 0
214 0 0
214 0 0
209 0 0
212 0 0
210 0 0
215 0 0
214 0 0
213 0 0
215 0 0
217 0 0
211 0 0
215 0 0
213 0 0
211 0 0
215 0 0
214 0 0
215 0 0
216 0 0
215 0 0
215 0 0
213 0 0
213 0 0
214 0 0
215 0 0
214 0 0
214 0 0
214 0 0
215 0 0
210 0 0
216 0 0
214 0 0
211 0 0
214 0 0
216 0 0
214 0 0
214 0 0
215 0 0
215 0 0
213 0 0
213 0 0
211 0 0
216 0 0
212 0 0
217 0 0
214 0 0
213 0 0
214 0 0
217 0 0
212 0 0
0 0 255
0 0 255
0 0 255
0 0 253
0 0 254
0 0 255
0 0 254
0 0 254
0 0 254
0 0 255
0 0 255
0 0 255
0 0 255
0 0 255
0 0 255
0 0 255
0 0 254
0 0 254
0 0 254
0 0 255
0 0 254
0 0 255
0 0 255
0 0 255
0 0 255
0 0 255
0 0 255
0 0 255
0 0 255
0 0 253
0 0 255
0 0 255
0 0 254
0 0 252
0 0 255
0 0 254
0 0 254
0 0 255
0 0 254
0 0 253
0 0 254
0 0 254
0 0 254
0 0 250
0 0 254
0 0 254
0 0 254
0 0 252
0 0 252
0 0 255
0 0 255
0 0 254
0 0 255
0 0 255
0 0 255
0 0 254
0 0 254
0 0 253
0 0 255
0 0 254
0 0 255
0 0 254
0 0 252
0 0 255
0 0 254
0 0 254
0 0 254
0 0 254
0 0 253
0 0 254
0 0 253
0 0 252
0 0 253
0 0 252
0 0 253
0 0 252
0 0 255
0 0 253
0 0 253
0 0 253
0 0 253
0 0 250
0 0 253
0 0 253
0 0 246
0 0 253
0 0 253
0 0 249
0 0 254
0 0 254
0 0 252
0 0 252
0 0 252
0 0 250
0 0 253
0 0 253
0 0 253
0 0 252
0 0 248
0 0 250
0 0 248
0 0 250
0 0 250
0 0 249
0 0 250
0 0 250
0 0 250
0 0 245
0 0 252
0 0 254
0 0 249
0 0 246
0 0 249
0 0 249
0 0 250
0 0 248
0 0 250
0 0 248
0 0 246
0 0 252
0 0 245
0 0 250
0 0 254
0 0 248
0 0 246
0 0 248
0 0 244
0 0 249
0 0 249
0 0 250
0 0 246
0 0 253
0 0 248
0 0 249
0 0 248
0 0 252
0 0 245
0 0 246
0 0 241
0 0 241
0 0 244
0 0 246
0 0 245
0 0 244
0 0 236
0 0 242
0 0 242
0 0 245
0 0 234
0 0 234
0 0 238
0 0 231
0 0 234
0 0 238
0 0 244
0 0 231
0 0 238
0 0 233
0 0 242
0 0 240
0 0 241
0 0 238
0 0 236
0 0 240
0 0 244
0 0 234
0 0 241
0 0 231
0 0 240
99 110 240
198 220 254
202 225 255
202 225 255
202 225 255
202 225 255
202 225 255
202 225 255
202 225 255
202 225 255
202 225 255
202 225 255
202 225 255
202 225 255
202 225 255
202 225 255
202 225 255
202 225 255
202 225 255
202 225 255
202 225 255
202 225 255
202 225 255
202 225 255
202 225 255
202 225 255
202 225 255
202 225 255
202 225 255
202 225 255
202 225 255
202 225 255
202 225 255
202 225 255
202 225 255
202 225 255
202 225 255
202 225 255
202 225 255
202 225 255
202 225 255
202 225 255
202 225 255
202 225 255
202 225 255
202 225 255
202 225 255
202 225 255
202 225 255
202 225 255
202 225 255
202 225 255
202 225 255
202 225 255
202 225 255
202 225 255
202 225 255
202 225 255
202 225 255
202 225 255
201 220 250
188 98 111
193 0 0
187 0 0
184 0 0
188 0 0
189 0 0
189 0 0
192 0 0
190 0 0
191 0 0
185 0 0
186 0 0
197 0 0
192 0 0
193 0 0
197 0 0
190 0 0
191 0 0
192 0 0
192 0 0
199 0 0
190 0 0
196 0 0
192 0 0
191 0 0
200 0 0
199 0 0
198 0 0
201 0 0
199 0 0
203 0 0
196 0 0
204 0 0
207 0 0
200 0 0
202 0 0
198 0 0
204 0 0
202 0 0
204 0 0
205 0 0
202 0 0
206 0 0
209 0 0
199 0 0
196 0 0
202 0 0
201 0 0
202 0 0
204 0 0
202 0 0
205 0 0
205 0 0
203 0 0
202 0 0
208 0 0
203 0 0
205 0 0
207 0 0
208 0 0
202 0 0
209 0 0
206 0 0
209 0 0
209 0 0
203 0 0
209 0 0
202 0 0
210 0 0
204 0 0
208 0 0
211 0 0
210 0 0
209 0 0
213 0 0
205 0 0
210 0 0
214 0 0
208 0 0
208 0 0
211 0 0
207 0 0
211 0 0
211 0 0
209 0 0
210 0 0
210 0 0
213 0 0
209 0 0
209 0 0
210 0 0
212 0 0
211 0 0
210 0 0
211 0 0
214 0 0
208 0 0
207 0 0
214 0 0
210 0 0
211 0 0
210 0 0
212 0 0
210 0 0
213 0 0
213 0 0
215 0 0
212 0 0
210 0 0
214 0 0
211 0 0
213 0 0
206 0 0
209 0 0
214 0 0
211 0 0
215 0 0
211 0 0
210 0 0
213 0 0
217 0 0
210 0 0
212 0 0
213 0 0
214 0 0
215 0 0
214 0 0
213 0 0
215 0 0
215 0 0
210 0 0
213 0 0
213 0 0
213 0 0
212 0 0
213 0 0
214 0 0
214 0 0
214 0 0
212 0 0
213 0 0
208 0 0
214 0 0
214 0 0
217 0 0
219 0 0
215 0 0
212 0 0
212 0 0
214 0 0
208 0 0
212 0 0
214 0 0
214 0 0
215 0 0
212 0 0
215 0 0
213 0 0
213 0 0
215 0 0
216 0 0
215 0 0
215 0 0
217 0 0
210 0 0
215 0 0
212 0 0
214 0 0
212 0 0
214 0 0
0 0 255
0 0 255
0 0 255
0 0 255
0 0 255
0 0 255
0 0 255
0 0 255
0 0 255
0 0 254
0 0 255
0 0 255
0 0 255
0 0 255
0 0 255
0 0 255
0 0 255
0 0 253
0 0 253
0 0 253
0 0 255
0 0 255
0 0 255
0 0 255
0 0 255
0 0 254
0 0 254
0 0 254
0 0 255
0 0 254
0 0 255
0 0 254
0 0 255
0 0 254
0 0 252
0 0 254
0 0 252
0 0 255
0 0 254
0 0 253
0 0 254
0 0 254
0 0 253
0 0 253
0 0 254
0 0 255
0 0 254
0 0 255
0 0 255
0 0 252
0 0 255
0 0 255
0 0 254
0 0 253
0 0 254
0 0 253
0 0 255
0 0 253
0 0 253
0 0 254
0 0 254
0 0 253
0 0 252
0 0 254
0 0 248
0 0 253
0 0 254
0 0 254
0 0 255
0 0 250
0 0 253
0 0 254
0 0 255
0 0 250
0 0 253
0 0 254
0 0 254
0 0 253
0 0 253
0 0 253
0 0 253
0 0 253
0 0 252
0 0 252
0 0 254
0 0 246
0 0 252
0 0 253
0 0 252
0 0 253
0 0 255
0 0 250
0 0 253
0 0 250
0 0 253
0 0 252
0 0 254
0 0 252
0 0 249
0 0 246
0 0 249
0 0 249
0 0 252
0 0 253
0 0 250
0 0 249
0 0 248
0 0 252
0 0 249
0 0 253
0 0 249
0 0 250
0 0 252
0 0 245
0 0 250
0 0 244
0 0 248
0 0 250
0 0 248
0 0 252
0 0 242
0 0 252
0 0 250
0 0 248
0 0 241
0 0 246
0 0 244
0 0 249
0 0 242
0 0 242
0 0 248
0 0 248
0 0 249
0 0 249
0 0 248
0 0 244
0 0 244
0 0 246
0 0 242
0 0 245
0 0 241
0 0 246
0 0 241
0 0 250
0 0 242
0 0 240
0 0 242
0 0 248
0 0 244
0 0 244
0 0 245
0 0 245
0 0 244
0 0 242
0 0 237
0 0 236
0 0 241
0 0 237
0 0 246
0 0 240
0 0 238
0 0 241
0 0 231
0 0 227
0 0 233
0 0 233
0 0 233
0 0 233
0 0 238
0 0 234
88 98 242
201 224 255
202 225 255
202 225 255
202 225 255
202 225 255
202 225 255
202 225 255
202 225 255
202 225 255
202 225 255
202 225 255
202 225 255
202 225 255
202 225 255
202 225 255
202 225 255
202 225 255
202 225 255
202 225 255
202 225 255
202 225 255
202 225 255
202 225 255
202 225 255
202 225 255
202 225 255
202 225 255
202 225 255
202 225 255
202 225 255
202 225 255
202 225 255
202 225 255
202 225 255
202 225 255
202 225 255
202 225 255
202 225 255
202 225 255
202 225 255
202 225 255
202 225 255
202 225 255
202 225 255
202 225 255
202 225 255
202 225 255
202 225 255
202 225 255
202 225 255
202 225 255
202 225 255
202 225 255
202 225 255
202 225 255
202 225 255
202 225 255
201 219 249
193 108 122
186 0 0
177 0 0
190 0 0
180 0 0
187 0 0
186 0 0
188 0 0
182 0 0
188 0 0
185 0 0
184 0 0
199 0 0
191 0 0
197 0 0
196 0 0
194 0 0
196 0 0
196 0 0
190 0 0
204 0 0
195 0 0
199 0 0
197 0 0
194 0 0
199 0 0
193 0 0
195 0 0
203 0 0
202 0 0
200 0 0
193 0 0
201 0 0
201 0 0
203 0 0
197 0 0
198 0 0
201 0 0
200 0 0
198 0 0
201 0 0
200 0 0
195 0 0
203 0 0
201 0 0
208 0 0
201 0 0
208 0 0
209 0 0
203 0 0
196 0 0
201 0 0
207 0 0
204 0 0
206 0 0
209 0 0
205 0 0
201 0 0
202 0 0
206 0 0
211 0 0
212 0 0
205 0 0
206 0 0
207 0 0
210 0 0
211 0 0
205 0 0
206 0 0
209 0 0
214 0 0
208 0 0
203 0 0
209 0 0
207 0 0
207 0 0
208 0 0
212 0 0
208 0 0
208 0 0
203 0 0
210 0 0
209 0 0
210 0 0
208 0 0
203 0 0
209 0 0
210 0 0
210 0 0
208 0 0
212 0 0
215 0 0
210 0 0
211 0 0
210 0 0
212 0 0
214 0 0
211 0 0
205 0 0
211 0 0
212 0 0
211 0 0
204 0 0
209 0 0
210 0 0
208 0 0
209 0 0
207 0 0
210 0 0
208 0 0
216 0 0
215 0 0
211 0 0
214 0 0
214 0 0
208 0 0
215 0 0
211 0 0
213 0 0
216 0 0
211 0 0
215 0 0
213 0 0
211 0 0
216 0 0
211 0 0
212 0 0
214 0 0
215 0 0
212 0 0
212 0 0
209 0 0
217 0 0
215 0 0
213 0 0
215 0 0
212 0 0
213 0 0
209 0 0
212 0 0
213 0 0
209 0 0
217 0 0
214 0 0
216 0 0
217 0 0
211 0 0
213 0 0
213 0 0
218 0 0
214 0 0
215 0 0
213 0 0
213 0 0
215 0 0
210 0 0
213 0 0
213 0 0
216 0 0
214 0 0
215 0 0
212 0 0
216 0 0
214 0 0
216 0 0
215 0 0
209 0 0
215 0 0
214 0 0
216 0 0
212 0 0
0 0 255
0 0 255
0 0 255
0 0 255
0 0 255
0 0 254
0 0 254
0 0 255
0 0 255
0 0 255
0 0 255
0 0 255
0 0 254
0 0 253
0 0 255
0 0 255
0 0 253
0 0 255
0 0 254
0 0 254
0 0 253
0 0 255
0 0 255
0 0 255
0 0 254
0 0 255
0 0 255
0 0 255
0 0 254
0 0 254
0 0 255
0 0 253
0 0 255
0 0 254
0 0 255
0 0 253
0 0 255
0 0 254
0 0 254
0 0 255
0 0 255
0 0 253
0 0 254
0 0 253
0 0 254
0 0 254
0 0 254
0 0 254
0 0 254
0 0 255
0 0 253
0 0 255
0 0 255
0 0 254
0 0 254
0 0 252
0 0 252
0 0 254
0 0 250
0 0 252
0 0 254
0 0 254
0 0 254
0 0 255
0 0 254
0 0 253
0 0 255
0 0 250
0 0 254
0 0 255
0 0 253
0 0 252
0 0 255
0 0 252
0 0 250
0 0 249
0 0 253
0 0 250
0 0 253
0 0 253
0 0 245
0 0 249
0 0 254
0 0 250
0 0 254
0 0 242
0 0 250
0 0 252
0 0 253
0 0 252
0 0 250
0 0 253
0 0 252
0 0 252
0 0 252
0 0 253
0 0 250
0 0 249
0 0 249
0 0 249
0 0 253
0 0 250
0 0 253
0 0 252
0 0 254
0 0 249
0 0 249
0 0 252
0 0 249
0 0 249
0 0 252
0 0 250
0 0 246
0 0 240
0 0 253
0 0 252
0 0 250
0 0 248
0 0 245
0 0 246
0 0 248
0 0 244
0 0 248
0 0 252
0 0 250
0 0 250
0 0 250
0 0 245
0 0 248
0 0 244
0 0 245
0 0 250
0 0 250
0 0 242
0 0 244
0 0 250
0 0 244
0 0 241
0 0 245
0 0 248
0 0 242
0 0 236
0 0 238
0 0 238
0 0 246
0 0 236
0 0 244
0 0 241
0 0 244
0 0 236
0 0 242
0 0 248
0 0 236
0 0 230
0 0 240
0 0 238
0 0 241
0 0 231
0 0 237
0 0 244
0 0 238
0 0 240
0 0 237
0 0 233
0 0 248
0 0 233
0 0 237
0 0 240
0 0 240
0 0 233
0 0 233
105 117 238
198 221 255
203 225 255
202 225 255
202 225 255
202 225 255
202 225 255
202 225 255
202 225 255
202 225 255
202 225 255
202 225 255
202 225 255
202 225 255
202 225 255
202 225 255
202 225 255
202 225 255
202 225 255
202 225 255
202 225 255
202 225 255
202 225 255
202 225 255
202 225 255
202 225 255
202 225 255
202 225 255
202 225 255
202 225 255
202 225 255
202 225 255
202 225 255
202 225 255
202 225 255
202 225 255
202 225 255
202 225 255
202 225 255
202 225 255
202 225 255
202 225 255
202 225 255
202 225 255
202 225 255
202 225 255
202 225 255
202 225 255
202 225 255
202 225 255
202 225 255
202 225 255
202 225 255
202 225 255
202 225 255
203 225 255
203 221 250
188 105 120
187 0 0
183 0 0
176 0 0
188 0 0
191 0 0
192 0 0
188 0 0
190 0 0
187 0 0
186 0 0
190 0 0
185 0 0
193 0 0
196 0 0
194 0 0
201 0 0
189 0 0
189 0 0
191 0 0
197 0 0
198 0 0
192 0 0
199 0 0
199 0 0
197 0 0
199 0 0
205 0 0
198 0 0
202 0 0
195 0 0
205 0 0
205 0 0
197 0 0
202 0 0
202 0 0
203 0 0
197 0 0
200 0 0
204 0 0
198 0 0
197 0 0
202 0 0
207 0 0
204 0 0
202 0 0
202 0 0
206 0 0
203 0 0
208 0 0
205 0 0
208 0 0
204 0 0
202 0 0
203 0 0
206 0 0
207 0 0
207 0 0
209 0 0
210 0 0
208 0 0
207 0 0
210 0 0
207 0 0
207 0 0
210 0 0
208 0 0
206 0 0
207 0 0
207 0 0
208 0 0
207 0 0
208 0 0
207 0 0
207 0 0
212 0 0
209 0 0
208 0 0
213 0 0
213 0 0
215 0 0
210 0 0
211 0 0
210 0 0
211 0 0
207 0 0
210 0 0
212 0 0
211 0 0
209 0 0
215 0 0
212 0 0
207 0 0
211 0 0
211 0 0
213 0 0
210 0 0
211 0 0
211 0 0
212 0 0
214 0 0
207 0 0
210 0 0
208 0 0
212 0 0
209 0 0
214 0 0
212 0 0
209 0 0
210 0 0
212 0 0
211 0 0
212 0 0
210 0 0
211 0 0
213 0 0
212 0 0
214 0 0
217 0 0
210 0 0
210 0 0
216 0 0
215 0 0
211 0 0
212 0 0
214 0 0
212 0 0
211 0 0
214 0 0
211 0 0
210 0 0
212 0 0
216 0 0
214 0 0
212 0 0
211 0 0
215 0 0
214 0 0
215 0 0
214 0 0
216 0 0
214 0 0
212 0 0
215 0 0
213 0 0
214 0 0
213 0 0
212 0 0
212 0 0
210 0 0
215 0 0
217 0 0
216 0 0
216 0 0
213 0 0
212 0 0
209 0 0
211 0 0
213 0 0
212 0 0
211 0 0
211 0 0
213 0 0
216 0 0
215 0 0
221 0 0
214 0 0
213 0 0
213 0 0
215 0 0
214 0 0
213 0 0
0 0 255
0 0 255
0 0 255
0 0 255
0 0 255
0 0 254
0 0 255
0 0 255
0 0 255
0 0 255
0 0 255
0 0 255
0 0 255
0 0 255
0 0 255
0 0 255
0 0 254
0 0 255
0 0 255
0 0 254
0 0 254
0 0 255
0 0 255
0 0 254
0 0 254
0 0 255
0 0 255
0 0 255
0 0 254
0 0 254
0 0 254
0 0 253
0 0 253
0 0 254
0 0 255
0 0 255
0 0 255
0 0 253
0 0 253
0 0 254
0 0 254
0 0 254
0 0 255
0 0 255
0 0 253
0 0 253
0 0 252
0 0 253
0 0 253
0 0 254
0 0 252
0 0 254
0 0 254
0 0 254
0 0 253
0 0 254
0 0 253
0 0 255
0 0 252
0 0 254
0 0 253
0 0 253
0 0 253
0 0 254
0 0 255
0 0 254
0 0 252
0 0 253
0 0 255
0 0 255
0 0 252
0 0 253
0 0 254
0 0 254
0 0 254
0 0 255
0 0 254
0 0 253
0 0 255
0 0 254
0 0 252
0 0 250
0 0 252
0 0 253
0 0 253
0 0 250
0 0 253
0 0 252
0 0 253
0 0 250
0 0 253
0 0 252
0 0 253
0 0 253
0 0 253
0 0 252
0 0 249
0 0 253
0 0 249
0 0 252
0 0 248
0 0 252
0 0 249
0 0 253
0 0 249
0 0 248
0 0 252
0 0 255
0 0 248
0 0 249
0 0 249
0 0 252
0 0 250
0 0 249
0 0 253
0 0 248
0 0 253
0 0 249
0 0 253
0 0 245
0 0 249
0 0 245
0 0 245
0 0 252
0 0 249
0 0 248
0 0 254
0 0 242
0 0 238
0 0 244
0 0 242
0 0 248
0 0 245
0 0 249
0 0 245
0 0 246
0 0 246
0 0 248
0 0 242
0 0 245
0 0 234
0 0 244
0 0 245
0 0 246
0 0 242
0 0 244
0 0 245
0 0 245
0 0 241
0 0 241
0 0 236
0 0 245
0 0 238
0 0 236
0 0 245
0 0 241
0 0 240
0 0 233
0 0 233
0 0 240
0 0 238
0 0 231
0 0 231
0 0 230
0 0 231
0 0 236
0 0 230
0 0 236
0 0 233
0 0 234
0 0 233
0 0 240
95 105 241
199 221 255
203 225 255
203 225 255
203 225 255
203 225 255
203 225 255
203 225 255
203 225 255
203 225 255
203 225 255
203 225 255
202 225 255
202 225 255
202 225 255
202 225 255
202 225 255
202 225 255
202 225 255
202 225 255
202 225 255
202 225 255
202 225 255
202 225 255
202 225 255
202 225 255
202 225 255
202 225 255
202 225 255
202 225 255
202 225 255
202 225 255
202 225 255
202 225 255
202 225 255
202 225 255
202 225 255
202 225 255
202 225 255
202 225 255
202 225 255
202 225 255
202 225 255
202 225 255
203 225 255
203 225 255
203 225 255
203 225 255
203 225 255
203 225 255
203 225 255
203 225 255
203 225 255
203 225 255
203 224 254
195 129 147
189 0 0
180 0 0
178 0 0
178 0 0
177 0 0
188 0 0
189 0 0
187 0 0
189 0 0
194 0 0
192 0 0
194 0 0
186 0 0
185 0 0
194 0 0
189 0 0
201 0 0
195 0 0
196 0 0
204 0 0
197 0 0
195 0 0
198 0 0
202 0 0
203 0 0
197 0 0
198 0 0
191 0 0
198 0 0
195 0 0
194 0 0
202 0 0
194 0 0
202 0 0
199 0 0
204 0 0
205 0 0
196 0 0
203 0 0
202 0 0
200 0 0
204 0 0
202 0 0
202 0 0
204 0 0
206 0 0
212 0 0
201 0 0
207 0 0
207 0 0
203 0 0
204 0 0
206 0 0
206 0 0
203 0 0
210 0 0
203 0 0
210 0 0
210 0 0
205 0 0
204 0 0
205 0 0
205 0 0
211 0 0
204 0 0
209 0 0
208 0 0
208 0 0
201 0 0
208 0 0
206 0 0
206 0 0
207 0 0
209 0 0
208 0 0
212 0 0
208 0 0
211 0 0
210 0 0
212 0 0
205 0 0
211 0 0
214 0 0
209 0 0
213 0 0
209 0 0
211 0 0
212 0 0
206 0 0
207 0 0
208 0 0
209 0 0
214 0 0
204 0 0
212 0 0
212 0 0
210 0 0
212 0 0
209 0 0
210 0 0
209 0 0
210 0 0
214 0 0
217 0 0
212 0 0
215 0 0
205 0 0
212 0 0
209 0 0
211 0 0
208 0 0
212 0 0
219 0 0
215 0 0
213 0 0
212 0 0
212 0 0
214 0 0
214 0 0
212 0 0
213 0 0
212 0 0
217 0 0
214 0 0
213 0 0
213 0 0
214 0 0
214 0 0
214 0 0
214 0 0
215 0 0
213 0 0
217 0 0
214 0 0
215 0 0
215 0 0
214 0 0
209 0 0
217 0 0
214 0 0
216 0 0
216 0 0
212 0 0
216 0 0
214 0 0
213 0 0
213 0 0
215 0 0
215 0 0
213 0 0
214 0 0
217 0 0
218 0 0
215 0 0
213 0 0
210 0 0
211 0 0
215 0 0
214 0 0
214 0 0
216 0 0
214 0 0
211 0 0
214 0 0
213 0 0
215 0 0
211 0 0
213 0 0
214 0 0
215 0 0
213 0 0
214 0 0
0 0 255
0 0 255
0 0 255
0 0 255
0 0 255
0 0 255
0 0 255
0 0 255
0 0 254
0 0 255
0 0 255
0 0 254
0 0 255
0 0 255
0 0 254
0 0 255
0 0 255
0 0 254
0 0 254
0 0 255
0 0 255
0 0 254
0 0 255
0 0 250
0 0 253
0 0 255
0 0 254
0 0 255
0 0 255
0 0 255
0 0 255
0 0 255
0 0 254
0 0 255
0 0 254
0 0 253
0 0 254
0 0 255
0 0 255
0 0 252
0 0 254
0 0 255
0 0 250
0 0 255
0 0 255
0 0 255
0 0 255
0 0 254
0 0 253
0 0 255
0 0 254
0 0 252
0 0 255
0 0 253
0 0 254
0 0 255
0 0 252
0 0 254
0 0 253
0 0 254
0 0 254
0 0 254
0 0 250
0 0 254
0 0 250
0 0 252
0 0 250
0 0 252
0 0 252
0 0 252
0 0 255
0 0 254
0 0 254
0 0 254
0 0 252
0 0 249
0 0 249
0 0 249
0 0 253
0 0 254
0 0 250
0 0 249
0 0 252
0 0 255
0 0 253
0 0 254
0 0 252
0 0 255
0 0 254
0 0 254
0 0 252
0 0 253
0 0 253
0 0 253
0 0 252
0 0 250
0 0 253
0 0 248
0 0 253
0 0 249
0 0 253
0 0 252
0 0 254
0 0 248
0 0 252
0 0 248
0 0 246
0 0 250
0 0 248
0 0 252
0 0 248
0 0 255
0 0 248
0 0 248
0 0 244
0 0 242
0 0 250
0 0 250
0 0 248
0 0 245
0 0 250
0 0 246
0 0 240
0 0 253
0 0 250
0 0 249
0 0 242
0 0 250
0 0 249
0 0 245
0 0 238
0 0 244
0 0 244
0 0 238
0 0 244
0 0 248
0 0 242
0 0 245
0 0 236
0 0 244
0 0 241
0 0 248
0 0 249
0 0 246
0 0 238
0 0 242
0 0 240
0 0 245
0 0 237
0 0 248
0 0 240
0 0 240
0 0 242
0 0 241
0 0 240
0 0 233
0 0 233
0 0 237
0 0 234
0 0 231
0 0 242
0 0 237
0 0 234
0 0 233
0 0 230
0 0 244
0 0 231
0 0 236
0 0 231
0 0 236
0 0 228
0 0 231
0 0 231
116 129 244
202 224 255
203 225 255
203 225 255
203 225 255
203 225 255
203 225 255
203 225 255
203 225 255
203 225 255
203 225 255
203 225 255
203 225 255
203 225 255
203 225 255
203 225 255
203 225 255
203 225 255
203 225 255
203 225 255
203 225 255
203 225 255
203 225 255
203 225 255
203 225 255
203 225 255
203 225 255
203 225 255
203 225 255
203 225 255
203 225 255
203 225 255
203 225 255
203 225 255
203 225 255
203 225 255
203 225 255
203 225 255
203 225 255
203 225 255
203 225 255
203 225 255
203 225 255
203 225 255
203 225 255
203 225 255
203 225 255
203 225 255
203 225 255
203 225 255
203 225 255
203 225 255
203 225 255
191 137 155
190 0 0
183 0 0
185 0 0
177 0 0
183 0 0
190 0 0
190 0 0
186 0 0
183 0 0
187 0 0
190 0 0
194 0 0
188 0 0
194 0 0
183 0 0
193 0 0
193 0 0
190 0 0
200 0 0
194 0 0
200 0 0
200 0 0
195 0 0
197 0 0
194 0 0
201 0 0
200 0 0
194 0 0
197 0 0
206 0 0
199 0 0
201 0 0
205 0 0
203 0 0
204 0 0
200 0 0
202 0 0
208 0 0
203 0 0
196 0 0
203 0 0
208 0 0
203 0 0
209 0 0
210 0 0
201 0 0
199 0 0
208 0 0
203 0 0
202 0 0
204 0 0
210 0 0
202 0 0
205 0 0
204 0 0
209 0 0
212 0 0
207 0 0
208 0 0
206 0 0
205 0 0
202 0 0
208 0 0
207 0 0
204 0 0
209 0 0
210 0 0
208 0 0
208 0 0
205 0 0
204 0 0
212 0 0
209 0 0
211 0 0
214 0 0
207 0 0
210 0 0
208 0 0
208 0 0
211 0 0
213 0 0
208 0 0
208 0 0
210 0 0
207 0 0
211 0 0
214 0 0
211 0 0
208 0 0
213 0 0
211 0 0
214 0 0
211 0 0
215 0 0
213 0 0
208 0 0
208 0 0
210 0 0
212 0 0
214 0 0
208 0 0
212 0 0
214 0 0
214 0 0
215 0 0
212 0 0
214 0 0
210 0 0
212 0 0
210 0 0
211 0 0
212 0 0
214 0 0
209 0 0
212 0 0
208 0 0
212 0 0
216 0 0
208 0 0
214 0 0
212 0 0
213 0 0
213 0 0
213 0 0
214 0 0
208 0 0
213 0 0
213 0 0
214 0 0
215 0 0
216 0 0
211 0 0
211 0 0
213 0 0
211 0 0
213 0 0
212 0 0
213 0 0
215 0 0
212 0 0
213 0 0
214 0 0
213 0 0
218 0 0
215 0 0
209 0 0
215 0 0
213 0 0
217 0 0
212 0 0
210 0 0
214 0 0
211 0 0
215 0 0
213 0 0
215 0 0
212 0 0
212 0 0
213 0 0
214 0 0
210 0 0
214 0 0
214 0 0
212 0 0
215 0 0
215 0 0
215 0 0
214 0 0
215 0 0
216 0 0
218 0 0
217 0 0
214 0 0
0 0 255
0 0 254
0 0 254
0 0 255
0 0 255
0 0 254
0 0 255
0 0 255
0 0 255
0 0 254
0 0 255
0 0 253
0 0 255
0 0 254
0 0 255
0 0 255
0 0 255
0 0 255
0 0 255
0 0 254
0 0 255
0 0 254
0 0 252
0 0 254
0 0 254
0 0 255
0 0 255
0 0 254
0 0 255
0 0 254
0 0 255
0 0 255
0 0 255
0 0 255
0 0 254
0 0 254
0 0 254
0 0 255
0 0 254
0 0 255
0 0 255
0 0 255
0 0 252
0 0 254
0 0 254
0 0 254
0 0 254
0 0 254
0 0 253
0 0 254
0 0 253
0 0 254
0 0 252
0 0 253
0 0 253
0 0 255
0 0 255
0 0 254
0 0 253
0 0 255
0 0 255
0 0 254
0 0 252
0 0 255
0 0 253
0 0 255
0 0 248
0 0 253
0 0 255
0 0 254
0 0 253
0 0 249
0 0 254
0 0 252
0 0 253
0 0 254
0 0 254
0 0 253
0 0 252
0 0 252
0 0 254
0 0 255
0 0 253
0 0 254
0 0 254
0 0 252
0 0 253
0 0 253
0 0 249
0 0 254
0 0 252
0 0 253
0 0 254
0 0 250
0 0 253
0 0 253
0 0 252
0 0 250
0 0 249
0 0 252
0 0 249
0 0 252
0 0 252
0 0 252
0 0 250
0 0 249
0 0 249
0 0 250
0 0 249
0 0 250
0 0 249
0 0 241
0 0 252
0 0 252
0 0 246
0 0 248
0 0 248
0 0 250
0 0 246
0 0 253
0 0 250
0 0 252
0 0 248
0 0 250
0 0 250
0 0 240
0 0 245
0 0 246
0 0 248
0 0 248
0 0 249
0 0 249
0 0 244
0 0 249
0 0 244
0 0 249
0 0 244
0 0 244
0 0 242
0 0 246
0 0 242
0 0 250
0 0 240
0 0 248
0 0 242
0 0 252
0 0 248
0 0 244
0 0 237
0 0 238
0 0 240
0 0 228
0 0 242
0 0 241
0 0 234
0 0 246
0 0 238
0 0 244
0 0 226
0 0 236
0 0 236
0 0 238
0 0 237
0 0 245
0 0 237
0 0 240
0 0 242
0 0 228
0 0 234
0 0 236
0 0 233
0 0 223
0 0 227
0 0 233
133 148 244
203 226 255
203 226 255
203 226 255
203 226 255
203 226 255
203 226 255
203 225 255
203 225 255
203 225 255
203 225 255
203 225 255
203 225 255
203 225 255
203 225 255
203 225 255
203 225 255
203 225 255
203 225 255
203 225 255
203 225 255
203 225 255
203 225 255
203 225 255
203 225 255
203 225 255
203 225 255
203 225 255
203 225 255
203 225 255
203 225 255
203 225 255
203 225 255
203 225 255
203 225 255
203 225 255
203 225 255
203 225 255
203 225 255
203 225 255
203 225 255
203 225 255
203 225 255
203 225 255
203 225 255
203 226 255
203 226 255
203 226 255
203 226 255
203 226 255
203 226 255
192 144 163
175 0 0
185 0 0
184 0 0
181 0 0
182 0 0
184 0 0
183 0 0
179 0 0
187 0 0
177 0 0
190 0 0
188 0 0
190 0 0
191 0 0
202 0 0
195 0 0
195 0 0
195 0 0
200 0 0
193 0 0
187 0 0
194 0 0
199 0 0
199 0 0
201 0 0
193 0 0
196 0 0
202 0 0
204 0 0
204 0 0
202 0 0
193 0 0
203 0 0
205 0 0
201 0 0
205 0 0
201 0 0
205 0 0
201 0 0
199 0 0
197 0 0
207 0 0
204 0 0
200 0 0
198 0 0
202 0 0
205 0 0
205 0 0
205 0 0
207 0 0
205 0 0
205 0 0
203 0 0
205 0 0
211 0 0
210 0 0
207 0 0
207 0 0
208 0 0
209 0 0
208 0 0
207 0 0
209 0 0
206 0 0
206 0 0
204 0 0
211 0 0
210 0 0
210 0 0
211 0 0
209 0 0
204 0 0
209 0 0
210 0 0
209 0 0
207 0 0
211 0 0
207 0 0
206 0 0
210 0 0
211 0 0
212 0 0
216 0 0
208 0 0
213 0 0
210 0 0
209 0 0
212 0 0
211 0 0
206 0 0
209 0 0
214 0 0
213 0 0
215 0 0
212 0 0
214 0 0
206 0 0
214 0 0
212 0 0
213 0 0
212 0 0
210 0 0
208 0 0
212 0 0
209 0 0
210 0 0
213 0 0
215 0 0
210 0 0
212 0 0
213 0 0
207 0 0
213 0 0
212 0 0
209 0 0
212 0 0
212 0 0
210 0 0
209 0 0
214 0 0
216 0 0
214 0 0
213 0 0
210 0 0
209 0 0
207 0 0
212 0 0
209 0 0
216 0 0
216 0 0
215 0 0
214 0 0
213 0 0
215 0 0
215 0 0
212 0 0
213 0 0
215 0 0
214 0 0
216 0 0
213 0 0
213 0 0
210 0 0
214 0 0
215 0 0
210 0 0
214 0 0
213 0 0
211 0 0
213 0 0
214 0 0
215 0 0
211 0 0
214 0 0
215 0 0
214 0 0
212 0 0
210 0 0
213 0 0
212 0 0
216 0 0
211 0 0
216 0 0
218 0 0
216 0 0
215 0 0
212 0 0
215 0 0
216 0 0
217 0 0
217 0 0
217 0 0
213 0 0
212 0 0
0 0 255
0 0 255
0 0 254
0 0 255
0 0 254
0 0 255
0 0 255
0 0 254
0 0 254
0 0 253
0 0 255
0 0 255
0 0 253
0 0 254
0 0 255
0 0 255
0 0 255
0 0 254
0 0 255
0 0 255
0 0 254
0 0 254
0 0 255
0 0 254
0 0 254
0 0 253
0 0 255
0 0 255
0 0 255
0 0 255
0 0 255
0 0 255
0 0 253
0 0 255
0 0 253
0 0 254
0 0 254
0 0 255
0 0 252
0 0 252
0 0 255
0 0 254
0 0 255
0 0 254
0 0 252
0 0 254
0 0 254
0 0 250
0 0 254
0 0 255
0 0 252
0 0 253
0 0 254
0 0 252
0 0 255
0 0 254
0 0 254
0 0 254
0 0 252
0 0 253
0 0 254
0 0 254
0 0 253
0 0 250
0 0 255
0 0 249
0 0 255
0 0 250
0 0 254
0 0 255
0 0 253
0 0 252
0 0 253
0 0 253
0 0 255
0 0 254
0 0 254
0 0 253
0 0 249
0 0 250
0 0 253
0 0 250
0 0 253
0 0 253
0 0 253
0 0 252
0 0 254
0 0 249
0 0 253
0 0 252
0 0 254
0 0 254
0 0 250
0 0 248
0 0 253
0 0 252
0 0 252
0 0 246
0 0 248
0 0 252
0 0 249
0 0 244
0 0 252
0 0 246
0 0 248
0 0 250
0 0 241
0 0 245
0 0 250
0 0 254
0 0 250
0 0 252
0 0 250
0 0 245
0 0 250
0 0 246
0 0 248
0 0 248
0 0 249
0 0 246
0 0 252
0 0 246
0 0 242
0 0 248
0 0 245
0 0 244
0 0 245
0 0 246
0 0 241
0 0 245
0 0 230
0 0 245
0 0 244
0 0 246
0 0 248
0 0 244
0 0 244
0 0 242
0 0 240
0 0 244
0 0 244
0 0 240
0 0 249
0 0 237
0 0 233
0 0 250
0 0 240
0 0 249
0 0 246
0 0 240
0 0 238
0 0 244
0 0 245
0 0 236
0 0 231
0 0 240
0 0 244
0 0 241
0 0 238
0 0 237
0 0 237
0 0 234
0 0 238
0 0 236
0 0 236
0 0 241
0 0 238
0 0 227
0 0 233
0 0 242
0 0 233
0 0 236
0 0 226
0 0 220
0 0 233
157 175 248
203 226 255
203 226 255
203 226 255
203 226 255
203 226 255
203 226 255
203 226 255
203 226 255
203 226 255
203 226 255
203 226 255
203 226 255
203 226 255
203 226 255
203 226 255
203 226 255
203 226 255
203 226 255
203 226 255
203 226 255
203 226 255
203 226 255
203 226 255
203 226 255
203 226 255
203 226 255
203 226 255
203 226 255
203 226 255
203 226 255
203 226 255
203 226 255
203 226 255
203 226 255
203 226 255
203 226 255
203 226 255
203 226 255
203 226 255
203 226 255
203 226 255
203 226 255
203 226 255
203 226 255
203 226 255
203 226 255
203 226 255
203 226 255
195 144 163
182 0 0
185 0 0
175 0 0
179 0 0
180 0 0
188 0 0
178 0 0
188 0 0
182 0 0
186 0 0
189 0 0
194 0 0
187 0 0
187 0 0
189 0 0
195 0 0
188 0 0
188 0 0
195 0 0
192 0 0
190 0 0
196 0 0
186 0 0
195 0 0
197 0 0
196 0 0
197 0 0
205 0 0
196 0 0
205 0 0
204 0 0
202 0 0
204 0 0
206 0 0
202 0 0
202 0 0
198 0 0
201 0 0
203 0 0
206 0 0
202 0 0
203 0 0
207 0 0
204 0 0
205 0 0
197 0 0
207 0 0
197 0 0
200 0 0
198 0 0
201 0 0
204 0 0
210 0 0
210 0 0
202 0 0
202 0 0
207 0 0
204 0 0
211 0 0
200 0 0
207 0 0
206 0 0
203 0 0
204 0 0
210 0 0
204 0 0
206 0 0
211 0 0
207 0 0
202 0 0
206 0 0
212 0 0
208 0 0
204 0 0
208 0 0
207 0 0
205 0 0
209 0 0
208 0 0
212 0 0
209 0 0
208 0 0
206 0 0
210 0 0
209 0 0
211 0 0
209 0 0
213 0 0
210 0 0
213 0 0
212 0 0
210 0 0
211 0 0
212 0 0
209 0 0
213 0 0
211 0 0
209 0 0
214 0 0
211 0 0
210 0 0
213 0 0
212 0 0
210 0 0
211 0 0
214 0 0
212 0 0
210 0 0
217 0 0
213 0 0
211 0 0
208 0 0
209 0 0
211 0 0
213 0 0
212 0 0
212 0 0
215 0 0
212 0 0
215 0 0
215 0 0
213 0 0
211 0 0
212 0 0
212 0 0
213 0 0
218 0 0
215 0 0
214 0 0
213 0 0
216 0 0
209 0 0
213 0 0
214 0 0
213 0 0
214 0 0
213 0 0
211 0 0
215 0 0
215 0 0
212 0 0
214 0 0
211 0 0
215 0 0
208 0 0
214 0 0
213 0 0
217 0 0
217 0 0
213 0 0
214 0 0
214 0 0
214 0 0
215 0 0
216 0 0
215 0 0
215 0 0
214 0 0
217 0 0
216 0 0
215 0 0
213 0 0
215 0 0
215 0 0
213 0 0
218 0 0
216 0 0
212 0 0
216 0 0
212 0 0
213 0 0
215 0 0
217 0 0
213 0 0
213 0 0
0 0 255
0 0 255
0 0 255
0 0 254
0 0 254
0 0 255
0 0 255
0 0 255
0 0 255
0 0 255
0 0 255
0 0 255
0 0 255
0 0 255
0 0 255
0 0 253
0 0 255
0 0 255
0 0 253
0 0 253
0 0 254
0 0 255
0 0 255
0 0 254
0 0 254
0 0 255
0 0 254
0 0 255
0 0 255
0 0 255
0 0 252
0 0 254
0 0 254
0 0 254
0 0 255
0 0 253
0 0 255
0 0 254
0 0 254
0 0 255
0 0 254
0 0 253
0 0 255
0 0 253
0 0 254
0 0 255
0 0 254
0 0 253
0 0 252
0 0 252
0 0 254
0 0 254
0 0 254
0 0 255
0 0 254
0 0 254
0 0 252
0 0 255
0 0 252
0 0 255
0 0 250
0 0 254
0 0 254
0 0 254
0 0 255
0 0 252
0 0 252
0 0 250
0 0 248
0 0 252
0 0 254
0 0 250
0 0 254
0 0 255
0 0 250
0 0 250
0 0 250
0 0 253
0 0 253
0 0 255
0 0 253
0 0 252
0 0 248
0 0 253
0 0 250
0 0 253
0 0 252
0 0 248
0 0 253
0 0 250
0 0 252
0 0 246
0 0 252
0 0 253
0 0 254
0 0 252
0 0 255
0 0 242
0 0 252
0 0 249
0 0 248
0 0 252
0 0 254
0 0 250
0 0 254
0 0 250
0 0 253
0 0 246
0 0 246
0 0 249
0 0 250
0 0 253
0 0 248
0 0 249
0 0 249
0 0 250
0 0 245
0 0 246
0 0 252
0 0 248
0 0 249
0 0 245
0 0 252
0 0 242
0 0 254
0 0 249
0 0 250
0 0 245
0 0 248
0 0 253
0 0 250
0 0 240
0 0 241
0 0 242
0 0 246
0 0 248
0 0 248
0 0 241
0 0 244
0 0 248
0 0 250
0 0 237
0 0 244
0 0 248
0 0 246
0 0 242
0 0 241
0 0 238
0 0 238
0 0 238
0 0 240
0 0 236
0 0 238
0 0 240
0 0 240
0 0 237
0 0 234
0 0 228
0 0 231
0 0 242
0 0 230
0 0 234
0 0 228
0 0 244
0 0 240
0 0 227
0 0 237
0 0 236
0 0 231
0 0 234
0 0 227
0 0 224
0 0 220
0 0 214
0 0 230
0 0 228
176 195 252
204 226 255
204 226 255
204 226 255
204 226 255
204 226 255
204 226 255
203 226 255
203 226 255
203 226 255
203 226 255
203 226 255
203 226 255
203 226 255
203 226 255
203 226 255
203 226 255
203 226 255
203 226 255
203 226 255
203 226 255
203 226 255
203 226 255
203 226 255
203 226 255
203 226 255
203 226 255
203 226 255
203 226 255
203 226 255
203 226 255
203 226 255
203 226 255
203 226 255
203 226 255
203 226 255
203 226 255
203 226 255
203 226 255
203 226 255
203 226 255
203 226 255
204 226 255
204 226 255
204 226 255
204 226 255
204 226 255
198 183 207
182 22 25
185 0 0
174 0 0
178 0 0
174 0 0
185 0 0
195 0 0
189 0 0
194 0 0
195 0 0
188 0 0
191 0 0
195 0 0
186 0 0
191 0 0
192 0 0
192 0 0
191 0 0
197 0 0
196 0 0
198 0 0
198 0 0
200 0 0
187 0 0
197 0 0
196 0 0
200 0 0
196 0 0
195 0 0
201 0 0
206 0 0
196 0 0
189 0 0
194 0 0
203 0 0
202 0 0
199 0 0
199 0 0
204 0 0
206 0 0
208 0 0
201 0 0
200 0 0
202 0 0
203 0 0
210 0 0
202 0 0
201 0 0
201 0 0
201 0 0
200 0 0
209 0 0
203 0 0
199 0 0
203 0 0
209 0 0
206 0 0
207 0 0
199 0 0
208 0 0
203 0 0
205 0 0
205 0 0
204 0 0
211 0 0
210 0 0
207 0 0
201 0 0
208 0 0
205 0 0
208 0 0
209 0 0
209 0 0
205 0 0
208 0 0
208 0 0
210 0 0
205 0 0
210 0 0
208 0 0
210 0 0
210 0 0
209 0 0
207 0 0
206 0 0
209 0 0
209 0 0
213 0 0
209 0 0
209 0 0
210 0 0
208 0 0
207 0 0
215 0 0
208 0 0
211 0 0
213 0 0
209 0 0
212 0 0
212 0 0
214 0 0
210 0 0
214 0 0
212 0 0
212 0 0
213 0 0
210 0 0
208 0 0
213 0 0
212 0 0
212 0 0
212 0 0
212 0 0
213 0 0
214 0 0
216 0 0
213 0 0
212 0 0
215 0 0
210 0 0
216 0 0
212 0 0
216 0 0
213 0 0
210 0 0
212 0 0
211 0 0
213 0 0
209 0 0
220 0 0
213 0 0
213 0 0
216 0 0
212 0 0
218 0 0
216 0 0
216 0 0
212 0 0
215 0 0
213 0 0
217 0 0
215 0 0
213 0 0
214 0 0
211 0 0
214 0 0
215 0 0
215 0 0
214 0 0
215 0 0
214 0 0
214 0 0
215 0 0
212 0 0
213 0 0
218 0 0
213 0 0
213 0 0
211 0 0
216 0 0
214 0 0
213 0 0
214 0 0
216 0 0
214 0 0
209 0 0
213 0 0
217 0 0
212 0 0
215 0 0
213 0 0
216 0 0
215 0 0
213 0 0
210 0 0
215 0 0
0 0 255
0 0 255
0 0 254
0 0 255
0 0 253
0 0 255
0 0 255
0 0 255
0 0 253
0 0 254
0 0 255
0 0 255
0 0 254
0 0 254
0 0 255
0 0 254
0 0 255
0 0 255
0 0 254
0 0 255
0 0 255
0 0 255
0 0 255
0 0 254
0 0 254
0 0 255
0 0 254
0 0 253
0 0 255
0 0 253
0 0 254
0 0 255
0 0 255
0 0 255
0 0 253
0 0 254
0 0 250
0 0 254
0 0 253
0 0 255
0 0 255
0 0 254
0 0 255
0 0 253
0 0 255
0 0 253
0 0 253
0 0 255
0 0 255
0 0 254
0 0 253
0 0 253
0 0 255
0 0 253
0 0 253
0 0 252
0 0 252
0 0 255
0 0 254
0 0 255
0 0 250
0 0 254
0 0 252
0 0 253
0 0 253
0 0 253
0 0 250
0 0 255
0 0 255
0 0 253
0 0 252
0 0 253
0 0 250
0 0 253
0 0 255
0 0 246
0 0 252
0 0 250
0 0 252
0 0 254
0 0 246
0 0 254
0 0 248
0 0 252
0 0 254
0 0 254
0 0 253
0 0 253
0 0 249
0 0 250
0 0 254
0 0 248
0 0 249
0 0 255
0 0 250
0 0 255
0 0 252
0 0 248
0 0 250
0 0 249
0 0 248
0 0 249
0 0 249
0 0 249
0 0 250
0 0 252
0 0 249
0 0 250
0 0 252
0 0 252
0 0 252
0 0 248
0 0 250
0 0 248
0 0 248
0 0 249
0 0 245
0 0 249
0 0 249
0 0 253
0 0 249
0 0 241
0 0 253
0 0 250
0 0 246
0 0 246
0 0 242
0 0 245
0 0 244
0 0 244
0 0 242
0 0 246
0 0 249
0 0 242
0 0 241
0 0 245
0 0 242
0 0 238
0 0 242
0 0 248
0 0 241
0 0 240
0 0 245
0 0 253
0 0 231
0 0 237
0 0 237
0 0 240
0 0 240
0 0 241
0 0 240
0 0 240
0 0 242
0 0 244
0 0 244
0 0 237
0 0 233
0 0 236
0 0 233
0 0 242
0 0 242
0 0 233
0 0 240
0 0 233
0 0 238
0 0 230
0 0 226
0 0 236
0 0 230
0 0 221
0 0 228
0 0 227
0 0 231
0 0 231
0 0 224
0 0 226
35 39 230
185 205 253
204 226 255
204 226 255
204 226 255
204 226 255
204 226 255
204 226 255
204 226 255
204 226 255
204 226 255
204 226 255
204 226 255
204 226 255
204 226 255
204 226 255
204 226 255
204 226 255
204 226 255
204 226 255
204 226 255
204 226 255
204 226 255
204 226 255
204 226 255
204 226 255
204 226 255
204 226 255
204 226 255
204 226 255
204 226 255
204 226 255
204 226 255
204 226 255
204 226 255
204 226 255
204 226 255
204 226 255
204 226 255
204 226 255
204 226 255
204 226 255
204 226 255
204 226 255
204 226 255
204 226 255
196 192 217
178 45 51
176 0 0
171 0 0
177 0 0
184 0 0
182 0 0
184 0 0
176 0 0
174 0 0
186 0 0
187 0 0
193 0 0
190 0 0
191 0 0
194 0 0
194 0 0
184 0 0
188 0 0
188 0 0
189 0 0
194 0 0
185 0 0
202 0 0
201 0 0
199 0 0
202 0 0
196 0 0
203 0 0
195 0 0
200 0 0
192 0 0
204 0 0
199 0 0
194 0 0
194 0 0
198 0 0
201 0 0
206 0 0
204 0 0
199 0 0
199 0 0
206 0 0
203 0 0
201 0 0
204 0 0
196 0 0
200 0 0
199 0 0
199 0 0
196 0 0
204 0 0
209 0 0
208 0 0
203 0 0
203 0 0
202 0 0
206 0 0
207 0 0
210 0 0
200 0 0
203 0 0
211 0 0
206 0 0
201 0 0
203 0 0
210 0 0
209 0 0
212 0 0
209 0 0
208 0 0
204 0 0
201 0 0
208 0 0
209 0 0
209 0 0
202 0 0
211 0 0
213 0 0
212 0 0
212 0 0
213 0 0
207 0 0
211 0 0
207 0 0
204 0 0
212 0 0
212 0 0
207 0 0
210 0 0
208 0 0
207 0 0
212 0 0
208 0 0
213 0 0
213 0 0
213 0 0
214 0 0
214 0 0
210 0 0
206 0 0
207 0 0
215 0 0
212 0 0
210 0 0
211 0 0
218 0 0
211 0 0
212 0 0
208 0 0
213 0 0
211 0 0
213 0 0
213 0 0
214 0 0
212 0 0
214 0 0
213 0 0
211 0 0
214 0 0
211 0 0
213 0 0
215 0 0
212 0 0
213 0 0
213 0 0
210 0 0
214 0 0
213 0 0
213 0 0
215 0 0
214 0 0
212 0 0
214 0 0
214 0 0
211 0 0
217 0 0
212 0 0
213 0 0
213 0 0
209 0 0
213 0 0
215 0 0
213 0 0
215 0 0
212 0 0
213 0 0
214 0 0
211 0 0
213 0 0
216 0 0
215 0 0
216 0 0
211 0 0
214 0 0
218 0 0
218 0 0
216 0 0
214 0 0
210 0 0
209 0 0
216 0 0
213 0 0
213 0 0
213 0 0
215 0 0
213 0 0
216 0 0
215 0 0
212 0 0
218 0 0
214 0 0
217 0 0
215 0 0
213 0 0
214 0 0
216 0 0
216 0 0
0 0 255
0 0 254
0 0 255
0 0 255
0 0 255
0 0 255
0 0 255
0 0 255
0 0 255
0 0 255
0 0 254
0 0 254
0 0 255
0 0 254
0 0 255
0 0 255
0 0 254
0 0 255
0 0 255
0 0 254
0 0 255
0 0 253
0 0 254
0 0 255
0 0 255
0 0 255
0 0 255
0 0 255
0 0 255
0 0 253
0 0 252
0 0 252
0 0 254
0 0 254
0 0 254
0 0 252
0 0 254
0 0 255
0 0 254
0 0 255
0 0 253
0 0 254
0 0 255
0 0 255
0 0 255
0 0 254
0 0 255
0 0 254
0 0 255
0 0 253
0 0 255
0 0 255
0 0 253
0 0 253
0 0 255
0 0 254
0 0 255
0 0 253
0 0 255
0 0 254
0 0 253
0 0 253
0 0 253
0 0 253
0 0 254
0 0 255
0 0 255
0 0 253
0 0 254
0 0 255
0 0 254
0 0 254
0 0 254
0 0 252
0 0 255
0 0 255
0 0 253
0 0 252
0 0 253
0 0 248
0 0 254
0 0 253
0 0 252
0 0 252
0 0 250
0 0 252
0 0 250
0 0 250
0 0 250
0 0 254
0 0 248
0 0 253
0 0 253
0 0 248
0 0 253
0 0 252
0 0 253
0 0 249
0 0 252
0 0 246
0 0 252
0 0 255
0 0 250
0 0 250
0 0 249
0 0 248
0 0 245
0 0 245
0 0 253
0 0 246
0 0 252
0 0 246
0 0 253
0 0 249
0 0 252
0 0 249
0 0 248
0 0 246
0 0 249
0 0 249
0 0 250
0 0 249
0 0 246
0 0 248
0 0 246
0 0 250
0 0 246
0 0 252
0 0 246
0 0 250
0 0 246
0 0 244
0 0 250
0 0 252
0 0 245
0 0 240
0 0 241
0 0 250
0 0 244
0 0 244
0 0 244
0 0 242
0 0 241
0 0 248
0 0 244
0 0 241
0 0 237
0 0 244
0 0 238
0 0 241
0 0 244
0 0 238
0 0 241
0 0 241
0 0 234
0 0 237
0 0 242
0 0 233
0 0 228
0 0 234
0 0 238
0 0 230
0 0 240
0 0 237
0 0 231
0 0 217
0 0 234
0 0 230
0 0 228
0 0 215
0 0 230
0 0 236
0 0 230
0 0 224
0 0 223
0 0 217
0 0 231
50 55 221
185 205 252
204 226 255
204 226 255
204 226 255
204 226 255
204 226 255
204 226 255
204 226 255
204 226 255
204 226 255
204 226 255
204 226 255
204 226 255
204 226 255
204 226 255
204 226 255
204 226 255
204 226 255
204 226 255
204 226 255
204 226 255
204 226 255
204 226 255
204 226 255
204 226 255
204 226 255
204 226 255
204 226 255
204 226 255
204 226 255
204 226 255
204 226 255
204 226 255
204 226 255
204 226 255
204 226 255
204 226 255
204 226 255
204 226 255
204 226 255
204 226 255
204 226 255
204 226 255
203 216 244
175 71 80
176 0 0
174 0 0
176 0 0
180 0 0
179 0 0
190 0 0
188 0 0
185 0 0
182 0 0
185 0 0
183 0 0
194 0 0
192 0 0
189 0 0
188 0 0
196 0 0
195 0 0
188 0 0
196 0 0
196 0 0
197 0 0
190 0 0
194 0 0
191 0 0
200 0 0
200 0 0
194 0 0
196 0 0
205 0 0
202 0 0
195 0 0
198 0 0
199 0 0
196 0 0
199 0 0
198 0 0
194 0 0
201 0 0
196 0 0
200 0 0
204 0 0
205 0 0
200 0 0
211 0 0
201 0 0
194 0 0
208 0 0
202 0 0
208 0 0
199 0 0
205 0 0
202 0 0
205 0 0
202 0 0
202 0 0
209 0 0
203 0 0
209 0 0
204 0 0
203 0 0
214 0 0
199 0 0
203 0 0
206 0 0
210 0 0
207 0 0
210 0 0
210 0 0
205 0 0
210 0 0
213 0 0
206 0 0
210 0 0
198 0 0
206 0 0
208 0 0
204 0 0
211 0 0
208 0 0
209 0 0
207 0 0
210 0 0
212 0 0
212 0 0
210 0 0
215 0 0
211 0 0
210 0 0
212 0 0
209 0 0
215 0 0
209 0 0
215 0 0
212 0 0
207 0 0
213 0 0
213 0 0
210 0 0
210 0 0
213 0 0
211 0 0
211 0 0
211 0 0
212 0 0
211 0 0
212 0 0
213 0 0
209 0 0
211 0 0
213 0 0
213 0 0
214 0 0
214 0 0
217 0 0
217 0 0
214 0 0
216 0 0
211 0 0
213 0 0
214 0 0
216 0 0
213 0 0
208 0 0
215 0 0
215 0 0
217 0 0
213 0 0
215 0 0
215 0 0
211 0 0
212 0 0
214 0 0
213 0 0
213 0 0
212 0 0
211 0 0
213 0 0
213 0 0
214 0 0
213 0 0
214 0 0
214 0 0
213 0 0
219 0 0
212 0 0
214 0 0
214 0 0
217 0 0
216 0 0
212 0 0
214 0 0
214 0 0
216 0 0
212 0 0
215 0 0
212 0 0
213 0 0
216 0 0
216 0 0
215 0 0
216 0 0
212 0 0
212 0 0
216 0 0
215 0 0
215 0 0
214 0 0
212 0 0
215 0 0
215 0 0
216 0 0
215 0 0
215 0 0
216 0 0
217 0 0
213 0 0
214 0 0
0 0 255
0 0 255
0 0 255
0 0 255
0 0 255
0 0 255
0 0 254
0 0 253
0 0 255
0 0 254
0 0 255
0 0 255
0 0 253
0 0 255
0 0 255
0 0 255
0 0 255
0 0 254
0 0 255
0 0 254
0 0 255
0 0 255
0 0 254
0 0 255
0 0 254
0 0 255
0 0 252
0 0 253
0 0 253
0 0 255
0 0 255
0 0 255
0 0 254
0 0 254
0 0 255
0 0 255
0 0 254
0 0 255
0 0 254
0 0 254
0 0 254
0 0 255
0 0 254
0 0 253
0 0 253
0 0 255
0 0 253
0 0 250
0 0 254
0 0 254
0 0 253
0 0 255
0 0 252
0 0 254
0 0 254
0 0 255
0 0 254
0 0 253
0 0 255
0 0 254
0 0 253
0 0 252
0 0 254
0 0 255
0 0 253
0 0 255
0 0 253
0 0 255
0 0 254
0 0 252
0 0 246
0 0 254
0 0 253
0 0 252
0 0 254
0 0 250
0 0 254
0 0 255
0 0 253
0 0 248
0 0 254
0 0 254
0 0 249
0 0 252
0 0 252
0 0 250
0 0 250
0 0 252
0 0 252
0 0 252
0 0 252
0 0 248
0 0 254
0 0 252
0 0 252
0 0 254
0 0 250
0 0 250
0 0 254
0 0 253
0 0 249
0 0 249
0 0 249
0 0 245
0 0 249
0 0 254
0 0 250
0 0 249
0 0 248
0 0 244
0 0 250
0 0 252
0 0 252
0 0 249
0 0 249
0 0 248
0 0 252
0 0 248
0 0 249
0 0 250
0 0 249
0 0 245
0 0 245
0 0 249
0 0 250
0 0 250
0 0 248
0 0 253
0 0 250
0 0 244
0 0 246
0 0 246
0 0 248
0 0 236
0 0 246
0 0 244
0 0 240
0 0 246
0 0 237
0 0 250
0 0 244
0 0 245
0 0 249
0 0 241
0 0 245
0 0 241
0 0 244
0 0 240
0 0 241
0 0 238
0 0 242
0 0 241
0 0 242
0 0 241
0 0 234
0 0 236
0 0 227
0 0 237
0 0 226
0 0 236
0 0 230
0 0 237
0 0 230
0 0 233
0 0 238
0 0 234
0 0 241
0 0 226
0 0 230
0 0 227
0 0 223
0 0 231
0 0 221
0 0 224
0 0 227
0 0 228
0 0 233
0 0 206
73 81 230
199 220 255
204 226 255
204 226 255
204 226 255
204 226 255
204 226 255
204 226 255
204 226 255
204 226 255
204 226 255
204 226 255
204 226 255
204 226 255
204 226 255
204 226 255
204 226 255
204 226 255
204 226 255
204 226 255
204 226 255
204 226 255
204 226 255
204 226 255
204 226 255
204 226 255
204 226 255
204 226 255
204 226 255
204 226 255
204 226 255
204 226 255
204 226 255
204 226 255
204 226 255
204 226 255
204 226 255
204 226 255
204 226 255
204 226 255
204 226 255
204 226 255
203 220 249
182 87 99
182 0 0
171 0 0
180 0 0
182 0 0
183 0 0
176 0 0
184 0 0
190 0 0
185 0 0
176 0 0
191 0 0
187 0 0
197 0 0
199 0 0
196 0 0
187 0 0
191 0 0
193 0 0
191 0 0
199 0 0
193 0 0
188 0 0
191 0 0
194 0 0
205 0 0
206 0 0
194 0 0
195 0 0
196 0 0
194 0 0
196 0 0
201 0 0
192 0 0
199 0 0
202 0 0
200 0 0
197 0 0
190 0 0
203 0 0
208 0 0
205 0 0
205 0 0
201 0 0
205 0 0
212 0 0
200 0 0
204 0 0
207 0 0
207 0 0
208 0 0
204 0 0
205 0 0
200 0 0
199 0 0
207 0 0
208 0 0
207 0 0
206 0 0
207 0 0
204 0 0
207 0 0
210 0 0
204 0 0
209 0 0
204 0 0
202 0 0
208 0 0
202 0 0
207 0 0
205 0 0
208 0 0
212 0 0
210 0 0
204 0 0
211 0 0
209 0 0
215 0 0
209 0 0
206 0 0
207 0 0
204 0 0
208 0 0
209 0 0
214 0 0
207 0 0
209 0 0
210 0 0
204 0 0
213 0 0
210 0 0
212 0 0
208 0 0
211 0 0
213 0 0
214 0 0
213 0 0
212 0 0
211 0 0
215 0 0
213 0 0
215 0 0
212 0 0
211 0 0
212 0 0
212 0 0
211 0 0
208 0 0
214 0 0
213 0 0
212 0 0
214 0 0
214 0 0
215 0 0
213 0 0
214 0 0
213 0 0
212 0 0
213 0 0
214 0 0
215 0 0
208 0 0
214 0 0
212 0 0
211 0 0
213 0 0
210 0 0
216 0 0
216 0 0
210 0 0
215 0 0
213 0 0
215 0 0
218 0 0
213 0 0
215 0 0
215 0 0
211 0 0
217 0 0
216 0 0
216 0 0
213 0 0
212 0 0
215 0 0
220 0 0
212 0 0
216 0 0
216 0 0
216 0 0
215 0 0
213 0 0
213 0 0
215 0 0
213 0 0
214 0 0
210 0 0
210 0 0
214 0 0
210 0 0
214 0 0
219 0 0
214 0 0
215 0 0
213 0 0
214 0 0
218 0 0
216 0 0
215 0 0
215 0 0
214 0 0
217 0 0
220 0 0
214 0 0
214 0 0
214 0 0
214 0 0
215 0 0
214 0 0
214 0 0
0 0 255
0 0 255
0 0 254
0 0 255
0 0 255
0 0 255
0 0 254
0 0 252
0 0 255
0 0 255
0 0 254
0 0 255
0 0 254
0 0 255
0 0 255
0 0 255
0 0 255
0 0 255
0 0 255
0 0 254
0 0 254
0 0 254
0 0 252
0 0 254
0 0 254
0 0 255
0 0 255
0 0 253
0 0 254
0 0 254
0 0 254
0 0 254
0 0 255
0 0 255
0 0 255
0 0 254
0 0 254
0 0 255
0 0 254
0 0 255
0 0 254
0 0 255
0 0 253
0 0 254
0 0 253
0 0 253
0 0 255
0 0 252
0 0 255
0 0 254
0 0 254
0 0 253
0 0 254
0 0 253
0 0 252
0 0 253
0 0 253
0 0 254
0 0 253
0 0 254
0 0 253
0 0 254
0 0 249
0 0 255
0 0 255
0 0 255
0 0 254
0 0 254
0 0 250
0 0 253
0 0 255
0 0 253
0 0 253
0 0 254
0 0 252
0 0 252
0 0 253
0 0 252
0 0 254
0 0 254
0 0 249
0 0 253
0 0 252
0 0 250
0 0 250
0 0 252
0 0 250
0 0 252
0 0 255
0 0 252
0 0 254
0 0 246
0 0 254
0 0 252
0 0 252
0 0 253
0 0 250
0 0 253
0 0 253
0 0 252
0 0 252
0 0 249
0 0 249
0 0 249
0 0 252
0 0 250
0 0 252
0 0 250
0 0 248
0 0 250
0 0 250
0 0 250
0 0 250
0 0 248
0 0 240
0 0 248
0 0 249
0 0 248
0 0 242
0 0 248
0 0 249
0 0 250
0 0 254
0 0 249
0 0 248
0 0 244
0 0 249
0 0 242
0 0 242
0 0 252
0 0 234
0 0 241
0 0 249
0 0 249
0 0 241
0 0 249
0 0 245
0 0 241
0 0 241
0 0 241
0 0 245
0 0 244
0 0 241
0 0 246
0 0 242
0 0 238
0 0 238
0 0 234
0 0 238
0 0 242
0 0 236
0 0 244
0 0 237
0 0 244
0 0 233
0 0 237
0 0 242
0 0 236
0 0 233
0 0 244
0 0 245
0 0 234
0 0 241
0 0 233
0 0 214
0 0 215
0 0 231
0 0 218
0 0 236
0 0 231
0 0 234
0 0 233
0 0 228
0 0 228
0 0 221
0 0 224
0 0 226
0 0 224
0 0 217
100 111 233
205 226 255
205 226 255
204 226 255
204 226 255
204 226 255
204 226 255
204 226 255
204 226 255
204 226 255
204 226 255
204 226 255
204 226 255
204 226 255
204 226 255
204 226 255
204 226 255
204 226 255
204 226 255
204 226 255
204 226 255
204 226 255
204 226 255
204 226 255
204 226 255
204 226 255
204 226 255
204 226 255
204 226 255
204 226 255
204 226 255
204 226 255
204 226 255
204 226 255
204 226 255
204 226 255
204 226 255
204 226 255
205 226 255
205 226 255
204 224 253
179 134 151
172 0 0
172 0 0
176 0 0
177 0 0
179 0 0
178 0 0
177 0 0
179 0 0
180 0 0
181 0 0
187 0 0
186 0 0
191 0 0
186 0 0
190 0 0
189 0 0
187 0 0
180 0 0
190 0 0
188 0 0
192 0 0
201 0 0
195 0 0
195 0 0
194 0 0
199 0 0
199 0 0
203 0 0
197 0 0
200 0 0
196 0 0
202 0 0
200 0 0
200 0 0
184 0 0
203 0 0
191 0 0
203 0 0
198 0 0
197 0 0
201 0 0
210 0 0
199 0 0
197 0 0
201 0 0
205 0 0
206 0 0
205 0 0
204 0 0
201 0 0
208 0 0
201 0 0
205 0 0
202 0 0
212 0 0
210 0 0
202 0 0
204 0 0
207 0 0
211 0 0
202 0 0
209 0 0
205 0 0
203 0 0
208 0 0
207 0 0
211 0 0
207 0 0
204 0 0
207 0 0
211 0 0
203 0 0
207 0 0
204 0 0
208 0 0
208 0 0
214 0 0
203 0 0
212 0 0
211 0 0
212 0 0
203 0 0
204 0 0
201 0 0
212 0 0
209 0 0
217 0 0
214 0 0
213 0 0
212 0 0
212 0 0
214 0 0
210 0 0
211 0 0
211 0 0
211 0 0
205 0 0
213 0 0
209 0 0
214 0 0
210 0 0
210 0 0
212 0 0
212 0 0
212 0 0
211 0 0
215 0 0
210 0 0
213 0 0
214 0 0
210 0 0
212 0 0
212 0 0
215 0 0
208 0 0
211 0 0
209 0 0
211 0 0
211 0 0
217 0 0
212 0 0
213 0 0
215 0 0
213 0 0
214 0 0
216 0 0
216 0 0
207 0 0
214 0 0
213 0 0
217 0 0
213 0 0
214 0 0
214 0 0
210 0 0
214 0 0
213 0 0
213 0 0
214 0 0
213 0 0
213 0 0
214 0 0
216 0 0
217 0 0
215 0 0
215 0 0
216 0 0
216 0 0
215 0 0
216 0 0
210 0 0
218 0 0
216 0 0
217 0 0
215 0 0
214 0 0
218 0 0
218 0 0
212 0 0
216 0 0
213 0 0
213 0 0
213 0 0
214 0 0
218 0 0
213 0 0
217 0 0
212 0 0
217 0 0
215 0 0
214 0 0
215 0 0
213 0 0
213 0 0
214 0 0
215 0 0
216 0 0
218 0 0
217 0 0
0 0 255
0 0 255
0 0 255
0 0 255
0 0 255
0 0 254
0 0 254
0 0 255
0 0 255
0 0 255
0 0 255
0 0 254
0 0 254
0 0 255
0 0 255
0 0 253
0 0 254
0 0 255
0 0 255
0 0 255
0 0 254
0 0 254
0 0 254
0 0 254
0 0 254
0 0 254
0 0 255
0 0 255
0 0 254
0 0 255
0 0 255
0 0 255
0 0 254
0 0 254
0 0 254
0 0 254
0 0 255
0 0 254
0 0 254
0 0 254
0 0 255
0 0 253
0 0 253
0 0 254
0 0 255
0 0 255
0 0 253
0 0 253
0 0 255
0 0 253
0 0 253
0 0 252
0 0 250
0 0 254
0 0 254
0 0 254
0 0 253
0 0 255
0 0 253
0 0 252
0 0 255
0 0 255
0 0 252
0 0 253
0 0 254
0 0 253
0 0 254
0 0 252
0 0 253
0 0 253
0 0 254
0 0 253
0 0 254
0 0 252
0 0 254
0 0 254
0 0 252
0 0 250
0 0 253
0 0 252
0 0 252
0 0 253
0 0 254
0 0 253
0 0 250
0 0 252
0 0 246
0 0 252
0 0 248
0 0 252
0 0 253
0 0 248
0 0 250
0 0 250
0 0 254
0 0 253
0 0 253
0 0 253
0 0 245
0 0 244
0 0 252
0 0 249
0 0 252
0 0 254
0 0 246
0 0 253
0 0 252
0 0 249
0 0 250
0 0 250
0 0 248
0 0 252
0 0 249
0 0 245
0 0 249
0 0 245
0 0 246
0 0 245
0 0 250
0 0 246
0 0 252
0 0 249
0 0 246
0 0 249
0 0 249
0 0 245
0 0 248
0 0 245
0 0 245
0 0 245
0 0 242
0 0 245
0 0 244
0 0 246
0 0 242
0 0 241
0 0 248
0 0 245
0 0 244
0 0 242
0 0 249
0 0 237
0 0 241
0 0 246
0 0 246
0 0 238
0 0 242
0 0 238
0 0 245
0 0 240
0 0 246
0 0 246
0 0 237
0 0 244
0 0 237
0 0 236
0 0 236
0 0 228
0 0 236
0 0 238
0 0 238
0 0 230
0 0 226
0 0 234
0 0 231
0 0 236
0 0 230
0 0 226
0 0 228
0 0 233
0 0 231
0 0 227
0 0 233
0 0 221
0 0 228
0 0 223
0 0 223
0 0 217
0 0 230
0 0 227
156 172 242
205 226 255
205 226 255
205 226 255
205 226 255
205 226 255
205 226 255
205 226 255
205 226 255
205 226 255
205 226 255
205 226 255
205 226 255
205 226 255
205 226 255
205 226 255
205 226 255
205 226 255
205 226 255
205 226 255
205 226 255
205 226 255
205 226 255
205 226 255
205 226 255
205 226 255
205 226 255
205 226 255
205 226 255
205 226 255
205 226 255
205 226 255
205 226 255
205 226 255
205 226 255
205 226 255
205 226 255
205 226 255
205 226 255
192 155 175
166 0 0
164 0 0
183 0 0
172 0 0
170 0 0
172 0 0
175 0 0
172 0 0
183 0 0
185 0 0
183 0 0
182 0 0
179 0 0
191 0 0
191 0 0
189 0 0
196 0 0
193 0 0
189 0 0
190 0 0
201 0 0
193 0 0
192 0 0
191 0 0
193 0 0
194 0 0
184 0 0
189 0 0
202 0 0
196 0 0
197 0 0
197 0 0
203 0 0
202 0 0
204 0 0
204 0 0
197 0 0
204 0 0
199 0 0
202 0 0
203 0 0
202 0 0
202 0 0
201 0 0
201 0 0
200 0 0
200 0 0
204 0 0
205 0 0
208 0 0
206 0 0
206 0 0
207 0 0
205 0 0
212 0 0
204 0 0
203 0 0
201 0 0
208 0 0
207 0 0
209 0 0
202 0 0
211 0 0
208 0 0
207 0 0
203 0 0
206 0 0
209 0 0
204 0 0
204 0 0
210 0 0
204 0 0
211 0 0
210 0 0
207 0 0
208 0 0
206 0 0
207 0 0
212 0 0
210 0 0
207 0 0
207 0 0
207 0 0
206 0 0
217 0 0
210 0 0
215 0 0
211 0 0
209 0 0
208 0 0
209 0 0
208 0 0
214 0 0
211 0 0
205 0 0
214 0 0
208 0 0
210 0 0
211 0 0
214 0 0
216 0 0
210 0 0
209 0 0
212 0 0
215 0 0
212 0 0
212 0 0
215 0 0
208 0 0
208 0 0
214 0 0
214 0 0
215 0 0
215 0 0
216 0 0
210 0 0
208 0 0
213 0 0
216 0 0
215 0 0
211 0 0
213 0 0
210 0 0
211 0 0
214 0 0
214 0 0
207 0 0
211 0 0
210 0 0
216 0 0
214 0 0
219 0 0
215 0 0
207 0 0
213 0 0
213 0 0
211 0 0
215 0 0
206 0 0
214 0 0
211 0 0
216 0 0
214 0 0
214 0 0
215 0 0
215 0 0
215 0 0
214 0 0
218 0 0
210 0 0
214 0 0
217 0 0
216 0 0
218 0 0
215 0 0
217 0 0
216 0 0
215 0 0
215 0 0
216 0 0
215 0 0
216 0 0
216 0 0
213 0 0
217 0 0
214 0 0
215 0 0
214 0 0
214 0 0
218 0 0
217 0 0
215 0 0
219 0 0
218 0 0
216 0 0
213 0 0
215 0 0
215 0 0
219 0 0
214 0 0
0 0 255
0 0 255
0 0 255
0 0 255
0 0 254
0 0 254
0 0 255
0 0 255
0 0 253
0 0 255
0 0 254
0 0 255
0 0 255
0 0 254
0 0 255
0 0 255
0 0 254
0 0 254
0 0 253
0 0 254
0 0 254
0 0 255
0 0 255
0 0 255
0 0 255
0 0 255
0 0 254
0 0 255
0 0 255
0 0 255
0 0 254
0 0 254
0 0 255
0 0 254
0 0 255
0 0 255
0 0 255
0 0 254
0 0 253
0 0 255
0 0 254
0 0 254
0 0 254
0 0 252
0 0 249
0 0 252
0 0 255
0 0 253
0 0 254
0 0 253
0 0 255
0 0 254
0 0 252
0 0 254
0 0 253
0 0 253
0 0 250
0 0 254
0 0 253
0 0 253
0 0 249
0 0 253
0 0 255
0 0 249
0 0 253
0 0 252
0 0 250
0 0 250
0 0 252
0 0 252
0 0 253
0 0 250
0 0 254
0 0 254
0 0 252
0 0 254
0 0 253
0 0 252
0 0 253
0 0 254
0 0 253
0 0 255
0 0 252
0 0 253
0 0 252
0 0 253
0 0 250
0 0 249
0 0 252
0 0 253
0 0 252
0 0 248
0 0 252
0 0 253
0 0 248
0 0 250
0 0 252
0 0 248
0 0 250
0 0 249
0 0 253
0 0 252
0 0 252
0 0 249
0 0 250
0 0 249
0 0 240
0 0 252
0 0 248
0 0 242
0 0 250
0 0 248
0 0 246
0 0 245
0 0 252
0 0 244
0 0 246
0 0 238
0 0 248
0 0 250
0 0 242
0 0 246
0 0 246
0 0 246
0 0 246
0 0 250
0 0 250
0 0 244
0 0 248
0 0 248
0 0 242
0 0 253
0 0 244
0 0 245
0 0 245
0 0 246
0 0 238
0 0 250
0 0 241
0 0 245
0 0 245
0 0 245
0 0 240
0 0 238
0 0 240
0 0 238
0 0 242
0 0 244
0 0 238
0 0 234
0 0 237
0 0 242
0 0 246
0 0 240
0 0 238
0 0 234
0 0 234
0 0 234
0 0 231
0 0 237
0 0 237
0 0 236
0 0 236
0 0 236
0 0 233
0 0 237
0 0 233
0 0 234
0 0 236
0 0 236
0 0 230
0 0 224
0 0 230
0 0 224
0 0 224
0 0 226
0 0 218
0 0 215
0 0 230
0 0 218
0 0 224
176 195 248
205 227 255
205 227 255
205 227 255
205 227 255
205 227 255
205 227 255
205 227 255
205 227 255
205 226 255
205 226 255
205 226 255
205 226 255
205 226 255
205 226 255
205 226 255
205 226 255
205 226 255
205 226 255
205 226 255
205 226 255
205 226 255
205 226 255
205 226 255
205 226 255
205 226 255
205 226 255
205 226 255
205 226 255
205 227 255
205 227 255
205 227 255
205 227 255
205 227 255
205 227 255
205 227 255
205 227 255
201 205 231
169 0 0
168 0 0
175 0 0
174 0 0
174 0 0
181 0 0
173 0 0
188 0 0
182 0 0
185 0 0
176 0 0
183 0 0
188 0 0
182 0 0
188 0 0
186 0 0
185 0 0
188 0 0
190 0 0
191 0 0
192 0 0
194 0 0
196 0 0
189 0 0
190 0 0
196 0 0
195 0 0
189 0 0
196 0 0
197 0 0
202 0 0
198 0 0
196 0 0
201 0 0
201 0 0
197 0 0
197 0 0
200 0 0
200 0 0
202 0 0
210 0 0
194 0 0
202 0 0
200 0 0
207 0 0
205 0 0
207 0 0
203 0 0
202 0 0
202 0 0
199 0 0
210 0 0
208 0 0
203 0 0
205 0 0
201 0 0
195 0 0
205 0 0
207 0 0
206 0 0
205 0 0
205 0 0
207 0 0
202 0 0
205 0 0
211 0 0
211 0 0
212 0 0
209 0 0
208 0 0
208 0 0
208 0 0
204 0 0
211 0 0
213 0 0
211 0 0
210 0 0
211 0 0
212 0 0
214 0 0
207 0 0
211 0 0
208 0 0
211 0 0
214 0 0
214 0 0
210 0 0
212 0 0
211 0 0
213 0 0
213 0 0
214 0 0
212 0 0
213 0 0
212 0 0
209 0 0
214 0 0
212 0 0
211 0 0
216 0 0
213 0 0
212 0 0
207 0 0
209 0 0
214 0 0
214 0 0
216 0 0
218 0 0
215 0 0
215 0 0
215 0 0
216 0 0
213 0 0
215 0 0
211 0 0
209 0 0
211 0 0
213 0 0
212 0 0
213 0 0
217 0 0
213 0 0
216 0 0
217 0 0
215 0 0
210 0 0
215 0 0
213 0 0
215 0 0
212 0 0
214 0 0
215 0 0
217 0 0
214 0 0
209 0 0
213 0 0
214 0 0
213 0 0
214 0 0
214 0 0
212 0 0
215 0 0
214 0 0
213 0 0
217 0 0
216 0 0
211 0 0
218 0 0
213 0 0
210 0 0
213 0 0
216 0 0
213 0 0
214 0 0
219 0 0
213 0 0
216 0 0
217 0 0
216 0 0
216 0 0
214 0 0
215 0 0
216 0 0
218 0 0
214 0 0
212 0 0
217 0 0
218 0 0
215 0 0
215 0 0
214 0 0
215 0 0
213 0 0
215 0 0
218 0 0
215 0 0
217 0 0
213 0 0
212 0 0
215 0 0
215 0 0
0 0 255
0 0 252
0 0 255
0 0 255
0 0 255
0 0 255
0 0 255
0 0 255
0 0 255
0 0 255
0 0 255
0 0 255
0 0 255
0 0 255
0 0 255
0 0 255
0 0 255
0 0 254
0 0 254
0 0 254
0 0 254
0 0 254
0 0 254
0 0 255
0 0 255
0 0 254
0 0 254
0 0 254
0 0 255
0 0 255
0 0 255
0 0 254
0 0 254
0 0 254
0 0 255
0 0 253
0 0 255
0 0 254
0 0 255
0 0 255
0 0 255
0 0 252
0 0 250
0 0 253
0 0 253
0 0 254
0 0 254
0 0 252
0 0 255
0 0 253
0 0 253
0 0 255
0 0 253
0 0 250
0 0 255
0 0 254
0 0 252
0 0 255
0 0 253
0 0 248
0 0 254
0 0 253
0 0 254
0 0 253
0 0 253
0 0 254
0 0 254
0 0 254
0 0 254
0 0 255
0 0 252
0 0 252
0 0 255
0 0 253
0 0 253
0 0 249
0 0 250
0 0 253
0 0 252
0 0 255
0 0 252
0 0 254
0 0 252
0 0 249
0 0 249
0 0 252
0 0 254
0 0 254
0 0 248
0 0 253
0 0 254
0 0 253
0 0 250
0 0 254
0 0 246
0 0 252
0 0 250
0 0 250
0 0 249
0 0 253
0 0 248
0 0 253
0 0 248
0 0 250
0 0 254
0 0 253
0 0 240
0 0 249
0 0 249
0 0 250
0 0 250
0 0 245
0 0 246
0 0 246
0 0 244
0 0 249
0 0 249
0 0 250
0 0 246
0 0 249
0 0 254
0 0 246
0 0 249
0 0 244
0 0 252
0 0 246
0 0 252
0 0 246
0 0 249
0 0 241
0 0 245
0 0 250
0 0 246
0 0 244
0 0 245
0 0 241
0 0 245
0 0 244
0 0 245
0 0 244
0 0 242
0 0 242
0 0 245
0 0 244
0 0 245
0 0 245
0 0 242
0 0 244
0 0 237
0 0 240
0 0 234
0 0 233
0 0 234
0 0 238
0 0 240
0 0 231
0 0 231
0 0 234
0 0 241
0 0 230
0 0 226
0 0 236
0 0 224
0 0 228
0 0 236
0 0 224
0 0 224
0 0 220
0 0 233
0 0 226
0 0 226
0 0 227
0 0 215
0 0 212
0 0 234
0 0 223
0 0 217
0 0 221
0 0 215
0 0 221
0 0 214
61 68 223
196 216 250
205 227 255
205 227 255
205 227 255
205 227 255
205 227 255
205 227 255
205 227 255
205 227 255
205 227 255
205 227 255
205 227 255
205 227 255
205 227 255
205 227 255
205 227 255
205 227 255
205 227 255
205 227 255
205 227 255
205 227 255
205 227 255
205 227 255
205 227 255
205 227 255
205 227 255
205 227 255
205 227 255
205 227 255
205 227 255
205 227 255
205 227 255
205 227 255
205 227 255
205 227 255
202 215 242
180 71 80
168 0 0
167 0 0
181 0 0
174 0 0
175 0 0
180 0 0
189 0 0
180 0 0
176 0 0
178 0 0
176 0 0
183 0 0
176 0 0
178 0 0
184 0 0
187 0 0
191 0 0
187 0 0
186 0 0
188 0 0
195 0 0
201 0 0
190 0 0
197 0 0
199 0 0
193 0 0
198 0 0
195 0 0
200 0 0
190 0 0
196 0 0
203 0 0
197 0 0
197 0 0
193 0 0
206 0 0
195 0 0
200 0 0
203 0 0
203 0 0
204 0 0
201 0 0
207 0 0
203 0 0
202 0 0
198 0 0
199 0 0
198 0 0
200 0 0
207 0 0
203 0 0
206 0 0
209 0 0
210 0 0
204 0 0
203 0 0
206 0 0
210 0 0
206 0 0
205 0 0
208 0 0
209 0 0
210 0 0
208 0 0
208 0 0
209 0 0
211 0 0
214 0 0
203 0 0
215 0 0
208 0 0
205 0 0
207 0 0
209 0 0
208 0 0
209 0 0
209 0 0
209 0 0
212 0 0
208 0 0
209 0 0
212 0 0
213 0 0
209 0 0
210 0 0
210 0 0
214 0 0
213 0 0
211 0 0
208 0 0
213 0 0
215 0 0
208 0 0
216 0 0
210 0 0
211 0 0
214 0 0
207 0 0
213 0 0
215 0 0
214 0 0
215 0 0
210 0 0
217 0 0
207 0 0
211 0 0
209 0 0
211 0 0
212 0 0
212 0 0
213 0 0
215 0 0
213 0 0
212 0 0
212 0 0
214 0 0
212 0 0
212 0 0
215 0 0
216 0 0
213 0 0
215 0 0
215 0 0
216 0 0
212 0 0
218 0 0
214 0 0
214 0 0
213 0 0
215 0 0
213 0 0
213 0 0
214 0 0
214 0 0
217 0 0
213 0 0
215 0 0
216 0 0
215 0 0
215 0 0
214 0 0
212 0 0
216 0 0
218 0 0
210 0 0
217 0 0
214 0 0
213 0 0
212 0 0
214 0 0
218 0 0
214 0 0
216 0 0
214 0 0
214 0 0
213 0 0
216 0 0
215 0 0
215 0 0
215 0 0
214 0 0
215 0 0
212 0 0
213 0 0
210 0 0
213 0 0
217 0 0
213 0 0
215 0 0
213 0 0
216 0 0
215 0 0
216 0 0
213 0 0
217 0 0
216 0 0
216 0 0
218 0 0
217 0 0
220 0 0
211 0 0
0 0 255
0 0 255
0 0 254
0 0 255
0 0 255
0 0 255
0 0 255
0 0 255
0 0 254
0 0 254
0 0 254
0 0 255
0 0 254
0 0 255
0 0 255
0 0 255
0 0 254
0 0 255
0 0 253
0 0 255
0 0 255
0 0 254
0 0 250
0 0 252
0 0 253
0 0 252
0 0 254
0 0 254
0 0 252
0 0 254
0 0 255
0 0 254
0 0 254
0 0 255
0 0 253
0 0 255
0 0 252
0 0 253
0 0 254
0 0 254
0 0 254
0 0 254
0 0 252
0 0 254
0 0 254
0 0 254
0 0 255
0 0 255
0 0 252
0 0 252
0 0 254
0 0 255
0 0 253
0 0 253
0 0 252
0 0 255
0 0 250
0 0 254
0 0 254
0 0 252
0 0 253
0 0 254
0 0 254
0 0 254
0 0 255
0 0 255
0 0 255
0 0 252
0 0 252
0 0 253
0 0 255
0 0 253
0 0 255
0 0 254
0 0 254
0 0 255
0 0 248
0 0 254
0 0 254
0 0 252
0 0 254
0 0 250
0 0 253
0 0 254
0 0 246
0 0 253
0 0 252
0 0 249
0 0 254
0 0 253
0 0 253
0 0 254
0 0 250
0 0 250
0 0 249
0 0 254
0 0 250
0 0 246
0 0 250
0 0 252
0 0 249
0 0 254
0 0 249
0 0 250
0 0 254
0 0 246
0 0 253
0 0 253
0 0 249
0 0 250
0 0 253
0 0 246
0 0 245
0 0 249
0 0 250
0 0 249
0 0 246
0 0 248
0 0 249
0 0 250
0 0 241
0 0 241
0 0 246
0 0 248
0 0 240
0 0 248
0 0 249
0 0 245
0 0 250
0 0 248
0 0 238
0 0 236
0 0 249
0 0 241
0 0 244
0 0 242
0 0 242
0 0 244
0 0 244
0 0 242
0 0 242
0 0 242
0 0 246
0 0 237
0 0 240
0 0 244
0 0 252
0 0 249
0 0 245
0 0 234
0 0 233
0 0 244
0 0 233
0 0 244
0 0 233
0 0 238
0 0 237
0 0 233
0 0 236
0 0 236
0 0 226
0 0 234
0 0 237
0 0 234
0 0 230
0 0 234
0 0 223
0 0 238
0 0 227
0 0 233
0 0 230
0 0 221
0 0 215
0 0 224
0 0 226
0 0 221
0 0 215
0 0 226
0 0 215
0 0 215
0 0 226
0 0 212
126 140 234
204 226 255
206 227 255
205 227 255
205 227 255
205 227 255
205 227 255
205 227 255
205 227 255
205 227 255
205 227 255
205 227 255
205 227 255
205 227 255
205 227 255
205 227 255
205 227 255
205 227 255
205 227 255
205 227 255
205 227 255
205 227 255
205 227 255
205 227 255
205 227 255
205 227 255
205 227 255
205 227 255
205 227 255
205 227 255
205 227 255
205 227 255
205 227 255
206 227 255
206 227 255
179 124 140
165 0 0
169 0 0
170 0 0
181 0 0
177 0 0
177 0 0
169 0 0
174 0 0
175 0 0
179 0 0
189 0 0
186 0 0
180 0 0
187 0 0
182 0 0
179 0 0
189 0 0
191 0 0
194 0 0
191 0 0
196 0 0
198 0 0
187 0 0
197 0 0
196 0 0
194 0 0
189 0 0
196 0 0
200 0 0
198 0 0
202 0 0
195 0 0
198 0 0
200 0 0
205 0 0
202 0 0
197 0 0
199 0 0
203 0 0
201 0 0
199 0 0
197 0 0
204 0 0
206 0 0
205 0 0
208 0 0
193 0 0
206 0 0
206 0 0
206 0 0
202 0 0
200 0 0
205 0 0
207 0 0
210 0 0
212 0 0
205 0 0
207 0 0
203 0 0
212 0 0
209 0 0
205 0 0
207 0 0
212 0 0
209 0 0
202 0 0
209 0 0
208 0 0
207 0 0
205 0 0
207 0 0
210 0 0
214 0 0
211 0 0
210 0 0
211 0 0
208 0 0
211 0 0
208 0 0
209 0 0
213 0 0
208 0 0
213 0 0
207 0 0
209 0 0
216 0 0
212 0 0
209 0 0
216 0 0
207 0 0
211 0 0
210 0 0
212 0 0
213 0 0
213 0 0
208 0 0
204 0 0
211 0 0
213 0 0
216 0 0
212 0 0
212 0 0
218 0 0
218 0 0
212 0 0
211 0 0
208 0 0
209 0 0
217 0 0
213 0 0
213 0 0
214 0 0
211 0 0
209 0 0
214 0 0
215 0 0
212 0 0
216 0 0
214 0 0
214 0 0
213 0 0
211 0 0
214 0 0
214 0 0
217 0 0
215 0 0
211 0 0
217 0 0
216 0 0
214 0 0
213 0 0
211 0 0
210 0 0
211 0 0
213 0 0
214 0 0
213 0 0
217 0 0
212 0 0
213 0 0
213 0 0
212 0 0
216 0 0
214 0 0
211 0 0
213 0 0
213 0 0
218 0 0
214 0 0
216 0 0
218 0 0
215 0 0
218 0 0
217 0 0
217 0 0
214 0 0
215 0 0
216 0 0
214 0 0
215 0 0
215 0 0
217 0 0
216 0 0
215 0 0
216 0 0
215 0 0
215 0 0
215 0 0
214 0 0
213 0 0
219 0 0
216 0 0
219 0 0
216 0 0
215 0 0
216 0 0
214 0 0
217 0 0
211 0 0
217 0 0
215 0 0
214 0 0
0 0 255
0 0 254
0 0 255
0 0 255
0 0 255
0 0 254
0 0 255
0 0 255
0 0 254
0 0 255
0 0 255
0 0 255
0 0 254
0 0 255
0 0 255
0 0 254
0 0 255
0 0 255
0 0 255
0 0 255
0 0 253
0 0 252
0 0 254
0 0 255
0 0 254
0 0 254
0 0 255
0 0 254
0 0 254
0 0 255
0 0 255
0 0 255
0 0 254
0 0 255
0 0 255
0 0 252
0 0 254
0 0 255
0 0 253
0 0 254
0 0 252
0 0 254
0 0 254
0 0 253
0 0 253
0 0 254
0 0 255
0 0 254
0 0 253
0 0 252
0 0 254
0 0 253
0 0 254
0 0 252
0 0 249
0 0 254
0 0 250
0 0 255
0 0 254
0 0 252
0 0 254
0 0 254
0 0 254
0 0 254
0 0 253
0 0 252
0 0 252
0 0 253
0 0 253
0 0 250
0 0 253
0 0 252
0 0 253
0 0 249
0 0 254
0 0 252
0 0 254
0 0 249
0 0 254
0 0 253
0 0 253
0 0 253
0 0 252
0 0 252
0 0 252
0 0 250
0 0 244
0 0 249
0 0 246
0 0 248
0 0 250
0 0 250
0 0 253
0 0 250
0 0 250
0 0 249
0 0 252
0 0 249
0 0 253
0 0 250
0 0 252
0 0 248
0 0 248
0 0 250
0 0 252
0 0 248
0 0 249
0 0 246
0 0 250
0 0 246
0 0 252
0 0 252
0 0 246
0 0 248
0 0 249
0 0 245
0 0 252
0 0 242
0 0 245
0 0 248
0 0 250
0 0 248
0 0 248
0 0 245
0 0 250
0 0 252
0 0 241
0 0 244
0 0 246
0 0 246
0 0 245
0 0 241
0 0 249
0 0 242
0 0 245
0 0 240
0 0 249
0 0 244
0 0 242
0 0 242
0 0 253
0 0 242
0 0 237
0 0 240
0 0 241
0 0 238
0 0 246
0 0 241
0 0 241
0 0 240
0 0 237
0 0 231
0 0 237
0 0 234
0 0 242
0 0 240
0 0 234
0 0 238
0 0 231
0 0 244
0 0 234
0 0 238
0 0 231
0 0 233
0 0 228
0 0 234
0 0 220
0 0 238
0 0 237
0 0 228
0 0 228
0 0 217
0 0 221
0 0 226
0 0 230
0 0 221
0 0 217
0 0 224
0 0 218
0 0 201
0 0 223
0 0 207
0 0 218
150 165 238
206 227 255
206 227 255
206 227 255
206 227 255
206 227 255
206 227 255
206 227 255
206 227 255
206 227 255
206 227 255
206 227 255
206 227 255
206 227 255
206 227 255
206 227 255
206 227 255
206 227 255
206 227 255
206 227 255
206 227 255
206 227 255
206 227 255
206 227 255
206 227 255
206 227 255
206 227 255
206 227 255
206 227 255
206 227 255
206 227 255
206 227 255
206 227 255
192 176 198
168 0 0
166 0 0
172 0 0
175 0 0
168 0 0
176 0 0
165 0 0
178 0 0
179 0 0
187 0 0
183 0 0
185 0 0
184 0 0
180 0 0
184 0 0
191 0 0
185 0 0
188 0 0
188 0 0
185 0 0
202 0 0
195 0 0
194 0 0
189 0 0
190 0 0
187 0 0
190 0 0
201 0 0
193 0 0
192 0 0
206 0 0
194 0 0
196 0 0
198 0 0
190 0 0
202 0 0
206 0 0
199 0 0
190 0 0
200 0 0
195 0 0
204 0 0
196 0 0
201 0 0
203 0 0
204 0 0
205 0 0
204 0 0
205 0 0
206 0 0
198 0 0
205 0 0
202 0 0
205 0 0
202 0 0
203 0 0
206 0 0
209 0 0
212 0 0
204 0 0
210 0 0
204 0 0
204 0 0
210 0 0
203 0 0
209 0 0
208 0 0
208 0 0
205 0 0
211 0 0
207 0 0
210 0 0
211 0 0
210 0 0
211 0 0
213 0 0
210 0 0
207 0 0
205 0 0
212 0 0
207 0 0
212 0 0
201 0 0
208 0 0
213 0 0
206 0 0
209 0 0
208 0 0
207 0 0
213 0 0
210 0 0
210 0 0
209 0 0
209 0 0
213 0 0
209 0 0
215 0 0
210 0 0
209 0 0
213 0 0
213 0 0
211 0 0
210 0 0
207 0 0
212 0 0
212 0 0
211 0 0
211 0 0
211 0 0
211 0 0
215 0 0
210 0 0
217 0 0
211 0 0
215 0 0
212 0 0
212 0 0
218 0 0
215 0 0
212 0 0
217 0 0
214 0 0
211 0 0
213 0 0
212 0 0
216 0 0
215 0 0
216 0 0
213 0 0
212 0 0
215 0 0
215 0 0
214 0 0
215 0 0
213 0 0
215 0 0
215 0 0
217 0 0
213 0 0
217 0 0
216 0 0
214 0 0
214 0 0
215 0 0
213 0 0
216 0 0
214 0 0
215 0 0
214 0 0
214 0 0
214 0 0
215 0 0
217 0 0
215 0 0
215 0 0
214 0 0
214 0 0
213 0 0
218 0 0
215 0 0
216 0 0
212 0 0
217 0 0
215 0 0
214 0 0
216 0 0
217 0 0
214 0 0
213 0 0
216 0 0
212 0 0
212 0 0
217 0 0
212 0 0
214 0 0
213 0 0
215 0 0
217 0 0
214 0 0
219 0 0
214 0 0
216 0 0
212 0 0
0 0 255
0 0 254
0 0 255
0 0 255
0 0 255
0 0 254
0 0 255
0 0 255
0 0 255
0 0 254
0 0 253
0 0 253
0 0 254
0 0 253
0 0 255
0 0 255
0 0 255
0 0 255
0 0 254
0 0 255
0 0 255
0 0 254
0 0 255
0 0 255
0 0 255
0 0 255
0 0 252
0 0 250
0 0 255
0 0 255
0 0 254
0 0 255
0 0 255
0 0 254
0 0 255
0 0 255
0 0 254
0 0 253
0 0 255
0 0 255
0 0 254
0 0 254
0 0 252
0 0 254
0 0 254
0 0 255
0 0 253
0 0 255
0 0 254
0 0 254
0 0 255
0 0 252
0 0 253
0 0 254
0 0 255
0 0 253
0 0 255
0 0 252
0 0 255
0 0 252
0 0 254
0 0 253
0 0 252
0 0 250
0 0 253
0 0 253
0 0 254
0 0 254
0 0 253
0 0 250
0 0 254
0 0 254
0 0 254
0 0 250
0 0 254
0 0 253
0 0 253
0 0 250
0 0 254
0 0 252
0 0 255
0 0 254
0 0 253
0 0 254
0 0 250
0 0 252
0 0 250
0 0 253
0 0 254
0 0 255
0 0 252
0 0 249
0 0 250
0 0 253
0 0 246
0 0 252
0 0 254
0 0 252
0 0 250
0 0 246
0 0 254
0 0 252
0 0 246
0 0 249
0 0 250
0 0 245
0 0 250
0 0 248
0 0 250
0 0 250
0 0 250
0 0 246
0 0 249
0 0 248
0 0 249
0 0 250
0 0 249
0 0 250
0 0 246
0 0 246
0 0 250
0 0 245
0 0 244
0 0 250
0 0 246
0 0 244
0 0 248
0 0 245
0 0 250
0 0 240
0 0 245
0 0 249
0 0 245
0 0 246
0 0 242
0 0 237
0 0 241
0 0 249
0 0 246
0 0 240
0 0 249
0 0 238
0 0 238
0 0 231
0 0 241
0 0 236
0 0 241
0 0 240
0 0 240
0 0 238
0 0 237
0 0 245
0 0 233
0 0 242
0 0 242
0 0 233
0 0 233
0 0 244
0 0 237
0 0 238
0 0 218
0 0 234
0 0 234
0 0 234
0 0 230
0 0 236
0 0 236
0 0 220
0 0 230
0 0 227
0 0 237
0 0 231
0 0 217
0 0 221
0 0 224
0 0 226
0 0 228
0 0 220
0 0 224
0 0 234
0 0 220
0 0 221
0 0 223
29 32 209
194 214 254
206 227 255
206 227 255
206 227 255
206 227 255
206 227 255
206 227 255
206 227 255
206 227 255
206 227 255
206 227 255
206 227 255
206 227 255
206 227 255
206 227 255
206 227 255
206 227 255
206 227 255
206 227 255
206 227 255
206 227 255
206 227 255
206 227 255
206 227 255
206 227 255
206 227 255
206 227 255
206 227 255
206 227 255
206 227 255
206 227 255
202 211 237
168 0 0
158 0 0
166 0 0
178 0 0
169 0 0
174 0 0
178 0 0
180 0 0
186 0 0
176 0 0
178 0 0
193 0 0
183 0 0
187 0 0
189 0 0
188 0 0
181 0 0
178 0 0
186 0 0
192 0 0
191 0 0
188 0 0
186 0 0
185 0 0
193 0 0
186 0 0
194 0 0
200 0 0
197 0 0
201 0 0
195 0 0
196 0 0
194 0 0
199 0 0
200 0 0
199 0 0
196 0 0
196 0 0
203 0 0
201 0 0
205 0 0
205 0 0
199 0 0
197 0 0
200 0 0
205 0 0
203 0 0
197 0 0
204 0 0
199 0 0
203 0 0
206 0 0
197 0 0
203 0 0
206 0 0
203 0 0
199 0 0
207 0 0
210 0 0
201 0 0
208 0 0
208 0 0
205 0 0
209 0 0
208 0 0
211 0 0
210 0 0
211 0 0
210 0 0
203 0 0
206 0 0
208 0 0
203 0 0
206 0 0
205 0 0
209 0 0
208 0 0
211 0 0
213 0 0
211 0 0
209 0 0
215 0 0
210 0 0
211 0 0
210 0 0
207 0 0
216 0 0
212 0 0
210 0 0
210 0 0
210 0 0
213 0 0
212 0 0
213 0 0
211 0 0
209 0 0
215 0 0
208 0 0
211 0 0
212 0 0
208 0 0
208 0 0
211 0 0
211 0 0
214 0 0
211 0 0
217 0 0
214 0 0
210 0 0
211 0 0
215 0 0
215 0 0
210 0 0
213 0 0
215 0 0
213 0 0
212 0 0
213 0 0
214 0 0
211 0 0
215 0 0
213 0 0
215 0 0
212 0 0
211 0 0
212 0 0
215 0 0
216 0 0
216 0 0
215 0 0
212 0 0
215 0 0
214 0 0
214 0 0
216 0 0
211 0 0
211 0 0
216 0 0
214 0 0
215 0 0
216 0 0
219 0 0
213 0 0
218 0 0
217 0 0
216 0 0
219 0 0
216 0 0
217 0 0
213 0 0
214 0 0
216 0 0
214 0 0
217 0 0
216 0 0
219 0 0
215 0 0
215 0 0
216 0 0
214 0 0
213 0 0
216 0 0
213 0 0
220 0 0
217 0 0
217 0 0
215 0 0
216 0 0
213 0 0
213 0 0
214 0 0
217 0 0
213 0 0
217 0 0
218 0 0
216 0 0
215 0 0
214 0 0
215 0 0
215 0 0
216 0 0
213 0 0
217 0 0
216 0 0
0 0 255
0 0 255
0 0 255
0 0 255
0 0 255
0 0 254
0 0 255
0 0 255
0 0 255
0 0 255
0 0 255
0 0 253
0 0 254
0 0 255
0 0 253
0 0 255
0 0 255
0 0 254
0 0 255
0 0 253
0 0 254
0 0 254
0 0 252
0 0 255
0 0 254
0 0 254
0 0 255
0 0 254
0 0 254
0 0 253
0 0 253
0 0 255
0 0 255
0 0 253
0 0 252
0 0 253
0 0 253
0 0 255
0 0 252
0 0 254
0 0 255
0 0 254
0 0 254
0 0 255
0 0 250
0 0 254
0 0 254
0 0 254
0 0 254
0 0 255
0 0 250
0 0 254
0 0 252
0 0 248
0 0 255
0 0 253
0 0 254
0 0 252
0 0 254
0 0 252
0 0 253
0 0 254
0 0 254
0 0 253
0 0 254
0 0 253
0 0 255
0 0 253
0 0 253
0 0 249
0 0 252
0 0 252
0 0 255
0 0 253
0 0 252
0 0 252
0 0 249
0 0 253
0 0 253
0 0 253
0 0 253
0 0 250
0 0 249
0 0 248
0 0 253
0 0 250
0 0 253
0 0 253
0 0 250
0 0 253
0 0 254
0 0 253
0 0 250
0 0 252
0 0 250
0 0 254
0 0 252
0 0 250
0 0 248
0 0 252
0 0 250
0 0 244
0 0 252
0 0 248
0 0 246
0 0 253
0 0 249
0 0 252
0 0 252
0 0 250
0 0 250
0 0 249
0 0 248
0 0 253
0 0 242
0 0 250
0 0 248
0 0 244
0 0 241
0 0 248
0 0 246
0 0 242
0 0 246
0 0 246
0 0 248
0 0 245
0 0 245
0 0 253
0 0 242
0 0 246
0 0 249
0 0 244
0 0 244
0 0 244
0 0 242
0 0 242
0 0 245
0 0 241
0 0 246
0 0 249
0 0 246
0 0 245
0 0 245
0 0 237
0 0 236
0 0 240
0 0 241
0 0 240
0 0 240
0 0 240
0 0 231
0 0 241
0 0 236
0 0 237
0 0 231
0 0 238
0 0 227
0 0 237
0 0 240
0 0 230
0 0 234
0 0 233
0 0 237
0 0 227
0 0 240
0 0 238
0 0 234
0 0 223
0 0 233
0 0 231
0 0 230
0 0 226
0 0 215
0 0 226
0 0 218
0 0 214
0 0 217
0 0 228
0 0 218
0 0 217
0 0 220
0 0 211
0 0 215
0 0 230
111 122 218
203 224 255
206 227 255
206 227 255
206 227 255
206 227 255
206 227 255
206 227 255
206 227 255
206 227 255
206 227 255
206 227 255
206 227 255
206 227 255
206 227 255
206 227 255
206 227 255
206 227 255
206 227 255
206 227 255
206 227 255
206 227 255
206 227 255
206 227 255
206 227 255
206 227 255
206 227 255
206 227 255
206 227 255
206 227 255
206 226 254
170 101 114
167 0 0
169 0 0
175 0 0
174 0 0
175 0 0
164 0 0
162 0 0
182 0 0
185 0 0
181 0 0
175 0 0
184 0 0
185 0 0
183 0 0
182 0 0
182 0 0
183 0 0
189 0 0
194 0 0
193 0 0
187 0 0
193 0 0
186 0 0
203 0 0
196 0 0
193 0 0
192 0 0
195 0 0
197 0 0
198 0 0
187 0 0
195 0 0
193 0 0
191 0 0
198 0 0
203 0 0
195 0 0
195 0 0
192 0 0
205 0 0
201 0 0
204 0 0
206 0 0
199 0 0
199 0 0
203 0 0
206 0 0
201 0 0
206 0 0
206 0 0
203 0 0
207 0 0
207 0 0
201 0 0
206 0 0
204 0 0
211 0 0
206 0 0
204 0 0
202 0 0
210 0 0
210 0 0
205 0 0
202 0 0
203 0 0
207 0 0
210 0 0
208 0 0
206 0 0
210 0 0
206 0 0
209 0 0
208 0 0
206 0 0
210 0 0
212 0 0
213 0 0
207 0 0
211 0 0
212 0 0
209 0 0
205 0 0
211 0 0
211 0 0
207 0 0
210 0 0
211 0 0
216 0 0
211 0 0
212 0 0
212 0 0
213 0 0
211 0 0
214 0 0
210 0 0
213 0 0
210 0 0
214 0 0
212 0 0
209 0 0
208 0 0
215 0 0
214 0 0
212 0 0
212 0 0
212 0 0
209 0 0
213 0 0
216 0 0
217 0 0
211 0 0
212 0 0
214 0 0
212 0 0
211 0 0
217 0 0
210 0 0
214 0 0
213 0 0
213 0 0
213 0 0
212 0 0
214 0 0
212 0 0
215 0 0
214 0 0
213 0 0
215 0 0
212 0 0
213 0 0
210 0 0
212 0 0
215 0 0
219 0 0
214 0 0
211 0 0
214 0 0
213 0 0
217 0 0
212 0 0
213 0 0
216 0 0
216 0 0
214 0 0
217 0 0
216 0 0
213 0 0
215 0 0
216 0 0
216 0 0
221 0 0
209 0 0
212 0 0
218 0 0
217 0 0
213 0 0
219 0 0
217 0 0
219 0 0
217 0 0
215 0 0
215 0 0
217 0 0
216 0 0
216 0 0
218 0 0
216 0 0
215 0 0
214 0 0
215 0 0
215 0 0
219 0 0
217 0 0
215 0 0
219 0 0
216 0 0
212 0 0
215 0 0
216 0 0
216 0 0
216 0 0
214 0 0
215 0 0
213 0 0
0 0 255
0 0 254
0 0 254
0 0 255
0 0 255
0 0 255
0 0 255
0 0 255
0 0 255
0 0 254
0 0 255
0 0 254
0 0 255
0 0 255
0 0 255
0 0 255
0 0 255
0 0 255
0 0 254
0 0 254
0 0 255
0 0 255
0 0 255
0 0 254
0 0 254
0 0 255
0 0 255
0 0 255
0 0 254
0 0 253
0 0 253
0 0 253
0 0 253
0 0 255
0 0 254
0 0 254
0 0 253
0 0 254
0 0 255
0 0 254
0 0 254
0 0 253
0 0 253
0 0 253
0 0 253
0 0 254
0 0 253
0 0 253
0 0 254
0 0 254
0 0 253
0 0 253
0 0 253
0 0 248
0 0 254
0 0 254
0 0 252
0 0 253
0 0 254
0 0 255
0 0 253
0 0 252
0 0 249
0 0 252
0 0 253
0 0 254
0 0 252
0 0 254
0 0 254
0 0 250
0 0 255
0 0 255
0 0 253
0 0 252
0 0 252
0 0 253
0 0 253
0 0 253
0 0 253
0 0 253
0 0 254
0 0 250
0 0 253
0 0 253
0 0 253
0 0 252
0 0 249
0 0 254
0 0 252
0 0 250
0 0 245
0 0 254
0 0 249
0 0 250
0 0 253
0 0 250
0 0 246
0 0 248
0 0 254
0 0 250
0 0 250
0 0 252
0 0 254
0 0 245
0 0 248
0 0 253
0 0 254
0 0 254
0 0 245
0 0 252
0 0 252
0 0 246
0 0 249
0 0 252
0 0 252
0 0 249
0 0 249
0 0 250
0 0 245
0 0 249
0 0 248
0 0 249
0 0 242
0 0 244
0 0 248
0 0 248
0 0 250
0 0 242
0 0 241
0 0 244
0 0 244
0 0 245
0 0 240
0 0 241
0 0 248
0 0 236
0 0 242
0 0 241
0 0 240
0 0 246
0 0 241
0 0 246
0 0 248
0 0 238
0 0 248
0 0 234
0 0 240
0 0 244
0 0 238
0 0 238
0 0 240
0 0 234
0 0 241
0 0 240
0 0 237
0 0 231
0 0 233
0 0 238
0 0 249
0 0 226
0 0 238
0 0 241
0 0 233
0 0 237
0 0 231
0 0 230
0 0 221
0 0 223
0 0 215
0 0 223
0 0 237
0 0 220
0 0 211
0 0 230
0 0 198
0 0 221
0 0 214
0 0 233
0 0 224
0 0 212
0 0 218
0 0 204
0 0 198
0 0 207
0 0 204
171 189 246
207 227 255
207 227 255
207 227 255
207 227 255
207 227 255
207 227 255
207 227 255
206 227 255
206 227 255
206 227 255
206 227 255
206 227 255
206 227 255
206 227 255
206 227 255
206 227 255
206 227 255
206 227 255
206 227 255
207 227 255
206 227 255
206 227 255
207 227 255
207 227 255
207 227 255
207 227 255
207 227 255
207 227 255
191 167 188
158 0 0
164 0 0
179 0 0
162 0 0
169 0 0
172 0 0
175 0 0
180 0 0
178 0 0
177 0 0
177 0 0
174 0 0
176 0 0
182 0 0
189 0 0
187 0 0
184 0 0
182 0 0
192 0 0
193 0 0
190 0 0
194 0 0
204 0 0
186 0 0
184 0 0
193 0 0
196 0 0
191 0 0
183 0 0
192 0 0
195 0 0
193 0 0
195 0 0
196 0 0
193 0 0
200 0 0
203 0 0
200 0 0
205 0 0
195 0 0
199 0 0
192 0 0
204 0 0
202 0 0
208 0 0
204 0 0
198 0 0
203 0 0
205 0 0
209 0 0
203 0 0
200 0 0
195 0 0
194 0 0
203 0 0
203 0 0
200 0 0
204 0 0
208 0 0
211 0 0
207 0 0
210 0 0
204 0 0
203 0 0
213 0 0
209 0 0
215 0 0
207 0 0
208 0 0
202 0 0
207 0 0
206 0 0
208 0 0
209 0 0
206 0 0
212 0 0
210 0 0
207 0 0
210 0 0
208 0 0
208 0 0
211 0 0
207 0 0
214 0 0
212 0 0
212 0 0
213 0 0
216 0 0
210 0 0
212 0 0
213 0 0
208 0 0
209 0 0
211 0 0
209 0 0
214 0 0
211 0 0
205 0 0
212 0 0
211 0 0
209 0 0
212 0 0
215 0 0
214 0 0
212 0 0
213 0 0
214 0 0
216 0 0
215 0 0
215 0 0
208 0 0
209 0 0
215 0 0
212 0 0
212 0 0
214 0 0
215 0 0
215 0 0
215 0 0
211 0 0
216 0 0
210 0 0
215 0 0
215 0 0
212 0 0
216 0 0
215 0 0
215 0 0
216 0 0
211 0 0
216 0 0
218 0 0
212 0 0
210 0 0
217 0 0
218 0 0
217 0 0
217 0 0
216 0 0
215 0 0
215 0 0
215 0 0
216 0 0
215 0 0
216 0 0
212 0 0
213 0 0
211 0 0
218 0 0
216 0 0
210 0 0
211 0 0
217 0 0
218 0 0
217 0 0
213 0 0
214 0 0
217 0 0
214 0 0
214 0 0
217 0 0
217 0 0
215 0 0
213 0 0
212 0 0
217 0 0
215 0 0
212 0 0
219 0 0
215 0 0
213 0 0
215 0 0
215 0 0
211 0 0
213 0 0
213 0 0
216 0 0
214 0 0
215 0 0
216 0 0
217 0 0
215 0 0
217 0 0
217 0 0
217 0 0
0 0 254
0 0 254
0 0 255
0 0 255
0 0 255
0 0 255
0 0 255
0 0 255
0 0 255
0 0 253
0 0 255
0 0 254
0 0 254
0 0 255
0 0 254
0 0 255
0 0 254
0 0 254
0 0 255
0 0 254
0 0 254
0 0 255
0 0 255
0 0 253
0 0 255
0 0 255
0 0 255
0 0 254
0 0 255
0 0 254
0 0 254
0 0 252
0 0 254
0 0 254
0 0 254
0 0 254
0 0 254
0 0 254
0 0 253
0 0 254
0 0 254
0 0 254
0 0 255
0 0 252
0 0 253
0 0 252
0 0 253
0 0 254
0 0 253
0 0 254
0 0 253
0 0 254
0 0 250
0 0 254
0 0 255
0 0 253
0 0 253
0 0 250
0 0 254
0 0 255
0 0 254
0 0 253
0 0 255
0 0 253
0 0 253
0 0 254
0 0 250
0 0 250
0 0 252
0 0 253
0 0 253
0 0 253
0 0 255
0 0 253
0 0 253
0 0 252
0 0 254
0 0 253
0 0 255
0 0 253
0 0 255
0 0 249
0 0 252
0 0 250
0 0 254
0 0 250
0 0 250
0 0 250
0 0 253
0 0 253
0 0 250
0 0 248
0 0 245
0 0 246
0 0 252
0 0 253
0 0 250
0 0 250
0 0 252
0 0 250
0 0 252
0 0 252
0 0 254
0 0 252
0 0 249
0 0 250
0 0 252
0 0 250
0 0 248
0 0 250
0 0 250
0 0 252
0 0 249
0 0 248
0 0 245
0 0 252
0 0 246
0 0 245
0 0 234
0 0 248
0 0 252
0 0 249
0 0 253
0 0 252
0 0 245
0 0 249
0 0 242
0 0 246
0 0 252
0 0 248
0 0 242
0 0 236
0 0 246
0 0 246
0 0 241
0 0 246
0 0 246
0 0 245
0 0 242
0 0 242
0 0 240
0 0 236
0 0 244
0 0 237
0 0 238
0 0 238
0 0 234
0 0 236
0 0 237
0 0 240
0 0 249
0 0 236
0 0 246
0 0 244
0 0 236
0 0 242
0 0 236
0 0 230
0 0 228
0 0 228
0 0 231
0 0 230
0 0 241
0 0 233
0 0 241
0 0 224
0 0 231
0 0 228
0 0 227
0 0 224
0 0 228
0 0 224
0 0 227
0 0 211
0 0 215
0 0 224
0 0 231
0 0 230
0 0 209
0 0 211
0 0 215
0 0 217
0 0 203
0 0 218
0 0 194
35 39 203
190 209 248
207 228 255
207 228 255
207 228 255
207 228 255
207 228 255
207 228 255
207 228 255
207 228 255
207 228 255
207 228 255
207 227 255
207 228 255
207 228 255
207 227 255
207 227 255
207 228 255
207 228 255
207 228 255
207 228 255
207 228 255
207 228 255
207 228 255
207 228 255
207 228 255
207 228 255
207 228 255
202 212 238
162 39 44
154 0 0
163 0 0
166 0 0
155 0 0
166 0 0
174 0 0
170 0 0
178 0 0
177 0 0
171 0 0
184 0 0
186 0 0
184 0 0
182 0 0
189 0 0
190 0 0
185 0 0
183 0 0
178 0 0
190 0 0
188 0 0
185 0 0
183 0 0
188 0 0
194 0 0
197 0 0
196 0 0
182 0 0
199 0 0
199 0 0
191 0 0
193 0 0
197 0 0
194 0 0
201 0 0
201 0 0
200 0 0
199 0 0
201 0 0
202 0 0
201 0 0
210 0 0
199 0 0
207 0 0
199 0 0
209 0 0
206 0 0
203 0 0
203 0 0
207 0 0
207 0 0
206 0 0
210 0 0
203 0 0
198 0 0
206 0 0
206 0 0
204 0 0
204 0 0
204 0 0
213 0 0
204 0 0
204 0 0
204 0 0
211 0 0
202 0 0
204 0 0
207 0 0
209 0 0
210 0 0
208 0 0
210 0 0
209 0 0
207 0 0
214 0 0
207 0 0
208 0 0
209 0 0
209 0 0
203 0 0
210 0 0
208 0 0
205 0 0
213 0 0
216 0 0
210 0 0
210 0 0
214 0 0
214 0 0
208 0 0
209 0 0
211 0 0
214 0 0
210 0 0
214 0 0
210 0 0
210 0 0
209 0 0
215 0 0
212 0 0
213 0 0
214 0 0
210 0 0
212 0 0
213 0 0
215 0 0
214 0 0
215 0 0
209 0 0
213 0 0
209 0 0
215 0 0
214 0 0
218 0 0
212 0 0
213 0 0
217 0 0
214 0 0
220 0 0
214 0 0
215 0 0
212 0 0
212 0 0
211 0 0
214 0 0
213 0 0
211 0 0
217 0 0
215 0 0
214 0 0
214 0 0
217 0 0
215 0 0
216 0 0
212 0 0
213 0 0
213 0 0
217 0 0
218 0 0
216 0 0
217 0 0
211 0 0
216 0 0
212 0 0
218 0 0
214 0 0
220 0 0
213 0 0
215 0 0
216 0 0
214 0 0
214 0 0
213 0 0
214 0 0
214 0 0
217 0 0
220 0 0
217 0 0
213 0 0
213 0 0
216 0 0
213 0 0
216 0 0
216 0 0
218 0 0
210 0 0
218 0 0
213 0 0
213 0 0
217 0 0
216 0 0
215 0 0
219 0 0
214 0 0
217 0 0
214 0 0
217 0 0
213 0 0
217 0 0
217 0 0
217 0 0
218 0 0
219 0 0
214 0 0
216 0 0
0 0 254
0 0 255
0 0 255
0 0 255
0 0 255
0 0 255
0 0 255
0 0 255
0 0 254
0 0 255
0 0 254
0 0 252
0 0 253
0 0 254
0 0 254
0 0 254
0 0 254
0 0 254
0 0 255
0 0 255
0 0 255
0 0 254
0 0 255
0 0 253
0 0 254
0 0 255
0 0 255
0 0 253
0 0 255
0 0 255
0 0 254
0 0 255
0 0 255
0 0 255
0 0 255
0 0 255
0 0 253
0 0 255
0 0 255
0 0 254
0 0 254
0 0 254
0 0 254
0 0 254
0 0 255
0 0 255
0 0 255
0 0 253
0 0 254
0 0 254
0 0 255
0 0 254
0 0 253
0 0 253
0 0 252
0 0 254
0 0 253
0 0 253
0 0 253
0 0 253
0 0 253
0 0 252
0 0 255
0 0 253
0 0 255
0 0 254
0 0 252
0 0 253
0 0 253
0 0 253
0 0 254
0 0 253
0 0 253
0 0 254
0 0 253
0 0 250
0 0 252
0 0 254
0 0 249
0 0 254
0 0 252
0 0 254
0 0 252
0 0 253
0 0 253
0 0 252
0 0 249
0 0 249
0 0 246
0 0 252
0 0 249
0 0 252
0 0 249
0 0 252
0 0 246
0 0 250
0 0 248
0 0 250
0 0 250
0 0 245
0 0 254
0 0 249
0 0 248
0 0 248
0 0 246
0 0 249
0 0 245
0 0 252
0 0 249
0 0 245
0 0 249
0 0 249
0 0 245
0 0 252
0 0 249
0 0 245
0 0 249
0 0 244
0 0 248
0 0 248
0 0 244
0 0 248
0 0 253
0 0 248
0 0 252
0 0 244
0 0 244
0 0 242
0 0 245
0 0 238
0 0 252
0 0 249
0 0 246
0 0 245
0 0 248
0 0 248
0 0 242
0 0 244
0 0 241
0 0 248
0 0 248
0 0 242
0 0 242
0 0 233
0 0 236
0 0 238
0 0 234
0 0 237
0 0 242
0 0 240
0 0 240
0 0 240
0 0 238
0 0 234
0 0 228
0 0 233
0 0 231
0 0 233
0 0 236
0 0 226
0 0 241
0 0 230
0 0 223
0 0 228
0 0 237
0 0 236
0 0 238
0 0 217
0 0 227
0 0 226
0 0 234
0 0 220
0 0 224
0 0 218
0 0 217
0 0 217
0 0 228
0 0 226
0 0 211
0 0 214
0 0 207
0 0 212
0 0 206
0 0 203
0 0 204
0 0 209
119 131 215
207 228 255
207 228 255
207 228 255
207 228 255
207 228 255
207 228 255
207 228 255
207 228 255
207 228 255
207 228 255
207 228 255
207 228 255
207 228 255
207 228 255
207 228 255
207 228 255
207 228 255
207 228 255
207 228 255
207 228 255
207 228 255
207 228 255
207 228 255
207 228 255
207 228 255
207 228 255
172 144 161
153 0 0
163 0 0
166 0 0
162 0 0
169 0 0
175 0 0
175 0 0
170 0 0
172 0 0
175 0 0
173 0 0
180 0 0
182 0 0
178 0 0
186 0 0
189 0 0
193 0 0
186 0 0
186 0 0
189 0 0
185 0 0
185 0 0
184 0 0
194 0 0
192 0 0
192 0 0
200 0 0
195 0 0
194 0 0
201 0 0
197 0 0
198 0 0
191 0 0
197 0 0
192 0 0
192 0 0
204 0 0
198 0 0
191 0 0
200 0 0
199 0 0
201 0 0
207 0 0
203 0 0
200 0 0
201 0 0
200 0 0
209 0 0
206 0 0
208 0 0
198 0 0
204 0 0
205 0 0
200 0 0
206 0 0
208 0 0
209 0 0
206 0 0
204 0 0
209 0 0
207 0 0
208 0 0
209 0 0
207 0 0
207 0 0
207 0 0
209 0 0
206 0 0
206 0 0
206 0 0
207 0 0
206 0 0
208 0 0
209 0 0
206 0 0
204 0 0
209 0 0
206 0 0
209 0 0
209 0 0
206 0 0
213 0 0
210 0 0
207 0 0
215 0 0
213 0 0
208 0 0
214 0 0
212 0 0
210 0 0
214 0 0
217 0 0
209 0 0
211 0 0
207 0 0
209 0 0
212 0 0
209 0 0
211 0 0
210 0 0
212 0 0
212 0 0
215 0 0
217 0 0
212 0 0
208 0 0
214 0 0
214 0 0
210 0 0
211 0 0
215 0 0
214 0 0
212 0 0
213 0 0
216 0 0
213 0 0
214 0 0
216 0 0
216 0 0
214 0 0
213 0 0
211 0 0
212 0 0
214 0 0
211 0 0
215 0 0
216 0 0
213 0 0
220 0 0
216 0 0
214 0 0
215 0 0
214 0 0
217 0 0
217 0 0
210 0 0
215 0 0
218 0 0
217 0 0
212 0 0
219 0 0
215 0 0
217 0 0
213 0 0
218 0 0
213 0 0
220 0 0
217 0 0
221 0 0
217 0 0
214 0 0
216 0 0
215 0 0
215 0 0
215 0 0
217 0 0
212 0 0
221 0 0
219 0 0
216 0 0
215 0 0
215 0 0
213 0 0
216 0 0
215 0 0
214 0 0
216 0 0
213 0 0
218 0 0
215 0 0
214 0 0
215 0 0
217 0 0
216 0 0
215 0 0
215 0 0
218 0 0
217 0 0
217 0 0
216 0 0
217 0 0
217 0 0
216 0 0
218 0 0
218 0 0
218 0 0
0 0 255
0 0 255
0 0 254
0 0 255
0 0 255
0 0 255
0 0 255
0 0 255
0 0 255
0 0 254
0 0 255
0 0 254
0 0 254
0 0 253
0 0 255
0 0 255
0 0 254
0 0 254
0 0 255
0 0 254
0 0 255
0 0 253
0 0 253
0 0 255
0 0 255
0 0 255
0 0 254
0 0 254
0 0 255
0 0 255
0 0 254
0 0 253
0 0 255
0 0 255
0 0 254
0 0 253
0 0 255
0 0 254
0 0 254
0 0 253
0 0 252
0 0 255
0 0 253
0 0 253
0 0 253
0 0 255
0 0 254
0 0 254
0 0 253
0 0 250
0 0 254
0 0 254
0 0 254
0 0 250
0 0 253
0 0 253
0 0 253
0 0 254
0 0 252
0 0 255
0 0 254
0 0 253
0 0 252
0 0 254
0 0 254
0 0 254
0 0 250
0 0 254
0 0 253
0 0 253
0 0 255
0 0 253
0 0 254
0 0 254
0 0 255
0 0 254
0 0 249
0 0 248
0 0 253
0 0 254
0 0 253
0 0 253
0 0 250
0 0 248
0 0 250
0 0 252
0 0 249
0 0 252
0 0 252
0 0 250
0 0 252
0 0 250
0 0 249
0 0 249
0 0 253
0 0 253
0 0 249
0 0 254
0 0 253
0 0 252
0 0 252
0 0 249
0 0 252
0 0 249
0 0 250
0 0 246
0 0 246
0 0 252
0 0 250
0 0 249
0 0 254
0 0 244
0 0 245
0 0 252
0 0 248
0 0 244
0 0 252
0 0 238
0 0 246
0 0 242
0 0 245
0 0 249
0 0 245
0 0 244
0 0 252
0 0 249
0 0 246
0 0 240
0 0 246
0 0 237
0 0 241
0 0 246
0 0 241
0 0 242
0 0 237
0 0 241
0 0 246
0 0 245
0 0 246
0 0 234
0 0 249
0 0 240
0 0 241
0 0 242
0 0 242
0 0 241
0 0 240
0 0 245
0 0 241
0 0 234
0 0 242
0 0 241
0 0 242
0 0 245
0 0 234
0 0 228
0 0 226
0 0 234
0 0 240
0 0 233
0 0 223
0 0 233
0 0 237
0 0 240
0 0 224
0 0 224
0 0 220
0 0 224
0 0 230
0 0 220
0 0 220
0 0 221
0 0 227
0 0 214
0 0 231
0 0 217
0 0 224
0 0 220
0 0 221
0 0 211
0 0 224
0 0 221
0 0 206
0 0 194
0 0 193
0 0 206
0 0 206
172 189 233
207 228 255
207 228 255
207 228 255
207 228 255
207 228 255
207 228 255
207 228 255
207 228 255
207 228 255
207 228 255
207 228 255
207 228 255
207 228 255
207 228 255
207 228 255
207 228 255
207 228 255
207 228 255
207 228 255
207 228 255
207 228 255
207 228 255
207 228 255
207 228 255
190 182 204
172 0 0
160 0 0
158 0 0
151 0 0
163 0 0
173 0 0
172 0 0
167 0 0
176 0 0
182 0 0
174 0 0
179 0 0
186 0 0
178 0 0
186 0 0
190 0 0
194 0 0
178 0 0
187 0 0
193 0 0
183 0 0
188 0 0
183 0 0
191 0 0
195 0 0
196 0 0
192 0 0
184 0 0
197 0 0
186 0 0
186 0 0
198 0 0
196 0 0
191 0 0
199 0 0
200 0 0
201 0 0
205 0 0
201 0 0
198 0 0
199 0 0
198 0 0
201 0 0
205 0 0
203 0 0
199 0 0
199 0 0
202 0 0
204 0 0
206 0 0
207 0 0
205 0 0
202 0 0
206 0 0
204 0 0
208 0 0
204 0 0
196 0 0
207 0 0
201 0 0
200 0 0
204 0 0
202 0 0
207 0 0
202 0 0
202 0 0
209 0 0
209 0 0
210 0 0
204 0 0
209 0 0
205 0 0
209 0 0
212 0 0
211 0 0
206 0 0
208 0 0
212 0 0
210 0 0
204 0 0
203 0 0
213 0 0
212 0 0
209 0 0
209 0 0
211 0 0
213 0 0
212 0 0
210 0 0
211 0 0
216 0 0
214 0 0
211 0 0
206 0 0
210 0 0
210 0 0
207 0 0
209 0 0
211 0 0
209 0 0
216 0 0
216 0 0
212 0 0
213 0 0
214 0 0
216 0 0
215 0 0
215 0 0
212 0 0
214 0 0
218 0 0
215 0 0
214 0 0
211 0 0
214 0 0
208 0 0
215 0 0
216 0 0
214 0 0
215 0 0
218 0 0
213 0 0
213 0 0
214 0 0
214 0 0
213 0 0
218 0 0
215 0 0
213 0 0
214 0 0
211 0 0
218 0 0
216 0 0
215 0 0
211 0 0
215 0 0
218 0 0
218 0 0
218 0 0
214 0 0
218 0 0
216 0 0
215 0 0
216 0 0
212 0 0
217 0 0
217 0 0
216 0 0
217 0 0
215 0 0
215 0 0
213 0 0
212 0 0
218 0 0
215 0 0
212 0 0
218 0 0
218 0 0
218 0 0
216 0 0
217 0 0
217 0 0
219 0 0
219 0 0
220 0 0
217 0 0
215 0 0
215 0 0
217 0 0
216 0 0
212 0 0
212 0 0
216 0 0
216 0 0
219 0 0
218 0 0
216 0 0
218 0 0
212 0 0
216 0 0
214 0 0
214 0 0
218 0 0
218 0 0
216 0 0
217 0 0
221 0 0
0 0 255
0 0 255
0 0 255
0 0 255
0 0 255
0 0 255
0 0 255
0 0 255
0 0 254
0 0 255
0 0 255
0 0 255
0 0 254
0 0 254
0 0 255
0 0 254
0 0 255
0 0 254
0 0 255
0 0 253
0 0 254
0 0 254
0 0 254
0 0 254
0 0 254
0 0 252
0 0 255
0 0 254
0 0 255
0 0 254
0 0 255
0 0 252
0 0 253
0 0 250
0 0 255
0 0 253
0 0 255
0 0 253
0 0 255
0 0 255
0 0 255
0 0 255
0 0 253
0 0 255
0 0 255
0 0 252
0 0 252
0 0 249
0 0 252
0 0 252
0 0 254
0 0 254
0 0 253
0 0 255
0 0 254
0 0 254
0 0 255
0 0 253
0 0 253
0 0 255
0 0 255
0 0 253
0 0 253
0 0 250
0 0 253
0 0 253
0 0 250
0 0 252
0 0 250
0 0 254
0 0 255
0 0 253
0 0 255
0 0 253
0 0 250
0 0 253
0 0 253
0 0 254
0 0 249
0 0 253
0 0 250
0 0 252
0 0 250
0 0 252
0 0 250
0 0 254
0 0 252
0 0 253
0 0 250
0 0 253
0 0 253
0 0 250
0 0 249
0 0 252
0 0 252
0 0 253
0 0 250
0 0 250
0 0 252
0 0 249
0 0 250
0 0 249
0 0 248
0 0 254
0 0 249
0 0 253
0 0 254
0 0 254
0 0 248
0 0 252
0 0 254
0 0 246
0 0 245
0 0 253
0 0 244
0 0 245
0 0 248
0 0 249
0 0 248
0 0 244
0 0 242
0 0 246
0 0 250
0 0 246
0 0 248
0 0 242
0 0 244
0 0 250
0 0 248
0 0 241
0 0 250
0 0 248
0 0 237
0 0 245
0 0 240
0 0 246
0 0 242
0 0 249
0 0 231
0 0 248
0 0 248
0 0 244
0 0 242
0 0 245
0 0 240
0 0 248
0 0 241
0 0 237
0 0 244
0 0 242
0 0 240
0 0 230
0 0 233
0 0 233
0 0 231
0 0 238
0 0 242
0 0 224
0 0 237
0 0 240
0 0 228
0 0 238
0 0 234
0 0 234
0 0 234
0 0 218
0 0 217
0 0 233
0 0 236
0 0 218
0 0 220
0 0 226
0 0 223
0 0 218
0 0 224
0 0 230
0 0 223
0 0 215
0 0 212
0 0 201
0 0 214
0 0 198
0 0 204
0 0 215
0 0 196
0 0 189
0 0 188
65 72 199
202 222 253
208 228 255
208 228 255
208 228 255
208 228 255
208 228 255
208 228 255
208 228 255
208 228 255
208 228 255
208 228 255
208 228 255
208 228 255
208 228 255
208 228 255
208 228 255
208 228 255
208 228 255
208 228 255
208 228 255
208 228 255
208 228 255
208 228 255
205 222 249
161 91 102
158 0 0
160 0 0
156 0 0
163 0 0
171 0 0
178 0 0
166 0 0
163 0 0
168 0 0
177 0 0
185 0 0
181 0 0
191 0 0
180 0 0
180 0 0
182 0 0
187 0 0
180 0 0
191 0 0
181 0 0
185 0 0
193 0 0
194 0 0
185 0 0
183 0 0
191 0 0
184 0 0
187 0 0
192 0 0
194 0 0
194 0 0
189 0 0
199 0 0
200 0 0
198 0 0
201 0 0
191 0 0
201 0 0
195 0 0
203 0 0
199 0 0
200 0 0
197 0 0
204 0 0
196 0 0
201 0 0
211 0 0
202 0 0
198 0 0
204 0 0
203 0 0
201 0 0
203 0 0
196 0 0
205 0 0
203 0 0
203 0 0
211 0 0
214 0 0
207 0 0
199 0 0
210 0 0
205 0 0
204 0 0
203 0 0
203 0 0
207 0 0
203 0 0
203 0 0
206 0 0
215 0 0
208 0 0
209 0 0
212 0 0
208 0 0
212 0 0
208 0 0
202 0 0
214 0 0
212 0 0
214 0 0
212 0 0
215 0 0
213 0 0
207 0 0
212 0 0
214 0 0
211 0 0
213 0 0
216 0 0
208 0 0
215 0 0
209 0 0
211 0 0
211 0 0
208 0 0
212 0 0
214 0 0
211 0 0
217 0 0
210 0 0
209 0 0
214 0 0
215 0 0
213 0 0
212 0 0
213 0 0
211 0 0
209 0 0
212 0 0
214 0 0
214 0 0
210 0 0
215 0 0
217 0 0
216 0 0
212 0 0
216 0 0
214 0 0
212 0 0
217 0 0
212 0 0
220 0 0
210 0 0
214 0 0
216 0 0
214 0 0
216 0 0
217 0 0
217 0 0
219 0 0
214 0 0
219 0 0
216 0 0
214 0 0
215 0 0
217 0 0
215 0 0
216 0 0
212 0 0
214 0 0
217 0 0
216 0 0
212 0 0
213 0 0
220 0 0
216 0 0
216 0 0
215 0 0
215 0 0
220 0 0
216 0 0
215 0 0
216 0 0
218 0 0
217 0 0
217 0 0
213 0 0
214 0 0
218 0 0
215 0 0
215 0 0
215 0 0
220 0 0
217 0 0
217 0 0
217 0 0
217 0 0
215 0 0
216 0 0
216 0 0
216 0 0
218 0 0
215 0 0
214 0 0
215 0 0
215 0 0
220 0 0
218 0 0
217 0 0
218 0 0
215 0 0
219 0 0
216 0 0
214 0 0
216 0 0
215 0 0
0 0 255
0 0 255
0 0 255
0 0 255
0 0 255
0 0 255
0 0 254
0 0 255
0 0 255
0 0 255
0 0 253
0 0 250
0 0 255
0 0 254
0 0 255
0 0 253
0 0 252
0 0 255
0 0 255
0 0 255
0 0 254
0 0 254
0 0 255
0 0 252
0 0 254
0 0 255
0 0 254
0 0 254
0 0 254
0 0 254
0 0 255
0 0 254
0 0 253
0 0 255
0 0 255
0 0 254
0 0 255
0 0 255
0 0 255
0 0 255
0 0 253
0 0 253
0 0 255
0 0 254
0 0 255
0 0 250
0 0 255
0 0 254
0 0 254
0 0 254
0 0 254
0 0 253
0 0 253
0 0 254
0 0 249
0 0 253
0 0 254
0 0 255
0 0 254
0 0 254
0 0 253
0 0 253
0 0 255
0 0 252
0 0 253
0 0 252
0 0 252
0 0 252
0 0 252
0 0 253
0 0 255
0 0 255
0 0 253
0 0 252
0 0 249
0 0 249
0 0 254
0 0 250
0 0 248
0 0 250
0 0 250
0 0 249
0 0 250
0 0 253
0 0 253
0 0 253
0 0 249
0 0 248
0 0 252
0 0 250
0 0 252
0 0 250
0 0 252
0 0 254
0 0 249
0 0 252
0 0 248
0 0 245
0 0 254
0 0 249
0 0 254
0 0 253
0 0 249
0 0 248
0 0 246
0 0 250
0 0 250
0 0 253
0 0 253
0 0 244
0 0 242
0 0 246
0 0 250
0 0 249
0 0 252
0 0 241
0 0 249
0 0 246
0 0 241
0 0 249
0 0 249
0 0 245
0 0 249
0 0 248
0 0 246
0 0 252
0 0 246
0 0 245
0 0 249
0 0 242
0 0 244
0 0 249
0 0 246
0 0 244
0 0 249
0 0 248
0 0 244
0 0 246
0 0 231
0 0 240
0 0 248
0 0 241
0 0 242
0 0 233
0 0 246
0 0 244
0 0 244
0 0 238
0 0 234
0 0 233
0 0 236
0 0 236
0 0 237
0 0 240
0 0 240
0 0 244
0 0 231
0 0 237
0 0 234
0 0 234
0 0 236
0 0 240
0 0 231
0 0 233
0 0 231
0 0 242
0 0 224
0 0 224
0 0 217
0 0 224
0 0 230
0 0 224
0 0 228
0 0 220
0 0 215
0 0 226
0 0 227
0 0 217
0 0 218
0 0 217
0 0 214
0 0 212
0 0 201
0 0 209
0 0 189
0 0 204
0 0 177
0 0 199
155 171 233
208 228 255
208 228 255
208 228 255
208 228 255
208 228 255
208 228 255
208 228 255
208 228 255
208 228 255
208 228 255
208 228 255
208 228 255
208 228 255
208 228 255
208 228 255
208 228 255
208 228 255
208 228 255
208 228 255
208 228 255
208 228 255
208 228 255
180 166 186
154 0 0
159 0 0
156 0 0
152 0 0
162 0 0
156 0 0
172 0 0
176 0 0
173 0 0
182 0 0
180 0 0
177 0 0
166 0 0
190 0 0
186 0 0
173 0 0
187 0 0
173 0 0
187 0 0
182 0 0
193 0 0
188 0 0
189 0 0
186 0 0
177 0 0
194 0 0
194 0 0
196 0 0
184 0 0
196 0 0
199 0 0
189 0 0
202 0 0
196 0 0
201 0 0
200 0 0
200 0 0
200 0 0
200 0 0
201 0 0
200 0 0
198 0 0
187 0 0
205 0 0
202 0 0
198 0 0
206 0 0
206 0 0
203 0 0
199 0 0
206 0 0
210 0 0
203 0 0
210 0 0
203 0 0
205 0 0
202 0 0
202 0 0
203 0 0
213 0 0
206 0 0
205 0 0
212 0 0
204 0 0
207 0 0
203 0 0
204 0 0
205 0 0
202 0 0
211 0 0
212 0 0
215 0 0
206 0 0
209 0 0
207 0 0
207 0 0
213 0 0
212 0 0
205 0 0
213 0 0
213 0 0
212 0 0
212 0 0
213 0 0
209 0 0
210 0 0
207 0 0
204 0 0
214 0 0
212 0 0
210 0 0
212 0 0
212 0 0
211 0 0
214 0 0
212 0 0
211 0 0
212 0 0
213 0 0
213 0 0
214 0 0
213 0 0
214 0 0
213 0 0
207 0 0
211 0 0
211 0 0
214 0 0
213 0 0
212 0 0
211 0 0
215 0 0
216 0 0
212 0 0
216 0 0
212 0 0
215 0 0
212 0 0
215 0 0
217 0 0
214 0 0
212 0 0
210 0 0
213 0 0
212 0 0
215 0 0
215 0 0
212 0 0
214 0 0
214 0 0
216 0 0
213 0 0
215 0 0
213 0 0
214 0 0
218 0 0
217 0 0
218 0 0
211 0 0
213 0 0
217 0 0
215 0 0
218 0 0
215 0 0
215 0 0
212 0 0
220 0 0
216 0 0
212 0 0
217 0 0
216 0 0
217 0 0
217 0 0
215 0 0
216 0 0
216 0 0
214 0 0
215 0 0
215 0 0
216 0 0
218 0 0
217 0 0
214 0 0
217 0 0
215 0 0
214 0 0
216 0 0
212 0 0
216 0 0
214 0 0
215 0 0
213 0 0
217 0 0
215 0 0
215 0 0
214 0 0
217 0 0
219 0 0
215 0 0
218 0 0
214 0 0
214 0 0
214 0 0
218 0 0
218 0 0
218 0 0
219 0 0
218 0 0
0 0 255
0 0 255
0 0 254
0 0 255
0 0 254
0 0 255
0 0 255
0 0 255
0 0 253
0 0 255
0 0 254
0 0 255
0 0 254
0 0 255
0 0 255
0 0 254
0 0 254
0 0 254
0 0 255
0 0 253
0 0 255
0 0 254
0 0 254
0 0 253
0 0 255
0 0 254
0 0 255
0 0 255
0 0 254
0 0 252
0 0 254
0 0 253
0 0 255
0 0 255
0 0 254
0 0 255
0 0 250
0 0 254
0 0 254
0 0 252
0 0 254
0 0 253
0 0 255
0 0 254
0 0 254
0 0 254
0 0 254
0 0 253
0 0 253
0 0 252
0 0 253
0 0 252
0 0 250
0 0 254
0 0 254
0 0 250
0 0 254
0 0 252
0 0 249
0 0 253
0 0 252
0 0 249
0 0 254
0 0 253
0 0 253
0 0 253
0 0 253
0 0 253
0 0 252
0 0 252
0 0 253
0 0 253
0 0 250
0 0 252
0 0 249
0 0 254
0 0 250
0 0 254
0 0 252
0 0 252
0 0 252
0 0 255
0 0 254
0 0 249
0 0 252
0 0 255
0 0 246
0 0 254
0 0 250
0 0 253
0 0 250
0 0 250
0 0 252
0 0 253
0 0 252
0 0 245
0 0 249
0 0 249
0 0 254
0 0 249
0 0 248
0 0 249
0 0 250
0 0 252
0 0 253
0 0 249
0 0 252
0 0 252
0 0 248
0 0 248
0 0 248
0 0 249
0 0 250
0 0 245
0 0 249
0 0 253
0 0 252
0 0 249
0 0 246
0 0 245
0 0 248
0 0 246
0 0 242
0 0 249
0 0 250
0 0 246
0 0 249
0 0 245
0 0 250
0 0 244
0 0 245
0 0 246
0 0 242
0 0 244
0 0 252
0 0 246
0 0 249
0 0 236
0 0 245
0 0 240
0 0 233
0 0 234
0 0 244
0 0 242
0 0 236
0 0 242
0 0 238
0 0 231
0 0 245
0 0 240
0 0 238
0 0 231
0 0 240
0 0 242
0 0 230
0 0 242
0 0 233
0 0 238
0 0 236
0 0 230
0 0 237
0 0 233
0 0 236
0 0 211
0 0 231
0 0 231
0 0 238
0 0 227
0 0 227
0 0 224
0 0 223
0 0 226
0 0 228
0 0 212
0 0 226
0 0 221
0 0 226
0 0 217
0 0 211
0 0 207
0 0 206
0 0 204
0 0 217
0 0 211
0 0 201
0 0 204
0 0 206
0 0 217
41 45 188
199 218 252
208 228 255
208 228 255
208 228 255
208 228 255
208 228 255
208 228 255
208 228 255
208 228 255
208 228 255
208 228 255
208 228 255
208 228 255
208 228 255
208 228 255
208 228 255
208 228 255
208 228 255
208 228 255
208 228 255
208 228 255
199 214 240
158 56 62
147 0 0
151 0 0
161 0 0
169 0 0
161 0 0
163 0 0
173 0 0
175 0 0
165 0 0
165 0 0
182 0 0
175 0 0
188 0 0
181 0 0
184 0 0
176 0 0
186 0 0
172 0 0
178 0 0
188 0 0
195 0 0
187 0 0
191 0 0
195 0 0
194 0 0
181 0 0
195 0 0
195 0 0
193 0 0
195 0 0
195 0 0
196 0 0
191 0 0
192 0 0
197 0 0
198 0 0
195 0 0
199 0 0
197 0 0
200 0 0
201 0 0
201 0 0
199 0 0
203 0 0
199 0 0
206 0 0
206 0 0
199 0 0
210 0 0
201 0 0
205 0 0
200 0 0
209 0 0
202 0 0
206 0 0
200 0 0
210 0 0
203 0 0
205 0 0
204 0 0
203 0 0
210 0 0
209 0 0
212 0 0
203 0 0
209 0 0
206 0 0
209 0 0
210 0 0
208 0 0
208 0 0
209 0 0
212 0 0
202 0 0
211 0 0
207 0 0
206 0 0
211 0 0
208 0 0
211 0 0
211 0 0
208 0 0
214 0 0
210 0 0
206 0 0
210 0 0
216 0 0
216 0 0
212 0 0
213 0 0
209 0 0
206 0 0
212 0 0
214 0 0
211 0 0
211 0 0
214 0 0
214 0 0
214 0 0
210 0 0
210 0 0
210 0 0
214 0 0
214 0 0
216 0 0
210 0 0
214 0 0
216 0 0
213 0 0
211 0 0
209 0 0
214 0 0
215 0 0
209 0 0
214 0 0
211 0 0
219 0 0
213 0 0
215 0 0
216 0 0
217 0 0
215 0 0
216 0 0
215 0 0
216 0 0
214 0 0
216 0 0
214 0 0
215 0 0
212 0 0
212 0 0
215 0 0
216 0 0
217 0 0
211 0 0
215 0 0
217 0 0
214 0 0
214 0 0
218 0 0
216 0 0
212 0 0
218 0 0
213 0 0
219 0 0
215 0 0
219 0 0
211 0 0
214 0 0
215 0 0
215 0 0
218 0 0
213 0 0
216 0 0
215 0 0
215 0 0
217 0 0
215 0 0
218 0 0
215 0 0
219 0 0
215 0 0
218 0 0
222 0 0
215 0 0
218 0 0
218 0 0
221 0 0
216 0 0
214 0 0
214 0 0
212 0 0
214 0 0
214 0 0
217 0 0
215 0 0
217 0 0
213 0 0
215 0 0
216 0 0
216 0 0
217 0 0
219 0 0
216 0 0
217 0 0
216 0 0
216 0 0
214 0 0
0 0 255
0 0 254
0 0 255
0 0 255
0 0 254
0 0 254
0 0 255
0 0 253
0 0 255
0 0 255
0 0 255
0 0 254
0 0 255
0 0 253
0 0 255
0 0 255
0 0 255
0 0 255
0 0 255
0 0 253
0 0 255
0 0 255
0 0 254
0 0 255
0 0 255
0 0 255
0 0 255
0 0 255
0 0 255
0 0 255
0 0 254
0 0 250
0 0 255
0 0 255
0 0 254
0 0 252
0 0 254
0 0 255
0 0 254
0 0 253
0 0 255
0 0 255
0 0 254
0 0 252
0 0 255
0 0 252
0 0 255
0 0 254
0 0 254
0 0 253
0 0 254
0 0 253
0 0 253
0 0 253
0 0 254
0 0 253
0 0 253
0 0 253
0 0 248
0 0 250
0 0 252
0 0 254
0 0 252
0 0 253
0 0 253
0 0 252
0 0 252
0 0 255
0 0 253
0 0 255
0 0 249
0 0 254
0 0 252
0 0 253
0 0 255
0 0 252
0 0 253
0 0 254
0 0 252
0 0 253
0 0 253
0 0 255
0 0 253
0 0 252
0 0 249
0 0 252
0 0 253
0 0 253
0 0 252
0 0 249
0 0 249
0 0 252
0 0 246
0 0 252
0 0 248
0 0 252
0 0 250
0 0 249
0 0 252
0 0 246
0 0 250
0 0 249
0 0 246
0 0 249
0 0 252
0 0 250
0 0 246
0 0 248
0 0 241
0 0 249
0 0 248
0 0 255
0 0 246
0 0 240
0 0 246
0 0 250
0 0 250
0 0 249
0 0 245
0 0 241
0 0 248
0 0 244
0 0 242
0 0 245
0 0 244
0 0 249
0 0 240
0 0 244
0 0 248
0 0 248
0 0 242
0 0 246
0 0 241
0 0 234
0 0 245
0 0 241
0 0 241
0 0 240
0 0 241
0 0 241
0 0 241
0 0 237
0 0 244
0 0 242
0 0 245
0 0 242
0 0 230
0 0 238
0 0 236
0 0 245
0 0 242
0 0 241
0 0 237
0 0 240
0 0 242
0 0 238
0 0 227
0 0 234
0 0 234
0 0 236
0 0 226
0 0 231
0 0 240
0 0 238
0 0 230
0 0 227
0 0 228
0 0 230
0 0 237
0 0 231
0 0 231
0 0 217
0 0 230
0 0 230
0 0 215
0 0 223
0 0 209
0 0 220
0 0 211
0 0 217
0 0 226
0 0 220
0 0 201
0 0 212
0 0 211
0 0 186
0 0 201
0 0 179
0 0 196
123 135 220
209 228 255
208 228 255
208 228 255
208 228 255
208 228 255
208 228 255
208 228 255
208 228 255
208 228 255
208 228 255
208 228 255
208 228 255
208 228 255
208 228 255
208 228 255
208 228 255
208 228 255
208 228 255
208 228 255
208 228 255
169 125 140
152 0 0
151 0 0
167 0 0
163 0 0
157 0 0
168 0 0
171 0 0
169 0 0
169 0 0
171 0 0
174 0 0
181 0 0
177 0 0
176 0 0
183 0 0
185 0 0
177 0 0
189 0 0
185 0 0
186 0 0
192 0 0
180 0 0
193 0 0
184 0 0
189 0 0
197 0 0
194 0 0
188 0 0
187 0 0
186 0 0
193 0 0
197 0 0
199 0 0
202 0 0
195 0 0
199 0 0
198 0 0
202 0 0
195 0 0
193 0 0
197 0 0
202 0 0
199 0 0
200 0 0
198 0 0
193 0 0
205 0 0
203 0 0
202 0 0
198 0 0
199 0 0
205 0 0
207 0 0
202 0 0
203 0 0
200 0 0
201 0 0
204 0 0
200 0 0
205 0 0
207 0 0
204 0 0
209 0 0
207 0 0
207 0 0
209 0 0
207 0 0
210 0 0
204 0 0
213 0 0
207 0 0
208 0 0
208 0 0
208 0 0
213 0 0
212 0 0
210 0 0
209 0 0
207 0 0
207 0 0
208 0 0
208 0 0
209 0 0
209 0 0
205 0 0
209 0 0
209 0 0
214 0 0
213 0 0
205 0 0
213 0 0
209 0 0
212 0 0
214 0 0
210 0 0
213 0 0
213 0 0
214 0 0
210 0 0
213 0 0
210 0 0
216 0 0
213 0 0
216 0 0
213 0 0
217 0 0
213 0 0
216 0 0
217 0 0
212 0 0
209 0 0
211 0 0
216 0 0
215 0 0
212 0 0
212 0 0
214 0 0
215 0 0
221 0 0
212 0 0
215 0 0
212 0 0
214 0 0
216 0 0
214 0 0
217 0 0
211 0 0
214 0 0
217 0 0
214 0 0
215 0 0
214 0 0
218 0 0
219 0 0
218 0 0
214 0 0
217 0 0
215 0 0
219 0 0
220 0 0
217 0 0
213 0 0
215 0 0
213 0 0
216 0 0
214 0 0
216 0 0
215 0 0
216 0 0
212 0 0
215 0 0
216 0 0
218 0 0
216 0 0
218 0 0
220 0 0
215 0 0
212 0 0
213 0 0
217 0 0
217 0 0
217 0 0
220 0 0
221 0 0
219 0 0
213 0 0
218 0 0
216 0 0
217 0 0
217 0 0
217 0 0
217 0 0
215 0 0
219 0 0
214 0 0
216 0 0
217 0 0
216 0 0
222 0 0
213 0 0
220 0 0
220 0 0
213 0 0
219 0 0
217 0 0
216 0 0
215 0 0
216 0 0
216 0 0
0 0 254
0 0 254
0 0 254
0 0 254
0 0 255
0 0 253
0 0 255
0 0 255
0 0 255
0 0 255
0 0 253
0 0 255
0 0 255
0 0 255
0 0 254
0 0 252
0 0 254
0 0 255
0 0 254
0 0 255
0 0 255
0 0 253
0 0 255
0 0 255
0 0 254
0 0 253
0 0 253
0 0 254
0 0 254
0 0 255
0 0 254
0 0 254
0 0 254
0 0 255
0 0 253
0 0 255
0 0 255
0 0 255
0 0 252
0 0 255
0 0 253
0 0 250
0 0 254
0 0 254
0 0 254
0 0 254
0 0 255
0 0 254
0 0 254
0 0 255
0 0 250
0 0 254
0 0 252
0 0 255
0 0 254
0 0 253
0 0 254
0 0 252
0 0 254
0 0 253
0 0 253
0 0 253
0 0 250
0 0 254
0 0 250
0 0 254
0 0 252
0 0 252
0 0 252
0 0 255
0 0 254
0 0 252
0 0 254
0 0 250
0 0 253
0 0 253
0 0 254
0 0 250
0 0 253
0 0 253
0 0 252
0 0 249
0 0 253
0 0 252
0 0 249
0 0 252
0 0 250
0 0 252
0 0 250
0 0 249
0 0 252
0 0 250
0 0 254
0 0 254
0 0 250
0 0 254
0 0 249
0 0 252
0 0 245
0 0 250
0 0 244
0 0 249
0 0 248
0 0 249
0 0 249
0 0 249
0 0 244
0 0 252
0 0 248
0 0 245
0 0 246
0 0 246
0 0 254
0 0 245
0 0 246
0 0 249
0 0 248
0 0 250
0 0 248
0 0 244
0 0 249
0 0 248
0 0 249
0 0 253
0 0 249
0 0 245
0 0 248
0 0 246
0 0 249
0 0 245
0 0 240
0 0 242
0 0 246
0 0 248
0 0 242
0 0 240
0 0 242
0 0 249
0 0 252
0 0 246
0 0 236
0 0 246
0 0 248
0 0 241
0 0 240
0 0 240
0 0 240
0 0 240
0 0 244
0 0 227
0 0 237
0 0 234
0 0 241
0 0 236
0 0 236
0 0 233
0 0 236
0 0 233
0 0 230
0 0 227
0 0 233
0 0 234
0 0 217
0 0 238
0 0 224
0 0 234
0 0 240
0 0 218
0 0 228
0 0 226
0 0 220
0 0 230
0 0 234
0 0 226
0 0 217
0 0 221
0 0 220
0 0 224
0 0 206
0 0 209
0 0 201
0 0 215
0 0 209
0 0 206
0 0 204
0 0 203
0 0 211
0 0 188
0 0 203
20 22 206
199 218 252
209 229 255
209 229 255
209 229 255
209 229 255
209 229 255
209 229 255
209 229 255
209 229 255
209 229 255
209 229 255
209 229 255
209 229 255
209 229 255
209 229 255
209 229 255
209 229 255
209 229 255
209 229 255
195 207 231
152 0 0
149 0 0
162 0 0
158 0 0
148 0 0
164 0 0
146 0 0
170 0 0
173 0 0
171 0 0
183 0 0
184 0 0
183 0 0
172 0 0
174 0 0
181 0 0
181 0 0
175 0 0
184 0 0
188 0 0
188 0 0
187 0 0
196 0 0
185 0 0
194 0 0
187 0 0
181 0 0
192 0 0
193 0 0
197 0 0
199 0 0
191 0 0
200 0 0
190 0 0
195 0 0
191 0 0
197 0 0
197 0 0
197 0 0
201 0 0
198 0 0
201 0 0
194 0 0
204 0 0
196 0 0
200 0 0
206 0 0
199 0 0
205 0 0
197 0 0
208 0 0
203 0 0
207 0 0
210 0 0
205 0 0
205 0 0
205 0 0
208 0 0
207 0 0
207 0 0
204 0 0
209 0 0
202 0 0
205 0 0
207 0 0
209 0 0
203 0 0
210 0 0
210 0 0
210 0 0
211 0 0
212 0 0
204 0 0
208 0 0
208 0 0
208 0 0
212 0 0
213 0 0
208 0 0
209 0 0
211 0 0
210 0 0
207 0 0
211 0 0
208 0 0
214 0 0
213 0 0
207 0 0
214 0 0
207 0 0
211 0 0
209 0 0
203 0 0
214 0 0
213 0 0
207 0 0
214 0 0
210 0 0
218 0 0
211 0 0
214 0 0
213 0 0
208 0 0
215 0 0
214 0 0
213 0 0
211 0 0
210 0 0
211 0 0
215 0 0
211 0 0
216 0 0
216 0 0
212 0 0
214 0 0
211 0 0
210 0 0
215 0 0
215 0 0
213 0 0
212 0 0
213 0 0
217 0 0
215 0 0
212 0 0
213 0 0
216 0 0
217 0 0
217 0 0
220 0 0
214 0 0
207 0 0
215 0 0
213 0 0
212 0 0
215 0 0
216 0 0
213 0 0
216 0 0
217 0 0
212 0 0
216 0 0
215 0 0
212 0 0
212 0 0
216 0 0
216 0 0
213 0 0
212 0 0
214 0 0
215 0 0
218 0 0
210 0 0
214 0 0
213 0 0
219 0 0
220 0 0
217 0 0
212 0 0
216 0 0
219 0 0
222 0 0
215 0 0
213 0 0
218 0 0
217 0 0
216 0 0
216 0 0
214 0 0
219 0 0
212 0 0
211 0 0
216 0 0
216 0 0
214 0 0
217 0 0
213 0 0
218 0 0
219 0 0
218 0 0
215 0 0
216 0 0
219 0 0
220 0 0
218 0 0
217 0 0
216 0 0
218 0 0
217 0 0
216 0 0
0 0 255
0 0 254
0 0 255
0 0 254
0 0 253
0 0 255
0 0 255
0 0 255
0 0 255
0 0 255
0 0 254
0 0 253
0 0 254
0 0 255
0 0 254
0 0 254
0 0 253
0 0 254
0 0 255
0 0 254
0 0 254
0 0 254
0 0 254
0 0 253
0 0 254
0 0 254
0 0 255
0 0 252
0 0 254
0 0 254
0 0 253
0 0 255
0 0 252
0 0 255
0 0 255
0 0 255
0 0 254
0 0 254
0 0 250
0 0 254
0 0 255
0 0 255
0 0 254
0 0 254
0 0 255
0 0 250
0 0 253
0 0 254
0 0 255
0 0 254
0 0 255
0 0 254
0 0 255
0 0 253
0 0 254
0 0 252
0 0 253
0 0 252
0 0 252
0 0 250
0 0 252
0 0 254
0 0 248
0 0 253
0 0 254
0 0 254
0 0 254
0 0 252
0 0 253
0 0 254
0 0 253
0 0 252
0 0 254
0 0 253
0 0 252
0 0 248
0 0 254
0 0 252
0 0 252
0 0 254
0 0 253
0 0 246
0 0 254
0 0 252
0 0 252
0 0 254
0 0 249
0 0 249
0 0 252
0 0 252
0 0 246
0 0 246
0 0 246
0 0 249
0 0 254
0 0 252
0 0 248
0 0 248
0 0 250
0 0 250
0 0 242
0 0 254
0 0 250
0 0 248
0 0 250
0 0 249
0 0 253
0 0 249
0 0 246
0 0 249
0 0 252
0 0 252
0 0 246
0 0 248
0 0 241
0 0 248
0 0 248
0 0 249
0 0 248
0 0 244
0 0 244
0 0 246
0 0 244
0 0 242
0 0 249
0 0 242
0 0 249
0 0 249
0 0 245
0 0 246
0 0 244
0 0 244
0 0 240
0 0 245
0 0 244
0 0 246
0 0 248
0 0 238
0 0 245
0 0 246
0 0 240
0 0 234
0 0 241
0 0 238
0 0 246
0 0 241
0 0 238
0 0 231
0 0 238
0 0 236
0 0 240
0 0 238
0 0 236
0 0 234
0 0 237
0 0 238
0 0 224
0 0 233
0 0 226
0 0 236
0 0 223
0 0 238
0 0 242
0 0 238
0 0 227
0 0 223
0 0 228
0 0 223
0 0 218
0 0 234
0 0 217
0 0 227
0 0 233
0 0 221
0 0 230
0 0 228
0 0 220
0 0 228
0 0 204
0 0 212
0 0 198
0 0 207
0 0 204
0 0 206
0 0 209
0 0 206
0 0 189
0 0 186
0 0 171
0 0 199
112 123 206
209 229 255
209 229 255
209 229 255
209 229 255
209 229 255
209 229 255
209 229 255
209 229 255
209 229 255
209 229 255
209 229 255
209 229 255
209 229 255
209 229 255
209 229 255
209 229 255
209 229 255
209 229 255
170 135 151
144 0 0
140 0 0
157 0 0
159 0 0
156 0 0
165 0 0
161 0 0
170 0 0
169 0 0
179 0 0
174 0 0
182 0 0
174 0 0
167 0 0
181 0 0
181 0 0
180 0 0
170 0 0
183 0 0
191 0 0
189 0 0
183 0 0
183 0 0
191 0 0
186 0 0
183 0 0
197 0 0
193 0 0
191 0 0
195 0 0
201 0 0
193 0 0
194 0 0
201 0 0
203 0 0
201 0 0
197 0 0
191 0 0
202 0 0
193 0 0
201 0 0
206 0 0
196 0 0
196 0 0
200 0 0
203 0 0
207 0 0
195 0 0
201 0 0
206 0 0
209 0 0
206 0 0
206 0 0
205 0 0
203 0 0
210 0 0
207 0 0
207 0 0
201 0 0
203 0 0
211 0 0
208 0 0
207 0 0
214 0 0
200 0 0
208 0 0
200 0 0
211 0 0
214 0 0
207 0 0
207 0 0
208 0 0
208 0 0
203 0 0
206 0 0
208 0 0
204 0 0
207 0 0
211 0 0
215 0 0
206 0 0
208 0 0
211 0 0
211 0 0
214 0 0
207 0 0
211 0 0
208 0 0
212 0 0
209 0 0
210 0 0
213 0 0
213 0 0
209 0 0
210 0 0
216 0 0
211 0 0
211 0 0
211 0 0
214 0 0
215 0 0
210 0 0
216 0 0
215 0 0
213 0 0
210 0 0
211 0 0
212 0 0
214 0 0
217 0 0
217 0 0
213 0 0
212 0 0
213 0 0
213 0 0
215 0 0
216 0 0
216 0 0
217 0 0
217 0 0
215 0 0
213 0 0
215 0 0
214 0 0
214 0 0
215 0 0
212 0 0
211 0 0
215 0 0
216 0 0
214 0 0
211 0 0
216 0 0
208 0 0
214 0 0
217 0 0
216 0 0
216 0 0
217 0 0
216 0 0
216 0 0
215 0 0
218 0 0
215 0 0
214 0 0
218 0 0
214 0 0
215 0 0
213 0 0
216 0 0
217 0 0
215 0 0
213 0 0
217 0 0
213 0 0
215 0 0
217 0 0
221 0 0
215 0 0
215 0 0
217 0 0
217 0 0
214 0 0
218 0 0
219 0 0
215 0 0
216 0 0
216 0 0
216 0 0
215 0 0
219 0 0
217 0 0
217 0 0
217 0 0
216 0 0
215 0 0
218 0 0
220 0 0
217 0 0
217 0 0
217 0 0
216 0 0
217 0 0
216 0 0
217 0 0
218 0 0
220 0 0
219 0 0
220 0 0
217 0 0
0 0 255
0 0 254
0 0 255
0 0 254
0 0 255
0 0 254
0 0 255
0 0 255
0 0 255
0 0 255
0 0 255
0 0 255
0 0 254
0 0 255
0 0 254
0 0 253
0 0 254
0 0 254
0 0 255
0 0 254
0 0 255
0 0 253
0 0 254
0 0 255
0 0 255
0 0 252
0 0 255
0 0 254
0 0 254
0 0 255
0 0 255
0 0 252
0 0 254
0 0 255
0 0 255
0 0 254
0 0 253
0 0 255
0 0 254
0 0 252
0 0 254
0 0 253
0 0 255
0 0 255
0 0 254
0 0 253
0 0 255
0 0 252
0 0 254
0 0 250
0 0 253
0 0 255
0 0 255
0 0 254
0 0 253
0 0 254
0 0 253
0 0 249
0 0 254
0 0 253
0 0 252
0 0 252
0 0 254
0 0 248
0 0 255
0 0 250
0 0 253
0 0 249
0 0 250
0 0 250
0 0 252
0 0 253
0 0 249
0 0 252
0 0 253
0 0 253
0 0 248
0 0 253
0 0 254
0 0 253
0 0 249
0 0 250
0 0 252
0 0 249
0 0 249
0 0 254
0 0 253
0 0 252
0 0 250
0 0 252
0 0 252
0 0 253
0 0 253
0 0 250
0 0 250
0 0 252
0 0 253
0 0 246
0 0 250
0 0 254
0 0 250
0 0 253
0 0 244
0 0 252
0 0 248
0 0 253
0 0 246
0 0 249
0 0 249
0 0 248
0 0 241
0 0 250
0 0 241
0 0 248
0 0 249
0 0 246
0 0 248
0 0 248
0 0 246
0 0 245
0 0 249
0 0 250
0 0 244
0 0 241
0 0 246
0 0 248
0 0 237
0 0 249
0 0 248
0 0 242
0 0 245
0 0 245
0 0 237
0 0 242
0 0 246
0 0 245
0 0 242
0 0 242
0 0 242
0 0 246
0 0 245
0 0 234
0 0 241
0 0 241
0 0 233
0 0 242
0 0 240
0 0 242
0 0 244
0 0 233
0 0 246
0 0 237
0 0 244
0 0 241
0 0 234
0 0 241
0 0 236
0 0 233
0 0 233
0 0 233
0 0 231
0 0 236
0 0 221
0 0 226
0 0 227
0 0 224
0 0 224
0 0 230
0 0 228
0 0 215
0 0 228
0 0 212
0 0 218
0 0 217
0 0 217
0 0 214
0 0 220
0 0 224
0 0 209
0 0 212
0 0 218
0 0 217
0 0 207
0 0 189
0 0 198
0 0 189
0 0 201
0 0 201
0 0 179
0 0 196
20 22 182
197 216 248
209 229 255
209 229 255
209 229 255
209 229 255
209 229 255
209 229 255
209 229 255
209 229 255
209 229 255
209 229 255
209 229 255
209 229 255
209 229 255
209 229 255
209 229 255
209 229 255
200 207 231
152 22 25
147 0 0
154 0 0
160 0 0
148 0 0
162 0 0
167 0 0
163 0 0
162 0 0
160 0 0
175 0 0
175 0 0
172 0 0
176 0 0
181 0 0
166 0 0
185 0 0
182 0 0
189 0 0
180 0 0
179 0 0
182 0 0
189 0 0
182 0 0
189 0 0
191 0 0
195 0 0
191 0 0
188 0 0
193 0 0
193 0 0
185 0 0
200 0 0
196 0 0
190 0 0
191 0 0
201 0 0
191 0 0
201 0 0
198 0 0
197 0 0
200 0 0
199 0 0
197 0 0
206 0 0
196 0 0
196 0 0
201 0 0
207 0 0
209 0 0
202 0 0
200 0 0
202 0 0
202 0 0
201 0 0
205 0 0
205 0 0
206 0 0
209 0 0
207 0 0
209 0 0
202 0 0
202 0 0
211 0 0
197 0 0
214 0 0
205 0 0
207 0 0
203 0 0
208 0 0
204 0 0
209 0 0
205 0 0
208 0 0
209 0 0
204 0 0
205 0 0
216 0 0
213 0 0
204 0 0
210 0 0
210 0 0
207 0 0
208 0 0
210 0 0
209 0 0
213 0 0
214 0 0
212 0 0
205 0 0
208 0 0
211 0 0
209 0 0
214 0 0
215 0 0
210 0 0
208 0 0
214 0 0
209 0 0
212 0 0
209 0 0
215 0 0
215 0 0
211 0 0
215 0 0
218 0 0
212 0 0
212 0 0
215 0 0
212 0 0
215 0 0
212 0 0
212 0 0
217 0 0
215 0 0
212 0 0
216 0 0
214 0 0
212 0 0
211 0 0
216 0 0
217 0 0
216 0 0
216 0 0
213 0 0
211 0 0
210 0 0
213 0 0
212 0 0
218 0 0
214 0 0
216 0 0
213 0 0
219 0 0
213 0 0
215 0 0
218 0 0
218 0 0
216 0 0
217 0 0
214 0 0
209 0 0
220 0 0
216 0 0
212 0 0
210 0 0
218 0 0
212 0 0
214 0 0
212 0 0
217 0 0
216 0 0
215 0 0
217 0 0
216 0 0
219 0 0
218 0 0
213 0 0
216 0 0
220 0 0
215 0 0
216 0 0
212 0 0
215 0 0
215 0 0
219 0 0
215 0 0
215 0 0
217 0 0
213 0 0
218 0 0
217 0 0
218 0 0
213 0 0
217 0 0
215 0 0
215 0 0
215 0 0
220 0 0
215 0 0
217 0 0
217 0 0
219 0 0
214 0 0
215 0 0
217 0 0
214 0 0
216 0 0
219 0 0
217 0 0
215 0 0
0 0 254
0 0 255
0 0 253
0 0 255
0 0 254
0 0 253
0 0 255
0 0 255
0 0 253
0 0 255
0 0 255
0 0 255
0 0 254
0 0 255
0 0 255
0 0 255
0 0 255
0 0 255
0 0 254
0 0 250
0 0 254
0 0 254
0 0 255
0 0 254
0 0 254
0 0 253
0 0 254
0 0 255
0 0 254
0 0 254
0 0 253
0 0 252
0 0 253
0 0 254
0 0 253
0 0 250
0 0 253
0 0 254
0 0 254
0 0 254
0 0 255
0 0 254
0 0 255
0 0 255
0 0 255
0 0 254
0 0 255
0 0 254
0 0 250
0 0 255
0 0 254
0 0 254
0 0 254
0 0 255
0 0 252
0 0 254
0 0 254
0 0 254
0 0 255
0 0 254
0 0 253
0 0 254
0 0 253
0 0 253
0 0 253
0 0 249
0 0 248
0 0 252
0 0 250
0 0 252
0 0 253
0 0 253
0 0 253
0 0 252
0 0 255
0 0 255
0 0 253
0 0 250
0 0 254
0 0 250
0 0 250
0 0 254
0 0 254
0 0 253
0 0 250
0 0 254
0 0 250
0 0 250
0 0 254
0 0 253
0 0 249
0 0 252
0 0 254
0 0 253
0 0 249
0 0 250
0 0 254
0 0 250
0 0 249
0 0 249
0 0 248
0 0 249
0 0 248
0 0 250
0 0 248
0 0 248
0 0 249
0 0 252
0 0 246
0 0 250
0 0 250
0 0 250
0 0 246
0 0 249
0 0 246
0 0 250
0 0 242
0 0 250
0 0 245
0 0 245
0 0 250
0 0 246
0 0 238
0 0 249
0 0 245
0 0 245
0 0 241
0 0 250
0 0 246
0 0 241
0 0 244
0 0 244
0 0 242
0 0 248
0 0 240
0 0 248
0 0 245
0 0 252
0 0 240
0 0 238
0 0 236
0 0 246
0 0 245
0 0 233
0 0 246
0 0 242
0 0 237
0 0 236
0 0 237
0 0 245
0 0 240
0 0 230
0 0 237
0 0 237
0 0 238
0 0 233
0 0 238
0 0 234
0 0 237
0 0 237
0 0 237
0 0 238
0 0 228
0 0 228
0 0 234
0 0 227
0 0 228
0 0 226
0 0 230
0 0 220
0 0 218
0 0 223
0 0 217
0 0 226
0 0 214
0 0 224
0 0 212
0 0 215
0 0 199
0 0 214
0 0 217
0 0 188
0 0 209
0 0 209
0 0 189
0 0 188
0 0 193
0 0 198
0 0 186
0 0 188
0 0 191
113 123 206
210 229 255
210 229 255
210 229 255
210 229 255
210 229 255
210 229 255
210 229 255
210 229 255
210 229 255
210 229 255
210 229 255
210 229 255
210 229 255
210 229 255
210 229 255
210 229 255
162 127 142
154 0 0
159 0 0
142 0 0
158 0 0
159 0 0
170 0 0
164 0 0
172 0 0
160 0 0
169 0 0
181 0 0
169 0 0
176 0 0
187 0 0
174 0 0
189 0 0
183 0 0
179 0 0
184 0 0
180 0 0
183 0 0
193 0 0
186 0 0
193 0 0
194 0 0
188 0 0
194 0 0
199 0 0
191 0 0
192 0 0
191 0 0
196 0 0
200 0 0
198 0 0
187 0 0
200 0 0
195 0 0
200 0 0
197 0 0
205 0 0
200 0 0
196 0 0
201 0 0
201 0 0
197 0 0
208 0 0
199 0 0
202 0 0
198 0 0
203 0 0
203 0 0
201 0 0
203 0 0
203 0 0
207 0 0
199 0 0
200 0 0
202 0 0
203 0 0
207 0 0
204 0 0
204 0 0
212 0 0
203 0 0
207 0 0
202 0 0
212 0 0
202 0 0
210 0 0
213 0 0
208 0 0
209 0 0
209 0 0
205 0 0
206 0 0
211 0 0
205 0 0
211 0 0
209 0 0
209 0 0
211 0 0
213 0 0
210 0 0
211 0 0
209 0 0
215 0 0
217 0 0
216 0 0
211 0 0
211 0 0
211 0 0
213 0 0
211 0 0
207 0 0
212 0 0
209 0 0
210 0 0
214 0 0
212 0 0
216 0 0
216 0 0
211 0 0
211 0 0
212 0 0
214 0 0
216 0 0
214 0 0
212 0 0
213 0 0
216 0 0
207 0 0
213 0 0
212 0 0
216 0 0
217 0 0
216 0 0
216 0 0
213 0 0
213 0 0
214 0 0
208 0 0
217 0 0
215 0 0
210 0 0
216 0 0
219 0 0
218 0 0
213 0 0
208 0 0
212 0 0
213 0 0
215 0 0
211 0 0
217 0 0
215 0 0
216 0 0
216 0 0
218 0 0
216 0 0
211 0 0
215 0 0
218 0 0
215 0 0
218 0 0
212 0 0
214 0 0
221 0 0
216 0 0
216 0 0
216 0 0
216 0 0
216 0 0
214 0 0
216 0 0
219 0 0
215 0 0
217 0 0
216 0 0
212 0 0
220 0 0
212 0 0
216 0 0
214 0 0
215 0 0
215 0 0
216 0 0
217 0 0
217 0 0
219 0 0
217 0 0
216 0 0
213 0 0
215 0 0
217 0 0
221 0 0
212 0 0
215 0 0
216 0 0
214 0 0
219 0 0
218 0 0
215 0 0
218 0 0
216 0 0
214 0 0
216 0 0
216 0 0
214 0 0
219 0 0
213 0 0
217 0 0
0 0 254
0 0 255
0 0 255
0 0 255
0 0 253
0 0 254
0 0 255
0 0 254
0 0 255
0 0 254
0 0 255
0 0 255
0 0 253
0 0 255
0 0 255
0 0 255
0 0 254
0 0 254
0 0 255
0 0 255
0 0 254
0 0 255
0 0 254
0 0 255
0 0 254
0 0 255
0 0 255
0 0 254
0 0 254
0 0 254
0 0 253
0 0 254
0 0 253
0 0 254
0 0 255
0 0 252
0 0 253
0 0 254
0 0 252
0 0 250
0 0 253
0 0 254
0 0 252
0 0 253
0 0 253
0 0 254
0 0 254
0 0 254
0 0 255
0 0 253
0 0 254
0 0 253
0 0 253
0 0 254
0 0 252
0 0 253
0 0 253
0 0 253
0 0 254
0 0 255
0 0 253
0 0 254
0 0 249
0 0 253
0 0 254
0 0 252
0 0 253
0 0 254
0 0 253
0 0 253
0 0 252
0 0 250
0 0 255
0 0 252
0 0 254
0 0 253
0 0 253
0 0 249
0 0 255
0 0 250
0 0 253
0 0 250
0 0 253
0 0 252
0 0 250
0 0 252
0 0 250
0 0 254
0 0 252
0 0 252
0 0 253
0 0 249
0 0 250
0 0 248
0 0 252
0 0 248
0 0 253
0 0 248
0 0 253
0 0 250
0 0 252
0 0 250
0 0 246
0 0 245
0 0 250
0 0 246
0 0 249
0 0 245
0 0 248
0 0 248
0 0 249
0 0 248
0 0 252
0 0 249
0 0 250
0 0 250
0 0 253
0 0 249
0 0 249
0 0 246
0 0 248
0 0 246
0 0 241
0 0 245
0 0 240
0 0 242
0 0 250
0 0 245
0 0 245
0 0 246
0 0 241
0 0 245
0 0 241
0 0 238
0 0 246
0 0 248
0 0 241
0 0 237
0 0 248
0 0 238
0 0 245
0 0 231
0 0 250
0 0 236
0 0 240
0 0 240
0 0 237
0 0 241
0 0 236
0 0 237
0 0 242
0 0 234
0 0 234
0 0 234
0 0 242
0 0 241
0 0 245
0 0 244
0 0 231
0 0 226
0 0 233
0 0 226
0 0 234
0 0 230
0 0 228
0 0 237
0 0 227
0 0 212
0 0 227
0 0 218
0 0 217
0 0 221
0 0 226
0 0 215
0 0 214
0 0 220
0 0 214
0 0 215
0 0 206
0 0 198
0 0 206
0 0 206
0 0 204
0 0 201
0 0 194
0 0 188
0 0 198
0 0 199
0 0 189
0 0 196
0 0 179
42 45 167
199 217 246
210 229 255
210 229 255
210 229 255
210 229 255
210 229 255
210 229 255
210 229 255
210 229 255
210 229 255
210 229 255
210 229 255
210 229 255
210 229 255
210 229 255
201 214 238
149 45 51
139 0 0
144 0 0
140 0 0
159 0 0
157 0 0
160 0 0
171 0 0
169 0 0
173 0 0
167 0 0
169 0 0
175 0 0
180 0 0
175 0 0
172 0 0
187 0 0
180 0 0
170 0 0
193 0 0
201 0 0
191 0 0
193 0 0
186 0 0
185 0 0
193 0 0
190 0 0
192 0 0
183 0 0
194 0 0
195 0 0
195 0 0
201 0 0
207 0 0
191 0 0
204 0 0
204 0 0
195 0 0
198 0 0
204 0 0
205 0 0
198 0 0
203 0 0
204 0 0
202 0 0
196 0 0
202 0 0
196 0 0
203 0 0
200 0 0
206 0 0
210 0 0
201 0 0
209 0 0
195 0 0
212 0 0
203 0 0
209 0 0
203 0 0
210 0 0
205 0 0
204 0 0
210 0 0
210 0 0
207 0 0
206 0 0
212 0 0
208 0 0
202 0 0
205 0 0
203 0 0
207 0 0
209 0 0
215 0 0
206 0 0
214 0 0
206 0 0
212 0 0
214 0 0
210 0 0
210 0 0
207 0 0
205 0 0
214 0 0
207 0 0
210 0 0
208 0 0
210 0 0
212 0 0
209 0 0
211 0 0
215 0 0
210 0 0
217 0 0
214 0 0
213 0 0
212 0 0
212 0 0
213 0 0
213 0 0
212 0 0
213 0 0
215 0 0
215 0 0
213 0 0
214 0 0
213 0 0
217 0 0
216 0 0
214 0 0
211 0 0
214 0 0
212 0 0
214 0 0
212 0 0
212 0 0
210 0 0
211 0 0
218 0 0
215 0 0
216 0 0
215 0 0
214 0 0
213 0 0
214 0 0
217 0 0
215 0 0
215 0 0
213 0 0
215 0 0
215 0 0
213 0 0
214 0 0
213 0 0
219 0 0
214 0 0
214 0 0
217 0 0
214 0 0
217 0 0
217 0 0
214 0 0
217 0 0
219 0 0
215 0 0
218 0 0
218 0 0
216 0 0
212 0 0
215 0 0
216 0 0
216 0 0
218 0 0
215 0 0
217 0 0
216 0 0
217 0 0
217 0 0
220 0 0
215 0 0
214 0 0
216 0 0
215 0 0
218 0 0
215 0 0
215 0 0
216 0 0
218 0 0
218 0 0
216 0 0
216 0 0
218 0 0
220 0 0
218 0 0
217 0 0
220 0 0
216 0 0
216 0 0
213 0 0
221 0 0
217 0 0
217 0 0
215 0 0
215 0 0
218 0 0
219 0 0
218 0 0
213 0 0
221 0 0
220 0 0
216 0 0
220 0 0
0 0 255
0 0 255
0 0 255
0 0 255
0 0 255
0 0 254
0 0 252
0 0 253
0 0 255
0 0 255
0 0 254
0 0 255
0 0 255
0 0 255
0 0 254
0 0 255
0 0 255
0 0 255
0 0 255
0 0 255
0 0 254
0 0 252
0 0 255
0 0 255
0 0 253
0 0 255
0 0 255
0 0 255
0 0 255
0 0 252
0 0 255
0 0 255
0 0 255
0 0 255
0 0 255
0 0 255
0 0 255
0 0 254
0 0 253
0 0 255
0 0 254
0 0 255
0 0 254
0 0 253
0 0 255
0 0 255
0 0 254
0 0 255
0 0 254
0 0 254
0 0 254
0 0 254
0 0 255
0 0 253
0 0 254
0 0 254
0 0 250
0 0 254
0 0 253
0 0 250
0 0 249
0 0 253
0 0 252
0 0 255
0 0 252
0 0 249
0 0 253
0 0 249
0 0 252
0 0 253
0 0 254
0 0 245
0 0 254
0 0 253
0 0 250
0 0 255
0 0 253
0 0 250
0 0 249
0 0 246
0 0 254
0 0 248
0 0 250
0 0 255
0 0 252
0 0 250
0 0 252
0 0 250
0 0 252
0 0 252
0 0 250
0 0 253
0 0 250
0 0 248
0 0 249
0 0 252
0 0 246
0 0 252
0 0 248
0 0 250
0 0 252
0 0 248
0 0 253
0 0 252
0 0 248
0 0 244
0 0 249
0 0 248
0 0 248
0 0 245
0 0 246
0 0 249
0 0 240
0 0 246
0 0 248
0 0 242
0 0 244
0 0 252
0 0 252
0 0 249
0 0 248
0 0 244
0 0 242
0 0 249
0 0 242
0 0 248
0 0 242
0 0 242
0 0 244
0 0 245
0 0 244
0 0 245
0 0 241
0 0 242
0 0 240
0 0 246
0 0 238
0 0 246
0 0 241
0 0 237
0 0 231
0 0 231
0 0 242
0 0 231
0 0 237
0 0 238
0 0 237
0 0 240
0 0 241
0 0 230
0 0 238
0 0 236
0 0 244
0 0 237
0 0 236
0 0 226
0 0 240
0 0 238
0 0 230
0 0 231
0 0 223
0 0 237
0 0 227
0 0 228
0 0 233
0 0 228
0 0 223
0 0 215
0 0 223
0 0 231
0 0 231
0 0 227
0 0 218
0 0 220
0 0 228
0 0 214
0 0 221
0 0 211
0 0 206
0 0 218
0 0 214
0 0 201
0 0 196
0 0 199
0 0 194
0 0 199
0 0 194
0 0 181
0 0 199
0 0 182
0 0 159
0 0 163
138 150 220
210 229 255
210 229 255
210 229 255
210 229 255
210 229 255
210 229 255
210 229 255
210 229 255
210 229 255
210 229 255
210 229 255
210 229 255
210 229 255
210 229 255
179 157 175
141 0 0
147 0 0
149 0 0
152 0 0
155 0 0
156 0 0
158 0 0
163 0 0
165 0 0
172 0 0
169 0 0
176 0 0
176 0 0
182 0 0
174 0 0
178 0 0
181 0 0
190 0 0
179 0 0
179 0 0
194 0 0
182 0 0
178 0 0
191 0 0
186 0 0
186 0 0
200 0 0
188 0 0
194 0 0
198 0 0
189 0 0
191 0 0
185 0 0
200 0 0
194 0 0
201 0 0
199 0 0
198 0 0
201 0 0
194 0 0
200 0 0
191 0 0
197 0 0
201 0 0
199 0 0
198 0 0
196 0 0
203 0 0
201 0 0
209 0 0
202 0 0
199 0 0
201 0 0
210 0 0
200 0 0
203 0 0
202 0 0
200 0 0
206 0 0
207 0 0
205 0 0
208 0 0
201 0 0
209 0 0
205 0 0
213 0 0
213 0 0
212 0 0
206 0 0
208 0 0
210 0 0
207 0 0
206 0 0
208 0 0
209 0 0
204 0 0
211 0 0
204 0 0
207 0 0
202 0 0
209 0 0
212 0 0
212 0 0
216 0 0
208 0 0
208 0 0
214 0 0
212 0 0
211 0 0
213 0 0
211 0 0
207 0 0
213 0 0
213 0 0
216 0 0
214 0 0
212 0 0
213 0 0
211 0 0
210 0 0
218 0 0
215 0 0
214 0 0
215 0 0
214 0 0
211 0 0
215 0 0
217 0 0
213 0 0
212 0 0
213 0 0
210 0 0
213 0 0
215 0 0
213 0 0
216 0 0
214 0 0
214 0 0
208 0 0
219 0 0
214 0 0
209 0 0
215 0 0
217 0 0
213 0 0
214 0 0
217 0 0
219 0 0
217 0 0
213 0 0
210 0 0
215 0 0
216 0 0
217 0 0
214 0 0
215 0 0
214 0 0
220 0 0
215 0 0
217 0 0
217 0 0
214 0 0
219 0 0
217 0 0
214 0 0
215 0 0
217 0 0
216 0 0
215 0 0
214 0 0
217 0 0
215 0 0
211 0 0
215 0 0
217 0 0
216 0 0
219 0 0
218 0 0
218 0 0
216 0 0
218 0 0
215 0 0
218 0 0
220 0 0
217 0 0
218 0 0
214 0 0
216 0 0
215 0 0
213 0 0
217 0 0
214 0 0
218 0 0
215 0 0
213 0 0
220 0 0
219 0 0
221 0 0
217 0 0
220 0 0
221 0 0
220 0 0
217 0 0
216 0 0
217 0 0
218 0 0
216 0 0
218 0 0
219 0 0
221 0 0
218 0 0
220 0 0
0 0 255
0 0 254
0 0 255
0 0 254
0 0 255
0 0 254
0 0 255
0 0 255
0 0 255
0 0 253
0 0 255
0 0 255
0 0 255
0 0 254
0 0 255
0 0 254
0 0 255
0 0 255
0 0 255
0 0 254
0 0 254
0 0 255
0 0 254
0 0 255
0 0 255
0 0 254
0 0 252
0 0 254
0 0 254
0 0 255
0 0 254
0 0 255
0 0 254
0 0 254
0 0 255
0 0 252
0 0 252
0 0 252
0 0 254
0 0 253
0 0 255
0 0 255
0 0 253
0 0 254
0 0 252
0 0 255
0 0 252
0 0 254
0 0 254
0 0 253
0 0 254
0 0 254
0 0 255
0 0 255
0 0 253
0 0 252
0 0 255
0 0 254
0 0 253
0 0 253
0 0 250
0 0 253
0 0 254
0 0 252
0 0 254
0 0 253
0 0 254
0 0 253
0 0 254
0 0 253
0 0 253
0 0 252
0 0 253
0 0 255
0 0 248
0 0 253
0 0 254
0 0 249
0 0 250
0 0 248
0 0 250
0 0 252
0 0 253
0 0 253
0 0 250
0 0 253
0 0 253
0 0 249
0 0 252
0 0 250
0 0 248
0 0 252
0 0 253
0 0 252
0 0 253
0 0 245
0 0 246
0 0 252
0 0 249
0 0 252
0 0 246
0 0 253
0 0 244
0 0 246
0 0 246
0 0 252
0 0 249
0 0 250
0 0 252
0 0 244
0 0 249
0 0 249
0 0 250
0 0 248
0 0 249
0 0 242
0 0 242
0 0 248
0 0 249
0 0 244
0 0 246
0 0 241
0 0 244
0 0 244
0 0 246
0 0 245
0 0 249
0 0 245
0 0 241
0 0 249
0 0 248
0 0 246
0 0 246
0 0 240
0 0 245
0 0 238
0 0 244
0 0 242
0 0 245
0 0 240
0 0 245
0 0 246
0 0 240
0 0 242
0 0 233
0 0 244
0 0 245
0 0 234
0 0 236
0 0 233
0 0 241
0 0 236
0 0 237
0 0 241
0 0 233
0 0 242
0 0 241
0 0 230
0 0 215
0 0 226
0 0 234
0 0 231
0 0 228
0 0 233
0 0 233
0 0 234
0 0 234
0 0 230
0 0 215
0 0 227
0 0 217
0 0 227
0 0 215
0 0 212
0 0 234
0 0 228
0 0 221
0 0 201
0 0 209
0 0 207
0 0 206
0 0 209
0 0 198
0 0 206
0 0 204
0 0 198
0 0 196
0 0 207
0 0 184
0 0 186
0 0 186
0 0 169
59 65 163
207 226 252
211 230 255
211 230 255
211 230 255
211 230 255
211 230 255
211 230 255
211 230 255
211 230 255
211 230 255
211 230 255
211 230 255
211 230 255
210 226 252
140 56 62
147 0 0
146 0 0
141 0 0
147 0 0
147 0 0
154 0 0
161 0 0
161 0 0
175 0 0
162 0 0
169 0 0
179 0 0
175 0 0
183 0 0
171 0 0
178 0 0
191 0 0
180 0 0
188 0 0
189 0 0
180 0 0
189 0 0
196 0 0
192 0 0
189 0 0
188 0 0
195 0 0
190 0 0
188 0 0
193 0 0
202 0 0
193 0 0
197 0 0
192 0 0
189 0 0
199 0 0
194 0 0
197 0 0
194 0 0
196 0 0
198 0 0
196 0 0
197 0 0
199 0 0
198 0 0
203 0 0
203 0 0
212 0 0
203 0 0
208 0 0
200 0 0
199 0 0
202 0 0
203 0 0
208 0 0
210 0 0
199 0 0
206 0 0
204 0 0
204 0 0
202 0 0
208 0 0
210 0 0
210 0 0
209 0 0
212 0 0
208 0 0
214 0 0
210 0 0
212 0 0
213 0 0
204 0 0
206 0 0
206 0 0
212 0 0
210 0 0
203 0 0
211 0 0
214 0 0
213 0 0
208 0 0
207 0 0
215 0 0
204 0 0
213 0 0
212 0 0
217 0 0
217 0 0
212 0 0
218 0 0
210 0 0
208 0 0
211 0 0
209 0 0
210 0 0
213 0 0
213 0 0
213 0 0
212 0 0
207 0 0
213 0 0
209 0 0
213 0 0
215 0 0
215 0 0
216 0 0
218 0 0
209 0 0
206 0 0
214 0 0
211 0 0
219 0 0
213 0 0
213 0 0
216 0 0
217 0 0
218 0 0
217 0 0
218 0 0
213 0 0
215 0 0
217 0 0
219 0 0
214 0 0
216 0 0
216 0 0
212 0 0
214 0 0
211 0 0
216 0 0
218 0 0
218 0 0
216 0 0
212 0 0
214 0 0
215 0 0
217 0 0
217 0 0
215 0 0
214 0 0
216 0 0
218 0 0
213 0 0
215 0 0
217 0 0
214 0 0
216 0 0
216 0 0
212 0 0
218 0 0
212 0 0
216 0 0
213 0 0
213 0 0
219 0 0
217 0 0
217 0 0
220 0 0
215 0 0
218 0 0
218 0 0
215 0 0
216 0 0
216 0 0
214 0 0
219 0 0
215 0 0
221 0 0
218 0 0
217 0 0
218 0 0
217 0 0
216 0 0
218 0 0
217 0 0
217 0 0
215 0 0
216 0 0
218 0 0
220 0 0
218 0 0
218 0 0
217 0 0
221 0 0
219 0 0
216 0 0
215 0 0
222 0 0
218 0 0
221 0 0
222 0 0
220 0 0
0 0 255
0 0 255
0 0 254
0 0 253
0 0 255
0 0 255
0 0 252
0 0 253
0 0 254
0 0 254
0 0 255
0 0 255
0 0 254
0 0 254
0 0 254
0 0 254
0 0 254
0 0 254
0 0 253
0 0 254
0 0 255
0 0 255
0 0 255
0 0 255
0 0 255
0 0 254
0 0 255
0 0 255
0 0 253
0 0 255
0 0 255
0 0 254
0 0 254
0 0 253
0 0 253
0 0 253
0 0 254
0 0 252
0 0 254
0 0 254
0 0 254
0 0 255
0 0 254
0 0 254
0 0 255
0 0 252
0 0 252
0 0 254
0 0 253
0 0 254
0 0 250
0 0 254
0 0 252
0 0 249
0 0 253
0 0 255
0 0 255
0 0 253
0 0 254
0 0 254
0 0 254
0 0 253
0 0 250
0 0 254
0 0 253
0 0 253
0 0 253
0 0 249
0 0 249
0 0 253
0 0 254
0 0 252
0 0 252
0 0 253
0 0 253
0 0 254
0 0 252
0 0 252
0 0 253
0 0 249
0 0 249
0 0 250
0 0 252
0 0 254
0 0 249
0 0 250
0 0 255
0 0 253
0 0 250
0 0 253
0 0 249
0 0 253
0 0 250
0 0 250
0 0 250
0 0 245
0 0 248
0 0 249
0 0 253
0 0 250
0 0 246
0 0 250
0 0 249
0 0 246
0 0 250
0 0 252
0 0 250
0 0 249
0 0 250
0 0 244
0 0 250
0 0 249
0 0 246
0 0 240
0 0 249
0 0 246
0 0 250
0 0 240
0 0 238
0 0 244
0 0 249
0 0 245
0 0 250
0 0 248
0 0 250
0 0 240
0 0 246
0 0 244
0 0 246
0 0 249
0 0 242
0 0 238
0 0 249
0 0 245
0 0 240
0 0 248
0 0 242
0 0 234
0 0 244
0 0 245
0 0 245
0 0 241
0 0 234
0 0 241
0 0 237
0 0 236
0 0 238
0 0 237
0 0 244
0 0 240
0 0 244
0 0 233
0 0 233
0 0 237
0 0 237
0 0 233
0 0 231
0 0 227
0 0 233
0 0 230
0 0 231
0 0 234
0 0 227
0 0 231
0 0 242
0 0 236
0 0 227
0 0 227
0 0 217
0 0 221
0 0 226
0 0 218
0 0 218
0 0 224
0 0 227
0 0 230
0 0 220
0 0 209
0 0 204
0 0 221
0 0 212
0 0 204
0 0 214
0 0 203
0 0 211
0 0 204
0 0 196
0 0 193
0 0 189
0 0 161
0 0 182
0 0 165
0 0 169
163 178 224
211 230 255
211 230 255
211 230 255
211 230 255
211 230 255
211 230 255
211 230 255
211 230 255
211 230 255
211 230 255
211 230 255
211 230 255
170 162 181
153 0 0
145 0 0
150 0 0
152 0 0
148 0 0
151 0 0
158 0 0
162 0 0
167 0 0
158 0 0
155 0 0
169 0 0
170 0 0
175 0 0
171 0 0
178 0 0
183 0 0
182 0 0
188 0 0
181 0 0
178 0 0
186 0 0
194 0 0
195 0 0
192 0 0
186 0 0
191 0 0
187 0 0
198 0 0
186 0 0
189 0 0
183 0 0
190 0 0
189 0 0
198 0 0
193 0 0
198 0 0
197 0 0
191 0 0
196 0 0
203 0 0
207 0 0
198 0 0
201 0 0
205 0 0
206 0 0
204 0 0
206 0 0
201 0 0
205 0 0
202 0 0
204 0 0
205 0 0
205 0 0
216 0 0
202 0 0
210 0 0
203 0 0
208 0 0
204 0 0
203 0 0
207 0 0
211 0 0
204 0 0
211 0 0
198 0 0
202 0 0
204 0 0
215 0 0
210 0 0
209 0 0
205 0 0
211 0 0
208 0 0
215 0 0
216 0 0
211 0 0
211 0 0
216 0 0
212 0 0
207 0 0
213 0 0
209 0 0
215 0 0
208 0 0
216 0 0
207 0 0
212 0 0
211 0 0
214 0 0
213 0 0
211 0 0
210 0 0
216 0 0
211 0 0
211 0 0
210 0 0
212 0 0
214 0 0
216 0 0
217 0 0
216 0 0
214 0 0
211 0 0
211 0 0
215 0 0
216 0 0
215 0 0
213 0 0
215 0 0
210 0 0
209 0 0
216 0 0
212 0 0
211 0 0
216 0 0
213 0 0
210 0 0
214 0 0
216 0 0
213 0 0
215 0 0
218 0 0
213 0 0
216 0 0
217 0 0
214 0 0
214 0 0
214 0 0
209 0 0
216 0 0
218 0 0
219 0 0
215 0 0
216 0 0
217 0 0
214 0 0
219 0 0
213 0 0
214 0 0
219 0 0
219 0 0
217 0 0
218 0 0
220 0 0
215 0 0
215 0 0
218 0 0
216 0 0
216 0 0
218 0 0
222 0 0
215 0 0
215 0 0
216 0 0
211 0 0
217 0 0
218 0 0
216 0 0
215 0 0
217 0 0
217 0 0
219 0 0
212 0 0
216 0 0
217 0 0
214 0 0
217 0 0
214 0 0
219 0 0
213 0 0
217 0 0
217 0 0
214 0 0
218 0 0
216 0 0
218 0 0
216 0 0
216 0 0
218 0 0
217 0 0
216 0 0
217 0 0
217 0 0
220 0 0
215 0 0
216 0 0
218 0 0
216 0 0
218 0 0
220 0 0
218 0 0
219 0 0
0 0 254
0 0 254
0 0 255
0 0 255
0 0 255
0 0 255
0 0 254
0 0 255
0 0 255
0 0 255
0 0 255
0 0 254
0 0 255
0 0 255
0 0 254
0 0 255
0 0 253
0 0 253
0 0 254
0 0 255
0 0 254
0 0 255
0 0 255
0 0 253
0 0 255
0 0 254
0 0 252
0 0 255
0 0 254
0 0 254
0 0 254
0 0 254
0 0 253
0 0 253
0 0 254
0 0 253
0 0 253
0 0 254
0 0 253
0 0 252
0 0 254
0 0 253
0 0 252
0 0 255
0 0 254
0 0 254
0 0 249
0 0 253
0 0 253
0 0 255
0 0 254
0 0 254
0 0 252
0 0 254
0 0 252
0 0 255
0 0 253
0 0 255
0 0 254
0 0 254
0 0 254
0 0 253
0 0 252
0 0 252
0 0 254
0 0 252
0 0 249
0 0 255
0 0 253
0 0 255
0 0 253
0 0 254
0 0 250
0 0 253
0 0 255
0 0 254
0 0 246
0 0 254
0 0 249
0 0 252
0 0 253
0 0 252
0 0 255
0 0 250
0 0 254
0 0 253
0 0 252
0 0 250
0 0 248
0 0 246
0 0 252
0 0 245
0 0 252
0 0 252
0 0 250
0 0 252
0 0 252
0 0 253
0 0 250
0 0 245
0 0 253
0 0 253
0 0 248
0 0 245
0 0 246
0 0 246
0 0 242
0 0 249
0 0 249
0 0 255
0 0 249
0 0 246
0 0 245
0 0 249
0 0 248
0 0 248
0 0 250
0 0 249
0 0 245
0 0 242
0 0 246
0 0 244
0 0 246
0 0 249
0 0 246
0 0 248
0 0 246
0 0 244
0 0 245
0 0 241
0 0 249
0 0 250
0 0 246
0 0 248
0 0 244
0 0 246
0 0 246
0 0 241
0 0 242
0 0 237
0 0 234
0 0 242
0 0 249
0 0 245
0 0 238
0 0 240
0 0 241
0 0 240
0 0 238
0 0 241
0 0 234
0 0 242
0 0 228
0 0 238
0 0 233
0 0 238
0 0 234
0 0 250
0 0 230
0 0 228
0 0 234
0 0 221
0 0 230
0 0 227
0 0 228
0 0 227
0 0 228
0 0 218
0 0 223
0 0 230
0 0 237
0 0 221
0 0 221
0 0 214
0 0 226
0 0 215
0 0 224
0 0 211
0 0 211
0 0 212
0 0 214
0 0 199
0 0 212
0 0 204
0 0 204
0 0 189
0 0 186
0 0 191
0 0 193
0 0 181
0 0 165
0 0 161
0 0 177
84 92 173
210 229 254
211 230 255
211 230 255
211 230 255
211 230 255
211 230 255
211 230 255
211 230 255
211 230 255
211 230 255
211 230 255
211 230 255
140 94 105
119 0 0
140 0 0
145 0 0
138 0 0
162 0 0
143 0 0
163 0 0
156 0 0
168 0 0
160 0 0
166 0 0
173 0 0
181 0 0
181 0 0
175 0 0
162 0 0
185 0 0
182 0 0
181 0 0
176 0 0
174 0 0
190 0 0
180 0 0
190 0 0
197 0 0
191 0 0
194 0 0
181 0 0
192 0 0
191 0 0
195 0 0
196 0 0
193 0 0
205 0 0
191 0 0
198 0 0
189 0 0
203 0 0
198 0 0
195 0 0
194 0 0
200 0 0
197 0 0
200 0 0
207 0 0
206 0 0
203 0 0
200 0 0
204 0 0
205 0 0
205 0 0
203 0 0
205 0 0
207 0 0
216 0 0
212 0 0
210 0 0
202 0 0
207 0 0
202 0 0
212 0 0
209 0 0
203 0 0
207 0 0
206 0 0
209 0 0
207 0 0
204 0 0
206 0 0
208 0 0
208 0 0
206 0 0
208 0 0
211 0 0
205 0 0
211 0 0
214 0 0
216 0 0
211 0 0
211 0 0
208 0 0
210 0 0
211 0 0
215 0 0
208 0 0
211 0 0
211 0 0
215 0 0
213 0 0
214 0 0
209 0 0
210 0 0
211 0 0
214 0 0
210 0 0
216 0 0
215 0 0
211 0 0
214 0 0
205 0 0
212 0 0
218 0 0
218 0 0
210 0 0
211 0 0
216 0 0
214 0 0
219 0 0
212 0 0
212 0 0
210 0 0
214 0 0
215 0 0
214 0 0
204 0 0
216 0 0
216 0 0
209 0 0
213 0 0
209 0 0
216 0 0
219 0 0
213 0 0
216 0 0
215 0 0
214 0 0
217 0 0
213 0 0
218 0 0
214 0 0
213 0 0
220 0 0
212 0 0
213 0 0
215 0 0
214 0 0
211 0 0
214 0 0
213 0 0
216 0 0
215 0 0
217 0 0
216 0 0
218 0 0
219 0 0
217 0 0
210 0 0
217 0 0
215 0 0
214 0 0
214 0 0
215 0 0
215 0 0
217 0 0
219 0 0
215 0 0
216 0 0
217 0 0
218 0 0
216 0 0
215 0 0
215 0 0
217 0 0
218 0 0
217 0 0
214 0 0
219 0 0
213 0 0
214 0 0
215 0 0
215 0 0
217 0 0
215 0 0
216 0 0
219 0 0
215 0 0
213 0 0
217 0 0
217 0 0
220 0 0
215 0 0
221 0 0
218 0 0
219 0 0
219 0 0
215 0 0
219 0 0
219 0 0
219 0 0
217 0 0
219 0 0
218 0 0
215 0 0
0 0 255
0 0 253
0 0 255
0 0 255
0 0 254
0 0 252
0 0 255
0 0 254
0 0 255
0 0 254
0 0 254
0 0 254
0 0 254
0 0 255
0 0 254
0 0 254
0 0 255
0 0 253
0 0 255
0 0 253
0 0 254
0 0 254
0 0 254
0 0 255
0 0 254
0 0 252
0 0 253
0 0 255
0 0 255
0 0 254
0 0 255
0 0 254
0 0 254
0 0 255
0 0 252
0 0 254
0 0 254
0 0 255
0 0 254
0 0 253
0 0 255
0 0 254
0 0 255
0 0 254
0 0 250
0 0 255
0 0 253
0 0 252
0 0 255
0 0 255
0 0 253
0 0 253
0 0 254
0 0 254
0 0 253
0 0 250
0 0 253
0 0 253
0 0 254
0 0 254
0 0 254
0 0 254
0 0 249
0 0 255
0 0 254
0 0 253
0 0 252
0 0 252
0 0 254
0 0 254
0 0 255
0 0 254
0 0 253
0 0 253
0 0 250
0 0 254
0 0 252
0 0 250
0 0 253
0 0 253
0 0 253
0 0 248
0 0 248
0 0 253
0 0 248
0 0 250
0 0 254
0 0 250
0 0 249
0 0 242
0 0 253
0 0 250
0 0 249
0 0 249
0 0 253
0 0 248
0 0 246
0 0 249
0 0 246
0 0 248
0 0 249
0 0 249
0 0 252
0 0 246
0 0 254
0 0 250
0 0 249
0 0 245
0 0 249
0 0 249
0 0 253
0 0 245
0 0 240
0 0 248
0 0 246
0 0 248
0 0 242
0 0 253
0 0 245
0 0 250
0 0 252
0 0 253
0 0 249
0 0 250
0 0 248
0 0 245
0 0 248
0 0 242
0 0 238
0 0 249
0 0 242
0 0 244
0 0 245
0 0 245
0 0 241
0 0 238
0 0 238
0 0 244
0 0 240
0 0 241
0 0 238
0 0 241
0 0 233
0 0 240
0 0 241
0 0 244
0 0 240
0 0 245
0 0 244
0 0 238
0 0 233
0 0 221
0 0 233
0 0 236
0 0 223
0 0 236
0 0 238
0 0 236
0 0 226
0 0 228
0 0 230
0 0 237
0 0 228
0 0 226
0 0 224
0 0 231
0 0 223
0 0 231
0 0 233
0 0 227
0 0 226
0 0 221
0 0 226
0 0 220
0 0 220
0 0 207
0 0 218
0 0 212
0 0 223
0 0 199
0 0 212
0 0 201
0 0 203
0 0 220
0 0 199
0 0 189
0 0 199
0 0 182
0 0 184
0 0 169
0 0 181
0 0 165
0 0 169
0 0 159
190 207 238
211 230 255
211 230 255
211 230 255
211 230 255
211 230 255
211 230 255
211 230 255
211 230 255
211 230 255
211 230 255
194 203 226
128 0 0
139 0 0
135 0 0
142 0 0
152 0 0
145 0 0
154 0 0
162 0 0
162 0 0
172 0 0
169 0 0
163 0 0
170 0 0
175 0 0
174 0 0
166 0 0
191 0 0
174 0 0
179 0 0
181 0 0
179 0 0
183 0 0
189 0 0
182 0 0
181 0 0
196 0 0
191 0 0
190 0 0
200 0 0
199 0 0
198 0 0
198 0 0
189 0 0
194 0 0
202 0 0
203 0 0
202 0 0
194 0 0
203 0 0
202 0 0
198 0 0
197 0 0
199 0 0
191 0 0
194 0 0
205 0 0
202 0 0
208 0 0
202 0 0
196 0 0
201 0 0
200 0 0
202 0 0
199 0 0
213 0 0
206 0 0
207 0 0
211 0 0
202 0 0
206 0 0
202 0 0
207 0 0
208 0 0
210 0 0
207 0 0
210 0 0
207 0 0
213 0 0
209 0 0
209 0 0
208 0 0
204 0 0
215 0 0
209 0 0
216 0 0
215 0 0
207 0 0
207 0 0
213 0 0
208 0 0
213 0 0
214 0 0
208 0 0
216 0 0
206 0 0
213 0 0
212 0 0
213 0 0
207 0 0
211 0 0
207 0 0
212 0 0
212 0 0
214 0 0
209 0 0
212 0 0
209 0 0
211 0 0
211 0 0
216 0 0
217 0 0
217 0 0
216 0 0
211 0 0
213 0 0
210 0 0
212 0 0
216 0 0
213 0 0
214 0 0
208 0 0
215 0 0
218 0 0
216 0 0
211 0 0
215 0 0
213 0 0
214 0 0
213 0 0
215 0 0
215 0 0
212 0 0
218 0 0
220 0 0
213 0 0
214 0 0
216 0 0
214 0 0
216 0 0
217 0 0
219 0 0
212 0 0
216 0 0
210 0 0
216 0 0
214 0 0
217 0 0
215 0 0
217 0 0
215 0 0
217 0 0
216 0 0
216 0 0
214 0 0
220 0 0
217 0 0
215 0 0
216 0 0
219 0 0
217 0 0
221 0 0
221 0 0
213 0 0
215 0 0
215 0 0
215 0 0
214 0 0
216 0 0
221 0 0
217 0 0
213 0 0
218 0 0
216 0 0
215 0 0
220 0 0
221 0 0
216 0 0
216 0 0
215 0 0
218 0 0
216 0 0
218 0 0
216 0 0
217 0 0
216 0 0
216 0 0
219 0 0
216 0 0
221 0 0
217 0 0
220 0 0
218 0 0
215 0 0
218 0 0
218 0 0
220 0 0
219 0 0
216 0 0
221 0 0
219 0 0
215 0 0
219 0 0
217 0 0
218 0 0
0 0 255
0 0 255
0 0 255
0 0 253
0 0 255
0 0 255
0 0 255
0 0 254
0 0 254
0 0 255
0 0 252
0 0 253
0 0 254
0 0 255
0 0 255
0 0 255
0 0 253
0 0 255
0 0 255
0 0 254
0 0 255
0 0 255
0 0 255
0 0 255
0 0 254
0 0 250
0 0 253
0 0 253
0 0 254
0 0 255
0 0 254
0 0 254
0 0 253
0 0 255
0 0 253
0 0 253
0 0 253
0 0 255
0 0 254
0 0 254
0 0 252
0 0 253
0 0 252
0 0 252
0 0 253
0 0 255
0 0 254
0 0 252
0 0 254
0 0 252
0 0 253
0 0 253
0 0 253
0 0 254
0 0 254
0 0 254
0 0 254
0 0 254
0 0 253
0 0 254
0 0 253
0 0 252
0 0 252
0 0 250
0 0 248
0 0 253
0 0 253
0 0 255
0 0 255
0 0 250
0 0 254
0 0 254
0 0 254
0 0 249
0 0 254
0 0 250
0 0 253
0 0 253
0 0 253
0 0 254
0 0 253
0 0 253
0 0 250
0 0 253
0 0 252
0 0 253
0 0 254
0 0 250
0 0 250
0 0 249
0 0 249
0 0 253
0 0 250
0 0 255
0 0 252
0 0 253
0 0 248
0 0 252
0 0 255
0 0 252
0 0 248
0 0 252
0 0 248
0 0 249
0 0 249
0 0 248
0 0 246
0 0 252
0 0 249
0 0 250
0 0 241
0 0 250
0 0 248
0 0 244
0 0 244
0 0 241
0 0 252
0 0 248
0 0 246
0 0 252
0 0 249
0 0 244
0 0 248
0 0 252
0 0 244
0 0 246
0 0 249
0 0 244
0 0 241
0 0 241
0 0 244
0 0 244
0 0 244
0 0 242
0 0 241
0 0 242
0 0 244
0 0 245
0 0 245
0 0 242
0 0 236
0 0 236
0 0 241
0 0 241
0 0 231
0 0 238
0 0 242
0 0 234
0 0 236
0 0 233
0 0 238
0 0 240
0 0 244
0 0 241
0 0 231
0 0 231
0 0 234
0 0 240
0 0 231
0 0 227
0 0 227
0 0 231
0 0 227
0 0 233
0 0 230
0 0 217
0 0 230
0 0 230
0 0 228
0 0 224
0 0 212
0 0 215
0 0 223
0 0 223
0 0 224
0 0 215
0 0 212
0 0 224
0 0 221
0 0 206
0 0 215
0 0 217
0 0 203
0 0 203
0 0 196
0 0 198
0 0 188
0 0 198
0 0 182
0 0 167
0 0 196
0 0 157
0 0 167
0 0 163
127 138 194
212 230 255
212 230 255
212 230 255
212 230 255
212 230 255
212 230 255
212 230 255
212 230 255
212 230 255
212 230 255
155 134 149
117 0 0
114 0 0
143 0 0
147 0 0
152 0 0
153 0 0
154 0 0
159 0 0
160 0 0
158 0 0
162 0 0
170 0 0
161 0 0
175 0 0
176 0 0
175 0 0
185 0 0
172 0 0
177 0 0
173 0 0
176 0 0
188 0 0
178 0 0
189 0 0
190 0 0
200 0 0
188 0 0
191 0 0
195 0 0
187 0 0
197 0 0
195 0 0
197 0 0
184 0 0
198 0 0
199 0 0
189 0 0
201 0 0
197 0 0
199 0 0
205 0 0
198 0 0
200 0 0
199 0 0
199 0 0
204 0 0
200 0 0
204 0 0
201 0 0
207 0 0
206 0 0
209 0 0
201 0 0
205 0 0
202 0 0
206 0 0
204 0 0
205 0 0
200 0 0
200 0 0
205 0 0
204 0 0
208 0 0
208 0 0
209 0 0
215 0 0
215 0 0
212 0 0
205 0 0
208 0 0
208 0 0
212 0 0
204 0 0
205 0 0
202 0 0
207 0 0
214 0 0
209 0 0
211 0 0
212 0 0
213 0 0
213 0 0
207 0 0
213 0 0
206 0 0
214 0 0
212 0 0
211 0 0
213 0 0
212 0 0
214 0 0
211 0 0
206 0 0
206 0 0
216 0 0
213 0 0
207 0 0
210 0 0
212 0 0
210 0 0
209 0 0
216 0 0
212 0 0
215 0 0
214 0 0
209 0 0
215 0 0
215 0 0
217 0 0
213 0 0
215 0 0
208 0 0
214 0 0
211 0 0
215 0 0
217 0 0
215 0 0
209 0 0
219 0 0
213 0 0
213 0 0
218 0 0
215 0 0
215 0 0
217 0 0
216 0 0
217 0 0
218 0 0
213 0 0
214 0 0
215 0 0
220 0 0
219 0 0
217 0 0
215 0 0
215 0 0
215 0 0
217 0 0
211 0 0
217 0 0
219 0 0
217 0 0
215 0 0
216 0 0
217 0 0
216 0 0
214 0 0
217 0 0
218 0 0
217 0 0
215 0 0
216 0 0
215 0 0
215 0 0
214 0 0
216 0 0
217 0 0
216 0 0
218 0 0
217 0 0
219 0 0
220 0 0
215 0 0
219 0 0
219 0 0
217 0 0
217 0 0
220 0 0
223 0 0
218 0 0
215 0 0
219 0 0
215 0 0
217 0 0
220 0 0
215 0 0
216 0 0
216 0 0
216 0 0
218 0 0
217 0 0
216 0 0
220 0 0
218 0 0
218 0 0
216 0 0
218 0 0
219 0 0
220 0 0
218 0 0
219 0 0
216 0 0
216 0 0
217 0 0
0 0 253
0 0 255
0 0 254
0 0 255
0 0 253
0 0 254
0 0 255
0 0 255
0 0 254
0 0 254
0 0 255
0 0 255
0 0 255
0 0 255
0 0 253
0 0 255
0 0 255
0 0 254
0 0 255
0 0 255
0 0 254
0 0 255
0 0 254
0 0 254
0 0 255
0 0 254
0 0 255
0 0 253
0 0 254
0 0 254
0 0 255
0 0 253
0 0 254
0 0 255
0 0 254
0 0 254
0 0 254
0 0 255
0 0 253
0 0 254
0 0 253
0 0 255
0 0 253
0 0 253
0 0 255
0 0 252
0 0 255
0 0 253
0 0 252
0 0 254
0 0 249
0 0 252
0 0 253
0 0 255
0 0 253
0 0 249
0 0 252
0 0 253
0 0 255
0 0 255
0 0 254
0 0 250
0 0 253
0 0 254
0 0 252
0 0 252
0 0 255
0 0 255
0 0 255
0 0 253
0 0 254
0 0 253
0 0 252
0 0 254
0 0 252
0 0 250
0 0 250
0 0 252
0 0 255
0 0 249
0 0 250
0 0 254
0 0 245
0 0 253
0 0 252
0 0 246
0 0 253
0 0 250
0 0 249
0 0 250
0 0 252
0 0 252
0 0 252
0 0 250
0 0 248
0 0 249
0 0 252
0 0 246
0 0 250
0 0 252
0 0 248
0 0 249
0 0 248
0 0 248
0 0 246
0 0 250
0 0 244
0 0 250
0 0 250
0 0 248
0 0 252
0 0 246
0 0 253
0 0 248
0 0 254
0 0 252
0 0 248
0 0 246
0 0 244
0 0 253
0 0 245
0 0 249
0 0 245
0 0 246
0 0 246
0 0 248
0 0 238
0 0 248
0 0 242
0 0 248
0 0 245
0 0 246
0 0 238
0 0 248
0 0 241
0 0 242
0 0 248
0 0 240
0 0 242
0 0 245
0 0 245
0 0 237
0 0 245
0 0 246
0 0 237
0 0 242
0 0 236
0 0 237
0 0 240
0 0 240
0 0 238
0 0 230
0 0 230
0 0 240
0 0 233
0 0 241
0 0 238
0 0 231
0 0 240
0 0 236
0 0 236
0 0 223
0 0 231
0 0 226
0 0 221
0 0 212
0 0 223
0 0 227
0 0 231
0 0 209
0 0 218
0 0 228
0 0 227
0 0 220
0 0 218
0 0 218
0 0 212
0 0 220
0 0 228
0 0 203
0 0 206
0 0 201
0 0 211
0 0 181
0 0 193
0 0 191
0 0 196
0 0 175
0 0 191
0 0 189
0 0 175
0 0 165
0 0 153
0 0 157
52 56 175
207 225 252
212 230 255
212 230 255
212 230 255
212 230 255
212 230 255
212 230 255
212 230 255
212 230 255
211 228 253
131 69 76
134 0 0
138 0 0
151 0 0
142 0 0
139 0 0
147 0 0
154 0 0
156 0 0
166 0 0
157 0 0
162 0 0
164 0 0
175 0 0
162 0 0
168 0 0
174 0 0
177 0 0
170 0 0
191 0 0
183 0 0
189 0 0
184 0 0
172 0 0
186 0 0
177 0 0
189 0 0
197 0 0
185 0 0
195 0 0
184 0 0
204 0 0
192 0 0
202 0 0
199 0 0
193 0 0
197 0 0
191 0 0
198 0 0
195 0 0
196 0 0
201 0 0
204 0 0
203 0 0
209 0 0
210 0 0
196 0 0
200 0 0
202 0 0
201 0 0
201 0 0
210 0 0
210 0 0
197 0 0
199 0 0
205 0 0
199 0 0
206 0 0
209 0 0
204 0 0
208 0 0
204 0 0
204 0 0
208 0 0
205 0 0
205 0 0
209 0 0
211 0 0
208 0 0
210 0 0
213 0 0
212 0 0
211 0 0
210 0 0
213 0 0
210 0 0
209 0 0
209 0 0
214 0 0
202 0 0
217 0 0
212 0 0
213 0 0
212 0 0
215 0 0
215 0 0
215 0 0
212 0 0
205 0 0
212 0 0
209 0 0
210 0 0
210 0 0
213 0 0
213 0 0
207 0 0
217 0 0
217 0 0
211 0 0
214 0 0
216 0 0
211 0 0
215 0 0
214 0 0
215 0 0
211 0 0
217 0 0
214 0 0
212 0 0
215 0 0
214 0 0
210 0 0
217 0 0
217 0 0
214 0 0
214 0 0
217 0 0
213 0 0
213 0 0
216 0 0
213 0 0
213 0 0
218 0 0
217 0 0
214 0 0
220 0 0
215 0 0
220 0 0
211 0 0
212 0 0
216 0 0
219 0 0
218 0 0
219 0 0
214 0 0
219 0 0
215 0 0
216 0 0
213 0 0
213 0 0
216 0 0
215 0 0
216 0 0
216 0 0
217 0 0
213 0 0
217 0 0
215 0 0
219 0 0
218 0 0
223 0 0
218 0 0
218 0 0
215 0 0
217 0 0
216 0 0
218 0 0
219 0 0
216 0 0
219 0 0
217 0 0
218 0 0
221 0 0
217 0 0
215 0 0
216 0 0
217 0 0
220 0 0
220 0 0
216 0 0
219 0 0
216 0 0
217 0 0
216 0 0
218 0 0
216 0 0
213 0 0
218 0 0
220 0 0
219 0 0
218 0 0
215 0 0
218 0 0
220 0 0
219 0 0
214 0 0
218 0 0
218 0 0
220 0 0
216 0 0
216 0 0
213 0 0
217 0 0
219 0 0
220 0 0
0 0 255
0 0 255
0 0 255
0 0 254
0 0 255
0 0 255
0 0 254
0 0 254
0 0 255
0 0 254
0 0 255
0 0 254
0 0 253
0 0 255
0 0 254
0 0 255
0 0 254
0 0 255
0 0 255
0 0 253
0 0 255
0 0 255
0 0 255
0 0 254
0 0 255
0 0 253
0 0 254
0 0 253
0 0 255
0 0 255
0 0 254
0 0 254
0 0 253
0 0 253
0 0 254
0 0 255
0 0 255
0 0 254
0 0 253
0 0 254
0 0 254
0 0 254
0 0 254
0 0 255
0 0 255
0 0 254
0 0 253
0 0 253
0 0 252
0 0 253
0 0 254
0 0 254
0 0 254
0 0 253
0 0 254
0 0 254
0 0 255
0 0 250
0 0 255
0 0 253
0 0 252
0 0 253
0 0 255
0 0 254
0 0 254
0 0 254
0 0 252
0 0 253
0 0 250
0 0 253
0 0 252
0 0 254
0 0 253
0 0 254
0 0 254
0 0 250
0 0 253
0 0 249
0 0 250
0 0 253
0 0 252
0 0 249
0 0 248
0 0 252
0 0 246
0 0 255
0 0 250
0 0 248
0 0 249
0 0 246
0 0 250
0 0 245
0 0 252
0 0 244
0 0 244
0 0 249
0 0 249
0 0 252
0 0 246
0 0 246
0 0 248
0 0 245
0 0 248
0 0 253
0 0 250
0 0 250
0 0 252
0 0 249
0 0 248
0 0 246
0 0 252
0 0 250
0 0 249
0 0 246
0 0 245
0 0 248
0 0 246
0 0 249
0 0 252
0 0 242
0 0 238
0 0 244
0 0 245
0 0 241
0 0 246
0 0 252
0 0 246
0 0 249
0 0 248
0 0 241
0 0 244
0 0 244
0 0 245
0 0 238
0 0 248
0 0 242
0 0 246
0 0 238
0 0 244
0 0 238
0 0 233
0 0 242
0 0 246
0 0 227
0 0 230
0 0 237
0 0 233
0 0 241
0 0 238
0 0 228
0 0 244
0 0 238
0 0 236
0 0 248
0 0 236
0 0 233
0 0 234
0 0 223
0 0 237
0 0 238
0 0 245
0 0 231
0 0 233
0 0 223
0 0 231
0 0 238
0 0 230
0 0 227
0 0 215
0 0 217
0 0 218
0 0 211
0 0 221
0 0 226
0 0 220
0 0 212
0 0 220
0 0 206
0 0 206
0 0 217
0 0 217
0 0 206
0 0 207
0 0 207
0 0 199
0 0 193
0 0 196
0 0 188
0 0 194
0 0 179
0 0 191
0 0 177
0 0 167
0 0 155
0 0 147
175 190 233
212 231 255
212 231 255
212 231 255
212 231 255
212 231 255
212 231 255
212 231 255
212 231 255
179 179 198
129 0 0
127 0 0
133 0 0
143 0 0
136 0 0
154 0 0
163 0 0
154 0 0
146 0 0
161 0 0
175 0 0
172 0 0
172 0 0
164 0 0
175 0 0
170 0 0
173 0 0
180 0 0
172 0 0
182 0 0
182 0 0
185 0 0
177 0 0
191 0 0
180 0 0
186 0 0
193 0 0
192 0 0
182 0 0
191 0 0
187 0 0
194 0 0
194 0 0
201 0 0
189 0 0
199 0 0
200 0 0
196 0 0
191 0 0
203 0 0
190 0 0
195 0 0
203 0 0
197 0 0
201 0 0
206 0 0
207 0 0
203 0 0
200 0 0
207 0 0
210 0 0
204 0 0
208 0 0
203 0 0
203 0 0
202 0 0
203 0 0
207 0 0
202 0 0
203 0 0
205 0 0
201 0 0
203 0 0
211 0 0
208 0 0
210 0 0
212 0 0
214 0 0
207 0 0
212 0 0
214 0 0
210 0 0
213 0 0
206 0 0
215 0 0
208 0 0
216 0 0
209 0 0
207 0 0
210 0 0
209 0 0
215 0 0
209 0 0
204 0 0
211 0 0
211 0 0
211 0 0
217 0 0
215 0 0
216 0 0
213 0 0
210 0 0
207 0 0
214 0 0
215 0 0
214 0 0
213 0 0
213 0 0
220 0 0
211 0 0
214 0 0
214 0 0
211 0 0
214 0 0
215 0 0
216 0 0
206 0 0
211 0 0
212 0 0
214 0 0
211 0 0
216 0 0
215 0 0
211 0 0
217 0 0
209 0 0
217 0 0
218 0 0
216 0 0
213 0 0
215 0 0
213 0 0
215 0 0
216 0 0
211 0 0
215 0 0
216 0 0
217 0 0
212 0 0
216 0 0
215 0 0
214 0 0
216 0 0
215 0 0
219 0 0
217 0 0
217 0 0
218 0 0
215 0 0
215 0 0
215 0 0
214 0 0
217 0 0
214 0 0
222 0 0
216 0 0
220 0 0
212 0 0
219 0 0
217 0 0
213 0 0
214 0 0
217 0 0
218 0 0
221 0 0
214 0 0
219 0 0
221 0 0
217 0 0
217 0 0
215 0 0
221 0 0
217 0 0
214 0 0
217 0 0
214 0 0
217 0 0
218 0 0
220 0 0
219 0 0
217 0 0
216 0 0
216 0 0
217 0 0
215 0 0
214 0 0
217 0 0
218 0 0
219 0 0
222 0 0
219 0 0
219 0 0
219 0 0
218 0 0
219 0 0
220 0 0
222 0 0
216 0 0
218 0 0
216 0 0
219 0 0
217 0 0
215 0 0
216 0 0
217 0 0
0 0 255
0 0 255
0 0 255
0 0 255
0 0 255
0 0 255
0 0 254
0 0 255
0 0 255
0 0 254
0 0 255
0 0 254
0 0 255
0 0 255
0 0 254
0 0 253
0 0 254
0 0 253
0 0 253
0 0 253
0 0 254
0 0 254
0 0 253
0 0 253
0 0 254
0 0 255
0 0 255
0 0 255
0 0 255
0 0 255
0 0 255
0 0 253
0 0 254
0 0 252
0 0 254
0 0 255
0 0 253
0 0 255
0 0 253
0 0 255
0 0 254
0 0 253
0 0 254
0 0 253
0 0 253
0 0 250
0 0 252
0 0 252
0 0 252
0 0 252
0 0 252
0 0 254
0 0 255
0 0 253
0 0 253
0 0 253
0 0 254
0 0 254
0 0 249
0 0 254
0 0 253
0 0 254
0 0 255
0 0 253
0 0 255
0 0 253
0 0 253
0 0 254
0 0 255
0 0 254
0 0 252
0 0 253
0 0 252
0 0 250
0 0 253
0 0 255
0 0 248
0 0 254
0 0 250
0 0 255
0 0 252
0 0 255
0 0 250
0 0 250
0 0 252
0 0 250
0 0 252
0 0 248
0 0 249
0 0 253
0 0 248
0 0 249
0 0 249
0 0 250
0 0 252
0 0 253
0 0 250
0 0 252
0 0 250
0 0 245
0 0 250
0 0 254
0 0 253
0 0 248
0 0 250
0 0 252
0 0 249
0 0 249
0 0 249
0 0 241
0 0 248
0 0 249
0 0 250
0 0 249
0 0 249
0 0 244
0 0 248
0 0 249
0 0 242
0 0 241
0 0 248
0 0 252
0 0 250
0 0 246
0 0 244
0 0 244
0 0 245
0 0 245
0 0 244
0 0 249
0 0 241
0 0 245
0 0 244
0 0 236
0 0 236
0 0 238
0 0 242
0 0 246
0 0 238
0 0 242
0 0 245
0 0 234
0 0 241
0 0 244
0 0 240
0 0 233
0 0 245
0 0 238
0 0 234
0 0 234
0 0 238
0 0 224
0 0 231
0 0 240
0 0 234
0 0 234
0 0 238
0 0 231
0 0 226
0 0 224
0 0 231
0 0 234
0 0 226
0 0 224
0 0 224
0 0 228
0 0 226
0 0 234
0 0 224
0 0 226
0 0 220
0 0 218
0 0 233
0 0 203
0 0 223
0 0 204
0 0 201
0 0 209
0 0 201
0 0 215
0 0 211
0 0 199
0 0 181
0 0 209
0 0 207
0 0 196
0 0 189
0 0 188
0 0 173
0 0 171
0 0 181
0 0 161
0 0 157
0 0 163
0 0 153
126 136 191
213 231 255
213 231 255
213 231 255
213 231 255
213 231 255
213 231 255
213 231 255
213 231 255
154 136 151
110 0 0
128 0 0
131 0 0
128 0 0
139 0 0
148 0 0
152 0 0
162 0 0
151 0 0
172 0 0
161 0 0
164 0 0
153 0 0
162 0 0
162 0 0
173 0 0
187 0 0
189 0 0
182 0 0
189 0 0
168 0 0
178 0 0
173 0 0
184 0 0
189 0 0
180 0 0
191 0 0
186 0 0
185 0 0
186 0 0
188 0 0
189 0 0
195 0 0
192 0 0
192 0 0
190 0 0
193 0 0
199 0 0
200 0 0
199 0 0
196 0 0
201 0 0
202 0 0
200 0 0
205 0 0
209 0 0
197 0 0
199 0 0
201 0 0
196 0 0
199 0 0
205 0 0
196 0 0
198 0 0
203 0 0
199 0 0
204 0 0
210 0 0
202 0 0
209 0 0
207 0 0
203 0 0
201 0 0
210 0 0
212 0 0
209 0 0
209 0 0
207 0 0
207 0 0
214 0 0
209 0 0
209 0 0
211 0 0
213 0 0
211 0 0
210 0 0
206 0 0
213 0 0
208 0 0
207 0 0
211 0 0
216 0 0
208 0 0
216 0 0
210 0 0
214 0 0
207 0 0
211 0 0
209 0 0
213 0 0
217 0 0
211 0 0
210 0 0
212 0 0
223 0 0
216 0 0
214 0 0
214 0 0
211 0 0
217 0 0
216 0 0
210 0 0
216 0 0
214 0 0
215 0 0
215 0 0
215 0 0
212 0 0
214 0 0
212 0 0
214 0 0
214 0 0
213 0 0
215 0 0
208 0 0
216 0 0
218 0 0
219 0 0
212 0 0
218 0 0
217 0 0
218 0 0
216 0 0
210 0 0
208 0 0
216 0 0
217 0 0
221 0 0
219 0 0
218 0 0
216 0 0
216 0 0
217 0 0
217 0 0
214 0 0
216 0 0
219 0 0
217 0 0
216 0 0
213 0 0
209 0 0
214 0 0
219 0 0
213 0 0
218 0 0
216 0 0
214 0 0
214 0 0
218 0 0
214 0 0
215 0 0
215 0 0
218 0 0
218 0 0
217 0 0
217 0 0
220 0 0
219 0 0
222 0 0
220 0 0
220 0 0
220 0 0
215 0 0
218 0 0
214 0 0
217 0 0
219 0 0
219 0 0
219 0 0
217 0 0
221 0 0
219 0 0
217 0 0
214 0 0
216 0 0
218 0 0
220 0 0
220 0 0
218 0 0
215 0 0
216 0 0
219 0 0
213 0 0
219 0 0
221 0 0
220 0 0
218 0 0
223 0 0
220 0 0
220 0 0
216 0 0
217 0 0
219 0 0
219 0 0
220 0 0
0 0 253
0 0 255
0 0 254
0 0 255
0 0 255
0 0 254
0 0 255
0 0 255
0 0 254
0 0 252
0 0 255
0 0 255
0 0 255
0 0 255
0 0 255
0 0 254
0 0 254
0 0 255
0 0 255
0 0 254
0 0 254
0 0 253
0 0 254
0 0 254
0 0 255
0 0 253
0 0 253
0 0 255
0 0 255
0 0 255
0 0 255
0 0 254
0 0 254
0 0 253
0 0 252
0 0 253
0 0 255
0 0 254
0 0 252
0 0 254
0 0 252
0 0 253
0 0 250
0 0 253
0 0 254
0 0 253
0 0 255
0 0 255
0 0 253
0 0 254
0 0 255
0 0 255
0 0 255
0 0 253
0 0 253
0 0 254
0 0 252
0 0 254
0 0 253
0 0 254
0 0 255
0 0 249
0 0 250
0 0 252
0 0 255
0 0 253
0 0 254
0 0 253
0 0 253
0 0 249
0 0 252
0 0 254
0 0 250
0 0 253
0 0 249
0 0 249
0 0 249
0 0 255
0 0 255
0 0 254
0 0 252
0 0 254
0 0 249
0 0 253
0 0 253
0 0 253
0 0 252
0 0 249
0 0 254
0 0 248
0 0 250
0 0 252
0 0 252
0 0 250
0 0 250
0 0 253
0 0 249
0 0 245
0 0 250
0 0 242
0 0 249
0 0 250
0 0 249
0 0 248
0 0 246
0 0 249
0 0 252
0 0 246
0 0 248
0 0 242
0 0 250
0 0 252
0 0 252
0 0 245
0 0 248
0 0 249
0 0 245
0 0 248
0 0 250
0 0 249
0 0 248
0 0 246
0 0 250
0 0 245
0 0 248
0 0 245
0 0 250
0 0 244
0 0 245
0 0 237
0 0 246
0 0 245
0 0 244
0 0 241
0 0 249
0 0 241
0 0 250
0 0 237
0 0 242
0 0 233
0 0 236
0 0 241
0 0 248
0 0 240
0 0 248
0 0 240
0 0 237
0 0 238
0 0 240
0 0 236
0 0 233
0 0 240
0 0 238
0 0 230
0 0 241
0 0 236
0 0 228
0 0 230
0 0 231
0 0 230
0 0 227
0 0 233
0 0 236
0 0 221
0 0 217
0 0 233
0 0 234
0 0 226
0 0 231
0 0 227
0 0 221
0 0 214
0 0 220
0 0 209
0 0 224
0 0 212
0 0 212
0 0 218
0 0 221
0 0 207
0 0 217
0 0 194
0 0 201
0 0 181
0 0 193
0 0 198
0 0 196
0 0 194
0 0 196
0 0 177
0 0 193
0 0 173
0 0 151
0 0 157
0 0 142
42 46 165
207 224 250
213 231 255
213 231 255
213 231 255
213 231 255
213 231 255
213 231 255
210 224 248
112 51 57
120 0 0
118 0 0
135 0 0
138 0 0
148 0 0
141 0 0
145 0 0
160 0 0
169 0 0
159 0 0
160 0 0
173 0 0
170 0 0
171 0 0
176 0 0
185 0 0
183 0 0
176 0 0
179 0 0
180 0 0
186 0 0
193 0 0
175 0 0
186 0 0
189 0 0
183 0 0
195 0 0
182 0 0
189 0 0
201 0 0
192 0 0
198 0 0
190 0 0
195 0 0
198 0 0
194 0 0
193 0 0
195 0 0
201 0 0
202 0 0
197 0 0
197 0 0
198 0 0
201 0 0
198 0 0
204 0 0
193 0 0
203 0 0
205 0 0
198 0 0
194 0 0
201 0 0
211 0 0
209 0 0
206 0 0
206 0 0
198 0 0
208 0 0
207 0 0
205 0 0
208 0 0
207 0 0
204 0 0
212 0 0
205 0 0
205 0 0
208 0 0
210 0 0
207 0 0
195 0 0
208 0 0
210 0 0
209 0 0
209 0 0
207 0 0
213 0 0
214 0 0
218 0 0
208 0 0
214 0 0
206 0 0
212 0 0
209 0 0
209 0 0
213 0 0
214 0 0
205 0 0
213 0 0
214 0 0
213 0 0
213 0 0
210 0 0
212 0 0
208 0 0
208 0 0
215 0 0
211 0 0
208 0 0
217 0 0
209 0 0
215 0 0
213 0 0
210 0 0
217 0 0
216 0 0
215 0 0
210 0 0
214 0 0
216 0 0
213 0 0
216 0 0
211 0 0
214 0 0
209 0 0
219 0 0
217 0 0
213 0 0
210 0 0
214 0 0
215 0 0
215 0 0
218 0 0
212 0 0
217 0 0
218 0 0
212 0 0
218 0 0
214 0 0
210 0 0
210 0 0
217 0 0
211 0 0
213 0 0
220 0 0
218 0 0
218 0 0
220 0 0
217 0 0
218 0 0
218 0 0
216 0 0
217 0 0
215 0 0
216 0 0
218 0 0
217 0 0
217 0 0
215 0 0
216 0 0
220 0 0
214 0 0
220 0 0
220 0 0
220 0 0
223 0 0
215 0 0
217 0 0
217 0 0
221 0 0
215 0 0
221 0 0
217 0 0
221 0 0
217 0 0
216 0 0
219 0 0
216 0 0
218 0 0
215 0 0
220 0 0
222 0 0
217 0 0
217 0 0
222 0 0
216 0 0
217 0 0
221 0 0
218 0 0
219 0 0
220 0 0
223 0 0
217 0 0
218 0 0
215 0 0
219 0 0
216 0 0
220 0 0
216 0 0
214 0 0
215 0 0
218 0 0
219 0 0
217 0 0
218 0 0
219 0 0
0 0 255
0 0 255
0 0 255
0 0 254
0 0 255
0 0 254
0 0 253
0 0 254
0 0 255
0 0 254
0 0 254
0 0 255
0 0 253
0 0 254
0 0 255
0 0 254
0 0 255
0 0 255
0 0 255
0 0 255
0 0 254
0 0 252
0 0 254
0 0 255
0 0 255
0 0 253
0 0 254
0 0 253
0 0 255
0 0 255
0 0 255
0 0 253
0 0 255
0 0 253
0 0 254
0 0 255
0 0 255
0 0 255
0 0 255
0 0 253
0 0 253
0 0 255
0 0 253
0 0 255
0 0 253
0 0 255
0 0 252
0 0 248
0 0 255
0 0 253
0 0 254
0 0 252
0 0 253
0 0 253
0 0 254
0 0 254
0 0 255
0 0 253
0 0 253
0 0 253
0 0 253
0 0 252
0 0 252
0 0 254
0 0 254
0 0 254
0 0 252
0 0 254
0 0 253
0 0 250
0 0 253
0 0 254
0 0 253
0 0 254
0 0 255
0 0 255
0 0 254
0 0 250
0 0 252
0 0 242
0 0 250
0 0 250
0 0 252
0 0 253
0 0 248
0 0 250
0 0 248
0 0 253
0 0 246
0 0 252
0 0 253
0 0 250
0 0 253
0 0 254
0 0 253
0 0 250
0 0 253
0 0 252
0 0 253
0 0 252
0 0 254
0 0 250
0 0 248
0 0 245
0 0 250
0 0 253
0 0 248
0 0 254
0 0 252
0 0 245
0 0 245
0 0 249
0 0 246
0 0 245
0 0 242
0 0 248
0 0 246
0 0 245
0 0 248
0 0 244
0 0 241
0 0 241
0 0 245
0 0 248
0 0 241
0 0 249
0 0 252
0 0 245
0 0 242
0 0 238
0 0 249
0 0 248
0 0 241
0 0 245
0 0 246
0 0 242
0 0 236
0 0 249
0 0 238
0 0 236
0 0 241
0 0 237
0 0 242
0 0 241
0 0 231
0 0 236
0 0 245
0 0 240
0 0 237
0 0 241
0 0 233
0 0 240
0 0 242
0 0 227
0 0 240
0 0 234
0 0 242
0 0 237
0 0 230
0 0 237
0 0 227
0 0 233
0 0 228
0 0 224
0 0 231
0 0 226
0 0 233
0 0 228
0 0 207
0 0 215
0 0 217
0 0 228
0 0 201
0 0 227
0 0 220
0 0 221
0 0 196
0 0 221
0 0 220
0 0 204
0 0 196
0 0 211
0 0 207
0 0 204
0 0 198
0 0 181
0 0 196
0 0 188
0 0 171
0 0 188
0 0 175
0 0 167
0 0 171
0 0 181
0 0 153
0 0 149
157 170 201
213 231 255
213 231 255
213 231 255
213 231 255
213 231 255
213 231 255
188 192 212
109 0 0
119 0 0
131 0 0
135 0 0
149 0 0
134 0 0
149 0 0
151 0 0
152 0 0
161 0 0
171 0 0
170 0 0
169 0 0
176 0 0
173 0 0
174 0 0
178 0 0
177 0 0
179 0 0
177 0 0
186 0 0
173 0 0
165 0 0
175 0 0
192 0 0
191 0 0
181 0 0
187 0 0
190 0 0
188 0 0
194 0 0
198 0 0
195 0 0
198 0 0
197 0 0
202 0 0
197 0 0
202 0 0
203 0 0
193 0 0
200 0 0
201 0 0
204 0 0
200 0 0
205 0 0
204 0 0
203 0 0
201 0 0
209 0 0
204 0 0
204 0 0
202 0 0
193 0 0
211 0 0
197 0 0
207 0 0
207 0 0
205 0 0
210 0 0
205 0 0
214 0 0
199 0 0
209 0 0
211 0 0
208 0 0
210 0 0
208 0 0
204 0 0
206 0 0
211 0 0
207 0 0
205 0 0
209 0 0
208 0 0
202 0 0
204 0 0
215 0 0
213 0 0
213 0 0
211 0 0
212 0 0
206 0 0
214 0 0
208 0 0
212 0 0
213 0 0
208 0 0
216 0 0
212 0 0
210 0 0
212 0 0
213 0 0
209 0 0
212 0 0
215 0 0
212 0 0
208 0 0
206 0 0
211 0 0
213 0 0
212 0 0
214 0 0
211 0 0
216 0 0
213 0 0
210 0 0
214 0 0
212 0 0
216 0 0
211 0 0
215 0 0
218 0 0
212 0 0
214 0 0
215 0 0
218 0 0
218 0 0
216 0 0
212 0 0
216 0 0
214 0 0
212 0 0
214 0 0
214 0 0
216 0 0
217 0 0
215 0 0
215 0 0
214 0 0
219 0 0
215 0 0
216 0 0
214 0 0
217 0 0
215 0 0
220 0 0
216 0 0
218 0 0
221 0 0
213 0 0
214 0 0
223 0 0
214 0 0
216 0 0
220 0 0
216 0 0
214 0 0
221 0 0
222 0 0
215 0 0
215 0 0
215 0 0
221 0 0
216 0 0
214 0 0
217 0 0
221 0 0
218 0 0
218 0 0
217 0 0
214 0 0
218 0 0
216 0 0
219 0 0
218 0 0
213 0 0
214 0 0
222 0 0
214 0 0
216 0 0
218 0 0
217 0 0
214 0 0
218 0 0
219 0 0
219 0 0
218 0 0
219 0 0
223 0 0
221 0 0
217 0 0
220 0 0
220 0 0
212 0 0
220 0 0
214 0 0
217 0 0
220 0 0
216 0 0
219 0 0
217 0 0
219 0 0
221 0 0
219 0 0
218 0 0
221 0 0
0 0 255
0 0 252
0 0 254
0 0 255
0 0 255
0 0 255
0 0 255
0 0 255
0 0 254
0 0 254
0 0 255
0 0 254
0 0 254
0 0 255
0 0 254
0 0 255
0 0 254
0 0 255
0 0 255
0 0 255
0 0 254
0 0 255
0 0 255
0 0 254
0 0 253
0 0 255
0 0 254
0 0 255
0 0 250
0 0 254
0 0 253
0 0 253
0 0 254
0 0 255
0 0 250
0 0 252
0 0 255
0 0 255
0 0 255
0 0 254
0 0 254
0 0 253
0 0 254
0 0 255
0 0 253
0 0 254
0 0 253
0 0 253
0 0 255
0 0 254
0 0 255
0 0 254
0 0 254
0 0 255
0 0 254
0 0 255
0 0 254
0 0 252
0 0 254
0 0 255
0 0 254
0 0 253
0 0 254
0 0 250
0 0 255
0 0 254
0 0 253
0 0 253
0 0 254
0 0 253
0 0 254
0 0 250
0 0 253
0 0 255
0 0 249
0 0 254
0 0 250
0 0 254
0 0 252
0 0 250
0 0 249
0 0 253
0 0 255
0 0 249
0 0 248
0 0 249
0 0 253
0 0 250
0 0 250
0 0 253
0 0 249
0 0 252
0 0 252
0 0 248
0 0 250
0 0 253
0 0 249
0 0 249
0 0 252
0 0 245
0 0 253
0 0 250
0 0 254
0 0 250
0 0 248
0 0 249
0 0 249
0 0 250
0 0 254
0 0 252
0 0 250
0 0 252
0 0 245
0 0 248
0 0 245
0 0 248
0 0 242
0 0 246
0 0 249
0 0 241
0 0 237
0 0 246
0 0 242
0 0 244
0 0 245
0 0 248
0 0 245
0 0 246
0 0 242
0 0 248
0 0 245
0 0 246
0 0 248
0 0 240
0 0 245
0 0 240
0 0 241
0 0 238
0 0 248
0 0 241
0 0 240
0 0 249
0 0 241
0 0 249
0 0 238
0 0 234
0 0 238
0 0 241
0 0 241
0 0 240
0 0 233
0 0 238
0 0 237
0 0 233
0 0 224
0 0 238
0 0 236
0 0 236
0 0 226
0 0 236
0 0 233
0 0 241
0 0 234
0 0 230
0 0 228
0 0 230
0 0 231
0 0 230
0 0 231
0 0 226
0 0 227
0 0 217
0 0 217
0 0 220
0 0 214
0 0 211
0 0 215
0 0 201
0 0 198
0 0 224
0 0 214
0 0 199
0 0 206
0 0 209
0 0 198
0 0 198
0 0 181
0 0 184
0 0 189
0 0 167
0 0 165
0 0 173
0 0 171
0 0 167
0 0 147
0 0 151
133 144 194
214 231 255
214 231 255
214 231 255
214 231 255
214 231 255
214 231 255
163 142 157
116 0 0
115 0 0
132 0 0
143 0 0
140 0 0
150 0 0
136 0 0
147 0 0
152 0 0
161 0 0
160 0 0
170 0 0
167 0 0
168 0 0
166 0 0
169 0 0
181 0 0
180 0 0
171 0 0
178 0 0
185 0 0
174 0 0
183 0 0
189 0 0
194 0 0
192 0 0
182 0 0
193 0 0
189 0 0
185 0 0
199 0 0
194 0 0
198 0 0
198 0 0
191 0 0
198 0 0
195 0 0
202 0 0
196 0 0
193 0 0
194 0 0
195 0 0
193 0 0
198 0 0
199 0 0
193 0 0
201 0 0
196 0 0
204 0 0
209 0 0
208 0 0
197 0 0
198 0 0
203 0 0
203 0 0
211 0 0
205 0 0
203 0 0
199 0 0
204 0 0
200 0 0
207 0 0
196 0 0
207 0 0
206 0 0
210 0 0
204 0 0
210 0 0
201 0 0
215 0 0
207 0 0
210 0 0
207 0 0
215 0 0
208 0 0
211 0 0
213 0 0
210 0 0
207 0 0
212 0 0
211 0 0
213 0 0
213 0 0
210 0 0
213 0 0
213 0 0
214 0 0
213 0 0
211 0 0
212 0 0
209 0 0
210 0 0
211 0 0
215 0 0
214 0 0
212 0 0
213 0 0
211 0 0
213 0 0
217 0 0
208 0 0
214 0 0
211 0 0
211 0 0
212 0 0
214 0 0
211 0 0
217 0 0
214 0 0
216 0 0
211 0 0
216 0 0
214 0 0
213 0 0
215 0 0
214 0 0
213 0 0
218 0 0
212 0 0
215 0 0
214 0 0
218 0 0
217 0 0
219 0 0
220 0 0
217 0 0
216 0 0
215 0 0
216 0 0
219 0 0
216 0 0
215 0 0
213 0 0
220 0 0
216 0 0
212 0 0
212 0 0
216 0 0
213 0 0
216 0 0
215 0 0
219 0 0
219 0 0
214 0 0
220 0 0
219 0 0
219 0 0
213 0 0
213 0 0
219 0 0
220 0 0
219 0 0
217 0 0
219 0 0
217 0 0
219 0 0
217 0 0
217 0 0
218 0 0
215 0 0
216 0 0
216 0 0
218 0 0
218 0 0
219 0 0
221 0 0
214 0 0
217 0 0
218 0 0
215 0 0
217 0 0
217 0 0
216 0 0
218 0 0
218 0 0
220 0 0
219 0 0
218 0 0
218 0 0
221 0 0
218 0 0
218 0 0
218 0 0
219 0 0
217 0 0
220 0 0
219 0 0
218 0 0
220 0 0
218 0 0
220 0 0
219 0 0
217 0 0
218 0 0
218 0 0
221 0 0
0 0 255
0 0 252
0 0 255
0 0 254
0 0 254
0 0 255
0 0 255
0 0 255
0 0 255
0 0 253
0 0 254
0 0 255
0 0 255
0 0 255
0 0 253
0 0 255
0 0 254
0 0 255
0 0 255
0 0 255
0 0 250
0 0 254
0 0 252
0 0 255
0 0 255
0 0 254
0 0 254
0 0 254
0 0 254
0 0 255
0 0 254
0 0 254
0 0 252
0 0 253
0 0 254
0 0 254
0 0 253
0 0 255
0 0 252
0 0 252
0 0 254
0 0 253
0 0 250
0 0 252
0 0 252
0 0 253
0 0 254
0 0 253
0 0 253
0 0 252
0 0 255
0 0 254
0 0 255
0 0 255
0 0 253
0 0 253
0 0 254
0 0 254
0 0 249
0 0 250
0 0 253
0 0 252
0 0 250
0 0 254
0 0 255
0 0 254
0 0 249
0 0 254
0 0 255
0 0 252
0 0 250
0 0 252
0 0 252
0 0 252
0 0 250
0 0 250
0 0 250
0 0 254
0 0 254
0 0 252
0 0 250
0 0 246
0 0 252
0 0 253
0 0 249
0 0 254
0 0 250
0 0 252
0 0 254
0 0 252
0 0 249
0 0 249
0 0 252
0 0 250
0 0 250
0 0 249
0 0 246
0 0 252
0 0 250
0 0 249
0 0 246
0 0 254
0 0 253
0 0 250
0 0 253
0 0 242
0 0 248
0 0 245
0 0 249
0 0 246
0 0 252
0 0 249
0 0 249
0 0 248
0 0 250
0 0 252
0 0 249
0 0 242
0 0 241
0 0 246
0 0 248
0 0 248
0 0 244
0 0 249
0 0 248
0 0 240
0 0 242
0 0 246
0 0 250
0 0 242
0 0 248
0 0 248
0 0 241
0 0 245
0 0 245
0 0 249
0 0 246
0 0 237
0 0 241
0 0 244
0 0 241
0 0 240
0 0 230
0 0 242
0 0 242
0 0 240
0 0 234
0 0 248
0 0 240
0 0 244
0 0 236
0 0 240
0 0 230
0 0 241
0 0 234
0 0 237
0 0 238
0 0 233
0 0 227
0 0 234
0 0 224
0 0 233
0 0 233
0 0 230
0 0 230
0 0 233
0 0 230
0 0 220
0 0 226
0 0 221
0 0 226
0 0 221
0 0 224
0 0 220
0 0 220
0 0 212
0 0 212
0 0 215
0 0 211
0 0 212
0 0 203
0 0 203
0 0 201
0 0 193
0 0 198
0 0 188
0 0 184
0 0 179
0 0 179
0 0 179
0 0 191
0 0 169
0 0 163
0 0 167
0 0 153
0 0 140
60 65 151
212 229 254
214 231 255
214 231 255
214 231 255
214 232 255
213 230 254
113 69 76
117 0 0
107 0 0
133 0 0
139 0 0
143 0 0
145 0 0
137 0 0
143 0 0
156 0 0
163 0 0
160 0 0
168 0 0
163 0 0
167 0 0
167 0 0
164 0 0
171 0 0
174 0 0
169 0 0
192 0 0
170 0 0
177 0 0
185 0 0
172 0 0
183 0 0
190 0 0
188 0 0
198 0 0
193 0 0
195 0 0
193 0 0
193 0 0
194 0 0
197 0 0
196 0 0
194 0 0
194 0 0
207 0 0
193 0 0
192 0 0
202 0 0
201 0 0
196 0 0
202 0 0
200 0 0
197 0 0
196 0 0
195 0 0
198 0 0
208 0 0
211 0 0
203 0 0
202 0 0
203 0 0
200 0 0
196 0 0
204 0 0
199 0 0
205 0 0
215 0 0
206 0 0
201 0 0
208 0 0
213 0 0
207 0 0
214 0 0
202 0 0
207 0 0
202 0 0
212 0 0
214 0 0
212 0 0
207 0 0
203 0 0
207 0 0
210 0 0
208 0 0
210 0 0
208 0 0
206 0 0
208 0 0
215 0 0
215 0 0
212 0 0
206 0 0
217 0 0
216 0 0
209 0 0
214 0 0
221 0 0
212 0 0
216 0 0
217 0 0
212 0 0
212 0 0
214 0 0
215 0 0
213 0 0
209 0 0
218 0 0
217 0 0
213 0 0
213 0 0
216 0 0
215 0 0
212 0 0
218 0 0
216 0 0
212 0 0
216 0 0
219 0 0
213 0 0
219 0 0
216 0 0
212 0 0
215 0 0
216 0 0
216 0 0
215 0 0
215 0 0
218 0 0
216 0 0
212 0 0
215 0 0
218 0 0
219 0 0
214 0 0
220 0 0
216 0 0
215 0 0
219 0 0
219 0 0
217 0 0
218 0 0
213 0 0
221 0 0
219 0 0
216 0 0
219 0 0
217 0 0
220 0 0
219 0 0
221 0 0
213 0 0
217 0 0
222 0 0
215 0 0
215 0 0
216 0 0
214 0 0
212 0 0
217 0 0
216 0 0
215 0 0
216 0 0
222 0 0
219 0 0
219 0 0
219 0 0
217 0 0
217 0 0
217 0 0
218 0 0
216 0 0
213 0 0
221 0 0
216 0 0
218 0 0
216 0 0
215 0 0
219 0 0
216 0 0
216 0 0
217 0 0
218 0 0
218 0 0
215 0 0
221 0 0
217 0 0
217 0 0
216 0 0
220 0 0
214 0 0
222 0 0
219 0 0
221 0 0
214 0 0
214 0 0
217 0 0
216 0 0
219 0 0
216 0 0
219 0 0
219 0 0
221 0 0
220 0 0
0 0 255
0 0 255
0 0 255
0 0 254
0 0 254
0 0 254
0 0 254
0 0 250
0 0 255
0 0 255
0 0 255
0 0 255
0 0 254
0 0 254
0 0 253
0 0 254
0 0 253
0 0 255
0 0 254
0 0 253
0 0 255
0 0 255
0 0 253
0 0 255
0 0 253
0 0 254
0 0 254
0 0 255
0 0 255
0 0 254
0 0 253
0 0 255
0 0 255
0 0 254
0 0 254
0 0 252
0 0 254
0 0 255
0 0 253
0 0 255
0 0 254
0 0 254
0 0 254
0 0 255
0 0 253
0 0 254
0 0 253
0 0 255
0 0 254
0 0 254
0 0 253
0 0 253
0 0 253
0 0 255
0 0 255
0 0 252
0 0 255
0 0 254
0 0 255
0 0 255
0 0 252
0 0 253
0 0 248
0 0 255
0 0 254
0 0 255
0 0 248
0 0 253
0 0 254
0 0 250
0 0 253
0 0 254
0 0 252
0 0 254
0 0 250
0 0 250
0 0 250
0 0 252
0 0 248
0 0 252
0 0 249
0 0 250
0 0 250
0 0 250
0 0 253
0 0 255
0 0 252
0 0 248
0 0 246
0 0 252
0 0 252
0 0 250
0 0 252
0 0 255
0 0 253
0 0 248
0 0 252
0 0 249
0 0 249
0 0 249
0 0 252
0 0 248
0 0 248
0 0 245
0 0 242
0 0 248
0 0 246
0 0 252
0 0 248
0 0 248
0 0 240
0 0 242
0 0 248
0 0 244
0 0 249
0 0 254
0 0 244
0 0 248
0 0 250
0 0 250
0 0 246
0 0 248
0 0 241
0 0 254
0 0 245
0 0 240
0 0 242
0 0 249
0 0 241
0 0 246
0 0 244
0 0 238
0 0 246
0 0 248
0 0 242
0 0 242
0 0 236
0 0 242
0 0 248
0 0 238
0 0 234
0 0 237
0 0 237
0 0 241
0 0 234
0 0 244
0 0 242
0 0 238
0 0 237
0 0 224
0 0 240
0 0 233
0 0 228
0 0 231
0 0 233
0 0 234
0 0 231
0 0 237
0 0 233
0 0 231
0 0 224
0 0 236
0 0 227
0 0 223
0 0 223
0 0 224
0 0 240
0 0 223
0 0 214
0 0 218
0 0 218
0 0 209
0 0 224
0 0 221
0 0 218
0 0 227
0 0 211
0 0 199
0 0 199
0 0 204
0 0 209
0 0 212
0 0 217
0 0 199
0 0 206
0 0 203
0 0 191
0 0 199
0 0 177
0 0 167
0 0 167
0 0 161
0 0 175
0 0 161
0 0 155
0 0 149
0 0 117
188 203 234
214 232 255
214 232 255
214 232 255
214 232 255
193 205 226
112 0 0
119 0 0
121 0 0
120 0 0
125 0 0
149 0 0
150 0 0
139 0 0
150 0 0
149 0 0
158 0 0
159 0 0
158 0 0
170 0 0
172 0 0
173 0 0
168 0 0
176 0 0
182 0 0
176 0 0
169 0 0
181 0 0
181 0 0
180 0 0
187 0 0
186 0 0
191 0 0
194 0 0
187 0 0
194 0 0
195 0 0
195 0 0
196 0 0
193 0 0
195 0 0
201 0 0
195 0 0
209 0 0
201 0 0
198 0 0
190 0 0
206 0 0
202 0 0
197 0 0
192 0 0
202 0 0
198 0 0
206 0 0
194 0 0
207 0 0
197 0 0
204 0 0
205 0 0
194 0 0
208 0 0
201 0 0
202 0 0
202 0 0
211 0 0
215 0 0
198 0 0
211 0 0
201 0 0
211 0 0
207 0 0
208 0 0
210 0 0
204 0 0
203 0 0
208 0 0
205 0 0
205 0 0
207 0 0
215 0 0
203 0 0
205 0 0
206 0 0
215 0 0
210 0 0
211 0 0
205 0 0
214 0 0
212 0 0
207 0 0
218 0 0
207 0 0
210 0 0
216 0 0
213 0 0
207 0 0
211 0 0
210 0 0
210 0 0
207 0 0
217 0 0
211 0 0
212 0 0
215 0 0
214 0 0
212 0 0
219 0 0
214 0 0
214 0 0
214 0 0
217 0 0
212 0 0
214 0 0
212 0 0
213 0 0
212 0 0
218 0 0
217 0 0
212 0 0
214 0 0
214 0 0
213 0 0
218 0 0
214 0 0
216 0 0
216 0 0
216 0 0
215 0 0
215 0 0
218 0 0
221 0 0
212 0 0
216 0 0
216 0 0
216 0 0
217 0 0
220 0 0
212 0 0
214 0 0
216 0 0
218 0 0
214 0 0
218 0 0
217 0 0
218 0 0
219 0 0
220 0 0
216 0 0
219 0 0
219 0 0
219 0 0
219 0 0
220 0 0
215 0 0
223 0 0
214 0 0
217 0 0
217 0 0
220 0 0
215 0 0
220 0 0
218 0 0
220 0 0
219 0 0
220 0 0
219 0 0
217 0 0
216 0 0
221 0 0
219 0 0
221 0 0
217 0 0
219 0 0
218 0 0
220 0 0
219 0 0
221 0 0
220 0 0
214 0 0
217 0 0
221 0 0
218 0 0
220 0 0
219 0 0
219 0 0
218 0 0
219 0 0
217 0 0
215 0 0
219 0 0
218 0 0
221 0 0
220 0 0
218 0 0
214 0 0
217 0 0
218 0 0
215 0 0
220 0 0
221 0 0
219 0 0
220 0 0
218 0 0
0 0 255
0 0 255
0 0 255
0 0 253
0 0 255
0 0 255
0 0 253
0 0 255
0 0 255
0 0 254
0 0 254
0 0 254
0 0 255
0 0 255
0 0 254
0 0 254
0 0 254
0 0 255
0 0 255
0 0 255
0 0 253
0 0 255
0 0 255
0 0 254
0 0 255
0 0 250
0 0 253
0 0 255
0 0 255
0 0 253
0 0 254
0 0 255
0 0 254
0 0 255
0 0 254
0 0 255
0 0 255
0 0 252
0 0 255
0 0 252
0 0 254
0 0 250
0 0 253
0 0 253
0 0 254
0 0 255
0 0 254
0 0 254
0 0 248
0 0 252
0 0 254
0 0 252
0 0 253
0 0 254
0 0 252
0 0 252
0 0 255
0 0 254
0 0 254
0 0 253
0 0 252
0 0 252
0 0 253
0 0 253
0 0 254
0 0 252
0 0 253
0 0 254
0 0 254
0 0 254
0 0 252
0 0 253
0 0 252
0 0 254
0 0 254
0 0 252
0 0 254
0 0 252
0 0 252
0 0 254
0 0 253
0 0 250
0 0 253
0 0 252
0 0 254
0 0 252
0 0 246
0 0 252
0 0 249
0 0 249
0 0 250
0 0 252
0 0 245
0 0 249
0 0 254
0 0 253
0 0 254
0 0 245
0 0 253
0 0 244
0 0 253
0 0 245
0 0 252
0 0 248
0 0 248
0 0 248
0 0 252
0 0 249
0 0 245
0 0 241
0 0 249
0 0 249
0 0 246
0 0 249
0 0 245
0 0 248
0 0 253
0 0 254
0 0 252
0 0 246
0 0 245
0 0 234
0 0 242
0 0 245
0 0 246
0 0 241
0 0 238
0 0 248
0 0 242
0 0 248
0 0 245
0 0 242
0 0 244
0 0 240
0 0 245
0 0 248
0 0 240
0 0 241
0 0 237
0 0 244
0 0 242
0 0 240
0 0 241
0 0 240
0 0 230
0 0 241
0 0 237
0 0 234
0 0 237
0 0 244
0 0 233
0 0 238
0 0 237
0 0 240
0 0 234
0 0 241
0 0 226
0 0 233
0 0 230
0 0 240
0 0 236
0 0 221
0 0 217
0 0 228
0 0 226
0 0 224
0 0 234
0 0 233
0 0 231
0 0 218
0 0 217
0 0 215
0 0 224
0 0 221
0 0 212
0 0 214
0 0 218
0 0 214
0 0 203
0 0 212
0 0 204
0 0 207
0 0 191
0 0 194
0 0 214
0 0 204
0 0 196
0 0 199
0 0 194
0 0 167
0 0 191
0 0 167
0 0 149
0 0 147
0 0 149
0 0 140
0 0 111
153 165 204
215 232 255
215 232 255
215 232 255
215 232 255
178 176 194
106 0 0
118 0 0
118 0 0
123 0 0
146 0 0
153 0 0
144 0 0
149 0 0
140 0 0
143 0 0
154 0 0
151 0 0
168 0 0
164 0 0
172 0 0
160 0 0
185 0 0
162 0 0
165 0 0
178 0 0
180 0 0
182 0 0
174 0 0
190 0 0
194 0 0
180 0 0
185 0 0
185 0 0
197 0 0
186 0 0
193 0 0
191 0 0
190 0 0
195 0 0
195 0 0
196 0 0
188 0 0
189 0 0
191 0 0
199 0 0
203 0 0
201 0 0
197 0 0
198 0 0
199 0 0
204 0 0
199 0 0
209 0 0
204 0 0
203 0 0
212 0 0
206 0 0
197 0 0
209 0 0
200 0 0
199 0 0
207 0 0
208 0 0
206 0 0
204 0 0
206 0 0
210 0 0
211 0 0
202 0 0
203 0 0
211 0 0
210 0 0
213 0 0
217 0 0
214 0 0
209 0 0
206 0 0
211 0 0
213 0 0
212 0 0
211 0 0
216 0 0
212 0 0
211 0 0
213 0 0
214 0 0
207 0 0
216 0 0
213 0 0
210 0 0
207 0 0
216 0 0
212 0 0
215 0 0
211 0 0
211 0 0
215 0 0
212 0 0
207 0 0
214 0 0
209 0 0
215 0 0
215 0 0
211 0 0
216 0 0
209 0 0
211 0 0
212 0 0
206 0 0
218 0 0
219 0 0
222 0 0
213 0 0
218 0 0
215 0 0
215 0 0
217 0 0
219 0 0
213 0 0
216 0 0
215 0 0
216 0 0
217 0 0
213 0 0
215 0 0
214 0 0
213 0 0
214 0 0
212 0 0
213 0 0
220 0 0
212 0 0
217 0 0
218 0 0
220 0 0
213 0 0
217 0 0
217 0 0
216 0 0
216 0 0
222 0 0
213 0 0
217 0 0
216 0 0
217 0 0
220 0 0
213 0 0
216 0 0
215 0 0
223 0 0
216 0 0
215 0 0
217 0 0
217 0 0
216 0 0
218 0 0
220 0 0
218 0 0
219 0 0
215 0 0
218 0 0
222 0 0
218 0 0
217 0 0
215 0 0
219 0 0
219 0 0
215 0 0
219 0 0
218 0 0
221 0 0
217 0 0
215 0 0
220 0 0
220 0 0
222 0 0
222 0 0
220 0 0
218 0 0
216 0 0
219 0 0
217 0 0
218 0 0
220 0 0
221 0 0
216 0 0
220 0 0
219 0 0
214 0 0
221 0 0
220 0 0
219 0 0
222 0 0
218 0 0
219 0 0
218 0 0
216 0 0
220 0 0
216 0 0
217 0 0
216 0 0
222 0 0
0 0 255
0 0 254
0 0 255
0 0 254
0 0 255
0 0 254
0 0 253
0 0 255
0 0 254
0 0 255
0 0 255
0 0 254
0 0 255
0 0 254
0 0 255
0 0 253
0 0 255
0 0 254
0 0 254
0 0 255
0 0 254
0 0 252
0 0 253
0 0 255
0 0 255
0 0 255
0 0 254
0 0 255
0 0 255
0 0 253
0 0 254
0 0 253
0 0 253
0 0 254
0 0 254
0 0 254
0 0 253
0 0 255
0 0 253
0 0 255
0 0 255
0 0 255
0 0 253
0 0 255
0 0 255
0 0 249
0 0 255
0 0 249
0 0 255
0 0 255
0 0 249
0 0 253
0 0 255
0 0 254
0 0 253
0 0 252
0 0 255
0 0 255
0 0 252
0 0 253
0 0 252
0 0 252
0 0 254
0 0 253
0 0 252
0 0 253
0 0 250
0 0 255
0 0 254
0 0 254
0 0 255
0 0 250
0 0 252
0 0 252
0 0 255
0 0 252
0 0 252
0 0 253
0 0 252
0 0 252
0 0 249
0 0 249
0 0 248
0 0 252
0 0 252
0 0 252
0 0 246
0 0 253
0 0 252
0 0 253
0 0 254
0 0 246
0 0 252
0 0 249
0 0 252
0 0 241
0 0 254
0 0 244
0 0 252
0 0 246
0 0 250
0 0 250
0 0 248
0 0 253
0 0 249
0 0 246
0 0 253
0 0 242
0 0 244
0 0 250
0 0 245
0 0 250
0 0 248
0 0 252
0 0 244
0 0 244
0 0 248
0 0 249
0 0 240
0 0 249
0 0 253
0 0 245
0 0 240
0 0 240
0 0 252
0 0 245
0 0 245
0 0 244
0 0 250
0 0 246
0 0 246
0 0 244
0 0 242
0 0 246
0 0 250
0 0 245
0 0 244
0 0 242
0 0 248
0 0 241
0 0 241
0 0 238
0 0 240
0 0 244
0 0 231
0 0 240
0 0 244
0 0 230
0 0 241
0 0 228
0 0 236
0 0 234
0 0 234
0 0 234
0 0 242
0 0 231
0 0 236
0 0 221
0 0 236
0 0 237
0 0 221
0 0 230
0 0 224
0 0 230
0 0 231
0 0 223
0 0 228
0 0 227
0 0 227
0 0 221
0 0 217
0 0 220
0 0 204
0 0 228
0 0 221
0 0 223
0 0 224
0 0 209
0 0 214
0 0 204
0 0 207
0 0 196
0 0 207
0 0 198
0 0 199
0 0 201
0 0 175
0 0 189
0 0 188
0 0 159
0 0 171
0 0 175
0 0 153
0 0 147
0 0 159
0 0 122
0 0 135
114 123 186
215 232 255
215 232 255
215 232 255
215 232 255
135 116 128
93 0 0
107 0 0
125 0 0
135 0 0
150 0 0
141 0 0
145 0 0
156 0 0
152 0 0
164 0 0
160 0 0
153 0 0
150 0 0
169 0 0
177 0 0
166 0 0
183 0 0
172 0 0
175 0 0
176 0 0
178 0 0
189 0 0
182 0 0
176 0 0
200 0 0
189 0 0
191 0 0
197 0 0
193 0 0
178 0 0
178 0 0
200 0 0
188 0 0
191 0 0
195 0 0
196 0 0
188 0 0
205 0 0
201 0 0
193 0 0
192 0 0
202 0 0
207 0 0
197 0 0
200 0 0
200 0 0
203 0 0
202 0 0
212 0 0
194 0 0
203 0 0
204 0 0
197 0 0
203 0 0
203 0 0
203 0 0
206 0 0
210 0 0
201 0 0
206 0 0
204 0 0
206 0 0
204 0 0
204 0 0
209 0 0
207 0 0
210 0 0
210 0 0
208 0 0
211 0 0
202 0 0
211 0 0
209 0 0
208 0 0
213 0 0
206 0 0
207 0 0
216 0 0
209 0 0
217 0 0
216 0 0
216 0 0
212 0 0
207 0 0
212 0 0
216 0 0
217 0 0
217 0 0
211 0 0
219 0 0
210 0 0
211 0 0
214 0 0
207 0 0
211 0 0
217 0 0
207 0 0
207 0 0
210 0 0
217 0 0
214 0 0
211 0 0
212 0 0
211 0 0
213 0 0
218 0 0
216 0 0
216 0 0
211 0 0
218 0 0
208 0 0
219 0 0
214 0 0
223 0 0
216 0 0
221 0 0
218 0 0
215 0 0
212 0 0
212 0 0
213 0 0
218 0 0
215 0 0
213 0 0
216 0 0
218 0 0
215 0 0
214 0 0
215 0 0
217 0 0
217 0 0
212 0 0
211 0 0
210 0 0
218 0 0
216 0 0
218 0 0
212 0 0
214 0 0
216 0 0
217 0 0
217 0 0
215 0 0
215 0 0
220 0 0
217 0 0
214 0 0
217 0 0
221 0 0
217 0 0
219 0 0
217 0 0
219 0 0
215 0 0
217 0 0
221 0 0
217 0 0
215 0 0
223 0 0
219 0 0
220 0 0
219 0 0
218 0 0
215 0 0
220 0 0
215 0 0
217 0 0
222 0 0
220 0 0
216 0 0
221 0 0
219 0 0
221 0 0
220 0 0
219 0 0
220 0 0
221 0 0
214 0 0
218 0 0
216 0 0
216 0 0
220 0 0
219 0 0
220 0 0
219 0 0
221 0 0
218 0 0
218 0 0
221 0 0
222 0 0
220 0 0
221 0 0
217 0 0
220 0 0
219 0 0
221 0 0
220 0 0
0 0 255
0 0 254
0 0 255
0 0 254
0 0 253
0 0 255
0 0 254
0 0 255
0 0 255
0 0 255
0 0 254
0 0 254
0 0 255
0 0 254
0 0 253
0 0 253
0 0 255
0 0 255
0 0 255
0 0 254
0 0 255
0 0 255
0 0 255
0 0 254
0 0 253
0 0 254
0 0 255
0 0 255
0 0 254
0 0 255
0 0 255
0 0 255
0 0 255
0 0 255
0 0 255
0 0 254
0 0 255
0 0 255
0 0 253
0 0 253
0 0 253
0 0 255
0 0 253
0 0 253
0 0 253
0 0 255
0 0 254
0 0 254
0 0 253
0 0 255
0 0 252
0 0 252
0 0 254
0 0 255
0 0 254
0 0 255
0 0 250
0 0 255
0 0 254
0 0 252
0 0 252
0 0 255
0 0 253
0 0 252
0 0 249
0 0 253
0 0 254
0 0 255
0 0 252
0 0 255
0 0 255
0 0 254
0 0 253
0 0 253
0 0 250
0 0 253
0 0 246
0 0 249
0 0 249
0 0 254
0 0 252
0 0 253
0 0 249
0 0 250
0 0 250
0 0 250
0 0 255
0 0 252
0 0 253
0 0 248
0 0 253
0 0 249
0 0 245
0 0 249
0 0 245
0 0 253
0 0 252
0 0 249
0 0 252
0 0 248
0 0 253
0 0 253
0 0 248
0 0 248
0 0 250
0 0 246
0 0 245
0 0 246
0 0 244
0 0 246
0 0 248
0 0 252
0 0 249
0 0 249
0 0 249
0 0 248
0 0 250
0 0 253
0 0 250
0 0 244
0 0 246
0 0 240
0 0 246
0 0 246
0 0 249
0 0 242
0 0 245
0 0 246
0 0 245
0 0 242
0 0 249
0 0 248
0 0 242
0 0 230
0 0 245
0 0 237
0 0 234
0 0 248
0 0 237
0 0 241
0 0 238
0 0 238
0 0 242
0 0 241
0 0 240
0 0 226
0 0 234
0 0 240
0 0 237
0 0 233
0 0 236
0 0 228
0 0 230
0 0 233
0 0 231
0 0 233
0 0 226
0 0 227
0 0 238
0 0 226
0 0 218
0 0 230
0 0 234
0 0 227
0 0 230
0 0 230
0 0 233
0 0 233
0 0 221
0 0 220
0 0 221
0 0 223
0 0 223
0 0 226
0 0 212
0 0 221
0 0 209
0 0 218
0 0 198
0 0 220
0 0 217
0 0 211
0 0 214
0 0 204
0 0 211
0 0 189
0 0 198
0 0 191
0 0 196
0 0 171
0 0 191
0 0 175
0 0 161
0 0 144
0 0 169
0 0 137
0 0 122
71 77 130
215 232 255
215 232 255
215 232 255
215 232 255
102 52 57
106 0 0
115 0 0
122 0 0
119 0 0
130 0 0
131 0 0
139 0 0
135 0 0
149 0 0
163 0 0
141 0 0
160 0 0
172 0 0
172 0 0
179 0 0
176 0 0
175 0 0
179 0 0
183 0 0
174 0 0
174 0 0
183 0 0
192 0 0
181 0 0
191 0 0
181 0 0
187 0 0
191 0 0
179 0 0
195 0 0
189 0 0
191 0 0
190 0 0
195 0 0
184 0 0
187 0 0
196 0 0
198 0 0
197 0 0
205 0 0
198 0 0
183 0 0
198 0 0
201 0 0
207 0 0
204 0 0
203 0 0
195 0 0
201 0 0
205 0 0
211 0 0
204 0 0
203 0 0
204 0 0
201 0 0
207 0 0
210 0 0
204 0 0
207 0 0
213 0 0
201 0 0
206 0 0
208 0 0
204 0 0
202 0 0
204 0 0
209 0 0
204 0 0
210 0 0
217 0 0
212 0 0
206 0 0
208 0 0
212 0 0
208 0 0
209 0 0
206 0 0
212 0 0
208 0 0
208 0 0
214 0 0
211 0 0
212 0 0
214 0 0
214 0 0
212 0 0
222 0 0
212 0 0
215 0 0
215 0 0
213 0 0
211 0 0
216 0 0
214 0 0
212 0 0
216 0 0
206 0 0
212 0 0
216 0 0
218 0 0
216 0 0
217 0 0
209 0 0
211 0 0
214 0 0
214 0 0
215 0 0
219 0 0
214 0 0
218 0 0
220 0 0
219 0 0
218 0 0
216 0 0
216 0 0
214 0 0
218 0 0
207 0 0
218 0 0
216 0 0
215 0 0
218 0 0
220 0 0
216 0 0
219 0 0
217 0 0
214 0 0
217 0 0
221 0 0
218 0 0
217 0 0
215 0 0
215 0 0
213 0 0
213 0 0
214 0 0
214 0 0
216 0 0
218 0 0
217 0 0
222 0 0
220 0 0
220 0 0
220 0 0
217 0 0
219 0 0
220 0 0
221 0 0
219 0 0
218 0 0
217 0 0
217 0 0
217 0 0
219 0 0
215 0 0
220 0 0
216 0 0
217 0 0
220 0 0
218 0 0
218 0 0
214 0 0
223 0 0
218 0 0
218 0 0
217 0 0
220 0 0
218 0 0
218 0 0
219 0 0
221 0 0
217 0 0
219 0 0
218 0 0
216 0 0
218 0 0
218 0 0
220 0 0
220 0 0
219 0 0
218 0 0
216 0 0
217 0 0
219 0 0
216 0 0
217 0 0
220 0 0
219 0 0
216 0 0
218 0 0
217 0 0
223 0 0
215 0 0
219 0 0
214 0 0
214 0 0
217 0 0
0 0 255
0 0 253
0 0 255
0 0 255
0 0 254
0 0 254
0 0 255
0 0 254
0 0 254
0 0 255
0 0 254
0 0 254
0 0 253
0 0 254
0 0 255
0 0 255
0 0 255
0 0 254
0 0 255
0 0 254
0 0 255
0 0 253
0 0 254
0 0 255
0 0 254
0 0 254
0 0 255
0 0 254
0 0 254
0 0 254
0 0 255
0 0 255
0 0 252
0 0 255
0 0 255
0 0 254
0 0 254
0 0 255
0 0 255
0 0 252
0 0 255
0 0 252
0 0 252
0 0 253
0 0 254
0 0 255
0 0 255
0 0 255
0 0 254
0 0 254
0 0 253
0 0 252
0 0 255
0 0 250
0 0 255
0 0 253
0 0 250
0 0 250
0 0 253
0 0 254
0 0 252
0 0 254
0 0 255
0 0 253
0 0 249
0 0 250
0 0 253
0 0 252
0 0 254
0 0 255
0 0 254
0 0 252
0 0 253
0 0 253
0 0 255
0 0 254
0 0 255
0 0 250
0 0 252
0 0 252
0 0 254
0 0 248
0 0 253
0 0 249
0 0 254
0 0 253
0 0 248
0 0 253
0 0 253
0 0 246
0 0 252
0 0 244
0 0 252
0 0 248
0 0 248
0 0 253
0 0 248
0 0 248
0 0 249
0 0 242
0 0 246
0 0 242
0 0 250
0 0 252
0 0 253
0 0 253
0 0 248
0 0 253
0 0 246
0 0 250
0 0 245
0 0 254
0 0 249
0 0 250
0 0 252
0 0 245
0 0 252
0 0 249
0 0 252
0 0 254
0 0 244
0 0 244
0 0 242
0 0 242
0 0 241
0 0 246
0 0 246
0 0 244
0 0 250
0 0 245
0 0 249
0 0 245
0 0 246
0 0 241
0 0 249
0 0 244
0 0 248
0 0 240
0 0 248
0 0 245
0 0 237
0 0 244
0 0 240
0 0 241
0 0 238
0 0 237
0 0 237
0 0 233
0 0 242
0 0 236
0 0 231
0 0 228
0 0 238
0 0 231
0 0 231
0 0 228
0 0 234
0 0 227
0 0 237
0 0 231
0 0 233
0 0 226
0 0 230
0 0 231
0 0 221
0 0 233
0 0 227
0 0 226
0 0 228
0 0 224
0 0 228
0 0 212
0 0 218
0 0 227
0 0 218
0 0 220
0 0 207
0 0 227
0 0 209
0 0 206
0 0 209
0 0 193
0 0 194
0 0 198
0 0 204
0 0 199
0 0 186
0 0 193
0 0 177
0 0 184
0 0 157
0 0 147
0 0 167
0 0 153
0 0 155
0 0 125
0 0 133
0 0 114
206 222 248
216 232 255
216 232 255
200 215 237
99 0 0
111 0 0
120 0 0
117 0 0
136 0 0
128 0 0
139 0 0
148 0 0
158 0 0
149 0 0
162 0 0
155 0 0
167 0 0
165 0 0
168 0 0
177 0 0
175 0 0
171 0 0
182 0 0
181 0 0
182 0 0
180 0 0
172 0 0
177 0 0
185 0 0
188 0 0
187 0 0
194 0 0
187 0 0
185 0 0
192 0 0
189 0 0
188 0 0
198 0 0
201 0 0
194 0 0
195 0 0
192 0 0
192 0 0
202 0 0
200 0 0
208 0 0
193 0 0
198 0 0
203 0 0
191 0 0
199 0 0
200 0 0
194 0 0
200 0 0
198 0 0
203 0 0
210 0 0
203 0 0
208 0 0
206 0 0
203 0 0
210 0 0
197 0 0
208 0 0
209 0 0
214 0 0
208 0 0
212 0 0
214 0 0
211 0 0
207 0 0
209 0 0
207 0 0
209 0 0
211 0 0
214 0 0
212 0 0
208 0 0
210 0 0
207 0 0
212 0 0
212 0 0
213 0 0
205 0 0
217 0 0
206 0 0
212 0 0
213 0 0
213 0 0
218 0 0
210 0 0
210 0 0
212 0 0
210 0 0
215 0 0
207 0 0
218 0 0
215 0 0
207 0 0
218 0 0
212 0 0
214 0 0
211 0 0
216 0 0
214 0 0
213 0 0
216 0 0
216 0 0
219 0 0
217 0 0
216 0 0
215 0 0
212 0 0
220 0 0
213 0 0
214 0 0
208 0 0
215 0 0
217 0 0
216 0 0
217 0 0
213 0 0
215 0 0
220 0 0
217 0 0
216 0 0
221 0 0
215 0 0
219 0 0
214 0 0
219 0 0
214 0 0
217 0 0
219 0 0
214 0 0
216 0 0
217 0 0
217 0 0
217 0 0
217 0 0
216 0 0
216 0 0
213 0 0
217 0 0
216 0 0
217 0 0
219 0 0
220 0 0
219 0 0
217 0 0
217 0 0
221 0 0
215 0 0
221 0 0
215 0 0
218 0 0
216 0 0
216 0 0
217 0 0
217 0 0
218 0 0
222 0 0
220 0 0
216 0 0
213 0 0
218 0 0
214 0 0
218 0 0
216 0 0
215 0 0
220 0 0
217 0 0
214 0 0
221 0 0
219 0 0
219 0 0
218 0 0
218 0 0
220 0 0
218 0 0
219 0 0
219 0 0
218 0 0
215 0 0
217 0 0
214 0 0
219 0 0
218 0 0
220 0 0
220 0 0
217 0 0
219 0 0
217 0 0
216 0 0
216 0 0
221 0 0
221 0 0
216 0 0
219 0 0
224 0 0
219 0 0
217 0 0
0 0 255
0 0 254
0 0 254
0 0 255
0 0 255
0 0 253
0 0 254
0 0 255
0 0 252
0 0 254
0 0 254
0 0 255
0 0 254
0 0 255
0 0 255
0 0 254
0 0 254
0 0 254
0 0 255
0 0 254
0 0 253
0 0 255
0 0 255
0 0 254
0 0 250
0 0 255
0 0 254
0 0 253
0 0 255
0 0 254
0 0 253
0 0 254
0 0 255
0 0 249
0 0 255
0 0 255
0 0 250
0 0 252
0 0 254
0 0 254
0 0 253
0 0 253
0 0 254
0 0 253
0 0 253
0 0 253
0 0 255
0 0 254
0 0 254
0 0 254
0 0 255
0 0 254
0 0 253
0 0 254
0 0 254
0 0 255
0 0 254
0 0 246
0 0 253
0 0 253
0 0 253
0 0 255
0 0 252
0 0 253
0 0 250
0 0 250
0 0 254
0 0 253
0 0 252
0 0 248
0 0 252
0 0 254
0 0 249
0 0 250
0 0 255
0 0 253
0 0 248
0 0 253
0 0 253
0 0 249
0 0 253
0 0 254
0 0 253
0 0 252
0 0 252
0 0 248
0 0 252
0 0 252
0 0 250
0 0 253
0 0 255
0 0 250
0 0 253
0 0 248
0 0 245
0 0 250
0 0 250
0 0 253
0 0 250
0 0 248
0 0 250
0 0 249
0 0 252
0 0 246
0 0 252
0 0 245
0 0 250
0 0 249
0 0 253
0 0 248
0 0 242
0 0 245
0 0 242
0 0 248
0 0 245
0 0 250
0 0 253
0 0 248
0 0 252
0 0 242
0 0 245
0 0 238
0 0 246
0 0 241
0 0 246
0 0 249
0 0 246
0 0 244
0 0 245
0 0 246
0 0 242
0 0 244
0 0 245
0 0 244
0 0 234
0 0 248
0 0 237
0 0 237
0 0 236
0 0 238
0 0 241
0 0 240
0 0 238
0 0 233
0 0 244
0 0 228
0 0 237
0 0 244
0 0 236
0 0 238
0 0 238
0 0 244
0 0 240
0 0 234
0 0 233
0 0 224
0 0 238
0 0 221
0 0 234
0 0 233
0 0 221
0 0 236
0 0 230
0 0 227
0 0 227
0 0 230
0 0 231
0 0 230
0 0 226
0 0 220
0 0 209
0 0 206
0 0 218
0 0 218
0 0 217
0 0 212
0 0 212
0 0 217
0 0 212
0 0 204
0 0 189
0 0 189
0 0 201
0 0 204
0 0 198
0 0 196
0 0 193
0 0 186
0 0 188
0 0 171
0 0 167
0 0 169
0 0 181
0 0 142
0 0 140
0 0 167
0 0 135
0 0 108
161 174 198
216 233 255
216 233 255
180 187 206
85 0 0
89 0 0
100 0 0
118 0 0
134 0 0
136 0 0
142 0 0
142 0 0
152 0 0
164 0 0
146 0 0
162 0 0
156 0 0
167 0 0
169 0 0
161 0 0
170 0 0
170 0 0
174 0 0
173 0 0
167 0 0
167 0 0
186 0 0
185 0 0
177 0 0
182 0 0
190 0 0
196 0 0
188 0 0
189 0 0
191 0 0
198 0 0
195 0 0
193 0 0
190 0 0
186 0 0
196 0 0
195 0 0
202 0 0
203 0 0
199 0 0
199 0 0
205 0 0
204 0 0
199 0 0
206 0 0
199 0 0
206 0 0
193 0 0
207 0 0
204 0 0
204 0 0
211 0 0
205 0 0
205 0 0
208 0 0
205 0 0
203 0 0
202 0 0
198 0 0
196 0 0
204 0 0
210 0 0
208 0 0
209 0 0
206 0 0
208 0 0
199 0 0
205 0 0
213 0 0
210 0 0
204 0 0
211 0 0
212 0 0
215 0 0
215 0 0
207 0 0
211 0 0
207 0 0
210 0 0
206 0 0
214 0 0
217 0 0
207 0 0
211 0 0
211 0 0
217 0 0
215 0 0
219 0 0
215 0 0
217 0 0
214 0 0
210 0 0
211 0 0
215 0 0
213 0 0
217 0 0
213 0 0
219 0 0
210 0 0
209 0 0
216 0 0
215 0 0
216 0 0
212 0 0
218 0 0
217 0 0
218 0 0
222 0 0
215 0 0
214 0 0
220 0 0
217 0 0
220 0 0
218 0 0
209 0 0
219 0 0
213 0 0
216 0 0
217 0 0
210 0 0
214 0 0
217 0 0
217 0 0
216 0 0
217 0 0
220 0 0
217 0 0
219 0 0
214 0 0
217 0 0
217 0 0
216 0 0
213 0 0
219 0 0
212 0 0
214 0 0
217 0 0
215 0 0
220 0 0
218 0 0
222 0 0
214 0 0
217 0 0
216 0 0
217 0 0
215 0 0
217 0 0
219 0 0
213 0 0
220 0 0
221 0 0
215 0 0
219 0 0
217 0 0
215 0 0
218 0 0
217 0 0
216 0 0
222 0 0
218 0 0
219 0 0
220 0 0
216 0 0
217 0 0
219 0 0
217 0 0
213 0 0
220 0 0
219 0 0
217 0 0
220 0 0
219 0 0
218 0 0
217 0 0
219 0 0
219 0 0
217 0 0
220 0 0
218 0 0
221 0 0
220 0 0
217 0 0
213 0 0
219 0 0
221 0 0
218 0 0
220 0 0
219 0 0
219 0 0
218 0 0
217 0 0
215 0 0
223 0 0
220 0 0
218 0 0
221 0 0
221 0 0
0 0 255
0 0 255
0 0 255
0 0 255
0 0 255
0 0 254
0 0 255
0 0 253
0 0 255
0 0 253
0 0 254
0 0 255
0 0 254
0 0 255
0 0 255
0 0 255
0 0 255
0 0 252
0 0 255
0 0 255
0 0 255
0 0 254
0 0 254
0 0 255
0 0 255
0 0 254
0 0 253
0 0 255
0 0 252
0 0 253
0 0 254
0 0 253
0 0 255
0 0 253
0 0 250
0 0 253
0 0 254
0 0 255
0 0 252
0 0 253
0 0 254
0 0 254
0 0 255
0 0 253
0 0 255
0 0 255
0 0 253
0 0 249
0 0 255
0 0 255
0 0 254
0 0 244
0 0 253
0 0 254
0 0 253
0 0 254
0 0 253
0 0 252
0 0 255
0 0 255
0 0 253
0 0 255
0 0 255
0 0 249
0 0 249
0 0 250
0 0 249
0 0 254
0 0 254
0 0 249
0 0 254
0 0 250
0 0 254
0 0 253
0 0 254
0 0 249
0 0 254
0 0 252
0 0 253
0 0 252
0 0 248
0 0 252
0 0 253
0 0 248
0 0 252
0 0 252
0 0 248
0 0 245
0 0 250
0 0 253
0 0 254
0 0 252
0 0 246
0 0 252
0 0 249
0 0 253
0 0 252
0 0 249
0 0 252
0 0 250
0 0 249
0 0 244
0 0 252
0 0 249
0 0 244
0 0 249
0 0 244
0 0 250
0 0 248
0 0 249
0 0 248
0 0 246
0 0 242
0 0 250
0 0 240
0 0 248
0 0 242
0 0 246
0 0 245
0 0 250
0 0 249
0 0 249
0 0 250
0 0 241
0 0 242
0 0 241
0 0 241
0 0 241
0 0 242
0 0 241
0 0 242
0 0 242
0 0 238
0 0 244
0 0 246
0 0 238
0 0 246
0 0 242
0 0 244
0 0 244
0 0 244
0 0 231
0 0 240
0 0 238
0 0 238
0 0 238
0 0 238
0 0 242
0 0 234
0 0 233
0 0 234
0 0 241
0 0 236
0 0 231
0 0 242
0 0 236
0 0 236
0 0 241
0 0 236
0 0 224
0 0 233
0 0 237
0 0 221
0 0 220
0 0 224
0 0 230
0 0 231
0 0 224
0 0 220
0 0 223
0 0 215
0 0 230
0 0 227
0 0 220
0 0 209
0 0 218
0 0 217
0 0 209
0 0 199
0 0 193
0 0 203
0 0 204
0 0 204
0 0 199
0 0 196
0 0 188
0 0 193
0 0 199
0 0 186
0 0 179
0 0 186
0 0 173
0 0 157
0 0 142
0 0 149
0 0 125
0 0 140
0 0 133
157 169 193
216 233 255
216 233 255
153 154 169
91 0 0
109 0 0
109 0 0
119 0 0
122 0 0
122 0 0
138 0 0
143 0 0
136 0 0
152 0 0
156 0 0
158 0 0
170 0 0
164 0 0
168 0 0
171 0 0
168 0 0
168 0 0
180 0 0
179 0 0
178 0 0
178 0 0
168 0 0
184 0 0
185 0 0
185 0 0
187 0 0
184 0 0
195 0 0
192 0 0
177 0 0
193 0 0
197 0 0
187 0 0
194 0 0
195 0 0
195 0 0
190 0 0
185 0 0
206 0 0
198 0 0
184 0 0
205 0 0
190 0 0
205 0 0
199 0 0
193 0 0
200 0 0
209 0 0
204 0 0
203 0 0
202 0 0
202 0 0
214 0 0
210 0 0
211 0 0
208 0 0
200 0 0
201 0 0
208 0 0
204 0 0
204 0 0
208 0 0
214 0 0
207 0 0
209 0 0
206 0 0
200 0 0
207 0 0
215 0 0
210 0 0
217 0 0
211 0 0
214 0 0
209 0 0
211 0 0
208 0 0
211 0 0
212 0 0
214 0 0
216 0 0
215 0 0
215 0 0
213 0 0
212 0 0
215 0 0
211 0 0
209 0 0
212 0 0
211 0 0
212 0 0
211 0 0
217 0 0
212 0 0
212 0 0
220 0 0
213 0 0
220 0 0
218 0 0
208 0 0
215 0 0
213 0 0
218 0 0
211 0 0
216 0 0
213 0 0
219 0 0
213 0 0
216 0 0
214 0 0
217 0 0
218 0 0
216 0 0
218 0 0
212 0 0
215 0 0
216 0 0
218 0 0
215 0 0
216 0 0
216 0 0
219 0 0
216 0 0
216 0 0
215 0 0
219 0 0
213 0 0
214 0 0
217 0 0
219 0 0
210 0 0
218 0 0
217 0 0
216 0 0
218 0 0
214 0 0
219 0 0
216 0 0
217 0 0
217 0 0
215 0 0
214 0 0
217 0 0
216 0 0
220 0 0
217 0 0
218 0 0
218 0 0
217 0 0
218 0 0
218 0 0
216 0 0
219 0 0
220 0 0
214 0 0
215 0 0
219 0 0
218 0 0
215 0 0
219 0 0
221 0 0
218 0 0
221 0 0
218 0 0
220 0 0
219 0 0
216 0 0
223 0 0
219 0 0
218 0 0
220 0 0
219 0 0
219 0 0
218 0 0
219 0 0
220 0 0
219 0 0
221 0 0
218 0 0
219 0 0
220 0 0
218 0 0
218 0 0
222 0 0
222 0 0
220 0 0
217 0 0
217 0 0
218 0 0
217 0 0
216 0 0
222 0 0
218 0 0
220 0 0
220 0 0
216 0 0
217 0 0
220 0 0
0 0 255
0 0 255
0 0 255
0 0 255
0 0 254
0 0 255
0 0 255
0 0 255
0 0 255
0 0 255
0 0 253
0 0 255
0 0 255
0 0 255
0 0 255
0 0 255
0 0 254
0 0 255
0 0 254
0 0 255
0 0 255
0 0 255
0 0 255
0 0 254
0 0 255
0 0 253
0 0 254
0 0 254
0 0 255
0 0 254
0 0 255
0 0 254
0 0 254
0 0 254
0 0 255
0 0 253
0 0 253
0 0 254
0 0 253
0 0 254
0 0 253
0 0 254
0 0 254
0 0 252
0 0 253
0 0 252
0 0 254
0 0 254
0 0 255
0 0 255
0 0 255
0 0 253
0 0 255
0 0 252
0 0 253
0 0 250
0 0 253
0 0 254
0 0 254
0 0 253
0 0 250
0 0 253
0 0 255
0 0 253
0 0 255
0 0 250
0 0 254
0 0 252
0 0 254
0 0 252
0 0 254
0 0 250
0 0 250
0 0 255
0 0 249
0 0 255
0 0 254
0 0 253
0 0 250
0 0 253
0 0 253
0 0 253
0 0 253
0 0 252
0 0 252
0 0 250
0 0 249
0 0 249
0 0 250
0 0 245
0 0 252
0 0 248
0 0 250
0 0 252
0 0 252
0 0 255
0 0 254
0 0 246
0 0 249
0 0 244
0 0 250
0 0 250
0 0 255
0 0 246
0 0 249
0 0 246
0 0 248
0 0 252
0 0 252
0 0 248
0 0 248
0 0 242
0 0 252
0 0 249
0 0 250
0 0 253
0 0 253
0 0 238
0 0 248
0 0 249
0 0 237
0 0 252
0 0 245
0 0 241
0 0 240
0 0 248
0 0 246
0 0 240
0 0 246
0 0 245
0 0 249
0 0 248
0 0 250
0 0 245
0 0 244
0 0 244
0 0 238
0 0 237
0 0 242
0 0 242
0 0 240
0 0 237
0 0 237
0 0 236
0 0 246
0 0 231
0 0 236
0 0 236
0 0 238
0 0 238
0 0 242
0 0 227
0 0 227
0 0 240
0 0 240
0 0 234
0 0 226
0 0 227
0 0 237
0 0 223
0 0 236
0 0 234
0 0 220
0 0 228
0 0 224
0 0 234
0 0 226
0 0 230
0 0 221
0 0 221
0 0 214
0 0 220
0 0 226
0 0 221
0 0 215
0 0 215
0 0 207
0 0 203
0 0 221
0 0 221
0 0 201
0 0 211
0 0 198
0 0 203
0 0 204
0 0 201
0 0 191
0 0 193
0 0 184
0 0 189
0 0 181
0 0 165
0 0 175
0 0 133
0 0 159
0 0 128
0 0 120
0 0 95
104 111 142
217 233 255
217 233 255
127 119 130
66 0 0
92 0 0
97 0 0
140 0 0
134 0 0
129 0 0
147 0 0
131 0 0
134 0 0
158 0 0
157 0 0
157 0 0
160 0 0
165 0 0
165 0 0
173 0 0
176 0 0
165 0 0
180 0 0
174 0 0
175 0 0
176 0 0
187 0 0
181 0 0
186 0 0
187 0 0
197 0 0
194 0 0
198 0 0
196 0 0
199 0 0
195 0 0
188 0 0
193 0 0
195 0 0
187 0 0
199 0 0
196 0 0
193 0 0
197 0 0
195 0 0
202 0 0
201 0 0
194 0 0
206 0 0
188 0 0
208 0 0
206 0 0
191 0 0
206 0 0
201 0 0
209 0 0
203 0 0
211 0 0
209 0 0
208 0 0
209 0 0
209 0 0
205 0 0
201 0 0
210 0 0
209 0 0
207 0 0
208 0 0
207 0 0
212 0 0
205 0 0
207 0 0
212 0 0
206 0 0
205 0 0
213 0 0
204 0 0
207 0 0
209 0 0
213 0 0
210 0 0
211 0 0
211 0 0
211 0 0
211 0 0
211 0 0
217 0 0
220 0 0
210 0 0
211 0 0
217 0 0
218 0 0
215 0 0
212 0 0
208 0 0
208 0 0
209 0 0
210 0 0
212 0 0
215 0 0
213 0 0
212 0 0
216 0 0
216 0 0
214 0 0
207 0 0
212 0 0
220 0 0
209 0 0
210 0 0
218 0 0
220 0 0
217 0 0
215 0 0
217 0 0
217 0 0
213 0 0
219 0 0
217 0 0
212 0 0
215 0 0
216 0 0
218 0 0
216 0 0
215 0 0
215 0 0
212 0 0
217 0 0
219 0 0
219 0 0
215 0 0
215 0 0
217 0 0
222 0 0
217 0 0
216 0 0
217 0 0
218 0 0
216 0 0
218 0 0
219 0 0
215 0 0
220 0 0
220 0 0
217 0 0
220 0 0
214 0 0
220 0 0
218 0 0
219 0 0
217 0 0
216 0 0
219 0 0
220 0 0
218 0 0
216 0 0
222 0 0
217 0 0
221 0 0
215 0 0
218 0 0
221 0 0
214 0 0
217 0 0
219 0 0
216 0 0
213 0 0
217 0 0
219 0 0
217 0 0
218 0 0
223 0 0
219 0 0
221 0 0
216 0 0
217 0 0
215 0 0
221 0 0
216 0 0
218 0 0
218 0 0
221 0 0
220 0 0
218 0 0
219 0 0
218 0 0
220 0 0
220 0 0
220 0 0
221 0 0
219 0 0
220 0 0
221 0 0
220 0 0
221 0 0
218 0 0
221 0 0
220 0 0
219 0 0
218 0 0
214 0 0
219 0 0
0 0 254
0 0 255
0 0 254
0 0 255
0 0 254
0 0 255
0 0 255
0 0 255
0 0 255
0 0 255
0 0 254
0 0 255
0 0 255
0 0 255
0 0 254
0 0 255
0 0 255
0 0 254
0 0 255
0 0 255
0 0 253
0 0 255
0 0 254
0 0 253
0 0 254
0 0 252
0 0 254
0 0 255
0 0 253
0 0 254
0 0 254
0 0 252
0 0 255
0 0 253
0 0 255
0 0 254
0 0 255
0 0 253
0 0 253
0 0 254
0 0 253
0 0 254
0 0 254
0 0 255
0 0 252
0 0 253
0 0 255
0 0 253
0 0 255
0 0 250
0 0 253
0 0 253
0 0 253
0 0 254
0 0 254
0 0 253
0 0 254
0 0 254
0 0 253
0 0 254
0 0 250
0 0 253
0 0 254
0 0 254
0 0 252
0 0 253
0 0 254
0 0 255
0 0 250
0 0 252
0 0 253
0 0 253
0 0 252
0 0 250
0 0 254
0 0 249
0 0 245
0 0 252
0 0 253
0 0 250
0 0 254
0 0 253
0 0 254
0 0 254
0 0 254
0 0 253
0 0 250
0 0 254
0 0 253
0 0 248
0 0 250
0 0 248
0 0 248
0 0 252
0 0 250
0 0 253
0 0 250
0 0 250
0 0 246
0 0 246
0 0 245
0 0 249
0 0 248
0 0 248
0 0 249
0 0 245
0 0 248
0 0 248
0 0 245
0 0 252
0 0 248
0 0 245
0 0 245
0 0 249
0 0 240
0 0 245
0 0 246
0 0 246
0 0 245
0 0 252
0 0 244
0 0 245
0 0 250
0 0 249
0 0 248
0 0 248
0 0 248
0 0 245
0 0 241
0 0 245
0 0 242
0 0 248
0 0 237
0 0 242
0 0 248
0 0 240
0 0 237
0 0 241
0 0 240
0 0 234
0 0 242
0 0 246
0 0 238
0 0 240
0 0 242
0 0 234
0 0 244
0 0 245
0 0 231
0 0 236
0 0 233
0 0 230
0 0 238
0 0 233
0 0 233
0 0 233
0 0 237
0 0 236
0 0 231
0 0 237
0 0 234
0 0 228
0 0 237
0 0 230
0 0 233
0 0 233
0 0 221
0 0 230
0 0 224
0 0 218
0 0 220
0 0 221
0 0 212
0 0 223
0 0 227
0 0 214
0 0 226
0 0 201
0 0 211
0 0 209
0 0 186
0 0 209
0 0 203
0 0 196
0 0 194
0 0 206
0 0 188
0 0 196
0 0 196
0 0 191
0 0 188
0 0 169
0 0 167
0 0 153
0 0 144
0 0 135
0 0 117
0 0 108
48 52 114
216 232 254
217 233 255
93 73 80
73 0 0
111 0 0
104 0 0
110 0 0
116 0 0
143 0 0
144 0 0
148 0 0
156 0 0
159 0 0
159 0 0
167 0 0
167 0 0
172 0 0
173 0 0
158 0 0
174 0 0
169 0 0
178 0 0
176 0 0
178 0 0
184 0 0
185 0 0
190 0 0
185 0 0
190 0 0
193 0 0
193 0 0
186 0 0
188 0 0
188 0 0
194 0 0
195 0 0
187 0 0
200 0 0
202 0 0
193 0 0
198 0 0
191 0 0
196 0 0
195 0 0
204 0 0
201 0 0
202 0 0
207 0 0
201 0 0
203 0 0
202 0 0
212 0 0
199 0 0
200 0 0
211 0 0
203 0 0
201 0 0
202 0 0
204 0 0
209 0 0
203 0 0
202 0 0
198 0 0
207 0 0
207 0 0
200 0 0
204 0 0
212 0 0
210 0 0
209 0 0
218 0 0
201 0 0
210 0 0
211 0 0
211 0 0
210 0 0
209 0 0
216 0 0
212 0 0
219 0 0
214 0 0
215 0 0
214 0 0
212 0 0
213 0 0
215 0 0
212 0 0
220 0 0
220 0 0
212 0 0
215 0 0
206 0 0
211 0 0
215 0 0
215 0 0
214 0 0
215 0 0
208 0 0
211 0 0
221 0 0
211 0 0
211 0 0
218 0 0
218 0 0
215 0 0
213 0 0
215 0 0
207 0 0
218 0 0
215 0 0
219 0 0
215 0 0
217 0 0
209 0 0
220 0 0
213 0 0
214 0 0
211 0 0
216 0 0
214 0 0
216 0 0
215 0 0
215 0 0
213 0 0
222 0 0
219 0 0
217 0 0
217 0 0
218 0 0
219 0 0
218 0 0
218 0 0
218 0 0
213 0 0
216 0 0
217 0 0
211 0 0
213 0 0
215 0 0
218 0 0
216 0 0
217 0 0
220 0 0
217 0 0
219 0 0
222 0 0
218 0 0
215 0 0
216 0 0
217 0 0
219 0 0
220 0 0
219 0 0
222 0 0
221 0 0
218 0 0
219 0 0
224 0 0
218 0 0
213 0 0
218 0 0
218 0 0
216 0 0
218 0 0
219 0 0
220 0 0
221 0 0
219 0 0
220 0 0
218 0 0
218 0 0
219 0 0
219 0 0
221 0 0
220 0 0
221 0 0
221 0 0
218 0 0
219 0 0
219 0 0
218 0 0
220 0 0
222 0 0
216 0 0
218 0 0
222 0 0
223 0 0
219 0 0
221 0 0
219 0 0
220 0 0
217 0 0
218 0 0
220 0 0
220 0 0
218 0 0
218 0 0
221 0 0
215 0 0
220 0 0
219 0 0
0 0 255
0 0 254
0 0 255
0 0 254
0 0 255
0 0 255
0 0 254
0 0 255
0 0 255
0 0 255
0 0 254
0 0 255
0 0 253
0 0 255
0 0 255
0 0 255
0 0 254
0 0 254
0 0 255
0 0 254
0 0 254
0 0 255
0 0 253
0 0 253
0 0 255
0 0 254
0 0 253
0 0 255
0 0 255
0 0 254
0 0 252
0 0 254
0 0 255
0 0 254
0 0 254
0 0 255
0 0 255
0 0 254
0 0 253
0 0 255
0 0 254
0 0 254
0 0 255
0 0 255
0 0 255
0 0 254
0 0 255
0 0 254
0 0 255
0 0 253
0 0 254
0 0 253
0 0 253
0 0 253
0 0 254
0 0 255
0 0 252
0 0 250
0 0 250
0 0 253
0 0 254
0 0 254
0 0 252
0 0 249
0 0 250
0 0 253
0 0 254
0 0 249
0 0 253
0 0 250
0 0 253
0 0 254
0 0 250
0 0 252
0 0 254
0 0 250
0 0 250
0 0 254
0 0 252
0 0 254
0 0 245
0 0 246
0 0 252
0 0 252
0 0 252
0 0 250
0 0 245
0 0 250
0 0 248
0 0 253
0 0 250
0 0 252
0 0 254
0 0 253
0 0 253
0 0 249
0 0 249
0 0 249
0 0 253
0 0 248
0 0 252
0 0 252
0 0 248
0 0 249
0 0 250
0 0 244
0 0 252
0 0 246
0 0 249
0 0 253
0 0 245
0 0 249
0 0 248
0 0 245
0 0 248
0 0 244
0 0 252
0 0 245
0 0 249
0 0 248
0 0 246
0 0 245
0 0 244
0 0 248
0 0 244
0 0 246
0 0 242
0 0 241
0 0 244
0 0 241
0 0 242
0 0 249
0 0 245
0 0 237
0 0 242
0 0 241
0 0 237
0 0 241
0 0 244
0 0 241
0 0 231
0 0 245
0 0 248
0 0 241
0 0 238
0 0 236
0 0 237
0 0 238
0 0 234
0 0 241
0 0 246
0 0 233
0 0 237
0 0 231
0 0 237
0 0 240
0 0 233
0 0 236
0 0 231
0 0 221
0 0 237
0 0 237
0 0 228
0 0 224
0 0 227
0 0 215
0 0 218
0 0 231
0 0 211
0 0 231
0 0 206
0 0 221
0 0 212
0 0 212
0 0 228
0 0 204
0 0 217
0 0 211
0 0 215
0 0 194
0 0 206
0 0 199
0 0 189
0 0 204
0 0 188
0 0 193
0 0 181
0 0 165
0 0 169
0 0 161
0 0 184
0 0 153
0 0 153
0 0 153
0 0 133
0 0 155
0 0 147
0 0 99
0 0 76
212 227 249
209 224 245
77 0 0
96 0 0
98 0 0
108 0 0
134 0 0
121 0 0
119 0 0
144 0 0
144 0 0
152 0 0
153 0 0
155 0 0
145 0 0
154 0 0
160 0 0
165 0 0
178 0 0
174 0 0
181 0 0
173 0 0
177 0 0
181 0 0
185 0 0
195 0 0
181 0 0
180 0 0
186 0 0
190 0 0
187 0 0
184 0 0
189 0 0
190 0 0
191 0 0
202 0 0
185 0 0
195 0 0
195 0 0
193 0 0
197 0 0
190 0 0
199 0 0
203 0 0
198 0 0
207 0 0
198 0 0
207 0 0
204 0 0
204 0 0
207 0 0
199 0 0
202 0 0
204 0 0
206 0 0
209 0 0
206 0 0
206 0 0
203 0 0
206 0 0
201 0 0
206 0 0
204 0 0
203 0 0
198 0 0
207 0 0
202 0 0
213 0 0
208 0 0
206 0 0
207 0 0
211 0 0
202 0 0
208 0 0
214 0 0
215 0 0
215 0 0
202 0 0
216 0 0
215 0 0
213 0 0
211 0 0
212 0 0
212 0 0
213 0 0
212 0 0
213 0 0
214 0 0
214 0 0
214 0 0
215 0 0
206 0 0
217 0 0
215 0 0
211 0 0
212 0 0
213 0 0
219 0 0
216 0 0
216 0 0
211 0 0
219 0 0
215 0 0
212 0 0
218 0 0
212 0 0
216 0 0
218 0 0
216 0 0
219 0 0
221 0 0
218 0 0
209 0 0
216 0 0
216 0 0
218 0 0
213 0 0
215 0 0
216 0 0
216 0 0
222 0 0
216 0 0
214 0 0
218 0 0
216 0 0
219 0 0
215 0 0
216 0 0
219 0 0
220 0 0
213 0 0
221 0 0
213 0 0
217 0 0
222 0 0
216 0 0
218 0 0
216 0 0
211 0 0
215 0 0
215 0 0
219 0 0
215 0 0
216 0 0
214 0 0
219 0 0
216 0 0
217 0 0
219 0 0
218 0 0
216 0 0
219 0 0
216 0 0
213 0 0
216 0 0
217 0 0
220 0 0
221 0 0
217 0 0
217 0 0
218 0 0
218 0 0
220 0 0
220 0 0
219 0 0
219 0 0
220 0 0
215 0 0
219 0 0
223 0 0
222 0 0
219 0 0
222 0 0
222 0 0
216 0 0
219 0 0
218 0 0
217 0 0
216 0 0
215 0 0
221 0 0
215 0 0
221 0 0
218 0 0
221 0 0
221 0 0
218 0 0
217 0 0
219 0 0
222 0 0
215 0 0
219 0 0
221 0 0
216 0 0
222 0 0
216 0 0
219 0 0
220 0 0
219 0 0
219 0 0
222 0 0
0 0 255
0 0 255
0 0 253
0 0 253
0 0 255
0 0 255
0 0 254
0 0 254
0 0 255
0 0 254
0 0 255
0 0 255
0 0 254
0 0 253
0 0 254
0 0 255
0 0 254
0 0 252
0 0 252
0 0 255
0 0 253
0 0 254
0 0 254
0 0 255
0 0 254
0 0 255
0 0 253
0 0 255
0 0 254
0 0 252
0 0 254
0 0 255
0 0 255
0 0 254
0 0 255
0 0 255
0 0 254
0 0 254
0 0 253
0 0 254
0 0 254
0 0 249
0 0 255
0 0 253
0 0 253
0 0 255
0 0 254
0 0 253
0 0 253
0 0 250
0 0 253
0 0 255
0 0 253
0 0 252
0 0 252
0 0 252
0 0 249
0 0 248
0 0 255
0 0 253
0 0 253
0 0 249
0 0 252
0 0 252
0 0 254
0 0 254
0 0 253
0 0 250
0 0 255
0 0 254
0 0 254
0 0 253
0 0 252
0 0 249
0 0 253
0 0 252
0 0 250
0 0 249
0 0 254
0 0 249
0 0 253
0 0 250
0 0 249
0 0 250
0 0 249
0 0 249
0 0 250
0 0 254
0 0 252
0 0 246
0 0 252
0 0 250
0 0 245
0 0 249
0 0 248
0 0 252
0 0 252
0 0 246
0 0 249
0 0 252
0 0 246
0 0 244
0 0 254
0 0 252
0 0 246
0 0 242
0 0 249
0 0 246
0 0 250
0 0 248
0 0 246
0 0 241
0 0 250
0 0 246
0 0 248
0 0 249
0 0 244
0 0 249
0 0 244
0 0 244
0 0 242
0 0 245
0 0 246
0 0 248
0 0 245
0 0 242
0 0 244
0 0 246
0 0 244
0 0 246
0 0 249
0 0 240
0 0 249
0 0 246
0 0 245
0 0 248
0 0 241
0 0 242
0 0 238
0 0 233
0 0 241
0 0 250
0 0 240
0 0 233
0 0 249
0 0 234
0 0 233
0 0 231
0 0 242
0 0 231
0 0 238
0 0 227
0 0 224
0 0 231
0 0 227
0 0 233
0 0 221
0 0 233
0 0 218
0 0 223
0 0 228
0 0 227
0 0 240
0 0 226
0 0 231
0 0 230
0 0 230
0 0 221
0 0 231
0 0 226
0 0 228
0 0 223
0 0 203
0 0 209
0 0 206
0 0 214
0 0 207
0 0 204
0 0 215
0 0 209
0 0 211
0 0 212
0 0 203
0 0 198
0 0 199
0 0 194
0 0 184
0 0 161
0 0 189
0 0 193
0 0 169
0 0 169
0 0 179
0 0 157
0 0 151
0 0 147
0 0 122
0 0 88
0 0 84
187 201 224
183 195 214
74 0 0
90 0 0
98 0 0
112 0 0
130 0 0
122 0 0
137 0 0
142 0 0
144 0 0
137 0 0
137 0 0
159 0 0
170 0 0
156 0 0
162 0 0
164 0 0
164 0 0
180 0 0
171 0 0
182 0 0
181 0 0
183 0 0
173 0 0
189 0 0
191 0 0
186 0 0
183 0 0
186 0 0
187 0 0
197 0 0
191 0 0
192 0 0
193 0 0
193 0 0
190 0 0
179 0 0
197 0 0
204 0 0
201 0 0
211 0 0
202 0 0
198 0 0
203 0 0
201 0 0
193 0 0
209 0 0
207 0 0
201 0 0
201 0 0
201 0 0
195 0 0
198 0 0
198 0 0
201 0 0
209 0 0
205 0 0
205 0 0
207 0 0
208 0 0
206 0 0
207 0 0
210 0 0
216 0 0
213 0 0
204 0 0
207 0 0
209 0 0
201 0 0
207 0 0
214 0 0
205 0 0
205 0 0
214 0 0
203 0 0
206 0 0
213 0 0
212 0 0
209 0 0
206 0 0
214 0 0
209 0 0
208 0 0
212 0 0
214 0 0
217 0 0
213 0 0
212 0 0
215 0 0
217 0 0
217 0 0
210 0 0
211 0 0
211 0 0
211 0 0
217 0 0
212 0 0
216 0 0
213 0 0
215 0 0
220 0 0
217 0 0
217 0 0
214 0 0
215 0 0
215 0 0
219 0 0
210 0 0
221 0 0
213 0 0
216 0 0
216 0 0
210 0 0
216 0 0
213 0 0
218 0 0
212 0 0
213 0 0
216 0 0
221 0 0
222 0 0
216 0 0
223 0 0
216 0 0
217 0 0
208 0 0
216 0 0
221 0 0
218 0 0
218 0 0
214 0 0
221 0 0
218 0 0
219 0 0
217 0 0
219 0 0
216 0 0
220 0 0
218 0 0
220 0 0
217 0 0
222 0 0
212 0 0
222 0 0
223 0 0
218 0 0
217 0 0
221 0 0
219 0 0
219 0 0
216 0 0
214 0 0
217 0 0
218 0 0
220 0 0
219 0 0
219 0 0
217 0 0
217 0 0
220 0 0
220 0 0
222 0 0
218 0 0
217 0 0
219 0 0
218 0 0
217 0 0
220 0 0
216 0 0
224 0 0
218 0 0
222 0 0
216 0 0
217 0 0
222 0 0
221 0 0
218 0 0
219 0 0
222 0 0
223 0 0
218 0 0
224 0 0
220 0 0
218 0 0
219 0 0
219 0 0
219 0 0
217 0 0
220 0 0
219 0 0
219 0 0
219 0 0
217 0 0
221 0 0
217 0 0
219 0 0
219 0 0
219 0 0
218 0 0
224 0 0
0 0 254
0 0 254
0 0 255
0 0 255
0 0 255
0 0 255
0 0 255
0 0 255
0 0 255
0 0 253
0 0 255
0 0 254
0 0 255
0 0 254
0 0 255
0 0 254
0 0 254
0 0 255
0 0 255
0 0 254
0 0 255
0 0 253
0 0 255
0 0 255
0 0 255
0 0 254
0 0 255
0 0 255
0 0 254
0 0 255
0 0 250
0 0 253
0 0 255
0 0 252
0 0 254
0 0 254
0 0 254
0 0 254
0 0 254
0 0 255
0 0 252
0 0 254
0 0 253
0 0 252
0 0 254
0 0 255
0 0 254
0 0 252
0 0 253
0 0 253
0 0 254
0 0 254
0 0 252
0 0 254
0 0 254
0 0 252
0 0 253
0 0 250
0 0 249
0 0 254
0 0 254
0 0 248
0 0 254
0 0 253
0 0 254
0 0 254
0 0 252
0 0 253
0 0 252
0 0 252
0 0 253
0 0 252
0 0 250
0 0 253
0 0 254
0 0 254
0 0 249
0 0 250
0 0 250
0 0 249
0 0 253
0 0 252
0 0 250
0 0 249
0 0 250
0 0 248
0 0 254
0 0 255
0 0 252
0 0 249
0 0 253
0 0 250
0 0 252
0 0 250
0 0 244
0 0 254
0 0 246
0 0 250
0 0 250
0 0 252
0 0 252
0 0 248
0 0 248
0 0 249
0 0 249
0 0 246
0 0 249
0 0 241
0 0 250
0 0 250
0 0 242
0 0 246
0 0 248
0 0 242
0 0 245
0 0 245
0 0 252
0 0 245
0 0 248
0 0 250
0 0 246
0 0 252
0 0 242
0 0 244
0 0 245
0 0 246
0 0 244
0 0 242
0 0 240
0 0 248
0 0 248
0 0 245
0 0 238
0 0 238
0 0 242
0 0 240
0 0 241
0 0 242
0 0 242
0 0 248
0 0 233
0 0 240
0 0 246
0 0 240
0 0 240
0 0 242
0 0 236
0 0 233
0 0 236
0 0 233
0 0 230
0 0 231
0 0 240
0 0 231
0 0 233
0 0 230
0 0 242
0 0 238
0 0 236
0 0 241
0 0 238
0 0 238
0 0 231
0 0 228
0 0 231
0 0 233
0 0 220
0 0 230
0 0 228
0 0 215
0 0 224
0 0 217
0 0 221
0 0 212
0 0 212
0 0 201
0 0 221
0 0 211
0 0 207
0 0 211
0 0 215
0 0 206
0 0 209
0 0 196
0 0 201
0 0 203
0 0 193
0 0 171
0 0 189
0 0 155
0 0 173
0 0 181
0 0 155
0 0 155
0 0 147
0 0 144
0 0 137
0 0 105
0 0 76
166 178 194
166 176 193
46 0 0
60 0 0
87 0 0
123 0 0
115 0 0
117 0 0
132 0 0
136 0 0
152 0 0
159 0 0
158 0 0
156 0 0
163 0 0
155 0 0
160 0 0
155 0 0
162 0 0
180 0 0
183 0 0
190 0 0
168 0 0
185 0 0
185 0 0
179 0 0
183 0 0
189 0 0
188 0 0
189 0 0
186 0 0
197 0 0
191 0 0
192 0 0
189 0 0
193 0 0
187 0 0
195 0 0
184 0 0
203 0 0
203 0 0
202 0 0
192 0 0
200 0 0
202 0 0
200 0 0
196 0 0
188 0 0
196 0 0
203 0 0
204 0 0
200 0 0
201 0 0
204 0 0
212 0 0
201 0 0
196 0 0
204 0 0
209 0 0
209 0 0
202 0 0
208 0 0
214 0 0
208 0 0
206 0 0
202 0 0
209 0 0
212 0 0
209 0 0
211 0 0
204 0 0
208 0 0
209 0 0
211 0 0
214 0 0
211 0 0
212 0 0
207 0 0
204 0 0
211 0 0
214 0 0
214 0 0
209 0 0
215 0 0
215 0 0
214 0 0
216 0 0
212 0 0
212 0 0
214 0 0
207 0 0
214 0 0
215 0 0
214 0 0
210 0 0
222 0 0
213 0 0
216 0 0
218 0 0
214 0 0
207 0 0
211 0 0
216 0 0
216 0 0
208 0 0
213 0 0
211 0 0
219 0 0
213 0 0
216 0 0
220 0 0
215 0 0
213 0 0
217 0 0
217 0 0
221 0 0
216 0 0
218 0 0
216 0 0
218 0 0
221 0 0
216 0 0
214 0 0
216 0 0
215 0 0
211 0 0
220 0 0
218 0 0
211 0 0
221 0 0
216 0 0
213 0 0
218 0 0
217 0 0
214 0 0
215 0 0
215 0 0
221 0 0
216 0 0
215 0 0
224 0 0
219 0 0
223 0 0
219 0 0
218 0 0
215 0 0
219 0 0
216 0 0
219 0 0
216 0 0
217 0 0
216 0 0
219 0 0
219 0 0
217 0 0
218 0 0
221 0 0
220 0 0
212 0 0
219 0 0
219 0 0
222 0 0
216 0 0
219 0 0
218 0 0
218 0 0
218 0 0
218 0 0
219 0 0
216 0 0
220 0 0
221 0 0
220 0 0
221 0 0
222 0 0
218 0 0
220 0 0
218 0 0
220 0 0
216 0 0
220 0 0
222 0 0
220 0 0
220 0 0
216 0 0
220 0 0
222 0 0
219 0 0
217 0 0
219 0 0
221 0 0
219 0 0
216 0 0
219 0 0
217 0 0
222 0 0
217 0 0
221 0 0
222 0 0
219 0 0
219 0 0
0 0 255
0 0 255
0 0 255
0 0 254
0 0 255
0 0 254
0 0 254
0 0 254
0 0 255
0 0 255
0 0 255
0 0 254
0 0 254
0 0 252
0 0 254
0 0 255
0 0 255
0 0 253
0 0 255
0 0 254
0 0 255
0 0 255
0 0 253
0 0 254
0 0 255
0 0 255
0 0 255
0 0 254
0 0 253
0 0 250
0 0 255
0 0 253
0 0 255
0 0 254
0 0 255
0 0 249
0 0 255
0 0 254
0 0 255
0 0 254
0 0 252
0 0 253
0 0 254
0 0 255
0 0 254
0 0 254
0 0 255
0 0 254
0 0 250
0 0 253
0 0 253
0 0 255
0 0 255
0 0 254
0 0 254
0 0 253
0 0 249
0 0 255
0 0 254
0 0 249
0 0 252
0 0 252
0 0 252
0 0 253
0 0 249
0 0 254
0 0 250
0 0 250
0 0 254
0 0 254
0 0 253
0 0 253
0 0 252
0 0 254
0 0 253
0 0 250
0 0 254
0 0 250
0 0 252
0 0 254
0 0 252
0 0 248
0 0 250
0 0 252
0 0 252
0 0 253
0 0 250
0 0 248
0 0 248
0 0 249
0 0 248
0 0 252
0 0 252
0 0 249
0 0 253
0 0 248
0 0 249
0 0 250
0 0 245
0 0 252
0 0 248
0 0 253
0 0 250
0 0 250
0 0 245
0 0 248
0 0 250
0 0 245
0 0 250
0 0 252
0 0 245
0 0 249
0 0 246
0 0 248
0 0 252
0 0 248
0 0 246
0 0 249
0 0 246
0 0 252
0 0 248
0 0 249
0 0 241
0 0 246
0 0 240
0 0 242
0 0 250
0 0 250
0 0 252
0 0 245
0 0 246
0 0 244
0 0 240
0 0 242
0 0 241
0 0 246
0 0 244
0 0 237
0 0 241
0 0 233
0 0 238
0 0 233
0 0 246
0 0 245
0 0 240
0 0 220
0 0 237
0 0 244
0 0 242
0 0 230
0 0 230
0 0 240
0 0 224
0 0 228
0 0 231
0 0 227
0 0 227
0 0 228
0 0 230
0 0 228
0 0 236
0 0 233
0 0 228
0 0 226
0 0 218
0 0 218
0 0 227
0 0 227
0 0 220
0 0 217
0 0 221
0 0 227
0 0 227
0 0 224
0 0 215
0 0 203
0 0 206
0 0 206
0 0 211
0 0 204
0 0 204
0 0 189
0 0 201
0 0 204
0 0 188
0 0 186
0 0 196
0 0 207
0 0 175
0 0 171
0 0 169
0 0 167
0 0 165
0 0 133
0 0 155
0 0 137
0 0 135
0 0 108
0 0 95
159 170 194
166 175 191
86 0 0
93 0 0
88 0 0
122 0 0
130 0 0
125 0 0
136 0 0
138 0 0
133 0 0
142 0 0
162 0 0
175 0 0
166 0 0
159 0 0
156 0 0
162 0 0
173 0 0
178 0 0
168 0 0
190 0 0
169 0 0
183 0 0
178 0 0
181 0 0
183 0 0
174 0 0
186 0 0
195 0 0
187 0 0
188 0 0
192 0 0
182 0 0
192 0 0
198 0 0
195 0 0
191 0 0
191 0 0
191 0 0
195 0 0
200 0 0
203 0 0
202 0 0
205 0 0
205 0 0
195 0 0
196 0 0
196 0 0
198 0 0
208 0 0
206 0 0
202 0 0
205 0 0
199 0 0
206 0 0
208 0 0
210 0 0
204 0 0
207 0 0
210 0 0
208 0 0
203 0 0
210 0 0
206 0 0
210 0 0
205 0 0
215 0 0
206 0 0
212 0 0
213 0 0
207 0 0
211 0 0
210 0 0
214 0 0
206 0 0
205 0 0
214 0 0
218 0 0
213 0 0
212 0 0
210 0 0
215 0 0
216 0 0
211 0 0
215 0 0
211 0 0
219 0 0
211 0 0
209 0 0
211 0 0
215 0 0
215 0 0
213 0 0
215 0 0
215 0 0
212 0 0
214 0 0
215 0 0
220 0 0
215 0 0
216 0 0
207 0 0
212 0 0
217 0 0
217 0 0
214 0 0
219 0 0
221 0 0
218 0 0
218 0 0
215 0 0
221 0 0
217 0 0
215 0 0
213 0 0
221 0 0
219 0 0
212 0 0
216 0 0
217 0 0
213 0 0
213 0 0
216 0 0
216 0 0
216 0 0
219 0 0
217 0 0
221 0 0
220 0 0
215 0 0
216 0 0
221 0 0
218 0 0
211 0 0
214 0 0
218 0 0
219 0 0
217 0 0
220 0 0
220 0 0
217 0 0
220 0 0
218 0 0
216 0 0
220 0 0
219 0 0
218 0 0
215 0 0
218 0 0
218 0 0
216 0 0
212 0 0
217 0 0
219 0 0
219 0 0
220 0 0
217 0 0
220 0 0
218 0 0
217 0 0
216 0 0
219 0 0
220 0 0
221 0 0
216 0 0
224 0 0
220 0 0
221 0 0
217 0 0
225 0 0
218 0 0
216 0 0
223 0 0
221 0 0
218 0 0
220 0 0
222 0 0
217 0 0
220 0 0
223 0 0
223 0 0
218 0 0
222 0 0
222 0 0
221 0 0
219 0 0
219 0 0
221 0 0
222 0 0
219 0 0
220 0 0
218 0 0
221 0 0
219 0 0
219 0 0
224 0 0
218 0 0
219 0 0
217 0 0
218 0 0
0 0 255
0 0 255
0 0 255
0 0 254
0 0 255
0 0 255
0 0 255
0 0 255
0 0 254
0 0 255
0 0 255
0 0 255
0 0 255
0 0 255
0 0 255
0 0 255
0 0 254
0 0 250
0 0 253
0 0 253
0 0 253
0 0 255
0 0 255
0 0 253
0 0 252
0 0 255
0 0 253
0 0 253
0 0 255
0 0 255
0 0 254
0 0 253
0 0 254
0 0 255
0 0 254
0 0 255
0 0 255
0 0 253
0 0 253
0 0 255
0 0 255
0 0 255
0 0 255
0 0 254
0 0 255
0 0 254
0 0 254
0 0 254
0 0 253
0 0 255
0 0 252
0 0 253
0 0 255
0 0 254
0 0 252
0 0 253
0 0 253
0 0 254
0 0 255
0 0 253
0 0 249
0 0 253
0 0 254
0 0 253
0 0 254
0 0 252
0 0 252
0 0 253
0 0 252
0 0 254
0 0 254
0 0 252
0 0 250
0 0 253
0 0 250
0 0 253
0 0 255
0 0 254
0 0 252
0 0 254
0 0 253
0 0 253
0 0 253
0 0 250
0 0 252
0 0 249
0 0 252
0 0 253
0 0 246
0 0 250
0 0 249
0 0 252
0 0 245
0 0 250
0 0 246
0 0 252
0 0 249
0 0 245
0 0 253
0 0 252
0 0 248
0 0 252
0 0 248
0 0 249
0 0 249
0 0 246
0 0 249
0 0 246
0 0 249
0 0 245
0 0 246
0 0 253
0 0 242
0 0 252
0 0 250
0 0 248
0 0 248
0 0 249
0 0 249
0 0 242
0 0 245
0 0 248
0 0 248
0 0 244
0 0 246
0 0 245
0 0 248
0 0 249
0 0 245
0 0 249
0 0 238
0 0 248
0 0 245
0 0 242
0 0 244
0 0 236
0 0 240
0 0 233
0 0 245
0 0 238
0 0 238
0 0 236
0 0 246
0 0 231
0 0 244
0 0 234
0 0 238
0 0 246
0 0 240
0 0 228
0 0 240
0 0 238
0 0 233
0 0 231
0 0 226
0 0 231
0 0 237
0 0 238
0 0 238
0 0 234
0 0 227
0 0 234
0 0 236
0 0 227
0 0 237
0 0 220
0 0 220
0 0 217
0 0 218
0 0 224
0 0 218
0 0 215
0 0 227
0 0 218
0 0 214
0 0 215
0 0 211
0 0 215
0 0 212
0 0 211
0 0 215
0 0 203
0 0 209
0 0 189
0 0 199
0 0 209
0 0 189
0 0 191
0 0 171
0 0 188
0 0 171
0 0 171
0 0 157
0 0 153
0 0 130
0 0 142
0 0 135
0 0 102
0 0 76
127 136 149
152 160 175
75 0 0
89 0 0
113 0 0
111 0 0
117 0 0
138 0 0
132 0 0
133 0 0
124 0 0
156 0 0
157 0 0
139 0 0
162 0 0
169 0 0
154 0 0
162 0 0
176 0 0
175 0 0
174 0 0
175 0 0
191 0 0
172 0 0
189 0 0
176 0 0
195 0 0
193 0 0
189 0 0
199 0 0
193 0 0
187 0 0
190 0 0
186 0 0
183 0 0
199 0 0
202 0 0
198 0 0
201 0 0
201 0 0
198 0 0
203 0 0
203 0 0
197 0 0
196 0 0
203 0 0
206 0 0
206 0 0
198 0 0
198 0 0
196 0 0
192 0 0
207 0 0
207 0 0
200 0 0
204 0 0
210 0 0
213 0 0
203 0 0
206 0 0
204 0 0
214 0 0
200 0 0
205 0 0
209 0 0
206 0 0
207 0 0
216 0 0
205 0 0
204 0 0
213 0 0
204 0 0
210 0 0
211 0 0
205 0 0
220 0 0
213 0 0
215 0 0
214 0 0
208 0 0
216 0 0
214 0 0
211 0 0
209 0 0
209 0 0
217 0 0
218 0 0
211 0 0
207 0 0
212 0 0
219 0 0
213 0 0
212 0 0
214 0 0
213 0 0
216 0 0
214 0 0
211 0 0
213 0 0
217 0 0
212 0 0
223 0 0
214 0 0
216 0 0
218 0 0
217 0 0
208 0 0
210 0 0
216 0 0
219 0 0
215 0 0
209 0 0
217 0 0
218 0 0
217 0 0
219 0 0
211 0 0
214 0 0
217 0 0
214 0 0
219 0 0
219 0 0
212 0 0
218 0 0
218 0 0
216 0 0
218 0 0
217 0 0
214 0 0
212 0 0
216 0 0
218 0 0
218 0 0
220 0 0
217 0 0
216 0 0
218 0 0
215 0 0
216 0 0
218 0 0
220 0 0
216 0 0
218 0 0
222 0 0
218 0 0
219 0 0
217 0 0
218 0 0
219 0 0
222 0 0
216 0 0
220 0 0
219 0 0
217 0 0
217 0 0
217 0 0
221 0 0
219 0 0
222 0 0
219 0 0
220 0 0
222 0 0
225 0 0
220 0 0
221 0 0
220 0 0
218 0 0
218 0 0
219 0 0
219 0 0
222 0 0
220 0 0
217 0 0
219 0 0
217 0 0
219 0 0
216 0 0
221 0 0
221 0 0
222 0 0
223 0 0
220 0 0
219 0 0
218 0 0
217 0 0
220 0 0
216 0 0
215 0 0
217 0 0
217 0 0
223 0 0
222 0 0
218 0 0
217 0 0
220 0 0
222 0 0
223 0 0
217 0 0
215 0 0
223 0 0
219 0 0
0 0 254
0 0 255
0 0 254
0 0 253
0 0 254
0 0 255
0 0 253
0 0 255
0 0 255
0 0 255
0 0 255
0 0 253
0 0 255
0 0 254
0 0 253
0 0 254
0 0 254
0 0 255
0 0 254
0 0 255
0 0 253
0 0 255
0 0 254
0 0 255
0 0 255
0 0 255
0 0 254
0 0 255
0 0 253
0 0 254
0 0 254
0 0 253
0 0 252
0 0 254
0 0 254
0 0 255
0 0 253
0 0 253
0 0 255
0 0 254
0 0 252
0 0 254
0 0 252
0 0 253
0 0 254
0 0 254
0 0 252
0 0 253
0 0 252
0 0 252
0 0 253
0 0 254
0 0 254
0 0 254
0 0 253
0 0 252
0 0 255
0 0 252
0 0 252
0 0 254
0 0 253
0 0 252
0 0 254
0 0 249
0 0 253
0 0 253
0 0 254
0 0 255
0 0 252
0 0 253
0 0 250
0 0 253
0 0 250
0 0 253
0 0 249
0 0 254
0 0 246
0 0 254
0 0 250
0 0 249
0 0 254
0 0 250
0 0 253
0 0 255
0 0 249
0 0 253
0 0 250
0 0 250
0 0 250
0 0 253
0 0 252
0 0 250
0 0 253
0 0 250
0 0 250
0 0 253
0 0 246
0 0 250
0 0 249
0 0 253
0 0 254
0 0 252
0 0 248
0 0 248
0 0 246
0 0 249
0 0 249
0 0 249
0 0 252
0 0 252
0 0 249
0 0 246
0 0 250
0 0 249
0 0 250
0 0 245
0 0 245
0 0 248
0 0 248
0 0 245
0 0 244
0 0 245
0 0 250
0 0 249
0 0 245
0 0 237
0 0 250
0 0 249
0 0 249
0 0 237
0 0 248
0 0 240
0 0 250
0 0 244
0 0 246
0 0 248
0 0 242
0 0 240
0 0 242
0 0 245
0 0 236
0 0 245
0 0 244
0 0 244
0 0 227
0 0 237
0 0 248
0 0 237
0 0 234
0 0 233
0 0 230
0 0 230
0 0 236
0 0 227
0 0 226
0 0 230
0 0 227
0 0 234
0 0 218
0 0 228
0 0 233
0 0 231
0 0 218
0 0 228
0 0 221
0 0 233
0 0 221
0 0 223
0 0 223
0 0 224
0 0 220
0 0 224
0 0 223
0 0 212
0 0 223
0 0 206
0 0 214
0 0 217
0 0 201
0 0 206
0 0 211
0 0 211
0 0 203
0 0 204
0 0 196
0 0 198
0 0 188
0 0 177
0 0 175
0 0 177
0 0 182
0 0 165
0 0 155
0 0 144
0 0 149
0 0 114
0 0 130
0 0 108
0 0 88
124 132 159
125 130 142
75 0 0
109 0 0
123 0 0
113 0 0
124 0 0
137 0 0
143 0 0
157 0 0
149 0 0
147 0 0
145 0 0
158 0 0
166 0 0
171 0 0
162 0 0
157 0 0
161 0 0
179 0 0
183 0 0
184 0 0
187 0 0
179 0 0
174 0 0
184 0 0
184 0 0
180 0 0
185 0 0
192 0 0
182 0 0
186 0 0
186 0 0
191 0 0
186 0 0
192 0 0
199 0 0
198 0 0
194 0 0
189 0 0
200 0 0
194 0 0
200 0 0
199 0 0
203 0 0
202 0 0
207 0 0
202 0 0
204 0 0
198 0 0
199 0 0
200 0 0
203 0 0
203 0 0
208 0 0
197 0 0
209 0 0
208 0 0
211 0 0
206 0 0
208 0 0
199 0 0
203 0 0
205 0 0
208 0 0
212 0 0
209 0 0
203 0 0
207 0 0
207 0 0
207 0 0
212 0 0
211 0 0
201 0 0
211 0 0
205 0 0
213 0 0
213 0 0
210 0 0
209 0 0
202 0 0
210 0 0
214 0 0
212 0 0
216 0 0
212 0 0
218 0 0
211 0 0
216 0 0
213 0 0
217 0 0
210 0 0
215 0 0
210 0 0
214 0 0
217 0 0
213 0 0
218 0 0
213 0 0
218 0 0
214 0 0
216 0 0
219 0 0
219 0 0
218 0 0
216 0 0
214 0 0
217 0 0
216 0 0
214 0 0
221 0 0
214 0 0
215 0 0
212 0 0
219 0 0
213 0 0
218 0 0
217 0 0
217 0 0
217 0 0
216 0 0
214 0 0
216 0 0
216 0 0
217 0 0
213 0 0
218 0 0
212 0 0
218 0 0
219 0 0
217 0 0
214 0 0
213 0 0
222 0 0
217 0 0
218 0 0
217 0 0
217 0 0
215 0 0
219 0 0
221 0 0
214 0 0
216 0 0
217 0 0
219 0 0
222 0 0
221 0 0
221 0 0
216 0 0
221 0 0
217 0 0
221 0 0
216 0 0
216 0 0
217 0 0
223 0 0
218 0 0
219 0 0
217 0 0
217 0 0
218 0 0
220 0 0
220 0 0
222 0 0
220 0 0
223 0 0
221 0 0
218 0 0
219 0 0
219 0 0
223 0 0
221 0 0
219 0 0
222 0 0
220 0 0
220 0 0
220 0 0
215 0 0
218 0 0
227 0 0
217 0 0
219 0 0
220 0 0
224 0 0
217 0 0
220 0 0
219 0 0
220 0 0
215 0 0
217 0 0
218 0 0
220 0 0
218 0 0
217 0 0
223 0 0
217 0 0
219 0 0
216 0 0
223 0 0
222 0 0
220 0 0
0 0 253
0 0 255
0 0 254
0 0 255
0 0 254
0 0 255
0 0 254
0 0 254
0 0 255
0 0 254
0 0 255
0 0 254
0 0 254
0 0 255
0 0 255
0 0 255
0 0 253
0 0 254
0 0 255
0 0 255
0 0 255
0 0 255
0 0 253
0 0 253
0 0 255
0 0 254
0 0 255
0 0 255
0 0 255
0 0 254
0 0 255
0 0 253
0 0 253
0 0 253
0 0 254
0 0 252
0 0 254
0 0 255
0 0 255
0 0 254
0 0 250
0 0 253
0 0 254
0 0 255
0 0 254
0 0 253
0 0 253
0 0 255
0 0 252
0 0 254
0 0 253
0 0 254
0 0 255
0 0 253
0 0 253
0 0 253
0 0 254
0 0 254
0 0 252
0 0 249
0 0 254
0 0 253
0 0 252
0 0 254
0 0 255
0 0 253
0 0 253
0 0 252
0 0 253
0 0 253
0 0 253
0 0 255
0 0 249
0 0 255
0 0 253
0 0 252
0 0 252
0 0 252
0 0 254
0 0 250
0 0 252
0 0 252
0 0 252
0 0 252
0 0 242
0 0 250
0 0 250
0 0 248
0 0 253
0 0 253
0 0 250
0 0 248
0 0 250
0 0 249
0 0 248
0 0 249
0 0 252
0 0 252
0 0 250
0 0 252
0 0 250
0 0 252
0 0 242
0 0 252
0 0 250
0 0 249
0 0 248
0 0 249
0 0 248
0 0 248
0 0 246
0 0 246
0 0 248
0 0 246
0 0 250
0 0 249
0 0 250
0 0 245
0 0 242
0 0 241
0 0 245
0 0 249
0 0 246
0 0 249
0 0 240
0 0 248
0 0 249
0 0 245
0 0 249
0 0 250
0 0 241
0 0 245
0 0 245
0 0 228
0 0 245
0 0 237
0 0 240
0 0 241
0 0 238
0 0 238
0 0 238
0 0 233
0 0 240
0 0 238
0 0 240
0 0 242
0 0 240
0 0 238
0 0 237
0 0 237
0 0 237
0 0 233
0 0 234
0 0 233
0 0 248
0 0 230
0 0 236
0 0 236
0 0 228
0 0 231
0 0 231
0 0 228
0 0 218
0 0 224
0 0 223
0 0 231
0 0 227
0 0 228
0 0 214
0 0 214
0 0 220
0 0 215
0 0 215
0 0 223
0 0 215
0 0 214
0 0 214
0 0 215
0 0 217
0 0 206
0 0 199
0 0 198
0 0 207
0 0 206
0 0 194
0 0 194
0 0 191
0 0 184
0 0 173
0 0 165
0 0 161
0 0 165
0 0 151
0 0 153
0 0 161
0 0 135
0 0 149
0 0 108
0 0 102
112 119 144
108 110 120
74 0 0
100 0 0
113 0 0
120 0 0
114 0 0
140 0 0
135 0 0
145 0 0
148 0 0
154 0 0
156 0 0
153 0 0
160 0 0
160 0 0
167 0 0
181 0 0
179 0 0
181 0 0
178 0 0
184 0 0
174 0 0
184 0 0
182 0 0
198 0 0
186 0 0
186 0 0
197 0 0
189 0 0
190 0 0
192 0 0
195 0 0
189 0 0
189 0 0
201 0 0
195 0 0
202 0 0
197 0 0
203 0 0
197 0 0
203 0 0
202 0 0
203 0 0
198 0 0
203 0 0
203 0 0
202 0 0
203 0 0
197 0 0
203 0 0
204 0 0
200 0 0
211 0 0
212 0 0
199 0 0
211 0 0
206 0 0
203 0 0
214 0 0
209 0 0
207 0 0
204 0 0
201 0 0
209 0 0
205 0 0
199 0 0
215 0 0
208 0 0
210 0 0
213 0 0
213 0 0
212 0 0
202 0 0
202 0 0
213 0 0
217 0 0
208 0 0
213 0 0
215 0 0
212 0 0
210 0 0
207 0 0
217 0 0
215 0 0
215 0 0
208 0 0
221 0 0
216 0 0
211 0 0
210 0 0
213 0 0
213 0 0
216 0 0
212 0 0
224 0 0
216 0 0
213 0 0
216 0 0
215 0 0
217 0 0
220 0 0
211 0 0
210 0 0
210 0 0
214 0 0
218 0 0
218 0 0
220 0 0
218 0 0
219 0 0
222 0 0
219 0 0
215 0 0
219 0 0
215 0 0
216 0 0
212 0 0
219 0 0
215 0 0
219 0 0
217 0 0
216 0 0
220 0 0
220 0 0
216 0 0
221 0 0
219 0 0
215 0 0
216 0 0
221 0 0
221 0 0
212 0 0
215 0 0
215 0 0
217 0 0
218 0 0
215 0 0
220 0 0
216 0 0
221 0 0
217 0 0
218 0 0
217 0 0
218 0 0
221 0 0
216 0 0
216 0 0
217 0 0
218 0 0
219 0 0
218 0 0
219 0 0
222 0 0
221 0 0
216 0 0
218 0 0
218 0 0
217 0 0
220 0 0
219 0 0
225 0 0
219 0 0
221 0 0
217 0 0
221 0 0
220 0 0
222 0 0
219 0 0
221 0 0
218 0 0
222 0 0
217 0 0
221 0 0
220 0 0
223 0 0
219 0 0
219 0 0
221 0 0
220 0 0
219 0 0
223 0 0
221 0 0
215 0 0
221 0 0
221 0 0
222 0 0
217 0 0
217 0 0
216 0 0
221 0 0
215 0 0
217 0 0
219 0 0
221 0 0
217 0 0
222 0 0
221 0 0
219 0 0
220 0 0
222 0 0
0 0 255
0 0 255
0 0 253
0 0 254
0 0 255
0 0 253
0 0 255
0 0 254
0 0 255
0 0 255
0 0 254
0 0 255
0 0 255
0 0 255
0 0 255
0 0 254
0 0 255
0 0 255
0 0 254
0 0 254
0 0 254
0 0 255
0 0 255
0 0 255
0 0 253
0 0 254
0 0 254
0 0 254
0 0 254
0 0 255
0 0 255
0 0 252
0 0 255
0 0 249
0 0 253
0 0 253
0 0 254
0 0 253
0 0 255
0 0 252
0 0 254
0 0 250
0 0 255
0 0 255
0 0 253
0 0 254
0 0 254
0 0 255
0 0 250
0 0 253
0 0 253
0 0 255
0 0 253
0 0 249
0 0 255
0 0 252
0 0 253
0 0 255
0 0 254
0 0 254
0 0 254
0 0 255
0 0 254
0 0 252
0 0 250
0 0 253
0 0 253
0 0 253
0 0 252
0 0 250
0 0 254
0 0 252
0 0 249
0 0 252
0 0 249
0 0 250
0 0 255
0 0 248
0 0 249
0 0 249
0 0 253
0 0 252
0 0 253
0 0 249
0 0 253
0 0 254
0 0 248
0 0 252
0 0 252
0 0 250
0 0 253
0 0 253
0 0 250
0 0 252
0 0 242
0 0 253
0 0 254
0 0 252
0 0 246
0 0 248
0 0 245
0 0 246
0 0 248
0 0 254
0 0 250
0 0 252
0 0 246
0 0 246
0 0 249
0 0 244
0 0 249
0 0 245
0 0 244
0 0 248
0 0 244
0 0 246
0 0 245
0 0 246
0 0 245
0 0 240
0 0 246
0 0 248
0 0 244
0 0 246
0 0 246
0 0 244
0 0 244
0 0 242
0 0 240
0 0 244
0 0 242
0 0 244
0 0 244
0 0 246
0 0 241
0 0 242
0 0 233
0 0 246
0 0 226
0 0 246
0 0 234
0 0 246
0 0 248
0 0 236
0 0 231
0 0 242
0 0 240
0 0 237
0 0 236
0 0 240
0 0 234
0 0 240
0 0 231
0 0 233
0 0 231
0 0 238
0 0 238
0 0 231
0 0 230
0 0 233
0 0 226
0 0 231
0 0 236
0 0 233
0 0 224
0 0 236
0 0 223
0 0 220
0 0 227
0 0 218
0 0 221
0 0 214
0 0 212
0 0 215
0 0 214
0 0 220
0 0 212
0 0 209
0 0 203
0 0 209
0 0 211
0 0 212
0 0 199
0 0 199
0 0 186
0 0 175
0 0 189
0 0 182
0 0 188
0 0 184
0 0 165
0 0 179
0 0 165
0 0 147
0 0 153
0 0 144
0 0 122
0 0 120
0 0 92
107 115 137
117 110 120
69 0 0
72 0 0
97 0 0
119 0 0
137 0 0
135 0 0
143 0 0
149 0 0
134 0 0
140 0 0
149 0 0
168 0 0
151 0 0
183 0 0
165 0 0
173 0 0
167 0 0
169 0 0
163 0 0
173 0 0
186 0 0
182 0 0
168 0 0
180 0 0
185 0 0
187 0 0
196 0 0
195 0 0
190 0 0
194 0 0
197 0 0
195 0 0
195 0 0
194 0 0
201 0 0
203 0 0
196 0 0
195 0 0
191 0 0
204 0 0
197 0 0
205 0 0
200 0 0
205 0 0
208 0 0
200 0 0
210 0 0
196 0 0
208 0 0
202 0 0
212 0 0
204 0 0
208 0 0
202 0 0
209 0 0
212 0 0
204 0 0
197 0 0
211 0 0
206 0 0
208 0 0
217 0 0
212 0 0
197 0 0
210 0 0
201 0 0
211 0 0
207 0 0
210 0 0
213 0 0
209 0 0
218 0 0
207 0 0
215 0 0
214 0 0
209 0 0
214 0 0
211 0 0
208 0 0
212 0 0
210 0 0
207 0 0
215 0 0
215 0 0
216 0 0
208 0 0
221 0 0
216 0 0
210 0 0
213 0 0
218 0 0
215 0 0
213 0 0
211 0 0
214 0 0
214 0 0
213 0 0
213 0 0
212 0 0
212 0 0
218 0 0
215 0 0
211 0 0
215 0 0
220 0 0
216 0 0
216 0 0
219 0 0
217 0 0
218 0 0
219 0 0
212 0 0
220 0 0
219 0 0
213 0 0
219 0 0
217 0 0
214 0 0
219 0 0
217 0 0
222 0 0
218 0 0
217 0 0
218 0 0
217 0 0
213 0 0
217 0 0
223 0 0
214 0 0
221 0 0
219 0 0
217 0 0
213 0 0
220 0 0
217 0 0
216 0 0
216 0 0
222 0 0
221 0 0
215 0 0
216 0 0
221 0 0
224 0 0
219 0 0
221 0 0
221 0 0
217 0 0
221 0 0
214 0 0
220 0 0
219 0 0
221 0 0
218 0 0
217 0 0
222 0 0
218 0 0
221 0 0
219 0 0
219 0 0
219 0 0
218 0 0
214 0 0
217 0 0
219 0 0
222 0 0
221 0 0
219 0 0
217 0 0
219 0 0
221 0 0
216 0 0
222 0 0
219 0 0
216 0 0
220 0 0
221 0 0
220 0 0
217 0 0
220 0 0
212 0 0
219 0 0
219 0 0
220 0 0
220 0 0
220 0 0
224 0 0
218 0 0
223 0 0
219 0 0
220 0 0
224 0 0
216 0 0
223 0 0
217 0 0
217 0 0
222 0 0
220 0 0
221 0 0
221 0 0
0 0 255
0 0 255
0 0 255
0 0 255
0 0 255
0 0 253
0 0 253
0 0 254
0 0 254
0 0 255
0 0 254
0 0 255
0 0 255
0 0 254
0 0 255
0 0 255
0 0 253
0 0 253
0 0 255
0 0 255
0 0 254
0 0 255
0 0 253
0 0 255
0 0 252
0 0 255
0 0 253
0 0 255
0 0 253
0 0 255
0 0 253
0 0 254
0 0 254
0 0 253
0 0 255
0 0 253
0 0 255
0 0 253
0 0 254
0 0 254
0 0 252
0 0 253
0 0 255
0 0 252
0 0 255
0 0 252
0 0 254
0 0 254
0 0 253
0 0 252
0 0 255
0 0 252
0 0 254
0 0 254
0 0 253
0 0 253
0 0 255
0 0 253
0 0 255
0 0 255
0 0 249
0 0 252
0 0 252
0 0 252
0 0 252
0 0 254
0 0 254
0 0 252
0 0 248
0 0 253
0 0 254
0 0 253
0 0 248
0 0 253
0 0 249
0 0 248
0 0 250
0 0 255
0 0 253
0 0 250
0 0 253
0 0 248
0 0 254
0 0 250
0 0 255
0 0 252
0 0 252
0 0 254
0 0 254
0 0 249
0 0 250
0 0 249
0 0 249
0 0 253
0 0 250
0 0 248
0 0 253
0 0 253
0 0 246
0 0 249
0 0 244
0 0 249
0 0 250
0 0 249
0 0 248
0 0 246
0 0 248
0 0 249
0 0 248
0 0 249
0 0 248
0 0 242
0 0 250
0 0 244
0 0 241
0 0 241
0 0 241
0 0 245
0 0 246
0 0 244
0 0 242
0 0 249
0 0 244
0 0 246
0 0 249
0 0 245
0 0 242
0 0 242
0 0 231
0 0 244
0 0 241
0 0 244
0 0 238
0 0 240
0 0 248
0 0 248
0 0 242
0 0 241
0 0 244
0 0 242
0 0 236
0 0 237
0 0 240
0 0 234
0 0 241
0 0 236
0 0 245
0 0 233
0 0 228
0 0 237
0 0 236
0 0 233
0 0 234
0 0 228
0 0 238
0 0 227
0 0 231
0 0 226
0 0 236
0 0 233
0 0 228
0 0 226
0 0 226
0 0 228
0 0 233
0 0 221
0 0 228
0 0 226
0 0 224
0 0 226
0 0 218
0 0 217
0 0 206
0 0 220
0 0 211
0 0 224
0 0 228
0 0 211
0 0 211
0 0 212
0 0 218
0 0 199
0 0 218
0 0 193
0 0 189
0 0 189
0 0 184
0 0 175
0 0 175
0 0 182
0 0 161
0 0 169
0 0 173
0 0 151
0 0 169
0 0 133
0 0 117
0 0 105
0 0 102
73 78 95
79 81 88
82 0 0
105 0 0
105 0 0
119 0 0
131 0 0
132 0 0
134 0 0
144 0 0
154 0 0
155 0 0
150 0 0
146 0 0
165 0 0
162 0 0
168 0 0
176 0 0
180 0 0
177 0 0
175 0 0
173 0 0
160 0 0
176 0 0
191 0 0
187 0 0
188 0 0
181 0 0
189 0 0
190 0 0
190 0 0
184 0 0
183 0 0
202 0 0
197 0 0
197 0 0
197 0 0
186 0 0
190 0 0
203 0 0
193 0 0
203 0 0
200 0 0
197 0 0
197 0 0
196 0 0
207 0 0
197 0 0
195 0 0
203 0 0
206 0 0
207 0 0
212 0 0
206 0 0
211 0 0
208 0 0
204 0 0
206 0 0
210 0 0
212 0 0
212 0 0
208 0 0
208 0 0
208 0 0
212 0 0
207 0 0
210 0 0
216 0 0
203 0 0
209 0 0
213 0 0
214 0 0
209 0 0
211 0 0
207 0 0
209 0 0
209 0 0
216 0 0
213 0 0
218 0 0
210 0 0
209 0 0
207 0 0
216 0 0
215 0 0
212 0 0
215 0 0
213 0 0
211 0 0
212 0 0
214 0 0
214 0 0
213 0 0
216 0 0
213 0 0
215 0 0
218 0 0
214 0 0
215 0 0
216 0 0
214 0 0
222 0 0
214 0 0
219 0 0
210 0 0
218 0 0
213 0 0
216 0 0
216 0 0
216 0 0
219 0 0
216 0 0
220 0 0
216 0 0
219 0 0
214 0 0
206 0 0
218 0 0
218 0 0
215 0 0
213 0 0
219 0 0
220 0 0
218 0 0
218 0 0
217 0 0
220 0 0
217 0 0
214 0 0
218 0 0
216 0 0
219 0 0
214 0 0
220 0 0
221 0 0
219 0 0
219 0 0
222 0 0
216 0 0
220 0 0
218 0 0
220 0 0
219 0 0
216 0 0
219 0 0
218 0 0
220 0 0
222 0 0
217 0 0
221 0 0
214 0 0
220 0 0
222 0 0
217 0 0
216 0 0
218 0 0
219 0 0
218 0 0
222 0 0
219 0 0
222 0 0
215 0 0
217 0 0
223 0 0
221 0 0
216 0 0
220 0 0
217 0 0
218 0 0
218 0 0
220 0 0
220 0 0
219 0 0
226 0 0
219 0 0
222 0 0
221 0 0
220 0 0
218 0 0
223 0 0
218 0 0
219 0 0
216 0 0
217 0 0
217 0 0
222 0 0
218 0 0
220 0 0
218 0 0
219 0 0
221 0 0
222 0 0
219 0 0
217 0 0
220 0 0
224 0 0
220 0 0
218 0 0
221 0 0
219 0 0
221 0 0
0 0 255
0 0 254
0 0 254
0 0 255
0 0 254
0 0 255
0 0 255
0 0 254
0 0 254
0 0 254
0 0 254
0 0 255
0 0 253
0 0 255
0 0 255
0 0 255
0 0 254
0 0 255
0 0 255
0 0 255
0 0 254
0 0 253
0 0 255
0 0 253
0 0 254
0 0 253
0 0 255
0 0 254
0 0 255
0 0 252
0 0 254
0 0 253
0 0 253
0 0 254
0 0 255
0 0 254
0 0 255
0 0 254
0 0 255
0 0 254
0 0 254
0 0 253
0 0 255
0 0 254
0 0 255
0 0 255
0 0 254
0 0 255
0 0 252
0 0 253
0 0 253
0 0 255
0 0 250
0 0 255
0 0 253
0 0 254
0 0 253
0 0 253
0 0 253
0 0 254
0 0 252
0 0 255
0 0 254
0 0 254
0 0 255
0 0 252
0 0 253
0 0 254
0 0 253
0 0 255
0 0 255
0 0 254
0 0 252
0 0 250
0 0 253
0 0 252
0 0 252
0 0 250
0 0 250
0 0 253
0 0 250
0 0 248
0 0 250
0 0 252
0 0 252
0 0 253
0 0 254
0 0 253
0 0 246
0 0 254
0 0 250
0 0 250
0 0 249
0 0 252
0 0 250
0 0 246
0 0 254
0 0 245
0 0 253
0 0 249
0 0 250
0 0 249
0 0 250
0 0 252
0 0 246
0 0 246
0 0 249
0 0 250
0 0 248
0 0 246
0 0 248
0 0 253
0 0 248
0 0 248
0 0 250
0 0 248
0 0 249
0 0 240
0 0 246
0 0 250
0 0 245
0 0 242
0 0 246
0 0 245
0 0 238
0 0 245
0 0 245
0 0 242
0 0 234
0 0 246
0 0 246
0 0 240
0 0 245
0 0 246
0 0 244
0 0 249
0 0 250
0 0 238
0 0 242
0 0 240
0 0 237
0 0 237
0 0 241
0 0 245
0 0 241
0 0 236
0 0 233
0 0 227
0 0 238
0 0 236
0 0 236
0 0 233
0 0 238
0 0 242
0 0 233
0 0 230
0 0 241
0 0 224
0 0 227
0 0 237
0 0 227
0 0 230
0 0 234
0 0 228
0 0 226
0 0 226
0 0 226
0 0 224
0 0 207
0 0 218
0 0 211
0 0 218
0 0 224
0 0 209
0 0 206
0 0 214
0 0 209
0 0 203
0 0 201
0 0 201
0 0 191
0 0 199
0 0 193
0 0 188
0 0 182
0 0 196
0 0 184
0 0 193
0 0 191
0 0 177
0 0 169
0 0 171
0 0 149
0 0 165
0 0 161
0 0 117
0 0 128
0 0 99
0 0 62
69 74 99
40 33 36
66 0 0
98 0 0
113 0 0
121 0 0
116 0 0
120 0 0
130 0 0
140 0 0
153 0 0
143 0 0
145 0 0
162 0 0
168 0 0
189 0 0
155 0 0
170 0 0
169 0 0
175 0 0
184 0 0
185 0 0
182 0 0
191 0 0
180 0 0
182 0 0
186 0 0
184 0 0
187 0 0
195 0 0
182 0 0
194 0 0
196 0 0
192 0 0
198 0 0
206 0 0
203 0 0
194 0 0
190 0 0
203 0 0
198 0 0
206 0 0
194 0 0
198 0 0
205 0 0
197 0 0
206 0 0
210 0 0
204 0 0
208 0 0
196 0 0
208 0 0
209 0 0
201 0 0
201 0 0
201 0 0
206 0 0
205 0 0
210 0 0
203 0 0
202 0 0
210 0 0
211 0 0
199 0 0
204 0 0
214 0 0
217 0 0
208 0 0
211 0 0
216 0 0
219 0 0
205 0 0
211 0 0
207 0 0
212 0 0
212 0 0
209 0 0
208 0 0
214 0 0
208 0 0
214 0 0
216 0 0
212 0 0
214 0 0
208 0 0
220 0 0
216 0 0
215 0 0
210 0 0
213 0 0
211 0 0
215 0 0
220 0 0
215 0 0
214 0 0
212 0 0
215 0 0
207 0 0
218 0 0
214 0 0
215 0 0
212 0 0
218 0 0
215 0 0
221 0 0
219 0 0
216 0 0
217 0 0
220 0 0
220 0 0
219 0 0
219 0 0
216 0 0
220 0 0
215 0 0
218 0 0
223 0 0
214 0 0
217 0 0
221 0 0
218 0 0
215 0 0
219 0 0
217 0 0
217 0 0
215 0 0
217 0 0
220 0 0
219 0 0
220 0 0
216 0 0
217 0 0
220 0 0
218 0 0
217 0 0
220 0 0
219 0 0
220 0 0
221 0 0
219 0 0
217 0 0
221 0 0
218 0 0
222 0 0
221 0 0
221 0 0
224 0 0
215 0 0
218 0 0
221 0 0
222 0 0
220 0 0
220 0 0
222 0 0
221 0 0
219 0 0
219 0 0
221 0 0
217 0 0
221 0 0
219 0 0
218 0 0
218 0 0
215 0 0
219 0 0
221 0 0
222 0 0
224 0 0
219 0 0
217 0 0
220 0 0
218 0 0
218 0 0
219 0 0
219 0 0
215 0 0
218 0 0
225 0 0
218 0 0
219 0 0
217 0 0
220 0 0
221 0 0
220 0 0
218 0 0
220 0 0
219 0 0
219 0 0
216 0 0
220 0 0
222 0 0
220 0 0
221 0 0
220 0 0
221 0 0
220 0 0
223 0 0
225 0 0
223 0 0
220 0 0
219 0 0
0 0 255
0 0 255
0 0 255
0 0 252
0 0 255
0 0 255
0 0 255
0 0 253
0 0 255
0 0 254
0 0 255
0 0 253
0 0 254
0 0 252
0 0 255
0 0 255
0 0 255
0 0 255
0 0 255
0 0 255
0 0 255
0 0 254
0 0 254
0 0 254
0 0 255
0 0 254
0 0 254
0 0 252
0 0 254
0 0 253
0 0 255
0 0 255
0 0 254
0 0 254
0 0 252
0 0 255
0 0 254
0 0 253
0 0 252
0 0 253
0 0 255
0 0 252
0 0 250
0 0 253
0 0 255
0 0 252
0 0 252
0 0 253
0 0 254
0 0 255
0 0 252
0 0 255
0 0 252
0 0 250
0 0 253
0 0 252
0 0 249
0 0 254
0 0 255
0 0 252
0 0 252
0 0 252
0 0 249
0 0 252
0 0 254
0 0 249
0 0 253
0 0 250
0 0 254
0 0 254
0 0 250
0 0 254
0 0 250
0 0 250
0 0 250
0 0 248
0 0 254
0 0 254
0 0 253
0 0 253
0 0 249
0 0 249
0 0 254
0 0 254
0 0 253
0 0 246
0 0 252
0 0 253
0 0 249
0 0 249
0 0 249
0 0 250
0 0 253
0 0 253
0 0 254
0 0 246
0 0 250
0 0 249
0 0 249
0 0 253
0 0 250
0 0 248
0 0 245
0 0 252
0 0 249
0 0 245
0 0 248
0 0 248
0 0 242
0 0 245
0 0 252
0 0 253
0 0 252
0 0 245
0 0 241
0 0 249
0 0 252
0 0 248
0 0 249
0 0 244
0 0 240
0 0 240
0 0 246
0 0 248
0 0 249
0 0 238
0 0 244
0 0 237
0 0 252
0 0 246
0 0 240
0 0 246
0 0 242
0 0 245
0 0 244
0 0 233
0 0 249
0 0 244
0 0 245
0 0 245
0 0 241
0 0 240
0 0 240
0 0 244
0 0 244
0 0 246
0 0 237
0 0 241
0 0 240
0 0 228
0 0 240
0 0 234
0 0 228
0 0 233
0 0 236
0 0 237
0 0 236
0 0 237
0 0 223
0 0 228
0 0 233
0 0 233
0 0 230
0 0 228
0 0 228
0 0 218
0 0 218
0 0 226
0 0 224
0 0 207
0 0 218
0 0 193
0 0 204
0 0 214
0 0 224
0 0 217
0 0 218
0 0 198
0 0 214
0 0 207
0 0 199
0 0 196
0 0 189
0 0 189
0 0 201
0 0 199
0 0 198
0 0 184
0 0 159
0 0 188
0 0 175
0 0 179
0 0 175
0 0 161
0 0 125
0 0 125
0 0 128
0 0 120
0 0 84
0 0 51
45 0 0
73 0 0
91 0 0
109 0 0
130 0 0
119 0 0
117 0 0
140 0 0
146 0 0
153 0 0
157 0 0
151 0 0
173 0 0
171 0 0
158 0 0
176 0 0
173 0 0
184 0 0
178 0 0
179 0 0
179 0 0
185 0 0
182 0 0
188 0 0
184 0 0
178 0 0
185 0 0
187 0 0
191 0 0
198 0 0
198 0 0
192 0 0
189 0 0
199 0 0
195 0 0
203 0 0
199 0 0
189 0 0
199 0 0
205 0 0
202 0 0
203 0 0
208 0 0
192 0 0
200 0 0
200 0 0
202 0 0
201 0 0
211 0 0
206 0 0
214 0 0
206 0 0
209 0 0
203 0 0
206 0 0
209 0 0
204 0 0
209 0 0
211 0 0
205 0 0
205 0 0
213 0 0
204 0 0
207 0 0
202 0 0
206 0 0
213 0 0
212 0 0
215 0 0
211 0 0
213 0 0
210 0 0
212 0 0
216 0 0
206 0 0
214 0 0
213 0 0
213 0 0
216 0 0
214 0 0
206 0 0
217 0 0
215 0 0
212 0 0
214 0 0
216 0 0
212 0 0
214 0 0
216 0 0
214 0 0
207 0 0
211 0 0
212 0 0
219 0 0
207 0 0
212 0 0
217 0 0
215 0 0
216 0 0
215 0 0
215 0 0
209 0 0
216 0 0
216 0 0
219 0 0
218 0 0
218 0 0
217 0 0
214 0 0
216 0 0
218 0 0
215 0 0
218 0 0
217 0 0
220 0 0
222 0 0
214 0 0
216 0 0
216 0 0
212 0 0
215 0 0
218 0 0
215 0 0
221 0 0
218 0 0
219 0 0
221 0 0
218 0 0
218 0 0
219 0 0
217 0 0
222 0 0
218 0 0
221 0 0
215 0 0
218 0 0
220 0 0
216 0 0
222 0 0
219 0 0
217 0 0
215 0 0
216 0 0
219 0 0
218 0 0
213 0 0
222 0 0
222 0 0
221 0 0
221 0 0
218 0 0
210 0 0
219 0 0
218 0 0
217 0 0
217 0 0
218 0 0
217 0 0
220 0 0
220 0 0
222 0 0
220 0 0
223 0 0
223 0 0
216 0 0
222 0 0
213 0 0
223 0 0
219 0 0
222 0 0
221 0 0
221 0 0
222 0 0
218 0 0
219 0 0
219 0 0
219 0 0
220 0 0
218 0 0
223 0 0
223 0 0
221 0 0
224 0 0
222 0 0
220 0 0
224 0 0
222 0 0
221 0 0
220 0 0
220 0 0
216 0 0
225 0 0
222 0 0
218 0 0
222 0 0
216 0 0
222 0 0
222 0 0
222 0 0
220 0 0
0 0 255
0 0 255
0 0 254
0 0 254
0 0 255
0 0 255
0 0 254
0 0 253
0 0 255
0 0 255
0 0 255
0 0 254
0 0 254
0 0 255
0 0 255
0 0 255
0 0 254
0 0 254
0 0 254
0 0 254
0 0 252
0 0 255
0 0 253
0 0 253
0 0 255
0 0 250
0 0 254
0 0 255
0 0 255
0 0 254
0 0 253
0 0 254
0 0 254
0 0 253
0 0 252
0 0 254
0 0 255
0 0 254
0 0 253
0 0 253
0 0 253
0 0 255
0 0 254
0 0 253
0 0 254
0 0 255
0 0 254
0 0 254
0 0 254
0 0 254
0 0 253
0 0 254
0 0 254
0 0 252
0 0 253
0 0 254
0 0 254
0 0 254
0 0 254
0 0 253
0 0 254
0 0 250
0 0 253
0 0 253
0 0 252
0 0 253
0 0 253
0 0 252
0 0 252
0 0 255
0 0 252
0 0 254
0 0 252
0 0 254
0 0 252
0 0 249
0 0 252
0 0 254
0 0 254
0 0 249
0 0 254
0 0 252
0 0 254
0 0 252
0 0 249
0 0 252
0 0 246
0 0 246
0 0 252
0 0 252
0 0 245
0 0 248
0 0 254
0 0 253
0 0 242
0 0 252
0 0 250
0 0 253
0 0 250
0 0 250
0 0 245
0 0 250
0 0 244
0 0 249
0 0 249
0 0 248
0 0 250
0 0 248
0 0 250
0 0 250
0 0 249
0 0 246
0 0 241
0 0 248
0 0 250
0 0 248
0 0 244
0 0 250
0 0 248
0 0 244
0 0 248
0 0 246
0 0 244
0 0 246
0 0 244
0 0 250
0 0 244
0 0 244
0 0 240
0 0 244
0 0 234
0 0 241
0 0 237
0 0 236
0 0 240
0 0 231
0 0 240
0 0 240
0 0 231
0 0 240
0 0 242
0 0 244
0 0 241
0 0 234
0 0 241
0 0 238
0 0 236
0 0 241
0 0 238
0 0 227
0 0 227
0 0 230
0 0 233
0 0 234
0 0 230
0 0 233
0 0 218
0 0 234
0 0 234
0 0 217
0 0 221
0 0 227
0 0 233
0 0 228
0 0 221
0 0 228
0 0 230
0 0 217
0 0 230
0 0 226
0 0 226
0 0 217
0 0 226
0 0 217
0 0 212
0 0 218
0 0 211
0 0 215
0 0 189
0 0 214
0 0 207
0 0 201
0 0 196
0 0 207
0 0 201
0 0 181
0 0 191
0 0 193
0 0 182
0 0 171
0 0 181
0 0 149
0 0 144
0 0 140
0 0 111
0 0 122
0 0 114
0 0 102
0 0 84
0 0 72
32 0 0
67 0 0
85 0 0
98 0 0
106 0 0
113 0 0
135 0 0
144 0 0
142 0 0
151 0 0
135 0 0
159 0 0
171 0 0
168 0 0
179 0 0
171 0 0
178 0 0
171 0 0
170 0 0
172 0 0
179 0 0
166 0 0
181 0 0
186 0 0
178 0 0
178 0 0
180 0 0
186 0 0
188 0 0
181 0 0
191 0 0
197 0 0
188 0 0
194 0 0
188 0 0
204 0 0
201 0 0
201 0 0
191 0 0
198 0 0
199 0 0
207 0 0
196 0 0
203 0 0
196 0 0
196 0 0
210 0 0
208 0 0
198 0 0
203 0 0
200 0 0
195 0 0
199 0 0
210 0 0
207 0 0
201 0 0
205 0 0
211 0 0
206 0 0
208 0 0
205 0 0
212 0 0
208 0 0
198 0 0
205 0 0
214 0 0
208 0 0
211 0 0
206 0 0
200 0 0
213 0 0
213 0 0
211 0 0
213 0 0
210 0 0
216 0 0
211 0 0
207 0 0
214 0 0
212 0 0
215 0 0
215 0 0
213 0 0
215 0 0
218 0 0
217 0 0
214 0 0
213 0 0
215 0 0
213 0 0
208 0 0
218 0 0
212 0 0
213 0 0
220 0 0
213 0 0
217 0 0
215 0 0
214 0 0
217 0 0
212 0 0
222 0 0
213 0 0
216 0 0
215 0 0
216 0 0
216 0 0
215 0 0
219 0 0
219 0 0
216 0 0
216 0 0
215 0 0
214 0 0
213 0 0
214 0 0
215 0 0
215 0 0
218 0 0
221 0 0
221 0 0
217 0 0
220 0 0
222 0 0
214 0 0
217 0 0
217 0 0
217 0 0
219 0 0
221 0 0
221 0 0
216 0 0
216 0 0
215 0 0
218 0 0
217 0 0
216 0 0
223 0 0
220 0 0
221 0 0
218 0 0
219 0 0
219 0 0
218 0 0
220 0 0
222 0 0
221 0 0
216 0 0
222 0 0
218 0 0
219 0 0
214 0 0
216 0 0
220 0 0
221 0 0
217 0 0
220 0 0
222 0 0
218 0 0
223 0 0
219 0 0
218 0 0
218 0 0
222 0 0
221 0 0
220 0 0
219 0 0
219 0 0
219 0 0
218 0 0
222 0 0
219 0 0
217 0 0
216 0 0
215 0 0
221 0 0
217 0 0
220 0 0
219 0 0
219 0 0
216 0 0
220 0 0
220 0 0
219 0 0
225 0 0
223 0 0
225 0 0
216 0 0
221 0 0
221 0 0
225 0 0
222 0 0
219 0 0
219 0 0
220 0 0
218 0 0
222 0 0
222 0 0
219 0 0
220 0 0
0 0 255
0 0 254
0 0 254
0 0 255
0 0 254
0 0 254
0 0 255
0 0 255
0 0 254
0 0 254
0 0 255
0 0 255
0 0 254
0 0 253
0 0 255
0 0 254
0 0 255
0 0 255
0 0 253
0 0 254
0 0 255
0 0 254
0 0 254
0 0 253
0 0 253
0 0 255
0 0 253
0 0 250
0 0 254
0 0 253
0 0 255
0 0 253
0 0 253
0 0 253
0 0 255
0 0 254
0 0 254
0 0 254
0 0 250
0 0 255
0 0 250
0 0 254
0 0 253
0 0 253
0 0 253
0 0 248
0 0 253
0 0 250
0 0 254
0 0 254
0 0 254
0 0 255
0 0 254
0 0 254
0 0 253
0 0 254
0 0 255
0 0 252
0 0 250
0 0 250
0 0 254
0 0 252
0 0 248
0 0 252
0 0 250
0 0 253
0 0 254
0 0 253
0 0 252
0 0 252
0 0 244
0 0 249
0 0 254
0 0 252
0 0 250
0 0 253
0 0 250
0 0 250
0 0 254
0 0 253
0 0 249
0 0 252
0 0 242
0 0 252
0 0 250
0 0 248
0 0 250
0 0 249
0 0 245
0 0 254
0 0 244
0 0 249
0 0 252
0 0 248
0 0 250
0 0 252
0 0 248
0 0 252
0 0 248
0 0 253
0 0 249
0 0 248
0 0 253
0 0 248
0 0 249
0 0 246
0 0 252
0 0 252
0 0 248
0 0 250
0 0 244
0 0 246
0 0 249
0 0 252
0 0 252
0 0 248
0 0 250
0 0 236
0 0 242
0 0 242
0 0 234
0 0 248
0 0 240
0 0 249
0 0 248
0 0 246
0 0 249
0 0 238
0 0 246
0 0 249
0 0 249
0 0 250
0 0 245
0 0 236
0 0 244
0 0 245
0 0 244
0 0 237
0 0 241
0 0 241
0 0 245
0 0 246
0 0 244
0 0 241
0 0 237
0 0 238
0 0 238
0 0 227
0 0 237
0 0 236
0 0 226
0 0 228
0 0 240
0 0 236
0 0 240
0 0 237
0 0 230
0 0 237
0 0 230
0 0 240
0 0 231
0 0 230
0 0 228
0 0 227
0 0 230
0 0 224
0 0 227
0 0 228
0 0 217
0 0 223
0 0 212
0 0 223
0 0 211
0 0 221
0 0 221
0 0 215
0 0 214
0 0 204
0 0 204
0 0 212
0 0 209
0 0 194
0 0 201
0 0 198
0 0 196
0 0 188
0 0 211
0 0 182
0 0 171
0 0 171
0 0 171
0 0 159
0 0 171
0 0 142
0 0 144
0 0 142
0 0 135
0 0 105
0 0 92
0 0 67
50 0 0
66 0 0
98 0 0
107 0 0
111 0 0
114 0 0
150 0 0
146 0 0
146 0 0
153 0 0
159 0 0
155 0 0
163 0 0
162 0 0
169 0 0
164 0 0
178 0 0
183 0 0
179 0 0
179 0 0
180 0 0
184 0 0
189 0 0
169 0 0
188 0 0
190 0 0
173 0 0
196 0 0
189 0 0
200 0 0
194 0 0
194 0 0
195 0 0
199 0 0
201 0 0
197 0 0
204 0 0
205 0 0
197 0 0
205 0 0
195 0 0
192 0 0
203 0 0
189 0 0
201 0 0
204 0 0
208 0 0
207 0 0
204 0 0
209 0 0
200 0 0
211 0 0
202 0 0
194 0 0
214 0 0
204 0 0
213 0 0
204 0 0
208 0 0
211 0 0
205 0 0
207 0 0
208 0 0
208 0 0
212 0 0
211 0 0
212 0 0
214 0 0
212 0 0
218 0 0
206 0 0
212 0 0
209 0 0
213 0 0
212 0 0
215 0 0
212 0 0
213 0 0
210 0 0
209 0 0
215 0 0
215 0 0
212 0 0
213 0 0
211 0 0
211 0 0
214 0 0
219 0 0
206 0 0
214 0 0
216 0 0
219 0 0
218 0 0
214 0 0
213 0 0
220 0 0
215 0 0
220 0 0
213 0 0
214 0 0
214 0 0
217 0 0
218 0 0
221 0 0
216 0 0
217 0 0
213 0 0
215 0 0
213 0 0
209 0 0
218 0 0
212 0 0
217 0 0
213 0 0
217 0 0
222 0 0
218 0 0
219 0 0
213 0 0
215 0 0
215 0 0
214 0 0
215 0 0
217 0 0
218 0 0
215 0 0
214 0 0
216 0 0
219 0 0
217 0 0
211 0 0
216 0 0
222 0 0
221 0 0
219 0 0
221 0 0
215 0 0
222 0 0
218 0 0
221 0 0
210 0 0
218 0 0
220 0 0
215 0 0
222 0 0
219 0 0
218 0 0
219 0 0
223 0 0
217 0 0
221 0 0
221 0 0
218 0 0
218 0 0
223 0 0
217 0 0
224 0 0
219 0 0
218 0 0
222 0 0
213 0 0
223 0 0
216 0 0
221 0 0
222 0 0
219 0 0
219 0 0
221 0 0
219 0 0
220 0 0
218 0 0
220 0 0
220 0 0
219 0 0
223 0 0
221 0 0
215 0 0
220 0 0
222 0 0
215 0 0
219 0 0
222 0 0
221 0 0
221 0 0
219 0 0
219 0 0
221 0 0
220 0 0
221 0 0
217 0 0
221 0 0
221 0 0
220 0 0
224 0 0
221 0 0
222 0 0
218 0 0
221 0 0
220 0 0
219 0 0
0 0 255
0 0 255
0 0 255
0 0 255
0 0 255
0 0 254
0 0 255
0 0 255
0 0 255
0 0 255
0 0 255
0 0 255
0 0 254
0 0 254
0 0 255
0 0 254
0 0 252
0 0 254
0 0 255
0 0 254
0 0 255
0 0 254
0 0 254
0 0 255
0 0 255
0 0 254
0 0 255
0 0 254
0 0 254
0 0 252
0 0 253
0 0 253
0 0 254
0 0 249
0 0 255
0 0 255
0 0 254
0 0 255
0 0 254
0 0 254
0 0 254
0 0 253
0 0 253
0 0 255
0 0 255
0 0 253
0 0 249
0 0 253
0 0 254
0 0 253
0 0 254
0 0 253
0 0 254
0 0 253
0 0 254
0 0 253
0 0 252
0 0 253
0 0 254
0 0 254
0 0 254
0 0 248
0 0 252
0 0 253
0 0 252
0 0 250
0 0 253
0 0 250
0 0 250
0 0 252
0 0 252
0 0 254
0 0 255
0 0 250
0 0 252
0 0 255
0 0 252
0 0 253
0 0 253
0 0 252
0 0 254
0 0 249
0 0 250
0 0 248
0 0 249
0 0 250
0 0 252
0 0 250
0 0 248
0 0 248
0 0 249
0 0 250
0 0 252
0 0 249
0 0 249
0 0 254
0 0 245
0 0 252
0 0 250
0 0 246
0 0 252
0 0 249
0 0 245
0 0 249
0 0 248
0 0 244
0 0 246
0 0 252
0 0 248
0 0 253
0 0 248
0 0 253
0 0 248
0 0 253
0 0 246
0 0 242
0 0 248
0 0 250
0 0 248
0 0 242
0 0 244
0 0 246
0 0 245
0 0 244
0 0 250
0 0 248
0 0 245
0 0 244
0 0 240
0 0 248
0 0 241
0 0 241
0 0 244
0 0 246
0 0 241
0 0 241
0 0 238
0 0 246
0 0 245
0 0 245
0 0 242
0 0 242
0 0 248
0 0 237
0 0 231
0 0 238
0 0 238
0 0 237
0 0 238
0 0 241
0 0 227
0 0 241
0 0 244
0 0 228
0 0 238
0 0 236
0 0 228
0 0 231
0 0 231
0 0 231
0 0 238
0 0 226
0 0 227
0 0 226
0 0 228
0 0 237
0 0 224
0 0 218
0 0 227
0 0 217
0 0 224
0 0 212
0 0 231
0 0 217
0 0 218
0 0 221
0 0 214
0 0 211
0 0 207
0 0 214
0 0 198
0 0 204
0 0 196
0 0 196
0 0 203
0 0 181
0 0 199
0 0 188
0 0 171
0 0 191
0 0 169
0 0 175
0 0 175
0 0 165
0 0 135
0 0 128
0 0 114
0 0 130
0 0 84
0 0 25
59 23 25
82 0 0
101 0 0
109 0 0
125 0 0
138 0 0
124 0 0
138 0 0
149 0 0
148 0 0
169 0 0
164 0 0
149 0 0
167 0 0
169 0 0
171 0 0
181 0 0
168 0 0
178 0 0
166 0 0
186 0 0
172 0 0
178 0 0
189 0 0
174 0 0
188 0 0
194 0 0
190 0 0
182 0 0
190 0 0
192 0 0
202 0 0
195 0 0
197 0 0
200 0 0
195 0 0
186 0 0
210 0 0
202 0 0
190 0 0
203 0 0
200 0 0
204 0 0
197 0 0
211 0 0
199 0 0
207 0 0
206 0 0
216 0 0
210 0 0
206 0 0
207 0 0
203 0 0
201 0 0
206 0 0
206 0 0
205 0 0
215 0 0
203 0 0
207 0 0
209 0 0
217 0 0
212 0 0
212 0 0
206 0 0
214 0 0
210 0 0
208 0 0
208 0 0
201 0 0
209 0 0
211 0 0
210 0 0
217 0 0
210 0 0
210 0 0
211 0 0
211 0 0
211 0 0
219 0 0
216 0 0
215 0 0
202 0 0
211 0 0
213 0 0
217 0 0
218 0 0
215 0 0
210 0 0
212 0 0
206 0 0
216 0 0
213 0 0
213 0 0
219 0 0
212 0 0
218 0 0
214 0 0
218 0 0
215 0 0
213 0 0
212 0 0
224 0 0
219 0 0
216 0 0
216 0 0
216 0 0
219 0 0
223 0 0
214 0 0
218 0 0
220 0 0
219 0 0
222 0 0
220 0 0
218 0 0
217 0 0
219 0 0
220 0 0
218 0 0
217 0 0
218 0 0
216 0 0
219 0 0
218 0 0
223 0 0
220 0 0
219 0 0
215 0 0
220 0 0
223 0 0
219 0 0
218 0 0
221 0 0
221 0 0
217 0 0
219 0 0
219 0 0
221 0 0
220 0 0
221 0 0
221 0 0
218 0 0
219 0 0
222 0 0
217 0 0
223 0 0
219 0 0
216 0 0
214 0 0
225 0 0
217 0 0
219 0 0
220 0 0
221 0 0
219 0 0
221 0 0
220 0 0
220 0 0
218 0 0
221 0 0
222 0 0
222 0 0
218 0 0
219 0 0
221 0 0
218 0 0
222 0 0
219 0 0
221 0 0
223 0 0
217 0 0
219 0 0
221 0 0
222 0 0
222 0 0
220 0 0
222 0 0
224 0 0
224 0 0
223 0 0
220 0 0
218 0 0
221 0 0
220 0 0
220 0 0
216 0 0
226 0 0
218 0 0
222 0 0
218 0 0
223 0 0
219 0 0
221 0 0
224 0 0
222 0 0
221 0 0
224 0 0
222 0 0
219 0 0
0 0 254
0 0 255
0 0 255
0 0 254
0 0 255
0 0 254
0 0 255
0 0 255
0 0 255
0 0 254
0 0 254
0 0 255
0 0 253
0 0 253
0 0 255
0 0 254
0 0 255
0 0 254
0 0 254
0 0 254
0 0 255
0 0 254
0 0 255
0 0 254
0 0 255
0 0 253
0 0 254
0 0 254
0 0 255
0 0 255
0 0 255
0 0 254
0 0 253
0 0 254
0 0 255
0 0 253
0 0 254
0 0 252
0 0 254
0 0 252
0 0 253
0 0 252
0 0 254
0 0 250
0 0 255
0 0 254
0 0 253
0 0 255
0 0 252
0 0 253
0 0 254
0 0 253
0 0 253
0 0 254
0 0 253
0 0 255
0 0 254
0 0 255
0 0 254
0 0 254
0 0 253
0 0 250
0 0 250
0 0 254
0 0 255
0 0 253
0 0 250
0 0 253
0 0 249
0 0 253
0 0 250
0 0 252
0 0 252
0 0 250
0 0 253
0 0 250
0 0 252
0 0 249
0 0 252
0 0 252
0 0 253
0 0 253
0 0 249
0 0 252
0 0 252
0 0 253
0 0 253
0 0 250
0 0 250
0 0 250
0 0 252
0 0 250
0 0 248
0 0 253
0 0 252
0 0 249
0 0 245
0 0 248
0 0 249
0 0 250
0 0 250
0 0 241
0 0 250
0 0 245
0 0 245
0 0 249
0 0 253
0 0 246
0 0 252
0 0 252
0 0 237
0 0 242
0 0 246
0 0 249
0 0 249
0 0 250
0 0 244
0 0 252
0 0 249
0 0 246
0 0 246
0 0 245
0 0 249
0 0 249
0 0 245
0 0 244
0 0 248
0 0 244
0 0 244
0 0 241
0 0 248
0 0 244
0 0 237
0 0 237
0 0 244
0 0 244
0 0 241
0 0 242
0 0 244
0 0 241
0 0 246
0 0 246
0 0 236
0 0 246
0 0 238
0 0 242
0 0 228
0 0 240
0 0 233
0 0 236
0 0 242
0 0 231
0 0 238
0 0 240
0 0 240
0 0 231
0 0 234
0 0 228
0 0 237
0 0 234
0 0 228
0 0 227
0 0 228
0 0 228
0 0 221
0 0 230
0 0 224
0 0 223
0 0 224
0 0 215
0 0 223
0 0 211
0 0 214
0 0 224
0 0 212
0 0 212
0 0 214
0 0 218
0 0 215
0 0 207
0 0 203
0 0 207
0 0 209
0 0 199
0 0 181
0 0 198
0 0 181
0 0 199
0 0 181
0 0 163
0 0 171
0 0 167
0 0 144
0 0 167
0 0 144
0 0 135
0 0 122
0 0 105
0 0 92
62 66 99
55 47 51
82 0 0
106 0 0
112 0 0
127 0 0
116 0 0
110 0 0
135 0 0
161 0 0
134 0 0
151 0 0
162 0 0
152 0 0
168 0 0
167 0 0
164 0 0
179 0 0
169 0 0
164 0 0
170 0 0
174 0 0
181 0 0
172 0 0
191 0 0
186 0 0
191 0 0
182 0 0
187 0 0
189 0 0
192 0 0
196 0 0
201 0 0
189 0 0
191 0 0
192 0 0
191 0 0
190 0 0
195 0 0
197 0 0
195 0 0
208 0 0
194 0 0
202 0 0
205 0 0
198 0 0
199 0 0
208 0 0
208 0 0
204 0 0
203 0 0
200 0 0
215 0 0
211 0 0
201 0 0
195 0 0
211 0 0
205 0 0
201 0 0
203 0 0
206 0 0
205 0 0
205 0 0
198 0 0
210 0 0
209 0 0
210 0 0
213 0 0
214 0 0
206 0 0
219 0 0
213 0 0
207 0 0
215 0 0
216 0 0
213 0 0
216 0 0
206 0 0
211 0 0
215 0 0
209 0 0
216 0 0
212 0 0
212 0 0
215 0 0
210 0 0
216 0 0
216 0 0
210 0 0
219 0 0
216 0 0
217 0 0
217 0 0
210 0 0
213 0 0
214 0 0
214 0 0
211 0 0
212 0 0
216 0 0
219 0 0
218 0 0
216 0 0
213 0 0
216 0 0
213 0 0
210 0 0
214 0 0
212 0 0
218 0 0
218 0 0
214 0 0
218 0 0
216 0 0
215 0 0
218 0 0
215 0 0
218 0 0
220 0 0
215 0 0
222 0 0
216 0 0
216 0 0
214 0 0
215 0 0
217 0 0
220 0 0
221 0 0
216 0 0
216 0 0
217 0 0
218 0 0
218 0 0
220 0 0
213 0 0
215 0 0
218 0 0
217 0 0
219 0 0
223 0 0
218 0 0
219 0 0
217 0 0
220 0 0
217 0 0
222 0 0
221 0 0
217 0 0
221 0 0
220 0 0
220 0 0
218 0 0
216 0 0
219 0 0
221 0 0
219 0 0
218 0 0
223 0 0
224 0 0
219 0 0
217 0 0
217 0 0
223 0 0
221 0 0
216 0 0
220 0 0
224 0 0
221 0 0
223 0 0
219 0 0
222 0 0
220 0 0
221 0 0
223 0 0
223 0 0
219 0 0
220 0 0
223 0 0
222 0 0
220 0 0
223 0 0
221 0 0
219 0 0
220 0 0
222 0 0
222 0 0
221 0 0
216 0 0
223 0 0
223 0 0
215 0 0
220 0 0
223 0 0
220 0 0
221 0 0
221 0 0
219 0 0
217 0 0
224 0 0
223 0 0
218 0 0
0 0 255
0 0 253
0 0 252
0 0 255
0 0 254
0 0 255
0 0 254
0 0 255
0 0 255
0 0 255
0 0 255
0 0 254
0 0 255
0 0 253
0 0 254
0 0 255
0 0 255
0 0 253
0 0 254
0 0 255
0 0 255
0 0 254
0 0 255
0 0 255
0 0 255
0 0 254
0 0 252
0 0 254
0 0 253
0 0 252
0 0 253
0 0 254
0 0 254
0 0 254
0 0 253
0 0 254
0 0 252
0 0 254
0 0 253
0 0 250
0 0 253
0 0 253
0 0 254
0 0 254
0 0 254
0 0 253
0 0 250
0 0 254
0 0 255
0 0 253
0 0 250
0 0 253
0 0 255
0 0 252
0 0 255
0 0 254
0 0 253
0 0 255
0 0 250
0 0 252
0 0 252
0 0 250
0 0 254
0 0 253
0 0 254
0 0 252
0 0 250
0 0 255
0 0 255
0 0 252
0 0 250
0 0 254
0 0 253
0 0 252
0 0 252
0 0 253
0 0 248
0 0 253
0 0 254
0 0 254
0 0 253
0 0 253
0 0 253
0 0 250
0 0 246
0 0 248
0 0 253
0 0 246
0 0 253
0 0 250
0 0 252
0 0 252
0 0 250
0 0 249
0 0 242
0 0 252
0 0 252
0 0 250
0 0 248
0 0 249
0 0 252
0 0 252
0 0 248
0 0 249
0 0 253
0 0 249
0 0 244
0 0 249
0 0 248
0 0 242
0 0 250
0 0 246
0 0 249
0 0 250
0 0 249
0 0 250
0 0 249
0 0 244
0 0 246
0 0 245
0 0 244
0 0 248
0 0 245
0 0 241
0 0 245
0 0 252
0 0 240
0 0 250
0 0 245
0 0 246
0 0 244
0 0 245
0 0 241
0 0 249
0 0 236
0 0 242
0 0 240
0 0 242
0 0 242
0 0 240
0 0 233
0 0 242
0 0 242
0 0 241
0 0 242
0 0 241
0 0 237
0 0 240
0 0 236
0 0 242
0 0 238
0 0 227
0 0 228
0 0 233
0 0 234
0 0 233
0 0 233
0 0 233
0 0 233
0 0 231
0 0 237
0 0 223
0 0 228
0 0 236
0 0 223
0 0 228
0 0 236
0 0 234
0 0 224
0 0 220
0 0 231
0 0 223
0 0 206
0 0 217
0 0 227
0 0 217
0 0 223
0 0 215
0 0 198
0 0 214
0 0 201
0 0 206
0 0 211
0 0 198
0 0 204
0 0 186
0 0 182
0 0 179
0 0 179
0 0 186
0 0 181
0 0 175
0 0 155
0 0 144
0 0 155
0 0 135
0 0 122
0 0 102
0 0 99
73 78 99
84 66 72
63 0 0
100 0 0
102 0 0
104 0 0
134 0 0
139 0 0
131 0 0
140 0 0
156 0 0
148 0 0
165 0 0
156 0 0
159 0 0
165 0 0
146 0 0
169 0 0
180 0 0
176 0 0
175 0 0
170 0 0
164 0 0
182 0 0
181 0 0
184 0 0
180 0 0
188 0 0
190 0 0
193 0 0
197 0 0
199 0 0
192 0 0
191 0 0
196 0 0
191 0 0
203 0 0
199 0 0
195 0 0
202 0 0
203 0 0
197 0 0
205 0 0
201 0 0
199 0 0
202 0 0
209 0 0
200 0 0
207 0 0
204 0 0
203 0 0
206 0 0
205 0 0
195 0 0
212 0 0
216 0 0
205 0 0
201 0 0
211 0 0
207 0 0
207 0 0
206 0 0
209 0 0
205 0 0
210 0 0
211 0 0
206 0 0
214 0 0
208 0 0
205 0 0
208 0 0
204 0 0
214 0 0
212 0 0
211 0 0
215 0 0
220 0 0
215 0 0
212 0 0
210 0 0
219 0 0
215 0 0
212 0 0
214 0 0
211 0 0
214 0 0
212 0 0
210 0 0
214 0 0
220 0 0
212 0 0
222 0 0
213 0 0
217 0 0
223 0 0
216 0 0
218 0 0
219 0 0
215 0 0
218 0 0
215 0 0
222 0 0
218 0 0
215 0 0
214 0 0
214 0 0
218 0 0
217 0 0
213 0 0
214 0 0
220 0 0
217 0 0
218 0 0
218 0 0
215 0 0
216 0 0
215 0 0
212 0 0
218 0 0
220 0 0
220 0 0
220 0 0
216 0 0
218 0 0
215 0 0
220 0 0
215 0 0
222 0 0
217 0 0
222 0 0
221 0 0
219 0 0
218 0 0
216 0 0
214 0 0
223 0 0
221 0 0
216 0 0
216 0 0
219 0 0
215 0 0
221 0 0
220 0 0
221 0 0
220 0 0
217 0 0
223 0 0
225 0 0
221 0 0
216 0 0
218 0 0
215 0 0
223 0 0
223 0 0
218 0 0
220 0 0
222 0 0
217 0 0
221 0 0
215 0 0
219 0 0
221 0 0
222 0 0
218 0 0
219 0 0
223 0 0
221 0 0
221 0 0
219 0 0
222 0 0
223 0 0
219 0 0
220 0 0
218 0 0
222 0 0
221 0 0
218 0 0
220 0 0
222 0 0
218 0 0
219 0 0
222 0 0
217 0 0
220 0 0
221 0 0
218 0 0
220 0 0
222 0 0
221 0 0
219 0 0
227 0 0
220 0 0
220 0 0
222 0 0
220 0 0
221 0 0
219 0 0
218 0 0
220 0 0
218 0 0
225 0 0
0 0 250
0 0 255
0 0 254
0 0 253
0 0 249
0 0 255
0 0 255
0 0 253
0 0 255
0 0 254
0 0 254
0 0 255
0 0 255
0 0 254
0 0 255
0 0 254
0 0 255
0 0 253
0 0 250
0 0 253
0 0 255
0 0 255
0 0 255
0 0 253
0 0 254
0 0 253
0 0 255
0 0 255
0 0 253
0 0 254
0 0 253
0 0 253
0 0 254
0 0 253
0 0 253
0 0 254
0 0 253
0 0 255
0 0 254
0 0 254
0 0 253
0 0 254
0 0 254
0 0 254
0 0 253
0 0 253
0 0 254
0 0 250
0 0 255
0 0 254
0 0 255
0 0 254
0 0 255
0 0 255
0 0 248
0 0 252
0 0 254
0 0 253
0 0 250
0 0 254
0 0 252
0 0 253
0 0 252
0 0 252
0 0 250
0 0 254
0 0 252
0 0 254
0 0 250
0 0 253
0 0 252
0 0 255
0 0 252
0 0 250
0 0 252
0 0 254
0 0 250
0 0 252
0 0 250
0 0 250
0 0 254
0 0 246
0 0 252
0 0 250
0 0 254
0 0 252
0 0 250
0 0 252
0 0 253
0 0 253
0 0 246
0 0 249
0 0 254
0 0 246
0 0 253
0 0 248
0 0 249
0 0 248
0 0 250
0 0 250
0 0 245
0 0 252
0 0 244
0 0 245
0 0 249
0 0 248
0 0 250
0 0 252
0 0 249
0 0 249
0 0 245
0 0 249
0 0 252
0 0 245
0 0 253
0 0 241
0 0 246
0 0 245
0 0 245
0 0 244
0 0 250
0 0 246
0 0 248
0 0 244
0 0 245
0 0 241
0 0 245
0 0 242
0 0 238
0 0 242
0 0 236
0 0 245
0 0 248
0 0 241
0 0 237
0 0 240
0 0 245
0 0 242
0 0 242
0 0 240
0 0 244
0 0 246
0 0 244
0 0 248
0 0 244
0 0 238
0 0 231
0 0 236
0 0 244
0 0 244
0 0 226
0 0 228
0 0 237
0 0 234
0 0 226
0 0 233
0 0 241
0 0 234
0 0 224
0 0 234
0 0 236
0 0 231
0 0 228
0 0 214
0 0 218
0 0 226
0 0 226
0 0 221
0 0 227
0 0 221
0 0 224
0 0 207
0 0 224
0 0 214
0 0 220
0 0 211
0 0 212
0 0 188
0 0 217
0 0 209
0 0 211
0 0 207
0 0 201
0 0 206
0 0 198
0 0 191
0 0 188
0 0 179
0 0 182
0 0 191
0 0 175
0 0 149
0 0 157
0 0 144
0 0 147
0 0 147
0 0 128
0 0 105
0 0 88
73 78 108
87 78 84
87 0 0
94 0 0
118 0 0
118 0 0
109 0 0
141 0 0
134 0 0
133 0 0
151 0 0
164 0 0
156 0 0
158 0 0
174 0 0
174 0 0
174 0 0
173 0 0
171 0 0
193 0 0
173 0 0
175 0 0
176 0 0
186 0 0
190 0 0
181 0 0
188 0 0
179 0 0
208 0 0
177 0 0
193 0 0
198 0 0
177 0 0
204 0 0
200 0 0
195 0 0
195 0 0
206 0 0
206 0 0
209 0 0
195 0 0
199 0 0
211 0 0
208 0 0
211 0 0
203 0 0
200 0 0
202 0 0
203 0 0
205 0 0
209 0 0
202 0 0
210 0 0
209 0 0
209 0 0
201 0 0
207 0 0
208 0 0
209 0 0
204 0 0
206 0 0
207 0 0
213 0 0
206 0 0
213 0 0
212 0 0
206 0 0
207 0 0
213 0 0
206 0 0
214 0 0
204 0 0
213 0 0
210 0 0
208 0 0
206 0 0
214 0 0
214 0 0
214 0 0
221 0 0
216 0 0
212 0 0
214 0 0
216 0 0
217 0 0
215 0 0
210 0 0
218 0 0
216 0 0
216 0 0
217 0 0
214 0 0
220 0 0
214 0 0
216 0 0
218 0 0
210 0 0
215 0 0
211 0 0
214 0 0
215 0 0
214 0 0
215 0 0
217 0 0
221 0 0
214 0 0
218 0 0
219 0 0
212 0 0
218 0 0
219 0 0
220 0 0
217 0 0
221 0 0
220 0 0
214 0 0
220 0 0
223 0 0
218 0 0
217 0 0
215 0 0
212 0 0
213 0 0
222 0 0
220 0 0
222 0 0
217 0 0
219 0 0
218 0 0
218 0 0
223 0 0
214 0 0
214 0 0
215 0 0
222 0 0
221 0 0
223 0 0
217 0 0
216 0 0
224 0 0
217 0 0
219 0 0
218 0 0
219 0 0
216 0 0
221 0 0
220 0 0
216 0 0
220 0 0
217 0 0
221 0 0
218 0 0
221 0 0
216 0 0
216 0 0
219 0 0
218 0 0
221 0 0
217 0 0
219 0 0
221 0 0
220 0 0
223 0 0
220 0 0
226 0 0
220 0 0
221 0 0
219 0 0
218 0 0
221 0 0
222 0 0
218 0 0
219 0 0
223 0 0
223 0 0
221 0 0
218 0 0
222 0 0
222 0 0
221 0 0
221 0 0
221 0 0
221 0 0
221 0 0
226 0 0
221 0 0
221 0 0
223 0 0
222 0 0
221 0 0
222 0 0
219 0 0
223 0 0
226 0 0
223 0 0
221 0 0
218 0 0
220 0 0
226 0 0
217 0 0
222 0 0
0 0 255
0 0 255
0 0 255
0 0 255
0 0 254
0 0 254
0 0 252
0 0 255
0 0 254
0 0 255
0 0 255
0 0 254
0 0 255
0 0 255
0 0 254
0 0 255
0 0 255
0 0 255
0 0 255
0 0 255
0 0 254
0 0 255
0 0 254
0 0 254
0 0 254
0 0 253
0 0 254
0 0 253
0 0 252
0 0 254
0 0 255
0 0 254
0 0 255
0 0 255
0 0 253
0 0 254
0 0 253
0 0 255
0 0 253
0 0 253
0 0 254
0 0 255
0 0 250
0 0 254
0 0 254
0 0 254
0 0 252
0 0 253
0 0 253
0 0 255
0 0 253
0 0 255
0 0 254
0 0 253
0 0 253
0 0 252
0 0 254
0 0 252
0 0 254
0 0 253
0 0 254
0 0 252
0 0 254
0 0 253
0 0 250
0 0 252
0 0 254
0 0 252
0 0 255
0 0 252
0 0 254
0 0 254
0 0 252
0 0 252
0 0 252
0 0 253
0 0 250
0 0 252
0 0 248
0 0 248
0 0 253
0 0 253
0 0 250
0 0 253
0 0 250
0 0 253
0 0 253
0 0 245
0 0 250
0 0 246
0 0 250
0 0 246
0 0 252
0 0 253
0 0 246
0 0 248
0 0 250
0 0 252
0 0 248
0 0 252
0 0 250
0 0 252
0 0 249
0 0 249
0 0 252
0 0 244
0 0 254
0 0 249
0 0 250
0 0 245
0 0 248
0 0 252
0 0 249
0 0 242
0 0 237
0 0 244
0 0 246
0 0 249
0 0 242
0 0 248
0 0 254
0 0 248
0 0 245
0 0 246
0 0 248
0 0 244
0 0 246
0 0 245
0 0 242
0 0 252
0 0 242
0 0 248
0 0 246
0 0 244
0 0 248
0 0 248
0 0 236
0 0 248
0 0 241
0 0 237
0 0 242
0 0 242
0 0 241
0 0 240
0 0 238
0 0 238
0 0 242
0 0 238
0 0 234
0 0 231
0 0 236
0 0 242
0 0 236
0 0 234
0 0 234
0 0 227
0 0 230
0 0 231
0 0 237
0 0 233
0 0 242
0 0 226
0 0 234
0 0 240
0 0 224
0 0 237
0 0 223
0 0 233
0 0 231
0 0 227
0 0 221
0 0 230
0 0 221
0 0 217
0 0 214
0 0 212
0 0 217
0 0 214
0 0 203
0 0 211
0 0 209
0 0 201
0 0 206
0 0 191
0 0 189
0 0 193
0 0 189
0 0 199
0 0 167
0 0 163
0 0 167
0 0 175
0 0 157
0 0 144
0 0 135
0 0 117
0 0 120
0 0 99
0 0 88
83 88 108
74 74 80
82 0 0
112 0 0
104 0 0
124 0 0
130 0 0
127 0 0
140 0 0
124 0 0
155 0 0
168 0 0
145 0 0
150 0 0
164 0 0
162 0 0
189 0 0
160 0 0
176 0 0
187 0 0
185 0 0
191 0 0
183 0 0
194 0 0
185 0 0
183 0 0
184 0 0
181 0 0
192 0 0
186 0 0
193 0 0
197 0 0
186 0 0
196 0 0
190 0 0
197 0 0
199 0 0
192 0 0
201 0 0
211 0 0
196 0 0
209 0 0
199 0 0
208 0 0
199 0 0
204 0 0
203 0 0
206 0 0
205 0 0
197 0 0
204 0 0
209 0 0
192 0 0
203 0 0
209 0 0
209 0 0
213 0 0
206 0 0
213 0 0
210 0 0
205 0 0
212 0 0
212 0 0
208 0 0
212 0 0
215 0 0
207 0 0
212 0 0
206 0 0
212 0 0
215 0 0
213 0 0
205 0 0
211 0 0
213 0 0
212 0 0
212 0 0
211 0 0
218 0 0
216 0 0
216 0 0
210 0 0
211 0 0
217 0 0
213 0 0
211 0 0
213 0 0
213 0 0
212 0 0
219 0 0
220 0 0
218 0 0
216 0 0
218 0 0
216 0 0
209 0 0
213 0 0
216 0 0
217 0 0
217 0 0
213 0 0
217 0 0
221 0 0
213 0 0
218 0 0
216 0 0
212 0 0
216 0 0
215 0 0
219 0 0
220 0 0
215 0 0
216 0 0
216 0 0
218 0 0
216 0 0
226 0 0
221 0 0
219 0 0
218 0 0
218 0 0
219 0 0
219 0 0
216 0 0
221 0 0
218 0 0
216 0 0
219 0 0
220 0 0
219 0 0
221 0 0
216 0 0
218 0 0
220 0 0
219 0 0
222 0 0
220 0 0
220 0 0
219 0 0
218 0 0
221 0 0
216 0 0
222 0 0
219 0 0
217 0 0
212 0 0
222 0 0
221 0 0
220 0 0
217 0 0
219 0 0
220 0 0
219 0 0
219 0 0
221 0 0
223 0 0
218 0 0
225 0 0
221 0 0
223 0 0
223 0 0
223 0 0
223 0 0
217 0 0
222 0 0
221 0 0
218 0 0
221 0 0
221 0 0
226 0 0
220 0 0
221 0 0
220 0 0
224 0 0
219 0 0
220 0 0
218 0 0
218 0 0
217 0 0
217 0 0
219 0 0
218 0 0
220 0 0
224 0 0
220 0 0
222 0 0
217 0 0
223 0 0
220 0 0
219 0 0
222 0 0
220 0 0
221 0 0
225 0 0
221 0 0
225 0 0
221 0 0
222 0 0
221 0 0
224 0 0
220 0 0
0 0 255
0 0 255
0 0 255
0 0 254
0 0 254
0 0 252
0 0 253
0 0 255
0 0 254
0 0 255
0 0 253
0 0 255
0 0 254
0 0 254
0 0 254
0 0 255
0 0 255
0 0 255
0 0 255
0 0 252
0 0 255
0 0 255
0 0 255
0 0 255
0 0 254
0 0 254
0 0 255
0 0 253
0 0 250
0 0 255
0 0 253
0 0 255
0 0 253
0 0 255
0 0 255
0 0 255
0 0 255
0 0 255
0 0 254
0 0 254
0 0 254
0 0 253
0 0 254
0 0 253
0 0 253
0 0 254
0 0 250
0 0 253
0 0 254
0 0 253
0 0 254
0 0 255
0 0 254
0 0 254
0 0 250
0 0 252
0 0 250
0 0 252
0 0 255
0 0 255
0 0 254
0 0 252
0 0 254
0 0 252
0 0 252
0 0 253
0 0 255
0 0 253
0 0 250
0 0 255
0 0 253
0 0 254
0 0 254
0 0 252
0 0 245
0 0 250
0 0 253
0 0 254
0 0 255
0 0 250
0 0 254
0 0 254
0 0 253
0 0 250
0 0 253
0 0 246
0 0 250
0 0 253
0 0 253
0 0 248
0 0 255
0 0 252
0 0 250
0 0 245
0 0 252
0 0 252
0 0 250
0 0 252
0 0 253
0 0 250
0 0 250
0 0 249
0 0 248
0 0 249
0 0 241
0 0 250
0 0 245
0 0 249
0 0 249
0 0 249
0 0 246
0 0 249
0 0 250
0 0 240
0 0 250
0 0 245
0 0 248
0 0 246
0 0 244
0 0 250
0 0 245
0 0 241
0 0 242
0 0 237
0 0 245
0 0 241
0 0 248
0 0 245
0 0 244
0 0 246
0 0 240
0 0 244
0 0 245
0 0 238
0 0 245
0 0 252
0 0 244
0 0 240
0 0 245
0 0 245
0 0 241
0 0 238
0 0 244
0 0 241
0 0 237
0 0 238
0 0 228
0 0 245
0 0 240
0 0 234
0 0 244
0 0 234
0 0 238
0 0 231
0 0 240
0 0 231
0 0 234
0 0 231
0 0 226
0 0 221
0 0 233
0 0 224
0 0 227
0 0 226
0 0 223
0 0 234
0 0 227
0 0 220
0 0 230
0 0 224
0 0 218
0 0 214
0 0 223
0 0 215
0 0 220
0 0 227
0 0 212
0 0 206
0 0 207
0 0 207
0 0 223
0 0 198
0 0 194
0 0 199
0 0 194
0 0 184
0 0 196
0 0 199
0 0 177
0 0 177
0 0 169
0 0 177
0 0 161
0 0 149
0 0 144
0 0 137
0 0 108
0 0 95
0 0 105
114 120 142
108 106 114
72 0 0
83 0 0
108 0 0
109 0 0
127 0 0
138 0 0
120 0 0
150 0 0
160 0 0
163 0 0
161 0 0
152 0 0
153 0 0
151 0 0
186 0 0
168 0 0
166 0 0
177 0 0
179 0 0
179 0 0
183 0 0
191 0 0
181 0 0
180 0 0
192 0 0
192 0 0
197 0 0
187 0 0
191 0 0
194 0 0
197 0 0
192 0 0
198 0 0
204 0 0
193 0 0
199 0 0
194 0 0
202 0 0
200 0 0
201 0 0
202 0 0
209 0 0
198 0 0
205 0 0
199 0 0
203 0 0
203 0 0
220 0 0
207 0 0
202 0 0
206 0 0
207 0 0
207 0 0
213 0 0
210 0 0
215 0 0
210 0 0
196 0 0
207 0 0
214 0 0
211 0 0
216 0 0
207 0 0
213 0 0
210 0 0
204 0 0
205 0 0
207 0 0
218 0 0
202 0 0
212 0 0
211 0 0
217 0 0
206 0 0
215 0 0
208 0 0
212 0 0
217 0 0
219 0 0
220 0 0
212 0 0
215 0 0
215 0 0
218 0 0
214 0 0
214 0 0
217 0 0
213 0 0
213 0 0
220 0 0
216 0 0
217 0 0
219 0 0
218 0 0
217 0 0
210 0 0
214 0 0
217 0 0
221 0 0
219 0 0
215 0 0
219 0 0
214 0 0
221 0 0
217 0 0
216 0 0
217 0 0
220 0 0
217 0 0
214 0 0
218 0 0
216 0 0
221 0 0
221 0 0
218 0 0
215 0 0
220 0 0
218 0 0
215 0 0
220 0 0
218 0 0
220 0 0
224 0 0
219 0 0
218 0 0
218 0 0
216 0 0
221 0 0
220 0 0
221 0 0
215 0 0
214 0 0
215 0 0
224 0 0
219 0 0
223 0 0
219 0 0
221 0 0
219 0 0
218 0 0
216 0 0
218 0 0
221 0 0
224 0 0
220 0 0
220 0 0
219 0 0
219 0 0
220 0 0
219 0 0
220 0 0
219 0 0
222 0 0
223 0 0
220 0 0
214 0 0
220 0 0
218 0 0
221 0 0
224 0 0
220 0 0
220 0 0
220 0 0
220 0 0
220 0 0
221 0 0
220 0 0
220 0 0
214 0 0
218 0 0
220 0 0
218 0 0
221 0 0
222 0 0
219 0 0
223 0 0
220 0 0
218 0 0
218 0 0
220 0 0
222 0 0
220 0 0
220 0 0
223 0 0
219 0 0
220 0 0
222 0 0
223 0 0
219 0 0
224 0 0
222 0 0
225 0 0
222 0 0
222 0 0
220 0 0
222 0 0
221 0 0
216 0 0
223 0 0
0 0 254
0 0 255
0 0 254
0 0 254
0 0 255
0 0 255
0 0 255
0 0 254
0 0 255
0 0 252
0 0 253
0 0 255
0 0 255
0 0 255
0 0 254
0 0 255
0 0 255
0 0 253
0 0 254
0 0 253
0 0 254
0 0 255
0 0 254
0 0 255
0 0 255
0 0 254
0 0 255
0 0 254
0 0 254
0 0 254
0 0 253
0 0 255
0 0 252
0 0 254
0 0 252
0 0 253
0 0 254
0 0 253
0 0 254
0 0 254
0 0 254
0 0 255
0 0 253
0 0 254
0 0 253
0 0 255
0 0 254
0 0 254
0 0 254
0 0 253
0 0 253
0 0 248
0 0 252
0 0 255
0 0 252
0 0 255
0 0 254
0 0 252
0 0 254
0 0 255
0 0 254
0 0 253
0 0 246
0 0 252
0 0 253
0 0 254
0 0 252
0 0 253
0 0 252
0 0 248
0 0 253
0 0 252
0 0 250
0 0 254
0 0 250
0 0 250
0 0 254
0 0 254
0 0 254
0 0 252
0 0 250
0 0 252
0 0 255
0 0 252
0 0 252
0 0 252
0 0 252
0 0 248
0 0 252
0 0 246
0 0 246
0 0 246
0 0 255
0 0 250
0 0 248
0 0 252
0 0 244
0 0 250
0 0 250
0 0 246
0 0 252
0 0 249
0 0 249
0 0 250
0 0 253
0 0 245
0 0 244
0 0 250
0 0 248
0 0 244
0 0 246
0 0 242
0 0 248
0 0 248
0 0 244
0 0 248
0 0 246
0 0 248
0 0 250
0 0 248
0 0 252
0 0 248
0 0 248
0 0 244
0 0 246
0 0 250
0 0 246
0 0 242
0 0 245
0 0 248
0 0 249
0 0 244
0 0 244
0 0 244
0 0 244
0 0 234
0 0 236
0 0 244
0 0 240
0 0 241
0 0 237
0 0 237
0 0 249
0 0 241
0 0 241
0 0 238
0 0 234
0 0 242
0 0 240
0 0 241
0 0 231
0 0 240
0 0 236
0 0 230
0 0 236
0 0 228
0 0 240
0 0 241
0 0 236
0 0 230
0 0 228
0 0 230
0 0 221
0 0 221
0 0 236
0 0 224
0 0 217
0 0 215
0 0 236
0 0 214
0 0 218
0 0 218
0 0 212
0 0 220
0 0 228
0 0 226
0 0 206
0 0 203
0 0 196
0 0 207
0 0 211
0 0 209
0 0 189
0 0 199
0 0 184
0 0 186
0 0 198
0 0 207
0 0 179
0 0 181
0 0 169
0 0 175
0 0 169
0 0 169
0 0 161
0 0 133
0 0 128
0 0 111
0 0 84
122 129 149
117 113 122
84 0 0
117 0 0
124 0 0
106 0 0
143 0 0
130 0 0
129 0 0
146 0 0
148 0 0
156 0 0
162 0 0
159 0 0
163 0 0
160 0 0
165 0 0
177 0 0
178 0 0
173 0 0
193 0 0
196 0 0
185 0 0
193 0 0
187 0 0
189 0 0
183 0 0
188 0 0
187 0 0
194 0 0
195 0 0
195 0 0
202 0 0
192 0 0
197 0 0
186 0 0
199 0 0
198 0 0
200 0 0
208 0 0
194 0 0
211 0 0
205 0 0
208 0 0
204 0 0
206 0 0
202 0 0
212 0 0
206 0 0
203 0 0
207 0 0
206 0 0
200 0 0
211 0 0
214 0 0
198 0 0
211 0 0
209 0 0
214 0 0
201 0 0
207 0 0
215 0 0
210 0 0
212 0 0
214 0 0
202 0 0
216 0 0
211 0 0
213 0 0
214 0 0
213 0 0
208 0 0
211 0 0
214 0 0
213 0 0
210 0 0
206 0 0
208 0 0
214 0 0
218 0 0
216 0 0
211 0 0
216 0 0
212 0 0
214 0 0
214 0 0
216 0 0
220 0 0
212 0 0
216 0 0
218 0 0
210 0 0
220 0 0
215 0 0
216 0 0
214 0 0
219 0 0
218 0 0
216 0 0
213 0 0
215 0 0
215 0 0
216 0 0
214 0 0
222 0 0
216 0 0
218 0 0
219 0 0
216 0 0
223 0 0
223 0 0
220 0 0
220 0 0
215 0 0
213 0 0
215 0 0
218 0 0
222 0 0
219 0 0
217 0 0
221 0 0
222 0 0
218 0 0
219 0 0
215 0 0
219 0 0
217 0 0
216 0 0
221 0 0
217 0 0
221 0 0
217 0 0
220 0 0
217 0 0
220 0 0
219 0 0
220 0 0
220 0 0
219 0 0
220 0 0
213 0 0
216 0 0
219 0 0
220 0 0
222 0 0
221 0 0
218 0 0
219 0 0
221 0 0
217 0 0
218 0 0
220 0 0
221 0 0
223 0 0
219 0 0
221 0 0
223 0 0
220 0 0
221 0 0
227 0 0
223 0 0
216 0 0
220 0 0
218 0 0
222 0 0
221 0 0
216 0 0
221 0 0
223 0 0
223 0 0
221 0 0
219 0 0
221 0 0
220 0 0
221 0 0
221 0 0
220 0 0
219 0 0
215 0 0
222 0 0
220 0 0
223 0 0
221 0 0
219 0 0
223 0 0
221 0 0
223 0 0
225 0 0
217 0 0
225 0 0
223 0 0
220 0 0
222 0 0
223 0 0
224 0 0
222 0 0
219 0 0
217 0 0
222 0 0
223 0 0
220 0 0
0 0 254
0 0 253
0 0 255
0 0 255
0 0 255
0 0 255
0 0 255
0 0 254
0 0 255
0 0 255
0 0 253
0 0 255
0 0 254
0 0 255
0 0 255
0 0 254
0 0 255
0 0 255
0 0 255
0 0 254
0 0 255
0 0 254
0 0 255
0 0 255
0 0 254
0 0 253
0 0 254
0 0 254
0 0 254
0 0 254
0 0 254
0 0 255
0 0 255
0 0 253
0 0 254
0 0 255
0 0 255
0 0 254
0 0 254
0 0 252
0 0 255
0 0 253
0 0 254
0 0 254
0 0 255
0 0 255
0 0 253
0 0 254
0 0 255
0 0 254
0 0 254
0 0 255
0 0 250
0 0 252
0 0 250
0 0 254
0 0 249
0 0 254
0 0 250
0 0 254
0 0 254
0 0 249
0 0 253
0 0 254
0 0 252
0 0 254
0 0 252
0 0 255
0 0 252
0 0 250
0 0 254
0 0 252
0 0 250
0 0 254
0 0 249
0 0 255
0 0 250
0 0 253
0 0 252
0 0 252
0 0 253
0 0 249
0 0 253
0 0 250
0 0 253
0 0 253
0 0 249
0 0 248
0 0 250
0 0 252
0 0 252
0 0 249
0 0 250
0 0 249
0 0 250
0 0 253
0 0 253
0 0 253
0 0 252
0 0 245
0 0 252
0 0 242
0 0 246
0 0 246
0 0 250
0 0 249
0 0 248
0 0 245
0 0 248
0 0 250
0 0 248
0 0 252
0 0 244
0 0 248
0 0 248
0 0 240
0 0 246
0 0 250
0 0 245
0 0 242
0 0 245
0 0 248
0 0 248
0 0 245
0 0 241
0 0 240
0 0 244
0 0 245
0 0 246
0 0 240
0 0 241
0 0 242
0 0 242
0 0 248
0 0 245
0 0 240
0 0 248
0 0 238
0 0 241
0 0 241
0 0 242
0 0 242
0 0 237
0 0 237
0 0 241
0 0 242
0 0 246
0 0 238
0 0 227
0 0 236
0 0 237
0 0 241
0 0 233
0 0 234
0 0 240
0 0 234
0 0 242
0 0 230
0 0 233
0 0 226
0 0 234
0 0 218
0 0 230
0 0 224
0 0 234
0 0 233
0 0 220
0 0 227
0 0 238
0 0 223
0 0 215
0 0 228
0 0 211
0 0 217
0 0 217
0 0 209
0 0 215
0 0 215
0 0 209
0 0 194
0 0 199
0 0 188
0 0 198
0 0 196
0 0 182
0 0 194
0 0 191
0 0 169
0 0 171
0 0 177
0 0 177
0 0 171
0 0 167
0 0 165
0 0 163
0 0 147
0 0 108
0 0 102
0 0 76
153 162 184
148 155 167
81 0 0
86 0 0
117 0 0
121 0 0
129 0 0
135 0 0
154 0 0
144 0 0
153 0 0
148 0 0
155 0 0
169 0 0
171 0 0
164 0 0
178 0 0
171 0 0
175 0 0
169 0 0
162 0 0
189 0 0
174 0 0
186 0 0
198 0 0
183 0 0
184 0 0
190 0 0
192 0 0
201 0 0
191 0 0
197 0 0
196 0 0
193 0 0
195 0 0
187 0 0
194 0 0
202 0 0
196 0 0
193 0 0
206 0 0
209 0 0
199 0 0
199 0 0
202 0 0
196 0 0
203 0 0
209 0 0
204 0 0
204 0 0
208 0 0
203 0 0
200 0 0
198 0 0
213 0 0
215 0 0
209 0 0
213 0 0
213 0 0
215 0 0
214 0 0
217 0 0
210 0 0
203 0 0
210 0 0
210 0 0
212 0 0
208 0 0
208 0 0
214 0 0
217 0 0
214 0 0
209 0 0
203 0 0
212 0 0
208 0 0
217 0 0
213 0 0
217 0 0
213 0 0
212 0 0
211 0 0
215 0 0
213 0 0
215 0 0
216 0 0
218 0 0
215 0 0
215 0 0
213 0 0
217 0 0
216 0 0
217 0 0
217 0 0
211 0 0
217 0 0
219 0 0
212 0 0
217 0 0
214 0 0
213 0 0
223 0 0
215 0 0
218 0 0
217 0 0
211 0 0
219 0 0
218 0 0
219 0 0
222 0 0
221 0 0
218 0 0
219 0 0
214 0 0
223 0 0
216 0 0
220 0 0
224 0 0
210 0 0
218 0 0
224 0 0
213 0 0
216 0 0
220 0 0
225 0 0
220 0 0
214 0 0
221 0 0
219 0 0
220 0 0
217 0 0
219 0 0
221 0 0
217 0 0
216 0 0
220 0 0
221 0 0
223 0 0
221 0 0
220 0 0
222 0 0
223 0 0
223 0 0
218 0 0
218 0 0
221 0 0
218 0 0
219 0 0
215 0 0
219 0 0
218 0 0
222 0 0
218 0 0
222 0 0
221 0 0
217 0 0
220 0 0
222 0 0
219 0 0
222 0 0
216 0 0
223 0 0
221 0 0
221 0 0
226 0 0
223 0 0
216 0 0
219 0 0
216 0 0
222 0 0
223 0 0
219 0 0
220 0 0
223 0 0
222 0 0
222 0 0
218 0 0
220 0 0
221 0 0
221 0 0
221 0 0
221 0 0
218 0 0
217 0 0
224 0 0
221 0 0
219 0 0
223 0 0
222 0 0
222 0 0
223 0 0
221 0 0
226 0 0
222 0 0
221 0 0
220 0 0
223 0 0
223 0 0
224 0 0
219 0 0
223 0 0
0 0 254
0 0 254
0 0 255
0 0 255
0 0 254
0 0 253
0 0 255
0 0 254
0 0 255
0 0 254
0 0 255
0 0 254
0 0 255
0 0 255
0 0 255
0 0 253
0 0 254
0 0 253
0 0 255
0 0 254
0 0 255
0 0 254
0 0 255
0 0 255
0 0 254
0 0 253
0 0 254
0 0 253
0 0 254
0 0 254
0 0 249
0 0 254
0 0 253
0 0 255
0 0 253
0 0 255
0 0 254
0 0 253
0 0 255
0 0 254
0 0 252
0 0 253
0 0 254
0 0 254
0 0 255
0 0 255
0 0 252
0 0 254
0 0 254
0 0 255
0 0 253
0 0 254
0 0 254
0 0 254
0 0 250
0 0 254
0 0 249
0 0 253
0 0 250
0 0 253
0 0 254
0 0 253
0 0 253
0 0 254
0 0 249
0 0 252
0 0 253
0 0 253
0 0 254
0 0 252
0 0 252
0 0 250
0 0 250
0 0 253
0 0 255
0 0 254
0 0 250
0 0 248
0 0 254
0 0 254
0 0 253
0 0 246
0 0 253
0 0 253
0 0 249
0 0 249
0 0 252
0 0 252
0 0 250
0 0 252
0 0 252
0 0 254
0 0 250
0 0 248
0 0 252
0 0 254
0 0 252
0 0 252
0 0 245
0 0 253
0 0 240
0 0 250
0 0 246
0 0 237
0 0 245
0 0 249
0 0 255
0 0 244
0 0 254
0 0 249
0 0 249
0 0 249
0 0 250
0 0 244
0 0 252
0 0 242
0 0 250
0 0 248
0 0 250
0 0 245
0 0 242
0 0 249
0 0 249
0 0 244
0 0 244
0 0 242
0 0 238
0 0 252
0 0 240
0 0 244
0 0 246
0 0 245
0 0 246
0 0 246
0 0 236
0 0 248
0 0 250
0 0 231
0 0 236
0 0 236
0 0 242
0 0 231
0 0 234
0 0 244
0 0 234
0 0 240
0 0 234
0 0 234
0 0 244
0 0 234
0 0 238
0 0 237
0 0 233
0 0 241
0 0 231
0 0 241
0 0 236
0 0 241
0 0 226
0 0 234
0 0 233
0 0 227
0 0 233
0 0 230
0 0 226
0 0 223
0 0 231
0 0 223
0 0 224
0 0 227
0 0 220
0 0 221
0 0 224
0 0 215
0 0 212
0 0 201
0 0 199
0 0 218
0 0 214
0 0 209
0 0 204
0 0 194
0 0 194
0 0 201
0 0 191
0 0 169
0 0 203
0 0 191
0 0 177
0 0 181
0 0 182
0 0 186
0 0 159
0 0 153
0 0 149
0 0 128
0 0 120
0 0 95
0 0 92
157 166 182
168 174 188
74 0 0
116 0 0
101 0 0
137 0 0
121 0 0
128 0 0
140 0 0
139 0 0
148 0 0
163 0 0
161 0 0
175 0 0
176 0 0
179 0 0
173 0 0
177 0 0
178 0 0
176 0 0
174 0 0
171 0 0
175 0 0
178 0 0
186 0 0
198 0 0
196 0 0
185 0 0
188 0 0
201 0 0
195 0 0
187 0 0
203 0 0
185 0 0
191 0 0
203 0 0
191 0 0
199 0 0
193 0 0
207 0 0
208 0 0
199 0 0
203 0 0
204 0 0
200 0 0
206 0 0
195 0 0
204 0 0
207 0 0
206 0 0
202 0 0
208 0 0
196 0 0
197 0 0
213 0 0
205 0 0
204 0 0
207 0 0
198 0 0
206 0 0
209 0 0
211 0 0
210 0 0
212 0 0
212 0 0
209 0 0
210 0 0
214 0 0
212 0 0
215 0 0
219 0 0
209 0 0
216 0 0
216 0 0
210 0 0
215 0 0
206 0 0
210 0 0
221 0 0
212 0 0
220 0 0
214 0 0
214 0 0
220 0 0
210 0 0
211 0 0
219 0 0
212 0 0
211 0 0
214 0 0
213 0 0
214 0 0
217 0 0
220 0 0
216 0 0
215 0 0
217 0 0
221 0 0
215 0 0
216 0 0
218 0 0
219 0 0
214 0 0
218 0 0
222 0 0
215 0 0
221 0 0
221 0 0
222 0 0
214 0 0
215 0 0
217 0 0
217 0 0
218 0 0
212 0 0
222 0 0
214 0 0
217 0 0
217 0 0
217 0 0
218 0 0
222 0 0
219 0 0
221 0 0
219 0 0
220 0 0
221 0 0
214 0 0
223 0 0
217 0 0
221 0 0
221 0 0
220 0 0
217 0 0
221 0 0
215 0 0
219 0 0
220 0 0
221 0 0
217 0 0
215 0 0
223 0 0
217 0 0
220 0 0
222 0 0
222 0 0
223 0 0
216 0 0
221 0 0
221 0 0
223 0 0
222 0 0
219 0 0
219 0 0
219 0 0
215 0 0
217 0 0
221 0 0
221 0 0
219 0 0
223 0 0
220 0 0
222 0 0
216 0 0
223 0 0
223 0 0
222 0 0
220 0 0
220 0 0
218 0 0
222 0 0
219 0 0
219 0 0
221 0 0
220 0 0
221 0 0
224 0 0
223 0 0
221 0 0
223 0 0
223 0 0
221 0 0
224 0 0
220 0 0
220 0 0
223 0 0
220 0 0
223 0 0
223 0 0
217 0 0
221 0 0
222 0 0
220 0 0
218 0 0
222 0 0
225 0 0
219 0 0
226 0 0
222 0 0
219 0 0
222 0 0
0 0 255
0 0 255
0 0 254
0 0 255
0 0 255
0 0 255
0 0 254
0 0 254
0 0 255
0 0 254
0 0 255
0 0 253
0 0 255
0 0 255
0 0 255
0 0 254
0 0 255
0 0 254
0 0 254
0 0 254
0 0 255
0 0 255
0 0 255
0 0 255
0 0 254
0 0 254
0 0 255
0 0 255
0 0 253
0 0 254
0 0 254
0 0 252
0 0 254
0 0 253
0 0 254
0 0 254
0 0 254
0 0 255
0 0 254
0 0 254
0 0 252
0 0 255
0 0 255
0 0 254
0 0 254
0 0 253
0 0 253
0 0 253
0 0 254
0 0 254
0 0 255
0 0 255
0 0 254
0 0 254
0 0 254
0 0 252
0 0 249
0 0 252
0 0 254
0 0 254
0 0 252
0 0 254
0 0 255
0 0 252
0 0 254
0 0 250
0 0 248
0 0 253
0 0 250
0 0 250
0 0 253
0 0 252
0 0 253
0 0 255
0 0 253
0 0 250
0 0 254
0 0 253
0 0 254
0 0 250
0 0 253
0 0 249
0 0 253
0 0 252
0 0 252
0 0 250
0 0 249
0 0 250
0 0 248
0 0 248
0 0 248
0 0 249
0 0 248
0 0 255
0 0 252
0 0 249
0 0 252
0 0 244
0 0 248
0 0 254
0 0 253
0 0 253
0 0 253
0 0 248
0 0 249
0 0 246
0 0 252
0 0 242
0 0 246
0 0 250
0 0 245
0 0 246
0 0 248
0 0 253
0 0 246
0 0 244
0 0 249
0 0 249
0 0 240
0 0 249
0 0 252
0 0 242
0 0 244
0 0 244
0 0 245
0 0 244
0 0 242
0 0 236
0 0 241
0 0 244
0 0 249
0 0 245
0 0 241
0 0 242
0 0 241
0 0 234
0 0 244
0 0 240
0 0 244
0 0 237
0 0 242
0 0 242
0 0 242
0 0 240
0 0 234
0 0 249
0 0 241
0 0 238
0 0 238
0 0 231
0 0 233
0 0 242
0 0 231
0 0 231
0 0 230
0 0 230
0 0 230
0 0 233
0 0 238
0 0 215
0 0 231
0 0 227
0 0 228
0 0 223
0 0 223
0 0 223
0 0 224
0 0 228
0 0 211
0 0 227
0 0 223
0 0 220
0 0 226
0 0 215
0 0 230
0 0 214
0 0 221
0 0 209
0 0 203
0 0 209
0 0 224
0 0 211
0 0 203
0 0 188
0 0 201
0 0 193
0 0 179
0 0 173
0 0 167
0 0 169
0 0 161
0 0 167
0 0 173
0 0 151
0 0 147
0 0 137
0 0 135
0 0 125
0 0 99
181 191 207
185 184 198
66 0 0
99 0 0
110 0 0
121 0 0
127 0 0
149 0 0
140 0 0
155 0 0
160 0 0
149 0 0
171 0 0
155 0 0
163 0 0
159 0 0
174 0 0
167 0 0
170 0 0
185 0 0
182 0 0
180 0 0
189 0 0
187 0 0
186 0 0
193 0 0
198 0 0
187 0 0
195 0 0
178 0 0
185 0 0
193 0 0
203 0 0
201 0 0
192 0 0
191 0 0
193 0 0
201 0 0
202 0 0
203 0 0
202 0 0
197 0 0
197 0 0
201 0 0
205 0 0
206 0 0
201 0 0
196 0 0
206 0 0
204 0 0
202 0 0
203 0 0
212 0 0
212 0 0
201 0 0
210 0 0
208 0 0
207 0 0
213 0 0
200 0 0
208 0 0
217 0 0
208 0 0
210 0 0
210 0 0
214 0 0
208 0 0
214 0 0
210 0 0
206 0 0
213 0 0
211 0 0
214 0 0
217 0 0
212 0 0
212 0 0
214 0 0
212 0 0
211 0 0
213 0 0
216 0 0
218 0 0
218 0 0
216 0 0
213 0 0
217 0 0
214 0 0
216 0 0
212 0 0
218 0 0
213 0 0
222 0 0
218 0 0
213 0 0
219 0 0
211 0 0
211 0 0
213 0 0
219 0 0
216 0 0
220 0 0
219 0 0
215 0 0
216 0 0
214 0 0
217 0 0
219 0 0
214 0 0
215 0 0
217 0 0
219 0 0
218 0 0
222 0 0
221 0 0
216 0 0
216 0 0
217 0 0
217 0 0
213 0 0
220 0 0
219 0 0
220 0 0
216 0 0
219 0 0
215 0 0
217 0 0
226 0 0
221 0 0
212 0 0
219 0 0
217 0 0
221 0 0
216 0 0
219 0 0
220 0 0
218 0 0
217 0 0
216 0 0
221 0 0
220 0 0
220 0 0
222 0 0
222 0 0
220 0 0
219 0 0
218 0 0
217 0 0
220 0 0
219 0 0
220 0 0
220 0 0
220 0 0
217 0 0
217 0 0
220 0 0
216 0 0
220 0 0
218 0 0
221 0 0
221 0 0
220 0 0
220 0 0
220 0 0
215 0 0
225 0 0
222 0 0
222 0 0
223 0 0
222 0 0
223 0 0
222 0 0
220 0 0
220 0 0
223 0 0
217 0 0
223 0 0
222 0 0
219 0 0
218 0 0
222 0 0
221 0 0
220 0 0
218 0 0
222 0 0
223 0 0
220 0 0
221 0 0
221 0 0
221 0 0
219 0 0
222 0 0
222 0 0
223 0 0
220 0 0
223 0 0
223 0 0
224 0 0
222 0 0
221 0 0
219 0 0
220 0 0
0 0 255
0 0 254
0 0 255
0 0 255
0 0 255
0 0 255
0 0 255
0 0 255
0 0 255
0 0 255
0 0 254
0 0 253
0 0 255
0 0 252
0 0 254
0 0 255
0 0 253
0 0 253
0 0 254
0 0 250
0 0 255
0 0 255
0 0 255
0 0 255
0 0 254
0 0 255
0 0 255
0 0 255
0 0 253
0 0 254
0 0 253
0 0 254
0 0 252
0 0 255
0 0 255
0 0 252
0 0 252
0 0 253
0 0 254
0 0 254
0 0 254
0 0 255
0 0 255
0 0 253
0 0 254
0 0 253
0 0 253
0 0 252
0 0 254
0 0 255
0 0 254
0 0 253
0 0 255
0 0 254
0 0 254
0 0 250
0 0 253
0 0 255
0 0 253
0 0 253
0 0 254
0 0 255
0 0 248
0 0 253
0 0 254
0 0 255
0 0 253
0 0 248
0 0 253
0 0 253
0 0 253
0 0 245
0 0 252
0 0 248
0 0 253
0 0 253
0 0 250
0 0 254
0 0 252
0 0 253
0 0 253
0 0 252
0 0 250
0 0 254
0 0 254
0 0 253
0 0 248
0 0 253
0 0 252
0 0 250
0 0 250
0 0 249
0 0 246
0 0 246
0 0 250
0 0 246
0 0 250
0 0 252
0 0 253
0 0 252
0 0 246
0 0 250
0 0 246
0 0 254
0 0 249
0 0 249
0 0 250
0 0 248
0 0 248
0 0 249
0 0 248
0 0 244
0 0 249
0 0 244
0 0 242
0 0 246
0 0 248
0 0 245
0 0 249
0 0 246
0 0 250
0 0 245
0 0 246
0 0 246
0 0 242
0 0 238
0 0 246
0 0 248
0 0 241
0 0 245
0 0 248
0 0 242
0 0 242
0 0 245
0 0 230
0 0 238
0 0 241
0 0 245
0 0 245
0 0 240
0 0 236
0 0 241
0 0 244
0 0 226
0 0 244
0 0 240
0 0 244
0 0 242
0 0 237
0 0 240
0 0 230
0 0 240
0 0 236
0 0 236
0 0 230
0 0 242
0 0 224
0 0 241
0 0 226
0 0 228
0 0 226
0 0 234
0 0 226
0 0 221
0 0 228
0 0 227
0 0 233
0 0 231
0 0 227
0 0 227
0 0 218
0 0 220
0 0 230
0 0 214
0 0 209
0 0 211
0 0 226
0 0 209
0 0 207
0 0 204
0 0 207
0 0 209
0 0 198
0 0 196
0 0 196
0 0 199
0 0 194
0 0 188
0 0 186
0 0 184
0 0 181
0 0 161
0 0 182
0 0 140
0 0 147
0 0 140
0 0 125
0 0 99
0 0 88
189 200 217
207 218 234
91 0 0
98 0 0
106 0 0
101 0 0
119 0 0
163 0 0
148 0 0
143 0 0
161 0 0
157 0 0
172 0 0
161 0 0
164 0 0
182 0 0
179 0 0
167 0 0
185 0 0
189 0 0
188 0 0
178 0 0
191 0 0
183 0 0
181 0 0
189 0 0
177 0 0
191 0 0
185 0 0
187 0 0
190 0 0
180 0 0
199 0 0
203 0 0
193 0 0
200 0 0
200 0 0
198 0 0
207 0 0
199 0 0
202 0 0
202 0 0
212 0 0
207 0 0
210 0 0
199 0 0
204 0 0
209 0 0
199 0 0
210 0 0
204 0 0
207 0 0
208 0 0
204 0 0
202 0 0
210 0 0
208 0 0
202 0 0
218 0 0
208 0 0
210 0 0
208 0 0
210 0 0
212 0 0
209 0 0
214 0 0
209 0 0
212 0 0
215 0 0
212 0 0
217 0 0
216 0 0
215 0 0
206 0 0
204 0 0
211 0 0
216 0 0
212 0 0
217 0 0
213 0 0
218 0 0
217 0 0
218 0 0
213 0 0
215 0 0
213 0 0
219 0 0
220 0 0
216 0 0
214 0 0
220 0 0
218 0 0
216 0 0
215 0 0
218 0 0
222 0 0
215 0 0
218 0 0
218 0 0
220 0 0
215 0 0
219 0 0
213 0 0
215 0 0
213 0 0
211 0 0
218 0 0
217 0 0
218 0 0
217 0 0
210 0 0
220 0 0
217 0 0
223 0 0
221 0 0
216 0 0
223 0 0
222 0 0
215 0 0
220 0 0
224 0 0
218 0 0
215 0 0
218 0 0
212 0 0
223 0 0
220 0 0
220 0 0
215 0 0
221 0 0
224 0 0
222 0 0
224 0 0
219 0 0
214 0 0
217 0 0
221 0 0
216 0 0
218 0 0
221 0 0
223 0 0
222 0 0
220 0 0
216 0 0
219 0 0
221 0 0
221 0 0
217 0 0
220 0 0
218 0 0
224 0 0
223 0 0
224 0 0
220 0 0
218 0 0
219 0 0
223 0 0
224 0 0
220 0 0
221 0 0
226 0 0
224 0 0
223 0 0
228 0 0
220 0 0
219 0 0
220 0 0
223 0 0
217 0 0
222 0 0
218 0 0
224 0 0
219 0 0
222 0 0
222 0 0
222 0 0
222 0 0
222 0 0
223 0 0
223 0 0
225 0 0
221 0 0
221 0 0
219 0 0
221 0 0
218 0 0
223 0 0
223 0 0
220 0 0
223 0 0
225 0 0
222 0 0
224 0 0
218 0 0
223 0 0
224 0 0
219 0 0
221 0 0
220 0 0
220 0 0
219 0 0
0 0 255
0 0 255
0 0 255
0 0 255
0 0 255
0 0 255
0 0 255
0 0 255
0 0 255
0 0 255
0 0 255
0 0 253
0 0 255
0 0 254
0 0 254
0 0 255
0 0 254
0 0 253
0 0 255
0 0 254
0 0 255
0 0 255
0 0 254
0 0 254
0 0 254
0 0 255
0 0 255
0 0 254
0 0 255
0 0 253
0 0 255
0 0 254
0 0 252
0 0 255
0 0 255
0 0 254
0 0 254
0 0 252
0 0 254
0 0 253
0 0 254
0 0 255
0 0 254
0 0 253
0 0 254
0 0 254
0 0 253
0 0 255
0 0 249
0 0 253
0 0 253
0 0 253
0 0 250
0 0 250
0 0 254
0 0 252
0 0 252
0 0 255
0 0 255
0 0 254
0 0 253
0 0 254
0 0 250
0 0 252
0 0 254
0 0 255
0 0 254
0 0 252
0 0 248
0 0 253
0 0 250
0 0 254
0 0 253
0 0 252
0 0 252
0 0 250
0 0 249
0 0 253
0 0 255
0 0 254
0 0 254
0 0 246
0 0 253
0 0 254
0 0 254
0 0 249
0 0 253
0 0 252
0 0 253
0 0 252
0 0 253
0 0 249
0 0 246
0 0 248
0 0 250
0 0 249
0 0 248
0 0 252
0 0 246
0 0 250
0 0 244
0 0 250
0 0 252
0 0 246
0 0 249
0 0 249
0 0 250
0 0 245
0 0 250
0 0 254
0 0 253
0 0 246
0 0 250
0 0 252
0 0 250
0 0 249
0 0 246
0 0 244
0 0 244
0 0 242
0 0 249
0 0 245
0 0 248
0 0 241
0 0 249
0 0 241
0 0 249
0 0 242
0 0 246
0 0 245
0 0 241
0 0 233
0 0 248
0 0 248
0 0 249
0 0 240
0 0 231
0 0 242
0 0 237
0 0 242
0 0 241
0 0 240
0 0 244
0 0 238
0 0 237
0 0 236
0 0 237
0 0 240
0 0 238
0 0 226
0 0 236
0 0 242
0 0 233
0 0 238
0 0 217
0 0 240
0 0 233
0 0 236
0 0 233
0 0 220
0 0 237
0 0 228
0 0 228
0 0 231
0 0 237
0 0 234
0 0 226
0 0 228
0 0 227
0 0 226
0 0 220
0 0 221
0 0 206
0 0 221
0 0 211
0 0 206
0 0 215
0 0 206
0 0 201
0 0 226
0 0 209
0 0 198
0 0 211
0 0 203
0 0 196
0 0 194
0 0 198
0 0 171
0 0 182
0 0 177
0 0 173
0 0 169
0 0 165
0 0 149
0 0 159
0 0 128
0 0 133
0 0 135
0 0 84
221 233 253
213 223 240
84 0 0
103 0 0
107 0 0
129 0 0
119 0 0
139 0 0
147 0 0
161 0 0
152 0 0
146 0 0
157 0 0
159 0 0
179 0 0
173 0 0
177 0 0
166 0 0
185 0 0
194 0 0
174 0 0
174 0 0
197 0 0
188 0 0
188 0 0
185 0 0
196 0 0
189 0 0
191 0 0
189 0 0
194 0 0
197 0 0
190 0 0
202 0 0
191 0 0
201 0 0
204 0 0
200 0 0
203 0 0
208 0 0
193 0 0
195 0 0
205 0 0
202 0 0
203 0 0
212 0 0
206 0 0
202 0 0
212 0 0
199 0 0
215 0 0
214 0 0
208 0 0
200 0 0
210 0 0
213 0 0
208 0 0
202 0 0
216 0 0
213 0 0
217 0 0
209 0 0
217 0 0
198 0 0
214 0 0
209 0 0
204 0 0
222 0 0
207 0 0
213 0 0
218 0 0
217 0 0
211 0 0
210 0 0
219 0 0
205 0 0
214 0 0
210 0 0
214 0 0
207 0 0
222 0 0
217 0 0
207 0 0
216 0 0
214 0 0
214 0 0
214 0 0
218 0 0
214 0 0
219 0 0
219 0 0
218 0 0
211 0 0
217 0 0
224 0 0
221 0 0
216 0 0
215 0 0
220 0 0
218 0 0
219 0 0
215 0 0
217 0 0
210 0 0
212 0 0
216 0 0
221 0 0
222 0 0
211 0 0
215 0 0
221 0 0
216 0 0
216 0 0
220 0 0
222 0 0
214 0 0
221 0 0
221 0 0
217 0 0
216 0 0
219 0 0
223 0 0
222 0 0
215 0 0
218 0 0
222 0 0
220 0 0
223 0 0
218 0 0
225 0 0
221 0 0
223 0 0
223 0 0
217 0 0
213 0 0
219 0 0
215 0 0
222 0 0
224 0 0
219 0 0
220 0 0
220 0 0
220 0 0
220 0 0
217 0 0
218 0 0
218 0 0
219 0 0
219 0 0
220 0 0
220 0 0
218 0 0
218 0 0
224 0 0
217 0 0
223 0 0
222 0 0
221 0 0
216 0 0
215 0 0
220 0 0
220 0 0
226 0 0
221 0 0
222 0 0
223 0 0
225 0 0
222 0 0
220 0 0
224 0 0
221 0 0
219 0 0
218 0 0
221 0 0
224 0 0
223 0 0
220 0 0
225 0 0
221 0 0
224 0 0
219 0 0
221 0 0
219 0 0
224 0 0
221 0 0
226 0 0
219 0 0
222 0 0
226 0 0
217 0 0
224 0 0
222 0 0
220 0 0
222 0 0
217 0 0
219 0 0
220 0 0
222 0 0
223 0 0
225 0 0
223 0 0
0 0 253
0 0 255
0 0 255
0 0 255
0 0 255
0 0 255
0 0 255
0 0 255
0 0 255
0 0 255
0 0 255
0 0 254
0 0 253
0 0 253
0 0 255
0 0 255
0 0 255
0 0 253
0 0 255
0 0 253
0 0 255
0 0 255
0 0 255
0 0 254
0 0 254
0 0 254
0 0 253
0 0 249
0 0 252
0 0 253
0 0 253
0 0 254
0 0 254
0 0 254
0 0 253
0 0 255
0 0 254
0 0 253
0 0 253
0 0 255
0 0 255
0 0 252
0 0 254
0 0 254
0 0 253
0 0 252
0 0 254
0 0 255
0 0 254
0 0 253
0 0 255
0 0 254
0 0 253
0 0 253
0 0 253
0 0 254
0 0 254
0 0 254
0 0 254
0 0 253
0 0 253
0 0 253
0 0 250
0 0 253
0 0 250
0 0 255
0 0 252
0 0 249
0 0 252
0 0 253
0 0 253
0 0 253
0 0 254
0 0 252
0 0 252
0 0 248
0 0 249
0 0 253
0 0 253
0 0 252
0 0 250
0 0 250
0 0 252
0 0 252
0 0 254
0 0 253
0 0 252
0 0 252
0 0 252
0 0 250
0 0 246
0 0 249
0 0 253
0 0 253
0 0 252
0 0 252
0 0 250
0 0 252
0 0 249
0 0 253
0 0 244
0 0 248
0 0 248
0 0 246
0 0 248
0 0 249
0 0 253
0 0 252
0 0 245
0 0 245
0 0 249
0 0 248
0 0 245
0 0 246
0 0 248
0 0 246
0 0 245
0 0 240
0 0 244
0 0 245
0 0 241
0 0 246
0 0 246
0 0 242
0 0 241
0 0 246
0 0 248
0 0 246
0 0 241
0 0 248
0 0 244
0 0 244
0 0 244
0 0 246
0 0 246
0 0 242
0 0 242
0 0 241
0 0 242
0 0 242
0 0 226
0 0 234
0 0 245
0 0 237
0 0 240
0 0 242
0 0 238
0 0 244
0 0 237
0 0 234
0 0 245
0 0 233
0 0 231
0 0 236
0 0 224
0 0 234
0 0 233
0 0 237
0 0 238
0 0 227
0 0 236
0 0 226
0 0 228
0 0 221
0 0 231
0 0 230
0 0 211
0 0 223
0 0 230
0 0 226
0 0 211
0 0 226
0 0 223
0 0 211
0 0 224
0 0 215
0 0 209
0 0 215
0 0 207
0 0 204
0 0 201
0 0 207
0 0 207
0 0 194
0 0 181
0 0 189
0 0 193
0 0 182
0 0 169
0 0 177
0 0 189
0 0 171
0 0 163
0 0 155
0 0 157
0 0 135
0 0 137
0 0 102
74 79 125
225 238 255
225 238 255
124 63 67
100 0 0
109 0 0
123 0 0
136 0 0
131 0 0
140 0 0
149 0 0
145 0 0
145 0 0
175 0 0
171 0 0
160 0 0
166 0 0
178 0 0
172 0 0
173 0 0
182 0 0
178 0 0
190 0 0
182 0 0
191 0 0
192 0 0
191 0 0
192 0 0
200 0 0
194 0 0
198 0 0
198 0 0
197 0 0
198 0 0
196 0 0
193 0 0
195 0 0
195 0 0
201 0 0
206 0 0
203 0 0
200 0 0
210 0 0
199 0 0
212 0 0
204 0 0
200 0 0
209 0 0
207 0 0
212 0 0
208 0 0
202 0 0
209 0 0
204 0 0
209 0 0
207 0 0
201 0 0
209 0 0
213 0 0
209 0 0
201 0 0
202 0 0
216 0 0
212 0 0
205 0 0
209 0 0
212 0 0
210 0 0
207 0 0
206 0 0
211 0 0
221 0 0
216 0 0
209 0 0
209 0 0
208 0 0
214 0 0
216 0 0
218 0 0
216 0 0
213 0 0
216 0 0
215 0 0
213 0 0
219 0 0
216 0 0
216 0 0
213 0 0
218 0 0
212 0 0
219 0 0
212 0 0
220 0 0
213 0 0
212 0 0
216 0 0
216 0 0
217 0 0
219 0 0
218 0 0
217 0 0
212 0 0
218 0 0
221 0 0
219 0 0
220 0 0
220 0 0
211 0 0
218 0 0
217 0 0
220 0 0
217 0 0
220 0 0
220 0 0
216 0 0
223 0 0
218 0 0
220 0 0
217 0 0
222 0 0
218 0 0
217 0 0
223 0 0
219 0 0
222 0 0
217 0 0
225 0 0
219 0 0
220 0 0
221 0 0
222 0 0
217 0 0
223 0 0
215 0 0
218 0 0
219 0 0
219 0 0
221 0 0
220 0 0
220 0 0
219 0 0
221 0 0
220 0 0
219 0 0
220 0 0
219 0 0
220 0 0
222 0 0
221 0 0
226 0 0
221 0 0
220 0 0
219 0 0
220 0 0
223 0 0
217 0 0
222 0 0
220 0 0
219 0 0
219 0 0
218 0 0
222 0 0
221 0 0
218 0 0
221 0 0
225 0 0
221 0 0
223 0 0
217 0 0
224 0 0
220 0 0
217 0 0
225 0 0
222 0 0
224 0 0
221 0 0
223 0 0
224 0 0
220 0 0
223 0 0
222 0 0
221 0 0
222 0 0
220 0 0
220 0 0
221 0 0
218 0 0
225 0 0
220 0 0
222 0 0
220 0 0
223 0 0
224 0 0
221 0 0
220 0 0
222 0 0
223 0 0
224 0 0
222 0 0
223 0 0
218 0 0
222 0 0
0 0 252
0 0 253
0 0 255
0 0 255
0 0 254
0 0 253
0 0 254
0 0 254
0 0 255
0 0 255
0 0 255
0 0 255
0 0 255
0 0 255
0 0 255
0 0 255
0 0 255
0 0 253
0 0 254
0 0 254
0 0 254
0 0 253
0 0 255
0 0 254
0 0 254
0 0 254
0 0 255
0 0 254
0 0 253
0 0 254
0 0 253
0 0 253
0 0 253
0 0 252
0 0 254
0 0 254
0 0 254
0 0 254
0 0 254
0 0 253
0 0 254
0 0 253
0 0 255
0 0 253
0 0 253
0 0 252
0 0 255
0 0 254
0 0 254
0 0 252
0 0 254
0 0 253
0 0 253
0 0 248
0 0 252
0 0 253
0 0 253
0 0 254
0 0 254
0 0 254
0 0 253
0 0 253
0 0 254
0 0 253
0 0 255
0 0 254
0 0 249
0 0 252
0 0 250
0 0 253
0 0 254
0 0 254
0 0 253
0 0 252
0 0 250
0 0 254
0 0 254
0 0 253
0 0 248
0 0 253
0 0 253
0 0 252
0 0 250
0 0 249
0 0 252
0 0 245
0 0 250
0 0 255
0 0 249
0 0 249
0 0 253
0 0 253
0 0 249
0 0 253
0 0 249
0 0 246
0 0 248
0 0 250
0 0 252
0 0 253
0 0 244
0 0 249
0 0 253
0 0 248
0 0 248
0 0 253
0 0 245
0 0 246
0 0 254
0 0 250
0 0 248
0 0 253
0 0 254
0 0 249
0 0 245
0 0 238
0 0 242
0 0 246
0 0 241
0 0 244
0 0 249
0 0 248
0 0 248
0 0 246
0 0 246
0 0 244
0 0 242
0 0 245
0 0 244
0 0 248
0 0 244
0 0 250
0 0 241
0 0 242
0 0 244
0 0 242
0 0 242
0 0 242
0 0 241
0 0 230
0 0 233
0 0 244
0 0 248
0 0 241
0 0 240
0 0 241
0 0 245
0 0 242
0 0 238
0 0 230
0 0 223
0 0 237
0 0 238
0 0 233
0 0 244
0 0 224
0 0 228
0 0 223
0 0 234
0 0 237
0 0 234
0 0 242
0 0 226
0 0 227
0 0 224
0 0 228
0 0 224
0 0 228
0 0 215
0 0 224
0 0 227
0 0 217
0 0 218
0 0 214
0 0 215
0 0 209
0 0 203
0 0 218
0 0 211
0 0 212
0 0 201
0 0 199
0 0 201
0 0 196
0 0 201
0 0 196
0 0 189
0 0 186
0 0 188
0 0 189
0 0 171
0 0 147
0 0 167
0 0 130
0 0 153
0 0 137
0 0 128
0 0 108
98 104 142
226 238 255
226 238 255
144 126 135
95 0 0
109 0 0
126 0 0
127 0 0
160 0 0
149 0 0
161 0 0
163 0 0
168 0 0
159 0 0
159 0 0
170 0 0
177 0 0
168 0 0
180 0 0
169 0 0
186 0 0
185 0 0
179 0 0
186 0 0
185 0 0
180 0 0
197 0 0
191 0 0
197 0 0
195 0 0
187 0 0
196 0 0
207 0 0
192 0 0
187 0 0
208 0 0
192 0 0
201 0 0
200 0 0
208 0 0
199 0 0
206 0 0
205 0 0
198 0 0
209 0 0
215 0 0
207 0 0
203 0 0
213 0 0
203 0 0
207 0 0
212 0 0
208 0 0
200 0 0
208 0 0
215 0 0
206 0 0
213 0 0
216 0 0
215 0 0
212 0 0
205 0 0
208 0 0
205 0 0
213 0 0
208 0 0
208 0 0
208 0 0
211 0 0
217 0 0
215 0 0
205 0 0
219 0 0
213 0 0
210 0 0
214 0 0
218 0 0
214 0 0
215 0 0
215 0 0
208 0 0
221 0 0
211 0 0
215 0 0
208 0 0
210 0 0
218 0 0
218 0 0
206 0 0
217 0 0
218 0 0
213 0 0
221 0 0
214 0 0
220 0 0
215 0 0
212 0 0
221 0 0
214 0 0
217 0 0
217 0 0
211 0 0
220 0 0
219 0 0
220 0 0
219 0 0
214 0 0
211 0 0
217 0 0
215 0 0
217 0 0
222 0 0
212 0 0
216 0 0
214 0 0
215 0 0
221 0 0
219 0 0
219 0 0
215 0 0
217 0 0
216 0 0
217 0 0
217 0 0
219 0 0
219 0 0
217 0 0
220 0 0
216 0 0
222 0 0
219 0 0
222 0 0
219 0 0
224 0 0
217 0 0
222 0 0
220 0 0
223 0 0
222 0 0
222 0 0
223 0 0
219 0 0
220 0 0
220 0 0
221 0 0
218 0 0
223 0 0
223 0 0
223 0 0
221 0 0
218 0 0
218 0 0
221 0 0
221 0 0
222 0 0
221 0 0
223 0 0
224 0 0
220 0 0
219 0 0
217 0 0
216 0 0
218 0 0
222 0 0
220 0 0
221 0 0
222 0 0
219 0 0
222 0 0
220 0 0
220 0 0
224 0 0
221 0 0
224 0 0
224 0 0
224 0 0
226 0 0
223 0 0
221 0 0
220 0 0
222 0 0
221 0 0
225 0 0
226 0 0
222 0 0
220 0 0
219 0 0
224 0 0
222 0 0
221 0 0
224 0 0
219 0 0
222 0 0
223 0 0
224 0 0
220 0 0
219 0 0
220 0 0
225 0 0
222 0 0
221 0 0
223 0 0
0 0 255
0 0 255
0 0 254
0 0 255
0 0 255
0 0 253
0 0 254
0 0 255
0 0 255
0 0 254
0 0 255
0 0 255
0 0 255
0 0 255
0 0 255
0 0 254
0 0 252
0 0 254
0 0 254
0 0 254
0 0 255
0 0 254
0 0 255
0 0 250
0 0 255
0 0 254
0 0 255
0 0 254
0 0 253
0 0 254
0 0 253
0 0 252
0 0 253
0 0 255
0 0 253
0 0 250
0 0 253
0 0 253
0 0 254
0 0 253
0 0 253
0 0 253
0 0 255
0 0 254
0 0 253
0 0 253
0 0 254
0 0 254
0 0 253
0 0 255
0 0 253
0 0 253
0 0 254
0 0 254
0 0 253
0 0 250
0 0 250
0 0 253
0 0 254
0 0 255
0 0 254
0 0 254
0 0 252
0 0 253
0 0 253
0 0 253
0 0 253
0 0 252
0 0 250
0 0 253
0 0 250
0 0 249
0 0 254
0 0 254
0 0 250
0 0 254
0 0 253
0 0 250
0 0 250
0 0 250
0 0 249
0 0 249
0 0 250
0 0 249
0 0 252
0 0 253
0 0 252
0 0 253
0 0 249
0 0 252
0 0 252
0 0 249
0 0 249
0 0 246
0 0 248
0 0 248
0 0 249
0 0 249
0 0 249
0 0 249
0 0 250
0 0 249
0 0 246
0 0 248
0 0 252
0 0 252
0 0 249
0 0 249
0 0 245
0 0 255
0 0 249
0 0 246
0 0 246
0 0 252
0 0 249
0 0 252
0 0 238
0 0 250
0 0 246
0 0 246
0 0 242
0 0 246
0 0 244
0 0 242
0 0 244
0 0 244
0 0 248
0 0 246
0 0 240
0 0 240
0 0 244
0 0 240
0 0 242
0 0 245
0 0 248
0 0 236
0 0 244
0 0 228
0 0 245
0 0 237
0 0 234
0 0 252
0 0 236
0 0 246
0 0 234
0 0 244
0 0 234
0 0 226
0 0 234
0 0 238
0 0 236
0 0 236
0 0 238
0 0 242
0 0 230
0 0 236
0 0 224
0 0 234
0 0 228
0 0 228
0 0 227
0 0 234
0 0 226
0 0 226
0 0 209
0 0 223
0 0 223
0 0 226
0 0 220
0 0 228
0 0 218
0 0 221
0 0 217
0 0 217
0 0 226
0 0 212
0 0 212
0 0 211
0 0 206
0 0 217
0 0 204
0 0 215
0 0 207
0 0 212
0 0 194
0 0 188
0 0 175
0 0 169
0 0 177
0 0 182
0 0 189
0 0 171
0 0 165
0 0 155
0 0 133
0 0 105
0 0 114
0 0 120
160 168 191
226 238 255
226 238 255
166 161 173
101 0 0
123 0 0
134 0 0
134 0 0
142 0 0
156 0 0
151 0 0
143 0 0
160 0 0
150 0 0
161 0 0
163 0 0
168 0 0
182 0 0
177 0 0
182 0 0
192 0 0
183 0 0
185 0 0
184 0 0
196 0 0
187 0 0
182 0 0
194 0 0
198 0 0
197 0 0
192 0 0
202 0 0
188 0 0
197 0 0
187 0 0
200 0 0
196 0 0
204 0 0
208 0 0
209 0 0
207 0 0
206 0 0
201 0 0
207 0 0
206 0 0
203 0 0
207 0 0
204 0 0
203 0 0
205 0 0
211 0 0
217 0 0
206 0 0
207 0 0
205 0 0
207 0 0
211 0 0
208 0 0
211 0 0
208 0 0
212 0 0
212 0 0
213 0 0
217 0 0
210 0 0
211 0 0
215 0 0
217 0 0
209 0 0
209 0 0
207 0 0
215 0 0
214 0 0
217 0 0
213 0 0
213 0 0
216 0 0
217 0 0
210 0 0
217 0 0
215 0 0
216 0 0
212 0 0
222 0 0
212 0 0
210 0 0
217 0 0
214 0 0
220 0 0
211 0 0
219 0 0
214 0 0
222 0 0
207 0 0
220 0 0
214 0 0
221 0 0
216 0 0
222 0 0
223 0 0
216 0 0
215 0 0
213 0 0
218 0 0
220 0 0
222 0 0
217 0 0
218 0 0
224 0 0
218 0 0
221 0 0
222 0 0
218 0 0
221 0 0
217 0 0
216 0 0
217 0 0
218 0 0
218 0 0
222 0 0
220 0 0
218 0 0
217 0 0
219 0 0
221 0 0
215 0 0
220 0 0
220 0 0
217 0 0
218 0 0
216 0 0
219 0 0
219 0 0
225 0 0
219 0 0
221 0 0
218 0 0
220 0 0
222 0 0
217 0 0
222 0 0
220 0 0
215 0 0
220 0 0
225 0 0
224 0 0
223 0 0
223 0 0
218 0 0
223 0 0
221 0 0
223 0 0
217 0 0
221 0 0
220 0 0
220 0 0
220 0 0
223 0 0
222 0 0
221 0 0
222 0 0
224 0 0
219 0 0
222 0 0
220 0 0
220 0 0
220 0 0
221 0 0
222 0 0
223 0 0
223 0 0
221 0 0
218 0 0
222 0 0
218 0 0
226 0 0
218 0 0
221 0 0
223 0 0
223 0 0
223 0 0
222 0 0
225 0 0
221 0 0
217 0 0
219 0 0
222 0 0
225 0 0
223 0 0
223 0 0
222 0 0
224 0 0
223 0 0
224 0 0
225 0 0
219 0 0
222 0 0
222 0 0
220 0 0
222 0 0
220 0 0
221 0 0
0 0 255
0 0 253
0 0 254
0 0 254
0 0 253
0 0 255
0 0 255
0 0 254
0 0 254
0 0 255
0 0 254
0 0 255
0 0 255
0 0 255
0 0 254
0 0 254
0 0 255
0 0 254
0 0 255
0 0 255
0 0 252
0 0 253
0 0 255
0 0 254
0 0 253
0 0 254
0 0 254
0 0 254
0 0 254
0 0 254
0 0 254
0 0 255
0 0 253
0 0 255
0 0 254
0 0 255
0 0 254
0 0 253
0 0 254
0 0 255
0 0 255
0 0 255
0 0 253
0 0 255
0 0 253
0 0 254
0 0 254
0 0 254
0 0 254
0 0 252
0 0 253
0 0 252
0 0 253
0 0 249
0 0 254
0 0 253
0 0 250
0 0 255
0 0 253
0 0 253
0 0 248
0 0 252
0 0 254
0 0 253
0 0 252
0 0 252
0 0 252
0 0 250
0 0 255
0 0 252
0 0 250
0 0 255
0 0 250
0 0 253
0 0 253
0 0 249
0 0 254
0 0 248
0 0 252
0 0 249
0 0 252
0 0 254
0 0 248
0 0 253
0 0 253
0 0 249
0 0 249
0 0 250
0 0 253
0 0 253
0 0 252
0 0 253
0 0 253
0 0 250
0 0 252
0 0 253
0 0 253
0 0 250
0 0 244
0 0 253
0 0 254
0 0 249
0 0 248
0 0 252
0 0 246
0 0 250
0 0 242
0 0 248
0 0 248
0 0 252
0 0 248
0 0 248
0 0 253
0 0 249
0 0 249
0 0 248
0 0 253
0 0 246
0 0 248
0 0 246
0 0 246
0 0 245
0 0 246
0 0 248
0 0 249
0 0 248
0 0 241
0 0 244
0 0 249
0 0 253
0 0 249
0 0 240
0 0 245
0 0 248
0 0 240
0 0 236
0 0 238
0 0 246
0 0 245
0 0 242
0 0 242
0 0 241
0 0 245
0 0 236
0 0 244
0 0 242
0 0 230
0 0 237
0 0 237
0 0 245
0 0 228
0 0 238
0 0 236
0 0 228
0 0 231
0 0 228
0 0 231
0 0 228
0 0 228
0 0 233
0 0 227
0 0 230
0 0 224
0 0 234
0 0 221
0 0 233
0 0 223
0 0 223
0 0 218
0 0 221
0 0 227
0 0 215
0 0 223
0 0 218
0 0 226
0 0 215
0 0 224
0 0 227
0 0 212
0 0 206
0 0 198
0 0 196
0 0 207
0 0 201
0 0 196
0 0 204
0 0 189
0 0 189
0 0 179
0 0 173
0 0 175
0 0 181
0 0 155
0 0 147
0 0 122
0 0 149
0 0 130
0 0 125
178 188 220
226 238 255
226 238 255
186 188 201
114 0 0
114 0 0
121 0 0
130 0 0
151 0 0
154 0 0
150 0 0
156 0 0
160 0 0
165 0 0
164 0 0
172 0 0
171 0 0
189 0 0
177 0 0
178 0 0
191 0 0
189 0 0
180 0 0
177 0 0
178 0 0
188 0 0
186 0 0
188 0 0
185 0 0
185 0 0
191 0 0
189 0 0
192 0 0
194 0 0
202 0 0
205 0 0
191 0 0
187 0 0
203 0 0
190 0 0
198 0 0
206 0 0
205 0 0
205 0 0
208 0 0
200 0 0
206 0 0
198 0 0
204 0 0
207 0 0
209 0 0
212 0 0
205 0 0
211 0 0
202 0 0
208 0 0
210 0 0
212 0 0
206 0 0
209 0 0
209 0 0
206 0 0
206 0 0
206 0 0
212 0 0
214 0 0
210 0 0
216 0 0
216 0 0
214 0 0
215 0 0
212 0 0
209 0 0
216 0 0
214 0 0
207 0 0
217 0 0
215 0 0
215 0 0
214 0 0
214 0 0
213 0 0
210 0 0
214 0 0
209 0 0
217 0 0
212 0 0
213 0 0
213 0 0
222 0 0
216 0 0
217 0 0
216 0 0
215 0 0
214 0 0
219 0 0
217 0 0
222 0 0
219 0 0
216 0 0
215 0 0
216 0 0
219 0 0
220 0 0
217 0 0
223 0 0
213 0 0
219 0 0
221 0 0
220 0 0
224 0 0
220 0 0
219 0 0
221 0 0
222 0 0
219 0 0
219 0 0
219 0 0
221 0 0
224 0 0
212 0 0
221 0 0
222 0 0
221 0 0
220 0 0
218 0 0
223 0 0
215 0 0
218 0 0
222 0 0
223 0 0
221 0 0
219 0 0
220 0 0
222 0 0
220 0 0
222 0 0
223 0 0
217 0 0
217 0 0
217 0 0
218 0 0
222 0 0
221 0 0
220 0 0
224 0 0
222 0 0
218 0 0
218 0 0
218 0 0
219 0 0
226 0 0
222 0 0
218 0 0
223 0 0
224 0 0
219 0 0
224 0 0
223 0 0
226 0 0
219 0 0
220 0 0
221 0 0
227 0 0
221 0 0
222 0 0
220 0 0
221 0 0
225 0 0
221 0 0
228 0 0
221 0 0
221 0 0
222 0 0
222 0 0
221 0 0
224 0 0
223 0 0
222 0 0
227 0 0
227 0 0
220 0 0
221 0 0
224 0 0
220 0 0
218 0 0
225 0 0
227 0 0
220 0 0
221 0 0
223 0 0
223 0 0
223 0 0
222 0 0
220 0 0
222 0 0
221 0 0
221 0 0
223 0 0
225 0 0
223 0 0
224 0 0
0 0 255
0 0 255
0 0 253
0 0 254
0 0 253
0 0 254
0 0 255
0 0 255
0 0 255
0 0 254
0 0 255
0 0 254
0 0 255
0 0 255
0 0 255
0 0 255
0 0 255
0 0 255
0 0 255
0 0 254
0 0 252
0 0 254
0 0 255
0 0 254
0 0 255
0 0 253
0 0 253
0 0 254
0 0 255
0 0 255
0 0 255
0 0 254
0 0 255
0 0 252
0 0 255
0 0 253
0 0 255
0 0 254
0 0 255
0 0 254
0 0 255
0 0 253
0 0 252
0 0 255
0 0 250
0 0 255
0 0 250
0 0 254
0 0 255
0 0 253
0 0 253
0 0 252
0 0 255
0 0 252
0 0 253
0 0 254
0 0 255
0 0 253
0 0 254
0 0 249
0 0 250
0 0 253
0 0 253
0 0 252
0 0 254
0 0 253
0 0 253
0 0 255
0 0 254
0 0 253
0 0 254
0 0 254
0 0 248
0 0 253
0 0 249
0 0 254
0 0 254
0 0 253
0 0 252
0 0 252
0 0 252
0 0 250
0 0 252
0 0 250
0 0 249
0 0 249
0 0 250
0 0 250
0 0 250
0 0 249
0 0 250
0 0 246
0 0 252
0 0 252
0 0 253
0 0 246
0 0 249
0 0 249
0 0 254
0 0 252
0 0 249
0 0 253
0 0 249
0 0 252
0 0 249
0 0 253
0 0 246
0 0 250
0 0 249
0 0 250
0 0 252
0 0 245
0 0 244
0 0 252
0 0 248
0 0 249
0 0 250
0 0 240
0 0 244
0 0 246
0 0 249
0 0 236
0 0 246
0 0 242
0 0 249
0 0 238
0 0 246
0 0 246
0 0 240
0 0 238
0 0 250
0 0 241
0 0 240
0 0 242
0 0 244
0 0 236
0 0 236
0 0 249
0 0 245
0 0 238
0 0 238
0 0 242
0 0 248
0 0 241
0 0 241
0 0 244
0 0 240
0 0 237
0 0 231
0 0 237
0 0 234
0 0 227
0 0 241
0 0 244
0 0 231
0 0 227
0 0 238
0 0 231
0 0 228
0 0 230
0 0 231
0 0 224
0 0 234
0 0 233
0 0 221
0 0 226
0 0 231
0 0 228
0 0 220
0 0 223
0 0 226
0 0 223
0 0 223
0 0 217
0 0 221
0 0 220
0 0 212
0 0 196
0 0 212
0 0 215
0 0 194
0 0 220
0 0 198
0 0 201
0 0 198
0 0 189
0 0 201
0 0 177
0 0 184
0 0 177
0 0 193
0 0 163
0 0 169
0 0 175
0 0 149
0 0 135
0 0 117
0 0 130
203 213 231
227 239 255
227 239 255
212 220 236
100 0 0
105 0 0
113 0 0
134 0 0
129 0 0
146 0 0
147 0 0
156 0 0
164 0 0
174 0 0
158 0 0
159 0 0
173 0 0
183 0 0
166 0 0
167 0 0
177 0 0
181 0 0
173 0 0
185 0 0
195 0 0
186 0 0
189 0 0
189 0 0
200 0 0
198 0 0
197 0 0
195 0 0
192 0 0
202 0 0
202 0 0
193 0 0
203 0 0
207 0 0
207 0 0
205 0 0
204 0 0
201 0 0
208 0 0
202 0 0
197 0 0
205 0 0
193 0 0
201 0 0
212 0 0
206 0 0
205 0 0
203 0 0
205 0 0
210 0 0
208 0 0
203 0 0
208 0 0
212 0 0
212 0 0
208 0 0
214 0 0
211 0 0
211 0 0
214 0 0
213 0 0
216 0 0
215 0 0
218 0 0
214 0 0
216 0 0
207 0 0
213 0 0
220 0 0
216 0 0
216 0 0
211 0 0
219 0 0
217 0 0
220 0 0
211 0 0
209 0 0
214 0 0
218 0 0
216 0 0
220 0 0
214 0 0
215 0 0
215 0 0
212 0 0
227 0 0
216 0 0
211 0 0
221 0 0
209 0 0
216 0 0
214 0 0
214 0 0
214 0 0
215 0 0
215 0 0
220 0 0
222 0 0
222 0 0
217 0 0
223 0 0
218 0 0
215 0 0
222 0 0
214 0 0
224 0 0
224 0 0
220 0 0
220 0 0
219 0 0
221 0 0
218 0 0
217 0 0
217 0 0
220 0 0
221 0 0
221 0 0
219 0 0
220 0 0
221 0 0
219 0 0
220 0 0
224 0 0
219 0 0
225 0 0
223 0 0
217 0 0
222 0 0
219 0 0
222 0 0
220 0 0
224 0 0
221 0 0
221 0 0
221 0 0
220 0 0
221 0 0
220 0 0
220 0 0
223 0 0
216 0 0
222 0 0
220 0 0
219 0 0
222 0 0
222 0 0
221 0 0
219 0 0
225 0 0
222 0 0
221 0 0
219 0 0
221 0 0
216 0 0
223 0 0
223 0 0
224 0 0
221 0 0
221 0 0
219 0 0
225 0 0
225 0 0
223 0 0
221 0 0
222 0 0
222 0 0
222 0 0
222 0 0
222 0 0
220 0 0
221 0 0
223 0 0
224 0 0
228 0 0
222 0 0
225 0 0
227 0 0
223 0 0
224 0 0
218 0 0
222 0 0
224 0 0
218 0 0
224 0 0
219 0 0
222 0 0
222 0 0
222 0 0
226 0 0
223 0 0
226 0 0
221 0 0
225 0 0
219 0 0
220 0 0
222 0 0
223 0 0
222 0 0
0 0 255
0 0 255
0 0 255
0 0 255
0 0 255
0 0 255
0 0 254
0 0 254
0 0 255
0 0 254
0 0 255
0 0 255
0 0 255
0 0 252
0 0 255
0 0 254
0 0 255
0 0 254
0 0 255
0 0 254
0 0 254
0 0 254
0 0 254
0 0 253
0 0 255
0 0 255
0 0 254
0 0 253
0 0 255
0 0 254
0 0 253
0 0 255
0 0 255
0 0 255
0 0 254
0 0 255
0 0 254
0 0 254
0 0 254
0 0 253
0 0 253
0 0 255
0 0 253
0 0 254
0 0 254
0 0 249
0 0 253
0 0 253
0 0 255
0 0 255
0 0 250
0 0 254
0 0 255
0 0 254
0 0 252
0 0 253
0 0 252
0 0 246
0 0 253
0 0 254
0 0 252
0 0 253
0 0 250
0 0 249
0 0 249
0 0 250
0 0 252
0 0 253
0 0 248
0 0 253
0 0 252
0 0 254
0 0 252
0 0 254
0 0 249
0 0 250
0 0 250
0 0 252
0 0 250
0 0 252
0 0 254
0 0 249
0 0 250
0 0 249
0 0 248
0 0 252
0 0 248
0 0 249
0 0 253
0 0 246
0 0 253
0 0 252
0 0 249
0 0 250
0 0 249
0 0 250
0 0 252
0 0 249
0 0 252
0 0 252
0 0 248
0 0 250
0 0 250
0 0 250
0 0 253
0 0 252
0 0 248
0 0 248
0 0 253
0 0 248
0 0 249
0 0 248
0 0 246
0 0 252
0 0 246
0 0 249
0 0 249
0 0 249
0 0 250
0 0 248
0 0 244
0 0 245
0 0 245
0 0 241
0 0 246
0 0 249
0 0 241
0 0 246
0 0 240
0 0 240
0 0 248
0 0 246
0 0 246
0 0 240
0 0 240
0 0 245
0 0 238
0 0 242
0 0 242
0 0 244
0 0 246
0 0 236
0 0 236
0 0 244
0 0 240
0 0 241
0 0 231
0 0 241
0 0 240
0 0 246
0 0 240
0 0 234
0 0 238
0 0 237
0 0 237
0 0 236
0 0 241
0 0 240
0 0 224
0 0 233
0 0 237
0 0 231
0 0 228
0 0 231
0 0 221
0 0 231
0 0 215
0 0 224
0 0 230
0 0 207
0 0 215
0 0 206
0 0 221
0 0 214
0 0 218
0 0 217
0 0 215
0 0 204
0 0 215
0 0 207
0 0 209
0 0 199
0 0 204
0 0 191
0 0 204
0 0 201
0 0 194
0 0 188
0 0 186
0 0 179
0 0 182
0 0 182
0 0 163
0 0 155
0 0 147
0 0 142
0 0 128
85 89 147
227 239 255
227 239 255
227 239 255
225 235 252
118 53 57
111 0 0
134 0 0
125 0 0
162 0 0
146 0 0
153 0 0
155 0 0
167 0 0
173 0 0
182 0 0
162 0 0
170 0 0
184 0 0
184 0 0
175 0 0
181 0 0
190 0 0
185 0 0
189 0 0
181 0 0
187 0 0
184 0 0
185 0 0
186 0 0
188 0 0
201 0 0
195 0 0
197 0 0
201 0 0
202 0 0
205 0 0
200 0 0
208 0 0
206 0 0
209 0 0
199 0 0
192 0 0
206 0 0
200 0 0
207 0 0
198 0 0
208 0 0
206 0 0
204 0 0
202 0 0
202 0 0
209 0 0
200 0 0
202 0 0
213 0 0
214 0 0
210 0 0
215 0 0
203 0 0
215 0 0
214 0 0
209 0 0
212 0 0
219 0 0
208 0 0
211 0 0
211 0 0
210 0 0
215 0 0
214 0 0
216 0 0
213 0 0
213 0 0
212 0 0
205 0 0
206 0 0
222 0 0
213 0 0
219 0 0
212 0 0
215 0 0
218 0 0
210 0 0
214 0 0
208 0 0
211 0 0
218 0 0
216 0 0
214 0 0
210 0 0
217 0 0
212 0 0
216 0 0
210 0 0
213 0 0
218 0 0
213 0 0
220 0 0
217 0 0
217 0 0
217 0 0
218 0 0
222 0 0
218 0 0
217 0 0
222 0 0
221 0 0
208 0 0
218 0 0
213 0 0
219 0 0
213 0 0
220 0 0
219 0 0
222 0 0
217 0 0
215 0 0
225 0 0
217 0 0
219 0 0
218 0 0
217 0 0
221 0 0
223 0 0
225 0 0
222 0 0
216 0 0
221 0 0
224 0 0
219 0 0
222 0 0
222 0 0
219 0 0
217 0 0
223 0 0
218 0 0
224 0 0
216 0 0
220 0 0
224 0 0
220 0 0
222 0 0
220 0 0
217 0 0
221 0 0
224 0 0
221 0 0
222 0 0
221 0 0
221 0 0
220 0 0
221 0 0
222 0 0
222 0 0
220 0 0
221 0 0
221 0 0
222 0 0
224 0 0
222 0 0
225 0 0
220 0 0
221 0 0
220 0 0
221 0 0
222 0 0
222 0 0
222 0 0
222 0 0
220 0 0
221 0 0
224 0 0
222 0 0
220 0 0
222 0 0
219 0 0
223 0 0
224 0 0
219 0 0
223 0 0
222 0 0
219 0 0
224 0 0
223 0 0
223 0 0
220 0 0
220 0 0
223 0 0
221 0 0
225 0 0
220 0 0
222 0 0
225 0 0
220 0 0
225 0 0
223 0 0
225 0 0
222 0 0
221 0 0
222 0 0
224 0 0
224 0 0
0 0 255
0 0 254
0 0 255
0 0 254
0 0 255
0 0 253
0 0 254
0 0 255
0 0 254
0 0 253
0 0 255
0 0 254
0 0 255
0 0 253
0 0 253
0 0 254
0 0 255
0 0 255
0 0 252
0 0 254
0 0 255
0 0 255
0 0 254
0 0 255
0 0 253
0 0 255
0 0 253
0 0 253
0 0 254
0 0 255
0 0 253
0 0 250
0 0 252
0 0 253
0 0 254
0 0 253
0 0 255
0 0 252
0 0 254
0 0 254
0 0 252
0 0 254
0 0 254
0 0 255
0 0 252
0 0 254
0 0 254
0 0 250
0 0 254
0 0 252
0 0 254
0 0 253
0 0 253
0 0 254
0 0 255
0 0 255
0 0 255
0 0 253
0 0 252
0 0 255
0 0 253
0 0 250
0 0 249
0 0 252
0 0 254
0 0 253
0 0 254
0 0 252
0 0 253
0 0 253
0 0 248
0 0 253
0 0 255
0 0 252
0 0 253
0 0 250
0 0 254
0 0 254
0 0 250
0 0 252
0 0 250
0 0 255
0 0 255
0 0 252
0 0 250
0 0 249
0 0 254
0 0 250
0 0 250
0 0 250
0 0 252
0 0 246
0 0 252
0 0 245
0 0 255
0 0 250
0 0 248
0 0 250
0 0 242
0 0 246
0 0 250
0 0 245
0 0 252
0 0 252
0 0 250
0 0 244
0 0 248
0 0 248
0 0 252
0 0 249
0 0 249
0 0 252
0 0 249
0 0 252
0 0 248
0 0 249
0 0 248
0 0 253
0 0 248
0 0 255
0 0 246
0 0 242
0 0 248
0 0 241
0 0 240
0 0 245
0 0 241
0 0 245
0 0 245
0 0 233
0 0 240
0 0 250
0 0 250
0 0 246
0 0 238
0 0 244
0 0 240
0 0 241
0 0 245
0 0 246
0 0 237
0 0 245
0 0 240
0 0 236
0 0 241
0 0 245
0 0 244
0 0 238
0 0 241
0 0 237
0 0 245
0 0 231
0 0 234
0 0 236
0 0 234
0 0 238
0 0 230
0 0 241
0 0 221
0 0 233
0 0 237
0 0 230
0 0 236
0 0 231
0 0 234
0 0 224
0 0 221
0 0 227
0 0 237
0 0 227
0 0 218
0 0 223
0 0 220
0 0 230
0 0 221
0 0 231
0 0 217
0 0 198
0 0 212
0 0 198
0 0 201
0 0 214
0 0 194
0 0 193
0 0 204
0 0 196
0 0 193
0 0 193
0 0 203
0 0 173
0 0 181
0 0 165
0 0 157
0 0 147
0 0 144
0 0 144
0 0 105
116 122 171
227 239 255
227 239 255
227 239 255
227 239 255
158 139 149
113 0 0
131 0 0
130 0 0
144 0 0
129 0 0
169 0 0
166 0 0
164 0 0
158 0 0
156 0 0
167 0 0
166 0 0
191 0 0
178 0 0
171 0 0
178 0 0
195 0 0
187 0 0
183 0 0
184 0 0
192 0 0
183 0 0
195 0 0
180 0 0
199 0 0
190 0 0
198 0 0
200 0 0
200 0 0
199 0 0
199 0 0
207 0 0
191 0 0
200 0 0
198 0 0
199 0 0
201 0 0
194 0 0
206 0 0
205 0 0
205 0 0
210 0 0
203 0 0
211 0 0
206 0 0
205 0 0
201 0 0
214 0 0
203 0 0
213 0 0
207 0 0
209 0 0
211 0 0
215 0 0
206 0 0
209 0 0
211 0 0
199 0 0
213 0 0
214 0 0
210 0 0
208 0 0
215 0 0
213 0 0
214 0 0
216 0 0
213 0 0
218 0 0
211 0 0
216 0 0
212 0 0
214 0 0
213 0 0
214 0 0
221 0 0
214 0 0
214 0 0
216 0 0
216 0 0
214 0 0
218 0 0
214 0 0
214 0 0
216 0 0
218 0 0
222 0 0
216 0 0
216 0 0
217 0 0
217 0 0
225 0 0
221 0 0
213 0 0
222 0 0
222 0 0
216 0 0
220 0 0
217 0 0
221 0 0
221 0 0
221 0 0
220 0 0
220 0 0
220 0 0
221 0 0
220 0 0
224 0 0
224 0 0
220 0 0
221 0 0
220 0 0
219 0 0
218 0 0
226 0 0
222 0 0
217 0 0
218 0 0
222 0 0
222 0 0
222 0 0
222 0 0
223 0 0
220 0 0
217 0 0
223 0 0
217 0 0
222 0 0
220 0 0
220 0 0
220 0 0
222 0 0
223 0 0
220 0 0
219 0 0
226 0 0
223 0 0
220 0 0
220 0 0
218 0 0
223 0 0
224 0 0
220 0 0
224 0 0
220 0 0
218 0 0
219 0 0
222 0 0
220 0 0
223 0 0
220 0 0
223 0 0
225 0 0
222 0 0
222 0 0
223 0 0
224 0 0
222 0 0
221 0 0
220 0 0
224 0 0
219 0 0
221 0 0
223 0 0
218 0 0
222 0 0
221 0 0
227 0 0
220 0 0
225 0 0
224 0 0
219 0 0
222 0 0
217 0 0
223 0 0
223 0 0
221 0 0
223 0 0
219 0 0
221 0 0
224 0 0
224 0 0
224 0 0
225 0 0
220 0 0
221 0 0
222 0 0
225 0 0
223 0 0
221 0 0
226 0 0
220 0 0
223 0 0
223 0 0
223 0 0
224 0 0
226 0 0
221 0 0
0 0 255
0 0 255
0 0 254
0 0 255
0 0 254
0 0 255
0 0 253
0 0 255
0 0 254
0 0 254
0 0 255
0 0 254
0 0 254
0 0 255
0 0 254
0 0 254
0 0 254
0 0 255
0 0 254
0 0 252
0 0 254
0 0 255
0 0 254
0 0 255
0 0 254
0 0 252
0 0 254
0 0 255
0 0 254
0 0 254
0 0 255
0 0 255
0 0 254
0 0 254
0 0 255
0 0 253
0 0 255
0 0 253
0 0 254
0 0 253
0 0 255
0 0 252
0 0 254
0 0 255
0 0 252
0 0 255
0 0 253
0 0 253
0 0 255
0 0 255
0 0 253
0 0 252
0 0 254
0 0 254
0 0 254
0 0 250
0 0 254
0 0 254
0 0 253
0 0 252
0 0 250
0 0 252
0 0 249
0 0 250
0 0 248
0 0 249
0 0 250
0 0 250
0 0 254
0 0 254
0 0 253
0 0 252
0 0 252
0 0 253
0 0 249
0 0 253
0 0 250
0 0 250
0 0 252
0 0 252
0 0 248
0 0 248
0 0 245
0 0 254
0 0 253
0 0 252
0 0 253
0 0 248
0 0 249
0 0 249
0 0 253
0 0 252
0 0 249
0 0 250
0 0 252
0 0 253
0 0 252
0 0 248
0 0 252
0 0 252
0 0 252
0 0 246
0 0 250
0 0 246
0 0 250
0 0 244
0 0 252
0 0 252
0 0 248
0 0 250
0 0 252
0 0 246
0 0 248
0 0 244
0 0 250
0 0 252
0 0 246
0 0 249
0 0 242
0 0 246
0 0 241
0 0 246
0 0 249
0 0 246
0 0 245
0 0 245
0 0 245
0 0 238
0 0 248
0 0 236
0 0 240
0 0 246
0 0 244
0 0 248
0 0 244
0 0 242
0 0 234
0 0 238
0 0 242
0 0 244
0 0 238
0 0 238
0 0 241
0 0 240
0 0 240
0 0 242
0 0 244
0 0 237
0 0 248
0 0 233
0 0 242
0 0 238
0 0 241
0 0 237
0 0 233
0 0 237
0 0 233
0 0 236
0 0 228
0 0 241
0 0 226
0 0 227
0 0 221
0 0 242
0 0 240
0 0 230
0 0 233
0 0 230
0 0 230
0 0 220
0 0 220
0 0 224
0 0 224
0 0 228
0 0 211
0 0 215
0 0 206
0 0 194
0 0 226
0 0 207
0 0 186
0 0 207
0 0 214
0 0 181
0 0 198
0 0 186
0 0 186
0 0 171
0 0 173
0 0 193
0 0 173
0 0 177
0 0 149
0 0 151
0 0 135
0 0 149
0 0 133
162 171 199
228 239 255
228 239 255
228 239 255
228 239 255
181 174 186
115 0 0
119 0 0
130 0 0
167 0 0
152 0 0
140 0 0
153 0 0
157 0 0
160 0 0
169 0 0
173 0 0
178 0 0
185 0 0
168 0 0
178 0 0
181 0 0
172 0 0
175 0 0
178 0 0
192 0 0
197 0 0
184 0 0
197 0 0
200 0 0
196 0 0
186 0 0
180 0 0
193 0 0
193 0 0
197 0 0
197 0 0
209 0 0
208 0 0
196 0 0
204 0 0
206 0 0
206 0 0
204 0 0
202 0 0
209 0 0
213 0 0
207 0 0
206 0 0
212 0 0
208 0 0
215 0 0
209 0 0
205 0 0
203 0 0
204 0 0
213 0 0
207 0 0
206 0 0
209 0 0
206 0 0
208 0 0
212 0 0
214 0 0
212 0 0
208 0 0
215 0 0
216 0 0
204 0 0
210 0 0
218 0 0
215 0 0
217 0 0
216 0 0
216 0 0
215 0 0
219 0 0
213 0 0
207 0 0
215 0 0
219 0 0
221 0 0
219 0 0
217 0 0
218 0 0
217 0 0
217 0 0
218 0 0
216 0 0
210 0 0
208 0 0
218 0 0
220 0 0
221 0 0
219 0 0
218 0 0
219 0 0
219 0 0
219 0 0
221 0 0
217 0 0
219 0 0
218 0 0
217 0 0
221 0 0
217 0 0
219 0 0
215 0 0
219 0 0
222 0 0
221 0 0
209 0 0
219 0 0
219 0 0
216 0 0
217 0 0
221 0 0
217 0 0
220 0 0
221 0 0
218 0 0
218 0 0
221 0 0
223 0 0
217 0 0
222 0 0
219 0 0
218 0 0
219 0 0
218 0 0
219 0 0
219 0 0
222 0 0
219 0 0
226 0 0
220 0 0
220 0 0
222 0 0
217 0 0
218 0 0
218 0 0
217 0 0
217 0 0
219 0 0
219 0 0
220 0 0
224 0 0
222 0 0
220 0 0
221 0 0
222 0 0
220 0 0
221 0 0
222 0 0
220 0 0
219 0 0
223 0 0
225 0 0
222 0 0
219 0 0
218 0 0
221 0 0
218 0 0
223 0 0
224 0 0
223 0 0
221 0 0
221 0 0
224 0 0
218 0 0
221 0 0
222 0 0
221 0 0
226 0 0
222 0 0
226 0 0
217 0 0
223 0 0
221 0 0
224 0 0
224 0 0
221 0 0
223 0 0
222 0 0
226 0 0
223 0 0
224 0 0
222 0 0
223 0 0
220 0 0
224 0 0
223 0 0
223 0 0
222 0 0
223 0 0
225 0 0
225 0 0
222 0 0
225 0 0
224 0 0
222 0 0
221 0 0
223 0 0
0 0 255
0 0 254
0 0 255
0 0 253
0 0 254
0 0 254
0 0 255
0 0 254
0 0 255
0 0 254
0 0 255
0 0 254
0 0 255
0 0 254
0 0 254
0 0 254
0 0 254
0 0 255
0 0 255
0 0 255
0 0 254
0 0 254
0 0 252
0 0 255
0 0 254
0 0 254
0 0 254
0 0 254
0 0 254
0 0 252
0 0 255
0 0 254
0 0 253
0 0 254
0 0 255
0 0 254
0 0 253
0 0 252
0 0 253
0 0 255
0 0 254
0 0 255
0 0 253
0 0 254
0 0 254
0 0 255
0 0 253
0 0 254
0 0 252
0 0 255
0 0 254
0 0 255
0 0 255
0 0 254
0 0 252
0 0 254
0 0 253
0 0 250
0 0 252
0 0 255
0 0 252
0 0 252
0 0 249
0 0 249
0 0 253
0 0 252
0 0 254
0 0 254
0 0 252
0 0 250
0 0 254
0 0 252
0 0 255
0 0 254
0 0 250
0 0 254
0 0 254
0 0 250
0 0 254
0 0 246
0 0 253
0 0 250
0 0 254
0 0 250
0 0 248
0 0 249
0 0 254
0 0 252
0 0 248
0 0 246
0 0 246
0 0 253
0 0 253
0 0 246
0 0 252
0 0 252
0 0 249
0 0 249
0 0 249
0 0 248
0 0 250
0 0 246
0 0 254
0 0 249
0 0 253
0 0 245
0 0 250
0 0 250
0 0 248
0 0 252
0 0 249
0 0 250
0 0 246
0 0 246
0 0 250
0 0 252
0 0 244
0 0 248
0 0 244
0 0 241
0 0 245
0 0 246
0 0 249
0 0 245
0 0 242
0 0 242
0 0 246
0 0 249
0 0 249
0 0 245
0 0 250
0 0 230
0 0 248
0 0 241
0 0 245
0 0 250
0 0 240
0 0 241
0 0 244
0 0 242
0 0 248
0 0 244
0 0 234
0 0 238
0 0 230
0 0 240
0 0 241
0 0 238
0 0 228
0 0 236
0 0 244
0 0 234
0 0 245
0 0 241
0 0 230
0 0 234
0 0 244
0 0 231
0 0 240
0 0 237
0 0 231
0 0 227
0 0 233
0 0 230
0 0 233
0 0 234
0 0 221
0 0 230
0 0 227
0 0 230
0 0 221
0 0 226
0 0 217
0 0 220
0 0 227
0 0 227
0 0 196
0 0 211
0 0 206
0 0 211
0 0 201
0 0 209
0 0 203
0 0 196
0 0 194
0 0 191
0 0 203
0 0 199
0 0 189
0 0 193
0 0 177
0 0 165
0 0 177
0 0 165
0 0 157
0 0 137
0 0 133
208 218 236
228 239 255
228 239 255
228 239 255
228 239 255
214 218 233
113 0 0
119 0 0
144 0 0
140 0 0
146 0 0
161 0 0
150 0 0
160 0 0
161 0 0
171 0 0
159 0 0
172 0 0
176 0 0
169 0 0
171 0 0
178 0 0
176 0 0
185 0 0
182 0 0
196 0 0
187 0 0
189 0 0
188 0 0
190 0 0
196 0 0
208 0 0
192 0 0
197 0 0
205 0 0
196 0 0
192 0 0
193 0 0
200 0 0
201 0 0
196 0 0
197 0 0
211 0 0
211 0 0
205 0 0
205 0 0
208 0 0
205 0 0
206 0 0
210 0 0
206 0 0
210 0 0
216 0 0
213 0 0
209 0 0
208 0 0
210 0 0
217 0 0
214 0 0
211 0 0
213 0 0
217 0 0
215 0 0
216 0 0
207 0 0
207 0 0
213 0 0
218 0 0
210 0 0
212 0 0
206 0 0
211 0 0
216 0 0
214 0 0
210 0 0
220 0 0
212 0 0
213 0 0
219 0 0
225 0 0
216 0 0
216 0 0
215 0 0
216 0 0
217 0 0
220 0 0
217 0 0
216 0 0
220 0 0
218 0 0
218 0 0
212 0 0
209 0 0
215 0 0
220 0 0
216 0 0
214 0 0
222 0 0
220 0 0
222 0 0
220 0 0
216 0 0
218 0 0
225 0 0
221 0 0
222 0 0
215 0 0
218 0 0
223 0 0
223 0 0
222 0 0
219 0 0
219 0 0
219 0 0
221 0 0
220 0 0
221 0 0
217 0 0
218 0 0
215 0 0
222 0 0
220 0 0
214 0 0
218 0 0
223 0 0
221 0 0
223 0 0
226 0 0
221 0 0
220 0 0
218 0 0
220 0 0
222 0 0
217 0 0
222 0 0
223 0 0
219 0 0
221 0 0
221 0 0
217 0 0
224 0 0
224 0 0
222 0 0
217 0 0
226 0 0
222 0 0
224 0 0
225 0 0
224 0 0
222 0 0
226 0 0
213 0 0
219 0 0
220 0 0
218 0 0
218 0 0
222 0 0
223 0 0
218 0 0
220 0 0
219 0 0
227 0 0
220 0 0
224 0 0
223 0 0
222 0 0
221 0 0
220 0 0
230 0 0
222 0 0
222 0 0
223 0 0
219 0 0
223 0 0
224 0 0
225 0 0
219 0 0
223 0 0
225 0 0
225 0 0
223 0 0
223 0 0
223 0 0
225 0 0
220 0 0
223 0 0
226 0 0
220 0 0
221 0 0
224 0 0
224 0 0
222 0 0
221 0 0
225 0 0
223 0 0
225 0 0
225 0 0
224 0 0
223 0 0
224 0 0
223 0 0
225 0 0
226 0 0
0 0 254
0 0 255
0 0 255
0 0 255
0 0 255
0 0 255
0 0 254
0 0 255
0 0 254
0 0 255
0 0 253
0 0 255
0 0 254
0 0 255
0 0 254
0 0 255
0 0 255
0 0 255
0 0 255
0 0 255
0 0 255
0 0 255
0 0 255
0 0 254
0 0 255
0 0 254
0 0 254
0 0 255
0 0 253
0 0 253
0 0 255
0 0 253
0 0 255
0 0 255
0 0 255
0 0 252
0 0 252
0 0 254
0 0 254
0 0 254
0 0 253
0 0 254
0 0 254
0 0 254
0 0 254
0 0 252
0 0 254
0 0 250
0 0 253
0 0 250
0 0 253
0 0 253
0 0 252
0 0 252
0 0 255
0 0 254
0 0 254
0 0 254
0 0 253
0 0 253
0 0 254
0 0 254
0 0 249
0 0 255
0 0 253
0 0 254
0 0 250
0 0 254
0 0 253
0 0 252
0 0 255
0 0 252
0 0 252
0 0 254
0 0 249
0 0 249
0 0 254
0 0 253
0 0 249
0 0 252
0 0 252
0 0 255
0 0 252
0 0 250
0 0 253
0 0 248
0 0 250
0 0 252
0 0 250
0 0 253
0 0 250
0 0 249
0 0 249
0 0 250
0 0 252
0 0 253
0 0 250
0 0 250
0 0 252
0 0 249
0 0 244
0 0 249
0 0 255
0 0 248
0 0 250
0 0 248
0 0 244
0 0 253
0 0 245
0 0 245
0 0 249
0 0 250
0 0 250
0 0 249
0 0 252
0 0 249
0 0 240
0 0 250
0 0 248
0 0 246
0 0 244
0 0 248
0 0 242
0 0 245
0 0 249
0 0 240
0 0 238
0 0 253
0 0 248
0 0 244
0 0 249
0 0 244
0 0 246
0 0 242
0 0 245
0 0 240
0 0 236
0 0 241
0 0 245
0 0 236
0 0 242
0 0 242
0 0 244
0 0 245
0 0 241
0 0 240
0 0 234
0 0 241
0 0 237
0 0 237
0 0 242
0 0 237
0 0 237
0 0 238
0 0 236
0 0 226
0 0 242
0 0 241
0 0 241
0 0 221
0 0 231
0 0 221
0 0 231
0 0 228
0 0 238
0 0 224
0 0 231
0 0 217
0 0 218
0 0 227
0 0 226
0 0 226
0 0 223
0 0 223
0 0 209
0 0 212
0 0 220
0 0 209
0 0 186
0 0 215
0 0 203
0 0 201
0 0 203
0 0 212
0 0 199
0 0 201
0 0 188
0 0 177
0 0 182
0 0 175
0 0 181
0 0 182
0 0 159
0 0 155
0 0 165
0 0 130
60 63 147
226 237 253
228 239 255
228 239 255
228 239 255
228 239 255
228 239 255
133 63 67
120 0 0
123 0 0
126 0 0
163 0 0
164 0 0
163 0 0
163 0 0
156 0 0
180 0 0
171 0 0
171 0 0
187 0 0
183 0 0
187 0 0
195 0 0
190 0 0
188 0 0
193 0 0
188 0 0
196 0 0
193 0 0
198 0 0
202 0 0
200 0 0
197 0 0
204 0 0
207 0 0
203 0 0
198 0 0
194 0 0
196 0 0
208 0 0
208 0 0
197 0 0
206 0 0
209 0 0
208 0 0
209 0 0
210 0 0
206 0 0
218 0 0
210 0 0
205 0 0
214 0 0
202 0 0
213 0 0
214 0 0
215 0 0
218 0 0
204 0 0
213 0 0
214 0 0
207 0 0
214 0 0
213 0 0
215 0 0
212 0 0
208 0 0
209 0 0
208 0 0
211 0 0
210 0 0
212 0 0
212 0 0
217 0 0
209 0 0
220 0 0
219 0 0
217 0 0
218 0 0
216 0 0
221 0 0
215 0 0
213 0 0
217 0 0
217 0 0
216 0 0
217 0 0
219 0 0
215 0 0
213 0 0
219 0 0
221 0 0
217 0 0
214 0 0
210 0 0
222 0 0
211 0 0
218 0 0
218 0 0
211 0 0
221 0 0
214 0 0
219 0 0
217 0 0
219 0 0
215 0 0
222 0 0
221 0 0
217 0 0
221 0 0
219 0 0
218 0 0
213 0 0
217 0 0
218 0 0
223 0 0
225 0 0
220 0 0
216 0 0
221 0 0
216 0 0
221 0 0
218 0 0
220 0 0
222 0 0
217 0 0
216 0 0
222 0 0
220 0 0
219 0 0
224 0 0
222 0 0
222 0 0
225 0 0
215 0 0
226 0 0
220 0 0
217 0 0
225 0 0
222 0 0
219 0 0
220 0 0
221 0 0
222 0 0
222 0 0
224 0 0
219 0 0
222 0 0
216 0 0
224 0 0
219 0 0
225 0 0
220 0 0
220 0 0
223 0 0
224 0 0
222 0 0
220 0 0
222 0 0
224 0 0
225 0 0
223 0 0
219 0 0
222 0 0
223 0 0
220 0 0
221 0 0
223 0 0
224 0 0
219 0 0
221 0 0
222 0 0
223 0 0
222 0 0
223 0 0
223 0 0
220 0 0
223 0 0
222 0 0
220 0 0
224 0 0
223 0 0
226 0 0
224 0 0
226 0 0
219 0 0
223 0 0
222 0 0
224 0 0
225 0 0
222 0 0
222 0 0
226 0 0
223 0 0
224 0 0
224 0 0
224 0 0
222 0 0
221 0 0
221 0 0
220 0 0
224 0 0
219 0 0
221 0 0
222 0 0
0 0 255
0 0 254
0 0 254
0 0 255
0 0 255
0 0 255
0 0 254
0 0 255
0 0 254
0 0 254
0 0 254
0 0 254
0 0 254
0 0 255
0 0 255
0 0 255
0 0 255
0 0 253
0 0 255
0 0 254
0 0 255
0 0 253
0 0 254
0 0 254
0 0 254
0 0 255
0 0 254
0 0 253
0 0 253
0 0 255
0 0 254
0 0 253
0 0 254
0 0 255
0 0 254
0 0 254
0 0 253
0 0 255
0 0 255
0 0 253
0 0 254
0 0 255
0 0 253
0 0 254
0 0 254
0 0 254
0 0 253
0 0 254
0 0 253
0 0 254
0 0 254
0 0 254
0 0 245
0 0 252
0 0 254
0 0 253
0 0 254
0 0 255
0 0 254
0 0 253
0 0 253
0 0 252
0 0 253
0 0 255
0 0 253
0 0 248
0 0 250
0 0 252
0 0 254
0 0 253
0 0 253
0 0 253
0 0 255
0 0 250
0 0 252
0 0 249
0 0 254
0 0 252
0 0 250
0 0 253
0 0 253
0 0 253
0 0 252
0 0 250
0 0 254
0 0 255
0 0 249
0 0 249
0 0 248
0 0 253
0 0 249
0 0 252
0 0 253
0 0 254
0 0 253
0 0 252
0 0 253
0 0 245
0 0 250
0 0 250
0 0 248
0 0 249
0 0 248
0 0 246
0 0 245
0 0 249
0 0 248
0 0 244
0 0 254
0 0 252
0 0 242
0 0 250
0 0 248
0 0 252
0 0 246
0 0 246
0 0 242
0 0 244
0 0 245
0 0 248
0 0 245
0 0 249
0 0 246
0 0 248
0 0 244
0 0 244
0 0 248
0 0 242
0 0 246
0 0 253
0 0 236
0 0 244
0 0 236
0 0 252
0 0 236
0 0 248
0 0 248
0 0 230
0 0 242
0 0 249
0 0 245
0 0 238
0 0 245
0 0 242
0 0 245
0 0 241
0 0 236
0 0 231
0 0 238
0 0 237
0 0 233
0 0 240
0 0 240
0 0 231
0 0 241
0 0 237
0 0 240
0 0 230
0 0 228
0 0 233
0 0 226
0 0 230
0 0 234
0 0 236
0 0 234
0 0 230
0 0 230
0 0 242
0 0 227
0 0 218
0 0 224
0 0 226
0 0 233
0 0 221
0 0 223
0 0 203
0 0 212
0 0 214
0 0 204
0 0 204
0 0 214
0 0 215
0 0 199
0 0 186
0 0 198
0 0 196
0 0 204
0 0 169
0 0 189
0 0 171
0 0 179
0 0 167
0 0 147
0 0 153
0 0 157
0 0 147
139 146 189
228 240 255
228 240 255
228 240 255
228 240 255
228 240 255
228 240 255
162 129 137
121 0 0
121 0 0
134 0 0
162 0 0
139 0 0
162 0 0
183 0 0
176 0 0
169 0 0
170 0 0
179 0 0
176 0 0
172 0 0
192 0 0
189 0 0
191 0 0
181 0 0
181 0 0
187 0 0
203 0 0
201 0 0
203 0 0
192 0 0
194 0 0
202 0 0
200 0 0
198 0 0
202 0 0
205 0 0
203 0 0
197 0 0
199 0 0
195 0 0
203 0 0
205 0 0
202 0 0
207 0 0
205 0 0
201 0 0
201 0 0
198 0 0
207 0 0
209 0 0
208 0 0
208 0 0
215 0 0
207 0 0
209 0 0
208 0 0
216 0 0
214 0 0
211 0 0
205 0 0
211 0 0
214 0 0
211 0 0
215 0 0
220 0 0
219 0 0
220 0 0
223 0 0
213 0 0
214 0 0
218 0 0
219 0 0
212 0 0
212 0 0
212 0 0
215 0 0
221 0 0
213 0 0
211 0 0
212 0 0
212 0 0
216 0 0
215 0 0
216 0 0
215 0 0
219 0 0
222 0 0
218 0 0
217 0 0
214 0 0
213 0 0
219 0 0
214 0 0
215 0 0
220 0 0
220 0 0
223 0 0
217 0 0
217 0 0
220 0 0
214 0 0
220 0 0
212 0 0
220 0 0
217 0 0
226 0 0
222 0 0
216 0 0
222 0 0
219 0 0
217 0 0
217 0 0
225 0 0
221 0 0
218 0 0
223 0 0
220 0 0
222 0 0
219 0 0
220 0 0
221 0 0
216 0 0
225 0 0
224 0 0
220 0 0
223 0 0
215 0 0
223 0 0
224 0 0
222 0 0
222 0 0
223 0 0
219 0 0
224 0 0
217 0 0
220 0 0
223 0 0
222 0 0
218 0 0
224 0 0
215 0 0
223 0 0
218 0 0
228 0 0
221 0 0
223 0 0
219 0 0
219 0 0
224 0 0
220 0 0
218 0 0
220 0 0
222 0 0
217 0 0
220 0 0
223 0 0
223 0 0
220 0 0
222 0 0
223 0 0
224 0 0
223 0 0
224 0 0
222 0 0
220 0 0
224 0 0
225 0 0
223 0 0
220 0 0
228 0 0
223 0 0
220 0 0
222 0 0
219 0 0
222 0 0
224 0 0
222 0 0
221 0 0
226 0 0
224 0 0
225 0 0
221 0 0
224 0 0
223 0 0
224 0 0
220 0 0
227 0 0
221 0 0
225 0 0
223 0 0
220 0 0
224 0 0
225 0 0
225 0 0
224 0 0
221 0 0
226 0 0
224 0 0
222 0 0
222 0 0
223 0 0
222 0 0
225 0 0
0 0 254
0 0 255
0 0 255
0 0 255
0 0 254
0 0 255
0 0 253
0 0 253
0 0 255
0 0 255
0 0 254
0 0 255
0 0 253
0 0 255
0 0 255
0 0 255
0 0 255
0 0 254
0 0 253
0 0 254
0 0 254
0 0 255
0 0 254
0 0 254
0 0 255
0 0 255
0 0 254
0 0 253
0 0 253
0 0 254
0 0 254
0 0 255
0 0 255
0 0 250
0 0 254
0 0 253
0 0 254
0 0 254
0 0 255
0 0 250
0 0 253
0 0 255
0 0 252
0 0 254
0 0 254
0 0 255
0 0 254
0 0 255
0 0 254
0 0 253
0 0 254
0 0 253
0 0 252
0 0 253
0 0 255
0 0 252
0 0 254
0 0 253
0 0 255
0 0 252
0 0 252
0 0 250
0 0 252
0 0 253
0 0 253
0 0 253
0 0 252
0 0 254
0 0 252
0 0 253
0 0 254
0 0 254
0 0 252
0 0 253
0 0 250
0 0 253
0 0 250
0 0 249
0 0 253
0 0 252
0 0 250
0 0 249
0 0 255
0 0 246
0 0 253
0 0 253
0 0 253
0 0 254
0 0 248
0 0 252
0 0 249
0 0 249
0 0 249
0 0 254
0 0 249
0 0 252
0 0 245
0 0 248
0 0 252
0 0 244
0 0 249
0 0 249
0 0 245
0 0 250
0 0 245
0 0 249
0 0 250
0 0 252
0 0 249
0 0 250
0 0 248
0 0 242
0 0 248
0 0 248
0 0 244
0 0 250
0 0 242
0 0 252
0 0 250
0 0 248
0 0 244
0 0 250
0 0 248
0 0 244
0 0 249
0 0 249
0 0 248
0 0 238
0 0 241
0 0 242
0 0 246
0 0 237
0 0 241
0 0 245
0 0 241
0 0 244
0 0 246
0 0 246
0 0 249
0 0 240
0 0 241
0 0 240
0 0 238
0 0 238
0 0 245
0 0 231
0 0 234
0 0 244
0 0 240
0 0 231
0 0 237
0 0 240
0 0 236
0 0 233
0 0 244
0 0 230
0 0 234
0 0 240
0 0 218
0 0 223
0 0 228
0 0 236
0 0 227
0 0 223
0 0 231
0 0 223
0 0 231
0 0 226
0 0 223
0 0 221
0 0 228
0 0 217
0 0 221
0 0 214
0 0 218
0 0 228
0 0 217
0 0 204
0 0 212
0 0 201
0 0 207
0 0 196
0 0 207
0 0 206
0 0 194
0 0 206
0 0 191
0 0 186
0 0 182
0 0 204
0 0 177
0 0 188
0 0 165
0 0 161
0 0 133
0 0 155
198 208 230
229 240 255
229 240 255
229 240 255
229 240 255
229 240 255
229 240 255
197 192 204
141 0 0
146 0 0
149 0 0
141 0 0
150 0 0
169 0 0
176 0 0
169 0 0
168 0 0
174 0 0
172 0 0
187 0 0
179 0 0
161 0 0
201 0 0
180 0 0
183 0 0
185 0 0
183 0 0
195 0 0
192 0 0
194 0 0
194 0 0
194 0 0
194 0 0
197 0 0
198 0 0
198 0 0
201 0 0
194 0 0
194 0 0
193 0 0
203 0 0
195 0 0
201 0 0
203 0 0
206 0 0
205 0 0
203 0 0
204 0 0
212 0 0
208 0 0
209 0 0
202 0 0
212 0 0
213 0 0
205 0 0
210 0 0
202 0 0
206 0 0
220 0 0
209 0 0
210 0 0
208 0 0
211 0 0
215 0 0
216 0 0
217 0 0
209 0 0
219 0 0
216 0 0
212 0 0
213 0 0
218 0 0
218 0 0
218 0 0
227 0 0
217 0 0
216 0 0
215 0 0
214 0 0
213 0 0
216 0 0
217 0 0
215 0 0
215 0 0
211 0 0
215 0 0
211 0 0
219 0 0
209 0 0
216 0 0
220 0 0
216 0 0
215 0 0
218 0 0
220 0 0
219 0 0
218 0 0
212 0 0
218 0 0
216 0 0
223 0 0
216 0 0
222 0 0
218 0 0
213 0 0
219 0 0
213 0 0
221 0 0
216 0 0
221 0 0
219 0 0
223 0 0
221 0 0
220 0 0
224 0 0
219 0 0
216 0 0
222 0 0
222 0 0
221 0 0
216 0 0
222 0 0
219 0 0
218 0 0
227 0 0
223 0 0
224 0 0
220 0 0
220 0 0
212 0 0
227 0 0
220 0 0
218 0 0
224 0 0
223 0 0
223 0 0
225 0 0
219 0 0
219 0 0
223 0 0
225 0 0
221 0 0
223 0 0
224 0 0
221 0 0
224 0 0
218 0 0
220 0 0
222 0 0
226 0 0
225 0 0
223 0 0
223 0 0
220 0 0
223 0 0
221 0 0
223 0 0
219 0 0
222 0 0
222 0 0
223 0 0
222 0 0
221 0 0
223 0 0
222 0 0
223 0 0
223 0 0
221 0 0
221 0 0
223 0 0
225 0 0
221 0 0
223 0 0
224 0 0
224 0 0
224 0 0
226 0 0
222 0 0
218 0 0
223 0 0
221 0 0
224 0 0
221 0 0
222 0 0
220 0 0
221 0 0
223 0 0
221 0 0
223 0 0
226 0 0
221 0 0
224 0 0
225 0 0
221 0 0
220 0 0
225 0 0
224 0 0
227 0 0
221 0 0
223 0 0
223 0 0
225 0 0
218 0 0
225 0 0
0 0 254
0 0 252
0 0 255
0 0 255
0 0 255
0 0 254
0 0 255
0 0 254
0 0 255
0 0 255
0 0 255
0 0 255
0 0 255
0 0 255
0 0 255
0 0 255
0 0 254
0 0 253
0 0 255
0 0 255
0 0 255
0 0 250
0 0 254
0 0 255
0 0 254
0 0 255
0 0 254
0 0 253
0 0 255
0 0 255
0 0 254
0 0 253
0 0 254
0 0 249
0 0 253
0 0 255
0 0 255
0 0 254
0 0 255
0 0 255
0 0 254
0 0 254
0 0 254
0 0 255
0 0 250
0 0 250
0 0 255
0 0 254
0 0 255
0 0 254
0 0 250
0 0 253
0 0 253
0 0 254
0 0 255
0 0 254
0 0 253
0 0 249
0 0 253
0 0 253
0 0 253
0 0 252
0 0 254
0 0 253
0 0 255
0 0 253
0 0 255
0 0 253
0 0 254
0 0 254
0 0 250
0 0 248
0 0 253
0 0 255
0 0 250
0 0 255
0 0 252
0 0 250
0 0 253
0 0 254
0 0 255
0 0 250
0 0 253
0 0 249
0 0 252
0 0 252
0 0 253
0 0 252
0 0 252
0 0 248
0 0 246
0 0 255
0 0 250
0 0 250
0 0 249
0 0 252
0 0 249
0 0 248
0 0 255
0 0 249
0 0 253
0 0 253
0 0 253
0 0 253
0 0 248
0 0 242
0 0 250
0 0 246
0 0 246
0 0 248
0 0 250
0 0 250
0 0 248
0 0 246
0 0 248
0 0 250
0 0 244
0 0 242
0 0 248
0 0 249
0 0 248
0 0 252
0 0 241
0 0 241
0 0 248
0 0 245
0 0 249
0 0 240
0 0 246
0 0 248
0 0 245
0 0 246
0 0 252
0 0 241
0 0 246
0 0 246
0 0 230
0 0 246
0 0 244
0 0 244
0 0 242
0 0 246
0 0 237
0 0 236
0 0 245
0 0 244
0 0 242
0 0 240
0 0 245
0 0 236
0 0 242
0 0 227
0 0 241
0 0 237
0 0 236
0 0 231
0 0 238
0 0 231
0 0 237
0 0 236
0 0 238
0 0 240
0 0 227
0 0 233
0 0 230
0 0 230
0 0 237
0 0 228
0 0 228
0 0 220
0 0 234
0 0 224
0 0 228
0 0 214
0 0 227
0 0 217
0 0 206
0 0 211
0 0 211
0 0 214
0 0 203
0 0 209
0 0 203
0 0 211
0 0 203
0 0 188
0 0 189
0 0 188
0 0 171
0 0 173
0 0 173
0 0 169
0 0 169
0 0 171
0 0 157
22 24 140
217 228 246
229 240 255
229 240 255
229 240 255
229 240 255
229 240 255
229 240 255
220 229 244
133 34 36
145 0 0
142 0 0
138 0 0
151 0 0
174 0 0
179 0 0
160 0 0
156 0 0
161 0 0
183 0 0
161 0 0
188 0 0
188 0 0
177 0 0
196 0 0
184 0 0
190 0 0
193 0 0
195 0 0
184 0 0
196 0 0
195 0 0
197 0 0
200 0 0
200 0 0
190 0 0
200 0 0
204 0 0
205 0 0
198 0 0
197 0 0
204 0 0
207 0 0
200 0 0
201 0 0
202 0 0
213 0 0
205 0 0
201 0 0
197 0 0
206 0 0
204 0 0
204 0 0
210 0 0
211 0 0
211 0 0
210 0 0
215 0 0
213 0 0
211 0 0
213 0 0
208 0 0
204 0 0
213 0 0
221 0 0
214 0 0
214 0 0
214 0 0
215 0 0
211 0 0
214 0 0
219 0 0
216 0 0
217 0 0
221 0 0
212 0 0
210 0 0
218 0 0
217 0 0
219 0 0
215 0 0
219 0 0
219 0 0
215 0 0
221 0 0
213 0 0
212 0 0
217 0 0
219 0 0
211 0 0
215 0 0
214 0 0
218 0 0
215 0 0
222 0 0
217 0 0
212 0 0
217 0 0
224 0 0
218 0 0
226 0 0
220 0 0
219 0 0
219 0 0
215 0 0
219 0 0
226 0 0
219 0 0
227 0 0
214 0 0
226 0 0
222 0 0
223 0 0
217 0 0
221 0 0
220 0 0
219 0 0
219 0 0
219 0 0
219 0 0
219 0 0
220 0 0
221 0 0
223 0 0
221 0 0
223 0 0
218 0 0
221 0 0
221 0 0
216 0 0
218 0 0
221 0 0
221 0 0
223 0 0
214 0 0
224 0 0
216 0 0
221 0 0
225 0 0
222 0 0
225 0 0
218 0 0
222 0 0
220 0 0
224 0 0
219 0 0
221 0 0
220 0 0
225 0 0
219 0 0
221 0 0
222 0 0
225 0 0
221 0 0
218 0 0
222 0 0
226 0 0
222 0 0
224 0 0
224 0 0
223 0 0
223 0 0
219 0 0
224 0 0
224 0 0
222 0 0
224 0 0
217 0 0
221 0 0
220 0 0
222 0 0
222 0 0
225 0 0
222 0 0
222 0 0
223 0 0
220 0 0
224 0 0
220 0 0
222 0 0
224 0 0
221 0 0
221 0 0
224 0 0
223 0 0
224 0 0
224 0 0
224 0 0
225 0 0
223 0 0
226 0 0
224 0 0
221 0 0
221 0 0
226 0 0
219 0 0
223 0 0
225 0 0
225 0 0
222 0 0
219 0 0
224 0 0
223 0 0
226 0 0
222 0 0
0 0 255
0 0 255
0 0 255
0 0 254
0 0 255
0 0 253
0 0 255
0 0 255
0 0 255
0 0 255
0 0 255
0 0 255
0 0 255
0 0 253
0 0 254
0 0 254
0 0 255
0 0 255
0 0 255
0 0 255
0 0 255
0 0 254
0 0 255
0 0 254
0 0 255
0 0 252
0 0 255
0 0 255
0 0 254
0 0 254
0 0 255
0 0 252
0 0 255
0 0 253
0 0 253
0 0 255
0 0 249
0 0 254
0 0 255
0 0 253
0 0 254
0 0 250
0 0 253
0 0 255
0 0 254
0 0 253
0 0 253
0 0 254
0 0 253
0 0 254
0 0 250
0 0 250
0 0 253
0 0 253
0 0 255
0 0 254
0 0 254
0 0 254
0 0 254
0 0 253
0 0 253
0 0 252
0 0 254
0 0 254
0 0 252
0 0 254
0 0 254
0 0 254
0 0 254
0 0 254
0 0 249
0 0 250
0 0 253
0 0 250
0 0 252
0 0 253
0 0 248
0 0 250
0 0 255
0 0 250
0 0 250
0 0 255
0 0 246
0 0 255
0 0 249
0 0 252
0 0 250
0 0 254
0 0 249
0 0 246
0 0 246
0 0 252
0 0 249
0 0 249
0 0 253
0 0 249
0 0 246
0 0 249
0 0 252
0 0 250
0 0 250
0 0 252
0 0 246
0 0 249
0 0 248
0 0 250
0 0 249
0 0 252
0 0 246
0 0 252
0 0 248
0 0 253
0 0 245
0 0 248
0 0 249
0 0 246
0 0 248
0 0 245
0 0 244
0 0 245
0 0 242
0 0 245
0 0 245
0 0 250
0 0 250
0 0 248
0 0 248
0 0 246
0 0 250
0 0 242
0 0 252
0 0 242
0 0 246
0 0 248
0 0 240
0 0 244
0 0 242
0 0 252
0 0 246
0 0 233
0 0 240
0 0 246
0 0 245
0 0 242
0 0 244
0 0 241
0 0 236
0 0 234
0 0 242
0 0 241
0 0 233
0 0 237
0 0 223
0 0 231
0 0 241
0 0 228
0 0 233
0 0 233
0 0 234
0 0 230
0 0 233
0 0 236
0 0 234
0 0 228
0 0 227
0 0 230
0 0 228
0 0 230
0 0 237
0 0 218
0 0 221
0 0 226
0 0 227
0 0 217
0 0 228
0 0 228
0 0 214
0 0 209
0 0 217
0 0 204
0 0 215
0 0 215
0 0 193
0 0 209
0 0 191
0 0 204
0 0 186
0 0 189
0 0 193
0 0 193
0 0 177
0 0 177
0 0 171
0 0 157
0 0 137
123 129 189
229 240 255
229 240 255
229 240 255
229 240 255
229 240 255
229 240 255
229 240 255
229 240 255
169 131 140
142 0 0
137 0 0
141 0 0
172 0 0
169 0 0
161 0 0
170 0 0
162 0 0
168 0 0
175 0 0
169 0 0
186 0 0
177 0 0
191 0 0
174 0 0
187 0 0
186 0 0
193 0 0
190 0 0
190 0 0
195 0 0
197 0 0
185 0 0
200 0 0
196 0 0
198 0 0
191 0 0
200 0 0
198 0 0
207 0 0
205 0 0
204 0 0
199 0 0
202 0 0
210 0 0
210 0 0
198 0 0
201 0 0
210 0 0
205 0 0
206 0 0
211 0 0
198 0 0
211 0 0
206 0 0
218 0 0
205 0 0
212 0 0
205 0 0
207 0 0
200 0 0
212 0 0
218 0 0
212 0 0
205 0 0
224 0 0
215 0 0
219 0 0
216 0 0
210 0 0
218 0 0
216 0 0
212 0 0
212 0 0
213 0 0
220 0 0
215 0 0
215 0 0
214 0 0
214 0 0
221 0 0
221 0 0
220 0 0
219 0 0
217 0 0
216 0 0
220 0 0
223 0 0
220 0 0
214 0 0
215 0 0
217 0 0
215 0 0
210 0 0
225 0 0
220 0 0
219 0 0
217 0 0
218 0 0
218 0 0
222 0 0
217 0 0
219 0 0
219 0 0
217 0 0
227 0 0
217 0 0
219 0 0
215 0 0
222 0 0
221 0 0
220 0 0
222 0 0
219 0 0
222 0 0
219 0 0
218 0 0
221 0 0
221 0 0
218 0 0
218 0 0
214 0 0
223 0 0
217 0 0
221 0 0
218 0 0
222 0 0
223 0 0
224 0 0
216 0 0
222 0 0
229 0 0
228 0 0
221 0 0
222 0 0
224 0 0
224 0 0
217 0 0
222 0 0
221 0 0
222 0 0
221 0 0
221 0 0
224 0 0
225 0 0
224 0 0
220 0 0
218 0 0
222 0 0
220 0 0
224 0 0
219 0 0
222 0 0
222 0 0
221 0 0
223 0 0
221 0 0
220 0 0
214 0 0
220 0 0
222 0 0
219 0 0
222 0 0
222 0 0
223 0 0
226 0 0
220 0 0
223 0 0
222 0 0
221 0 0
223 0 0
223 0 0
223 0 0
218 0 0
226 0 0
222 0 0
221 0 0
221 0 0
224 0 0
225 0 0
220 0 0
224 0 0
222 0 0
222 0 0
223 0 0
225 0 0
226 0 0
222 0 0
223 0 0
224 0 0
222 0 0
225 0 0
222 0 0
221 0 0
226 0 0
222 0 0
225 0 0
221 0 0
224 0 0
224 0 0
223 0 0
223 0 0
223 0 0
226 0 0
224 0 0
0 0 255
0 0 253
0 0 255
0 0 255
0 0 255
0 0 255
0 0 255
0 0 255
0 0 255
0 0 253
0 0 255
0 0 254
0 0 255
0 0 254
0 0 254
0 0 254
0 0 255
0 0 254
0 0 255
0 0 253
0 0 254
0 0 255
0 0 254
0 0 253
0 0 255
0 0 255
0 0 255
0 0 253
0 0 254
0 0 255
0 0 255
0 0 254
0 0 255
0 0 253
0 0 254
0 0 255
0 0 253
0 0 254
0 0 253
0 0 255
0 0 254
0 0 254
0 0 254
0 0 252
0 0 253
0 0 255
0 0 255
0 0 253
0 0 253
0 0 253
0 0 252
0 0 253
0 0 253
0 0 254
0 0 255
0 0 252
0 0 248
0 0 254
0 0 253
0 0 253
0 0 250
0 0 250
0 0 250
0 0 254
0 0 253
0 0 249
0 0 250
0 0 252
0 0 255
0 0 250
0 0 252
0 0 255
0 0 250
0 0 245
0 0 245
0 0 253
0 0 255
0 0 253
0 0 253
0 0 249
0 0 249
0 0 252
0 0 254
0 0 253
0 0 254
0 0 255
0 0 253
0 0 245
0 0 252
0 0 250
0 0 245
0 0 252
0 0 254
0 0 250
0 0 252
0 0 253
0 0 253
0 0 249
0 0 246
0 0 250
0 0 252
0 0 249
0 0 252
0 0 246
0 0 252
0 0 242
0 0 248
0 0 246
0 0 246
0 0 244
0 0 248
0 0 248
0 0 249
0 0 249
0 0 245
0 0 246
0 0 249
0 0 240
0 0 241
0 0 248
0 0 244
0 0 248
0 0 248
0 0 249
0 0 248
0 0 246
0 0 252
0 0 250
0 0 241
0 0 249
0 0 241
0 0 245
0 0 245
0 0 240
0 0 238
0 0 240
0 0 242
0 0 241
0 0 244
0 0 242
0 0 233
0 0 240
0 0 234
0 0 246
0 0 228
0 0 245
0 0 230
0 0 233
0 0 230
0 0 228
0 0 233
0 0 230
0 0 226
0 0 223
0 0 231
0 0 236
0 0 237
0 0 234
0 0 228
0 0 226
0 0 233
0 0 221
0 0 233
0 0 228
0 0 228
0 0 220
0 0 230
0 0 226
0 0 221
0 0 228
0 0 227
0 0 230
0 0 220
0 0 218
0 0 221
0 0 217
0 0 221
0 0 220
0 0 206
0 0 206
0 0 201
0 0 211
0 0 215
0 0 193
0 0 189
0 0 201
0 0 211
0 0 184
0 0 189
0 0 193
0 0 184
0 0 171
0 0 177
0 0 181
0 0 140
181 189 217
230 240 255
230 240 255
230 240 255
230 240 255
230 240 255
230 240 255
230 240 255
230 240 255
200 191 203
167 0 0
147 0 0
164 0 0
149 0 0
154 0 0
158 0 0
169 0 0
172 0 0
176 0 0
174 0 0
175 0 0
191 0 0
179 0 0
191 0 0
189 0 0
193 0 0
192 0 0
185 0 0
200 0 0
194 0 0
186 0 0
192 0 0
201 0 0
205 0 0
202 0 0
201 0 0
191 0 0
206 0 0
210 0 0
212 0 0
206 0 0
203 0 0
208 0 0
210 0 0
212 0 0
209 0 0
203 0 0
208 0 0
208 0 0
204 0 0
205 0 0
208 0 0
203 0 0
205 0 0
210 0 0
216 0 0
202 0 0
204 0 0
213 0 0
213 0 0
216 0 0
214 0 0
221 0 0
219 0 0
217 0 0
209 0 0
210 0 0
215 0 0
210 0 0
215 0 0
217 0 0
220 0 0
213 0 0
220 0 0
217 0 0
219 0 0
215 0 0
225 0 0
212 0 0
217 0 0
218 0 0
216 0 0
215 0 0
218 0 0
217 0 0
215 0 0
212 0 0
223 0 0
219 0 0
216 0 0
221 0 0
223 0 0
218 0 0
216 0 0
210 0 0
214 0 0
218 0 0
218 0 0
222 0 0
219 0 0
221 0 0
221 0 0
220 0 0
216 0 0
217 0 0
216 0 0
216 0 0
219 0 0
221 0 0
225 0 0
224 0 0
220 0 0
221 0 0
218 0 0
216 0 0
218 0 0
221 0 0
221 0 0
221 0 0
216 0 0
217 0 0
215 0 0
219 0 0
216 0 0
219 0 0
224 0 0
218 0 0
218 0 0
218 0 0
229 0 0
223 0 0
222 0 0
218 0 0
222 0 0
221 0 0
224 0 0
217 0 0
227 0 0
220 0 0
224 0 0
221 0 0
224 0 0
221 0 0
223 0 0
224 0 0
223 0 0
223 0 0
219 0 0
222 0 0
220 0 0
224 0 0
221 0 0
221 0 0
219 0 0
222 0 0
226 0 0
226 0 0
222 0 0
220 0 0
225 0 0
223 0 0
222 0 0
222 0 0
224 0 0
219 0 0
227 0 0
223 0 0
222 0 0
221 0 0
219 0 0
226 0 0
223 0 0
227 0 0
226 0 0
225 0 0
219 0 0
221 0 0
225 0 0
223 0 0
225 0 0
224 0 0
225 0 0
229 0 0
225 0 0
223 0 0
224 0 0
223 0 0
227 0 0
223 0 0
223 0 0
225 0 0
224 0 0
226 0 0
225 0 0
222 0 0
221 0 0
227 0 0
227 0 0
222 0 0
221 0 0
228 0 0
223 0 0
225 0 0
223 0 0
223 0 0
0 0 255
0 0 255
0 0 255
0 0 255
0 0 255
0 0 253
0 0 255
0 0 255
0 0 255
0 0 255
0 0 254
0 0 254
0 0 255
0 0 255
0 0 255
0 0 254
0 0 255
0 0 255
0 0 254
0 0 255
0 0 254
0 0 255
0 0 252
0 0 255
0 0 254
0 0 255
0 0 255
0 0 255
0 0 255
0 0 254
0 0 254
0 0 253
0 0 255
0 0 255
0 0 255
0 0 253
0 0 255
0 0 255
0 0 255
0 0 254
0 0 254
0 0 254
0 0 254
0 0 255
0 0 250
0 0 255
0 0 254
0 0 253
0 0 254
0 0 253
0 0 252
0 0 254
0 0 254
0 0 253
0 0 254
0 0 250
0 0 254
0 0 254
0 0 252
0 0 252
0 0 254
0 0 254
0 0 250
0 0 253
0 0 253
0 0 255
0 0 253
0 0 254
0 0 254
0 0 254
0 0 252
0 0 254
0 0 253
0 0 253
0 0 246
0 0 250
0 0 250
0 0 252
0 0 250
0 0 253
0 0 253
0 0 248
0 0 253
0 0 254
0 0 246
0 0 248
0 0 248
0 0 254
0 0 249
0 0 250
0 0 253
0 0 253
0 0 252
0 0 250
0 0 252
0 0 246
0 0 248
0 0 248
0 0 248
0 0 250
0 0 250
0 0 253
0 0 249
0 0 244
0 0 249
0 0 252
0 0 246
0 0 250
0 0 240
0 0 244
0 0 252
0 0 248
0 0 249
0 0 249
0 0 249
0 0 250
0 0 245
0 0 244
0 0 250
0 0 248
0 0 249
0 0 248
0 0 244
0 0 245
0 0 245
0 0 238
0 0 241
0 0 240
0 0 237
0 0 240
0 0 242
0 0 244
0 0 249
0 0 246
0 0 245
0 0 242
0 0 244
0 0 234
0 0 236
0 0 244
0 0 238
0 0 236
0 0 234
0 0 241
0 0 241
0 0 238
0 0 245
0 0 230
0 0 248
0 0 241
0 0 238
0 0 238
0 0 233
0 0 242
0 0 233
0 0 241
0 0 228
0 0 236
0 0 227
0 0 231
0 0 233
0 0 234
0 0 231
0 0 231
0 0 221
0 0 227
0 0 231
0 0 223
0 0 228
0 0 228
0 0 240
0 0 220
0 0 211
0 0 223
0 0 214
0 0 207
0 0 223
0 0 215
0 0 223
0 0 203
0 0 209
0 0 207
0 0 204
0 0 201
0 0 186
0 0 198
0 0 188
0 0 181
0 0 167
0 0 194
0 0 179
0 0 181
0 0 163
0 0 161
51 53 173
228 238 254
230 240 255
230 240 255
230 240 255
230 241 255
230 240 255
230 240 255
230 240 255
230 240 255
224 232 246
153 63 67
152 0 0
158 0 0
155 0 0
170 0 0
166 0 0
163 0 0
178 0 0
167 0 0
188 0 0
184 0 0
183 0 0
180 0 0
186 0 0
179 0 0
199 0 0
205 0 0
192 0 0
200 0 0
187 0 0
204 0 0
198 0 0
198 0 0
205 0 0
201 0 0
201 0 0
210 0 0
206 0 0
201 0 0
197 0 0
210 0 0
206 0 0
198 0 0
209 0 0
218 0 0
199 0 0
202 0 0
208 0 0
205 0 0
215 0 0
208 0 0
208 0 0
206 0 0
212 0 0
205 0 0
195 0 0
206 0 0
212 0 0
216 0 0
214 0 0
222 0 0
216 0 0
208 0 0
212 0 0
208 0 0
218 0 0
210 0 0
210 0 0
220 0 0
218 0 0
209 0 0
217 0 0
219 0 0
219 0 0
213 0 0
214 0 0
217 0 0
217 0 0
217 0 0
212 0 0
220 0 0
219 0 0
221 0 0
215 0 0
209 0 0
224 0 0
217 0 0
216 0 0
217 0 0
213 0 0
220 0 0
214 0 0
215 0 0
217 0 0
224 0 0
215 0 0
218 0 0
217 0 0
217 0 0
221 0 0
217 0 0
214 0 0
220 0 0
223 0 0
222 0 0
220 0 0
218 0 0
215 0 0
217 0 0
222 0 0
224 0 0
220 0 0
215 0 0
225 0 0
219 0 0
221 0 0
219 0 0
219 0 0
221 0 0
219 0 0
219 0 0
224 0 0
221 0 0
221 0 0
222 0 0
220 0 0
222 0 0
221 0 0
217 0 0
222 0 0
224 0 0
223 0 0
221 0 0
224 0 0
223 0 0
224 0 0
226 0 0
221 0 0
219 0 0
222 0 0
222 0 0
223 0 0
222 0 0
221 0 0
223 0 0
221 0 0
227 0 0
225 0 0
224 0 0
221 0 0
221 0 0
226 0 0
219 0 0
222 0 0
226 0 0
223 0 0
221 0 0
220 0 0
219 0 0
226 0 0
222 0 0
222 0 0
225 0 0
223 0 0
221 0 0
222 0 0
223 0 0
225 0 0
224 0 0
222 0 0
222 0 0
223 0 0
222 0 0
220 0 0
221 0 0
225 0 0
224 0 0
224 0 0
221 0 0
221 0 0
219 0 0
222 0 0
224 0 0
224 0 0
224 0 0
222 0 0
222 0 0
224 0 0
227 0 0
221 0 0
225 0 0
223 0 0
221 0 0
222 0 0
217 0 0
225 0 0
222 0 0
223 0 0
222 0 0
220 0 0
224 0 0
226 0 0
224 0 0
223 0 0
225 0 0
0 0 254
0 0 255
0 0 253
0 0 255
0 0 255
0 0 255
0 0 253
0 0 255
0 0 255
0 0 253
0 0 255
0 0 254
0 0 255
0 0 254
0 0 254
0 0 255
0 0 255
0 0 254
0 0 253
0 0 255
0 0 252
0 0 254
0 0 255
0 0 254
0 0 255
0 0 255
0 0 255
0 0 253
0 0 254
0 0 255
0 0 254
0 0 254
0 0 252
0 0 253
0 0 254
0 0 253
0 0 254
0 0 253
0 0 254
0 0 255
0 0 253
0 0 255
0 0 253
0 0 255
0 0 254
0 0 253
0 0 246
0 0 252
0 0 253
0 0 254
0 0 252
0 0 253
0 0 253
0 0 252
0 0 253
0 0 253
0 0 252
0 0 255
0 0 254
0 0 255
0 0 252
0 0 249
0 0 250
0 0 254
0 0 246
0 0 252
0 0 252
0 0 252
0 0 255
0 0 248
0 0 253
0 0 250
0 0 254
0 0 252
0 0 252
0 0 252
0 0 253
0 0 252
0 0 254
0 0 252
0 0 253
0 0 248
0 0 254
0 0 253
0 0 241
0 0 253
0 0 246
0 0 252
0 0 253
0 0 252
0 0 250
0 0 248
0 0 252
0 0 249
0 0 253
0 0 248
0 0 253
0 0 246
0 0 246
0 0 246
0 0 254
0 0 248
0 0 249
0 0 246
0 0 250
0 0 252
0 0 248
0 0 246
0 0 249
0 0 250
0 0 250
0 0 242
0 0 245
0 0 246
0 0 248
0 0 246
0 0 249
0 0 253
0 0 249
0 0 250
0 0 246
0 0 246
0 0 252
0 0 245
0 0 244
0 0 244
0 0 245
0 0 240
0 0 248
0 0 244
0 0 241
0 0 248
0 0 244
0 0 241
0 0 244
0 0 244
0 0 237
0 0 244
0 0 238
0 0 237
0 0 241
0 0 233
0 0 241
0 0 242
0 0 240
0 0 236
0 0 240
0 0 230
0 0 241
0 0 241
0 0 231
0 0 238
0 0 230
0 0 218
0 0 231
0 0 240
0 0 238
0 0 227
0 0 236
0 0 231
0 0 240
0 0 234
0 0 227
0 0 221
0 0 236
0 0 218
0 0 223
0 0 228
0 0 217
0 0 214
0 0 230
0 0 226
0 0 206
0 0 215
0 0 206
0 0 224
0 0 220
0 0 221
0 0 201
0 0 217
0 0 203
0 0 204
0 0 184
0 0 209
0 0 204
0 0 203
0 0 191
0 0 193
0 0 186
0 0 189
0 0 167
0 0 153
0 0 184
0 0 151
153 159 207
230 241 255
230 241 255
230 241 255
230 241 255
230 241 255
230 241 255
230 241 255
230 241 255
230 241 255
230 241 255
194 161 171
150 0 0
169 0 0
158 0 0
146 0 0
174 0 0
166 0 0
170 0 0
166 0 0
181 0 0
179 0 0
185 0 0
183 0 0
178 0 0
189 0 0
185 0 0
186 0 0
200 0 0
195 0 0
192 0 0
197 0 0
203 0 0
198 0 0
208 0 0
207 0 0
207 0 0
200 0 0
212 0 0
206 0 0
195 0 0
207 0 0
206 0 0
217 0 0
201 0 0
204 0 0
214 0 0
207 0 0
214 0 0
208 0 0
205 0 0
202 0 0
207 0 0
214 0 0
210 0 0
210 0 0
203 0 0
216 0 0
212 0 0
211 0 0
215 0 0
210 0 0
217 0 0
221 0 0
212 0 0
213 0 0
213 0 0
218 0 0
213 0 0
212 0 0
210 0 0
219 0 0
210 0 0
218 0 0
217 0 0
218 0 0
223 0 0
210 0 0
221 0 0
219 0 0
215 0 0
214 0 0
218 0 0
217 0 0
223 0 0
217 0 0
220 0 0
218 0 0
209 0 0
211 0 0
220 0 0
216 0 0
221 0 0
220 0 0
224 0 0
216 0 0
220 0 0
217 0 0
217 0 0
222 0 0
219 0 0
215 0 0
215 0 0
220 0 0
219 0 0
220 0 0
226 0 0
217 0 0
223 0 0
224 0 0
221 0 0
222 0 0
218 0 0
222 0 0
220 0 0
224 0 0
222 0 0
224 0 0
223 0 0
219 0 0
216 0 0
217 0 0
222 0 0
221 0 0
218 0 0
222 0 0
213 0 0
218 0 0
221 0 0
222 0 0
220 0 0
221 0 0
227 0 0
224 0 0
225 0 0
219 0 0
224 0 0
223 0 0
221 0 0
224 0 0
221 0 0
218 0 0
224 0 0
223 0 0
223 0 0
224 0 0
224 0 0
222 0 0
219 0 0
222 0 0
223 0 0
224 0 0
221 0 0
224 0 0
224 0 0
223 0 0
225 0 0
221 0 0
222 0 0
224 0 0
222 0 0
223 0 0
222 0 0
223 0 0
224 0 0
224 0 0
223 0 0
223 0 0
223 0 0
222 0 0
223 0 0
222 0 0
224 0 0
220 0 0
223 0 0
221 0 0
226 0 0
222 0 0
227 0 0
227 0 0
221 0 0
225 0 0
222 0 0
225 0 0
224 0 0
226 0 0
221 0 0
220 0 0
223 0 0
226 0 0
224 0 0
223 0 0
227 0 0
222 0 0
222 0 0
226 0 0
225 0 0
225 0 0
228 0 0
226 0 0
228 0 0
224 0 0
227 0 0
224 0 0
221 0 0
228 0 0
0 0 255
0 0 255
0 0 255
0 0 254
0 0 254
0 0 255
0 0 255
0 0 255
0 0 253
0 0 255
0 0 254
0 0 255
0 0 253
0 0 253
0 0 255
0 0 255
0 0 254
0 0 255
0 0 253
0 0 255
0 0 255
0 0 253
0 0 255
0 0 252
0 0 255
0 0 254
0 0 254
0 0 255
0 0 255
0 0 255
0 0 254
0 0 255
0 0 252
0 0 255
0 0 249
0 0 254
0 0 254
0 0 253
0 0 252
0 0 254
0 0 253
0 0 255
0 0 254
0 0 254
0 0 255
0 0 254
0 0 253
0 0 254
0 0 254
0 0 254
0 0 249
0 0 253
0 0 254
0 0 253
0 0 254
0 0 253
0 0 250
0 0 254
0 0 253
0 0 253
0 0 255
0 0 254
0 0 252
0 0 253
0 0 254
0 0 249
0 0 254
0 0 253
0 0 250
0 0 253
0 0 253
0 0 253
0 0 252
0 0 255
0 0 253
0 0 252
0 0 253
0 0 250
0 0 250
0 0 253
0 0 250
0 0 246
0 0 252
0 0 252
0 0 250
0 0 246
0 0 255
0 0 254
0 0 246
0 0 252
0 0 254
0 0 252
0 0 248
0 0 253
0 0 254
0 0 252
0 0 250
0 0 249
0 0 252
0 0 252
0 0 244
0 0 252
0 0 252
0 0 249
0 0 244
0 0 246
0 0 246
0 0 250
0 0 250
0 0 250
0 0 248
0 0 254
0 0 253
0 0 246
0 0 246
0 0 249
0 0 248
0 0 244
0 0 252
0 0 250
0 0 252
0 0 245
0 0 249
0 0 241
0 0 236
0 0 240
0 0 244
0 0 244
0 0 248
0 0 244
0 0 245
0 0 242
0 0 246
0 0 240
0 0 242
0 0 237
0 0 241
0 0 248
0 0 245
0 0 234
0 0 240
0 0 240
0 0 242
0 0 238
0 0 237
0 0 244
0 0 238
0 0 231
0 0 238
0 0 236
0 0 240
0 0 233
0 0 234
0 0 242
0 0 233
0 0 240
0 0 230
0 0 230
0 0 237
0 0 233
0 0 233
0 0 236
0 0 233
0 0 227
0 0 230
0 0 227
0 0 230
0 0 218
0 0 223
0 0 224
0 0 228
0 0 220
0 0 218
0 0 220
0 0 206
0 0 223
0 0 212
0 0 212
0 0 206
0 0 212
0 0 211
0 0 204
0 0 199
0 0 204
0 0 204
0 0 203
0 0 207
0 0 175
0 0 182
0 0 186
0 0 167
0 0 186
0 0 151
0 0 157
205 214 240
231 241 255
231 241 255
231 241 255
231 241 255
231 241 255
231 241 255
231 241 255
231 241 255
231 241 255
231 241 255
207 204 217
157 0 0
155 0 0
157 0 0
162 0 0
177 0 0
161 0 0
167 0 0
195 0 0
185 0 0
181 0 0
188 0 0
180 0 0
190 0 0
195 0 0
188 0 0
204 0 0
198 0 0
194 0 0
194 0 0
202 0 0
199 0 0
197 0 0
193 0 0
201 0 0
197 0 0
207 0 0
202 0 0
209 0 0
200 0 0
197 0 0
205 0 0
200 0 0
206 0 0
215 0 0
200 0 0
205 0 0
209 0 0
207 0 0
205 0 0
210 0 0
203 0 0
216 0 0
211 0 0
215 0 0
208 0 0
220 0 0
219 0 0
217 0 0
218 0 0
214 0 0
210 0 0
214 0 0
221 0 0
216 0 0
211 0 0
205 0 0
216 0 0
219 0 0
216 0 0
216 0 0
211 0 0
218 0 0
218 0 0
216 0 0
216 0 0
219 0 0
212 0 0
215 0 0
215 0 0
219 0 0
217 0 0
220 0 0
217 0 0
214 0 0
212 0 0
221 0 0
210 0 0
217 0 0
217 0 0
218 0 0
212 0 0
221 0 0
216 0 0
223 0 0
220 0 0
221 0 0
221 0 0
216 0 0
213 0 0
219 0 0
216 0 0
215 0 0
216 0 0
221 0 0
224 0 0
223 0 0
219 0 0
218 0 0
219 0 0
220 0 0
218 0 0
224 0 0
224 0 0
214 0 0
223 0 0
218 0 0
217 0 0
218 0 0
219 0 0
219 0 0
217 0 0
215 0 0
220 0 0
221 0 0
223 0 0
226 0 0
217 0 0
221 0 0
219 0 0
222 0 0
221 0 0
224 0 0
217 0 0
221 0 0
223 0 0
223 0 0
224 0 0
218 0 0
219 0 0
224 0 0
220 0 0
223 0 0
219 0 0
223 0 0
221 0 0
223 0 0
219 0 0
223 0 0
225 0 0
223 0 0
227 0 0
227 0 0
225 0 0
223 0 0
221 0 0
225 0 0
227 0 0
224 0 0
225 0 0
226 0 0
225 0 0
225 0 0
225 0 0
227 0 0
223 0 0
218 0 0
226 0 0
224 0 0
224 0 0
221 0 0
227 0 0
224 0 0
222 0 0
223 0 0
225 0 0
222 0 0
220 0 0
222 0 0
218 0 0
223 0 0
222 0 0
223 0 0
224 0 0
223 0 0
223 0 0
222 0 0
225 0 0
222 0 0
221 0 0
220 0 0
222 0 0
223 0 0
221 0 0
223 0 0
221 0 0
225 0 0
223 0 0
223 0 0
226 0 0
223 0 0
227 0 0
224 0 0
224 0 0
223 0 0
0 0 255
0 0 255
0 0 255
0 0 255
0 0 255
0 0 255
0 0 255
0 0 255
0 0 255
0 0 255
0 0 254
0 0 254
0 0 254
0 0 255
0 0 253
0 0 253
0 0 255
0 0 254
0 0 253
0 0 255
0 0 254
0 0 254
0 0 254
0 0 255
0 0 255
0 0 255
0 0 254
0 0 255
0 0 253
0 0 252
0 0 255
0 0 254
0 0 255
0 0 250
0 0 255
0 0 254
0 0 254
0 0 255
0 0 254
0 0 253
0 0 254
0 0 254
0 0 253
0 0 254
0 0 254
0 0 254
0 0 252
0 0 254
0 0 255
0 0 252
0 0 254
0 0 253
0 0 255
0 0 253
0 0 250
0 0 253
0 0 254
0 0 252
0 0 255
0 0 250
0 0 254
0 0 250
0 0 250
0 0 255
0 0 250
0 0 255
0 0 250
0 0 254
0 0 255
0 0 253
0 0 253
0 0 252
0 0 249
0 0 250
0 0 250
0 0 250
0 0 254
0 0 254
0 0 249
0 0 250
0 0 254
0 0 248
0 0 253
0 0 246
0 0 249
0 0 249
0 0 254
0 0 253
0 0 253
0 0 253
0 0 244
0 0 252
0 0 252
0 0 246
0 0 248
0 0 250
0 0 253
0 0 252
0 0 244
0 0 249
0 0 248
0 0 248
0 0 249
0 0 248
0 0 246
0 0 246
0 0 250
0 0 248
0 0 252
0 0 242
0 0 250
0 0 246
0 0 248
0 0 250
0 0 252
0 0 246
0 0 246
0 0 245
0 0 242
0 0 250
0 0 249
0 0 245
0 0 237
0 0 246
0 0 241
0 0 248
0 0 250
0 0 245
0 0 242
0 0 246
0 0 241
0 0 242
0 0 241
0 0 234
0 0 245
0 0 241
0 0 238
0 0 244
0 0 252
0 0 244
0 0 245
0 0 242
0 0 242
0 0 250
0 0 238
0 0 233
0 0 233
0 0 240
0 0 236
0 0 233
0 0 241
0 0 231
0 0 244
0 0 237
0 0 234
0 0 233
0 0 238
0 0 227
0 0 240
0 0 236
0 0 234
0 0 231
0 0 236
0 0 236
0 0 220
0 0 226
0 0 236
0 0 217
0 0 221
0 0 227
0 0 223
0 0 217
0 0 220
0 0 224
0 0 212
0 0 214
0 0 220
0 0 218
0 0 212
0 0 221
0 0 218
0 0 215
0 0 194
0 0 206
0 0 184
0 0 206
0 0 203
0 0 203
0 0 186
0 0 204
0 0 171
0 0 165
0 0 161
92 96 188
231 241 255
231 241 255
231 241 255
231 241 255
231 241 255
231 241 255
231 241 255
231 241 255
231 241 255
231 241 255
231 241 255
231 241 255
156 99 105
147 0 0
169 0 0
180 0 0
153 0 0
163 0 0
183 0 0
182 0 0
175 0 0
184 0 0
195 0 0
199 0 0
186 0 0
194 0 0
193 0 0
187 0 0
193 0 0
198 0 0
189 0 0
182 0 0
196 0 0
189 0 0
196 0 0
205 0 0
192 0 0
199 0 0
199 0 0
207 0 0
212 0 0
202 0 0
205 0 0
198 0 0
200 0 0
202 0 0
207 0 0
219 0 0
207 0 0
214 0 0
205 0 0
206 0 0
210 0 0
199 0 0
215 0 0
204 0 0
217 0 0
213 0 0
212 0 0
217 0 0
211 0 0
210 0 0
216 0 0
220 0 0
211 0 0
219 0 0
211 0 0
214 0 0
210 0 0
214 0 0
213 0 0
214 0 0
214 0 0
218 0 0
213 0 0
215 0 0
220 0 0
212 0 0
219 0 0
214 0 0
210 0 0
216 0 0
221 0 0
217 0 0
218 0 0
219 0 0
213 0 0
223 0 0
220 0 0
223 0 0
226 0 0
216 0 0
217 0 0
217 0 0
215 0 0
220 0 0
218 0 0
222 0 0
216 0 0
215 0 0
223 0 0
214 0 0
219 0 0
220 0 0
221 0 0
214 0 0
218 0 0
219 0 0
220 0 0
217 0 0
220 0 0
217 0 0
219 0 0
220 0 0
213 0 0
216 0 0
220 0 0
224 0 0
222 0 0
220 0 0
225 0 0
224 0 0
218 0 0
217 0 0
225 0 0
220 0 0
225 0 0
223 0 0
223 0 0
227 0 0
217 0 0
219 0 0
224 0 0
225 0 0
221 0 0
222 0 0
220 0 0
224 0 0
223 0 0
224 0 0
219 0 0
221 0 0
223 0 0
225 0 0
223 0 0
223 0 0
224 0 0
223 0 0
222 0 0
221 0 0
219 0 0
223 0 0
223 0 0
223 0 0
220 0 0
222 0 0
223 0 0
221 0 0
221 0 0
221 0 0
224 0 0
220 0 0
222 0 0
223 0 0
222 0 0
227 0 0
220 0 0
223 0 0
226 0 0
227 0 0
224 0 0
225 0 0
226 0 0
224 0 0
221 0 0
224 0 0
222 0 0
221 0 0
222 0 0
220 0 0
224 0 0
225 0 0
222 0 0
225 0 0
227 0 0
227 0 0
220 0 0
224 0 0
220 0 0
224 0 0
222 0 0
225 0 0
221 0 0
221 0 0
227 0 0
225 0 0
226 0 0
222 0 0
226 0 0
223 0 0
222 0 0
223 0 0
223 0 0
228 0 0
225 0 0
223 0 0
0 0 255
0 0 254
0 0 254
0 0 255
0 0 255
0 0 254
0 0 255
0 0 255
0 0 255
0 0 255
0 0 255
0 0 254
0 0 255
0 0 254
0 0 254
0 0 254
0 0 254
0 0 255
0 0 255
0 0 255
0 0 255
0 0 253
0 0 254
0 0 254
0 0 255
0 0 255
0 0 255
0 0 255
0 0 254
0 0 255
0 0 255
0 0 254
0 0 254
0 0 253
0 0 252
0 0 255
0 0 255
0 0 255
0 0 254
0 0 253
0 0 255
0 0 255
0 0 253
0 0 254
0 0 253
0 0 255
0 0 252
0 0 254
0 0 254
0 0 254
0 0 252
0 0 252
0 0 253
0 0 255
0 0 255
0 0 253
0 0 254
0 0 250
0 0 254
0 0 255
0 0 253
0 0 253
0 0 252
0 0 254
0 0 253
0 0 253
0 0 254
0 0 254
0 0 254
0 0 252
0 0 253
0 0 254
0 0 252
0 0 250
0 0 250
0 0 250
0 0 253
0 0 254
0 0 252
0 0 250
0 0 254
0 0 252
0 0 254
0 0 249
0 0 246
0 0 248
0 0 248
0 0 254
0 0 249
0 0 250
0 0 245
0 0 252
0 0 249
0 0 250
0 0 252
0 0 252
0 0 250
0 0 246
0 0 250
0 0 250
0 0 248
0 0 250
0 0 254
0 0 248
0 0 249
0 0 246
0 0 248
0 0 246
0 0 249
0 0 248
0 0 250
0 0 253
0 0 252
0 0 246
0 0 249
0 0 248
0 0 249
0 0 246
0 0 249
0 0 249
0 0 248
0 0 245
0 0 248
0 0 241
0 0 248
0 0 237
0 0 244
0 0 242
0 0 246
0 0 237
0 0 240
0 0 248
0 0 241
0 0 242
0 0 253
0 0 253
0 0 241
0 0 246
0 0 238
0 0 238
0 0 244
0 0 241
0 0 245
0 0 238
0 0 241
0 0 231
0 0 238
0 0 237
0 0 245
0 0 240
0 0 240
0 0 231
0 0 238
0 0 233
0 0 236
0 0 236
0 0 234
0 0 242
0 0 231
0 0 231
0 0 231
0 0 234
0 0 233
0 0 226
0 0 227
0 0 231
0 0 238
0 0 215
0 0 215
0 0 231
0 0 218
0 0 224
0 0 220
0 0 234
0 0 217
0 0 214
0 0 224
0 0 214
0 0 227
0 0 220
0 0 218
0 0 204
0 0 206
0 0 191
0 0 206
0 0 198
0 0 184
0 0 194
0 0 196
0 0 181
0 0 184
0 0 181
0 0 179
176 184 224
231 241 255
231 241 255
231 241 255
231 241 255
231 241 255
231 241 255
231 241 255
231 241 255
231 241 255
231 241 255
231 241 255
231 241 255
201 187 198
161 0 0
164 0 0
162 0 0
173 0 0
176 0 0
182 0 0
178 0 0
186 0 0
188 0 0
189 0 0
192 0 0
184 0 0
183 0 0
196 0 0
189 0 0
191 0 0
202 0 0
204 0 0
192 0 0
186 0 0
197 0 0
197 0 0
200 0 0
199 0 0
203 0 0
208 0 0
200 0 0
197 0 0
206 0 0
214 0 0
208 0 0
207 0 0
210 0 0
208 0 0
205 0 0
208 0 0
214 0 0
212 0 0
206 0 0
211 0 0
208 0 0
216 0 0
214 0 0
218 0 0
216 0 0
214 0 0
217 0 0
204 0 0
220 0 0
212 0 0
221 0 0
212 0 0
209 0 0
213 0 0
213 0 0
217 0 0
211 0 0
214 0 0
216 0 0
208 0 0
223 0 0
220 0 0
220 0 0
220 0 0
216 0 0
224 0 0
216 0 0
215 0 0
221 0 0
213 0 0
216 0 0
217 0 0
218 0 0
221 0 0
216 0 0
217 0 0
220 0 0
221 0 0
220 0 0
218 0 0
221 0 0
224 0 0
222 0 0
222 0 0
223 0 0
222 0 0
221 0 0
223 0 0
222 0 0
217 0 0
220 0 0
219 0 0
224 0 0
220 0 0
216 0 0
218 0 0
224 0 0
222 0 0
222 0 0
220 0 0
218 0 0
220 0 0
221 0 0
225 0 0
222 0 0
226 0 0
219 0 0
225 0 0
222 0 0
222 0 0
224 0 0
223 0 0
225 0 0
222 0 0
222 0 0
224 0 0
217 0 0
222 0 0
223 0 0
220 0 0
225 0 0
223 0 0
224 0 0
223 0 0
225 0 0
223 0 0
219 0 0
223 0 0
224 0 0
221 0 0
221 0 0
230 0 0
224 0 0
218 0 0
219 0 0
222 0 0
223 0 0
223 0 0
222 0 0
223 0 0
221 0 0
226 0 0
225 0 0
223 0 0
222 0 0
223 0 0
222 0 0
222 0 0
221 0 0
224 0 0
221 0 0
224 0 0
225 0 0
225 0 0
219 0 0
226 0 0
226 0 0
224 0 0
225 0 0
222 0 0
223 0 0
225 0 0
224 0 0
222 0 0
220 0 0
218 0 0
226 0 0
223 0 0
222 0 0
221 0 0
228 0 0
223 0 0
222 0 0
222 0 0
223 0 0
225 0 0
227 0 0
222 0 0
225 0 0
222 0 0
223 0 0
228 0 0
227 0 0
225 0 0
219 0 0
220 0 0
222 0 0
222 0 0
221 0 0
223 0 0
225 0 0
224 0 0
224 0 0
0 0 255
0 0 255
0 0 255
0 0 255
0 0 255
0 0 254
0 0 255
0 0 255
0 0 255
0 0 254
0 0 255
0 0 254
0 0 255
0 0 255
0 0 255
0 0 255
0 0 255
0 0 255
0 0 252
0 0 255
0 0 253
0 0 254
0 0 255
0 0 253
0 0 255
0 0 255
0 0 255
0 0 255
0 0 254
0 0 255
0 0 255
0 0 255
0 0 253
0 0 254
0 0 253
0 0 254
0 0 255
0 0 253
0 0 254
0 0 254
0 0 255
0 0 255
0 0 254
0 0 253
0 0 253
0 0 255
0 0 252
0 0 254
0 0 253
0 0 250
0 0 255
0 0 253
0 0 253
0 0 253
0 0 255
0 0 253
0 0 254
0 0 253
0 0 254
0 0 252
0 0 254
0 0 253
0 0 254
0 0 252
0 0 250
0 0 252
0 0 252
0 0 248
0 0 254
0 0 250
0 0 248
0 0 252
0 0 254
0 0 255
0 0 249
0 0 252
0 0 254
0 0 250
0 0 254
0 0 255
0 0 255
0 0 252
0 0 252
0 0 249
0 0 254
0 0 253
0 0 253
0 0 254
0 0 245
0 0 249
0 0 246
0 0 250
0 0 248
0 0 249
0 0 252
0 0 252
0 0 248
0 0 254
0 0 249
0 0 248
0 0 248
0 0 253
0 0 252
0 0 252
0 0 245
0 0 249
0 0 249
0 0 248
0 0 252
0 0 252
0 0 245
0 0 248
0 0 248
0 0 250
0 0 250
0 0 248
0 0 250
0 0 244
0 0 248
0 0 245
0 0 246
0 0 248
0 0 246
0 0 244
0 0 248
0 0 249
0 0 246
0 0 246
0 0 250
0 0 244
0 0 245
0 0 244
0 0 241
0 0 241
0 0 238
0 0 246
0 0 237
0 0 249
0 0 249
0 0 244
0 0 236
0 0 236
0 0 248
0 0 241
0 0 237
0 0 237
0 0 234
0 0 237
0 0 237
0 0 244
0 0 238
0 0 233
0 0 233
0 0 233
0 0 238
0 0 237
0 0 227
0 0 230
0 0 224
0 0 228
0 0 226
0 0 226
0 0 227
0 0 226
0 0 234
0 0 233
0 0 231
0 0 224
0 0 230
0 0 224
0 0 226
0 0 227
0 0 215
0 0 226
0 0 228
0 0 230
0 0 212
0 0 226
0 0 220
0 0 218
0 0 204
0 0 189
0 0 212
0 0 217
0 0 211
0 0 196
0 0 211
0 0 203
0 0 206
0 0 179
0 0 175
0 0 179
51 54 175
224 234 252
231 241 255
231 241 255
231 241 255
231 241 255
231 241 255
231 241 255
231 241 255
231 241 255
231 241 255
231 241 255
231 241 255
231 241 255
231 236 250
172 41 44
172 0 0
160 0 0
187 0 0
179 0 0
169 0 0
184 0 0
173 0 0
176 0 0
197 0 0
191 0 0
199 0 0
170 0 0
203 0 0
185 0 0
191 0 0
193 0 0
195 0 0
199 0 0
195 0 0
194 0 0
182 0 0
192 0 0
201 0 0
194 0 0
201 0 0
202 0 0
204 0 0
197 0 0
198 0 0
206 0 0
208 0 0
213 0 0
206 0 0
209 0 0
208 0 0
213 0 0
216 0 0
202 0 0
214 0 0
209 0 0
214 0 0
208 0 0
218 0 0
209 0 0
209 0 0
217 0 0
209 0 0
213 0 0
226 0 0
213 0 0
211 0 0
213 0 0
216 0 0
221 0 0
212 0 0
222 0 0
215 0 0
219 0 0
218 0 0
220 0 0
216 0 0
220 0 0
219 0 0
214 0 0
221 0 0
221 0 0
215 0 0
221 0 0
214 0 0
219 0 0
221 0 0
220 0 0
218 0 0
218 0 0
217 0 0
216 0 0
211 0 0
219 0 0
219 0 0
221 0 0
218 0 0
216 0 0
215 0 0
221 0 0
216 0 0
225 0 0
217 0 0
214 0 0
223 0 0
220 0 0
224 0 0
220 0 0
225 0 0
220 0 0
220 0 0
217 0 0
221 0 0
222 0 0
221 0 0
219 0 0
221 0 0
218 0 0
223 0 0
220 0 0
221 0 0
224 0 0
224 0 0
222 0 0
225 0 0
214 0 0
223 0 0
219 0 0
222 0 0
224 0 0
220 0 0
225 0 0
220 0 0
219 0 0
219 0 0
224 0 0
224 0 0
223 0 0
220 0 0
223 0 0
219 0 0
226 0 0
224 0 0
225 0 0
224 0 0
220 0 0
225 0 0
223 0 0
226 0 0
222 0 0
223 0 0
221 0 0
225 0 0
223 0 0
225 0 0
222 0 0
225 0 0
224 0 0
222 0 0
223 0 0
226 0 0
225 0 0
223 0 0
218 0 0
221 0 0
226 0 0
222 0 0
222 0 0
224 0 0
225 0 0
222 0 0
227 0 0
224 0 0
223 0 0
224 0 0
225 0 0
222 0 0
223 0 0
221 0 0
220 0 0
223 0 0
226 0 0
225 0 0
221 0 0
224 0 0
222 0 0
220 0 0
224 0 0
225 0 0
223 0 0
224 0 0
222 0 0
221 0 0
224 0 0
225 0 0
223 0 0
226 0 0
226 0 0
226 0 0
225 0 0
225 0 0
226 0 0
222 0 0
223 0 0
221 0 0
226 0 0
226 0 0
226 0 0
0 0 255
0 0 255
0 0 255
0 0 254
0 0 254
0 0 255
0 0 255
0 0 254
0 0 255
0 0 254
0 0 255
0 0 255
0 0 255
0 0 253
0 0 254
0 0 254
0 0 255
0 0 255
0 0 254
0 0 255
0 0 253
0 0 254
0 0 255
0 0 255
0 0 253
0 0 255
0 0 254
0 0 255
0 0 254
0 0 254
0 0 253
0 0 255
0 0 253
0 0 255
0 0 255
0 0 255
0 0 255
0 0 254
0 0 252
0 0 253
0 0 255
0 0 252
0 0 255
0 0 255
0 0 250
0 0 255
0 0 255
0 0 252
0 0 250
0 0 254
0 0 253
0 0 254
0 0 255
0 0 252
0 0 254
0 0 252
0 0 252
0 0 255
0 0 253
0 0 253
0 0 255
0 0 254
0 0 253
0 0 254
0 0 254
0 0 253
0 0 252
0 0 249
0 0 254
0 0 255
0 0 250
0 0 255
0 0 252
0 0 254
0 0 252
0 0 249
0 0 253
0 0 254
0 0 254
0 0 255
0 0 250
0 0 253
0 0 253
0 0 253
0 0 252
0 0 250
0 0 250
0 0 253
0 0 250
0 0 249
0 0 250
0 0 253
0 0 249
0 0 253
0 0 254
0 0 252
0 0 246
0 0 245
0 0 246
0 0 249
0 0 253
0 0 249
0 0 248
0 0 249
0 0 249
0 0 250
0 0 248
0 0 248
0 0 245
0 0 248
0 0 248
0 0 246
0 0 248
0 0 245
0 0 249
0 0 244
0 0 250
0 0 250
0 0 242
0 0 249
0 0 250
0 0 246
0 0 244
0 0 244
0 0 245
0 0 252
0 0 242
0 0 246
0 0 241
0 0 244
0 0 242
0 0 238
0 0 241
0 0 240
0 0 242
0 0 245
0 0 244
0 0 242
0 0 245
0 0 242
0 0 244
0 0 241
0 0 242
0 0 240
0 0 241
0 0 228
0 0 242
0 0 238
0 0 241
0 0 240
0 0 237
0 0 244
0 0 236
0 0 238
0 0 236
0 0 231
0 0 220
0 0 238
0 0 233
0 0 236
0 0 231
0 0 237
0 0 233
0 0 226
0 0 221
0 0 230
0 0 230
0 0 226
0 0 226
0 0 218
0 0 228
0 0 221
0 0 218
0 0 214
0 0 211
0 0 220
0 0 199
0 0 212
0 0 215
0 0 211
0 0 211
0 0 206
0 0 201
0 0 203
0 0 212
0 0 198
0 0 193
0 0 199
0 0 184
0 0 173
0 0 155
0 0 181
143 149 209
232 241 255
232 241 255
232 241 255
232 241 255
232 241 255
232 241 255
232 241 255
232 241 255
232 241 255
232 241 255
232 241 255
232 241 255
232 241 255
232 241 255
208 160 169
184 0 0
172 0 0
183 0 0
178 0 0
177 0 0
175 0 0
181 0 0
191 0 0
185 0 0
195 0 0
184 0 0
202 0 0
181 0 0
187 0 0
187 0 0
188 0 0
201 0 0
203 0 0
193 0 0
201 0 0
202 0 0
201 0 0
199 0 0
202 0 0
200 0 0
202 0 0
212 0 0
208 0 0
207 0 0
206 0 0
206 0 0
198 0 0
208 0 0
209 0 0
211 0 0
211 0 0
215 0 0
210 0 0
209 0 0
209 0 0
208 0 0
210 0 0
213 0 0
214 0 0
215 0 0
221 0 0
213 0 0
218 0 0
215 0 0
213 0 0
210 0 0
202 0 0
214 0 0
215 0 0
217 0 0
211 0 0
217 0 0
216 0 0
217 0 0
219 0 0
209 0 0
216 0 0
214 0 0
222 0 0
216 0 0
218 0 0
218 0 0
212 0 0
219 0 0
217 0 0
223 0 0
215 0 0
218 0 0
221 0 0
218 0 0
222 0 0
223 0 0
218 0 0
216 0 0
224 0 0
222 0 0
223 0 0
216 0 0
220 0 0
217 0 0
219 0 0
222 0 0
222 0 0
225 0 0
220 0 0
220 0 0
222 0 0
220 0 0
223 0 0
222 0 0
220 0 0
218 0 0
223 0 0
219 0 0
222 0 0
220 0 0
218 0 0
220 0 0
219 0 0
224 0 0
222 0 0
219 0 0
217 0 0
218 0 0
219 0 0
219 0 0
221 0 0
219 0 0
219 0 0
221 0 0
224 0 0
222 0 0
222 0 0
219 0 0
223 0 0
223 0 0
223 0 0
223 0 0
219 0 0
224 0 0
221 0 0
221 0 0
223 0 0
218 0 0
220 0 0
225 0 0
220 0 0
224 0 0
218 0 0
223 0 0
222 0 0
223 0 0
225 0 0
226 0 0
225 0 0
222 0 0
226 0 0
228 0 0
223 0 0
223 0 0
222 0 0
225 0 0
219 0 0
219 0 0
222 0 0
223 0 0
219 0 0
225 0 0
221 0 0
220 0 0
225 0 0
222 0 0
225 0 0
225 0 0
224 0 0
225 0 0
222 0 0
223 0 0
224 0 0
223 0 0
225 0 0
226 0 0
223 0 0
225 0 0
221 0 0
223 0 0
226 0 0
224 0 0
224 0 0
225 0 0
222 0 0
227 0 0
225 0 0
221 0 0
226 0 0
222 0 0
226 0 0
224 0 0
223 0 0
223 0 0
223 0 0
225 0 0
224 0 0
226 0 0
224 0 0
227 0 0
225 0 0
0 0 255
0 0 255
0 0 255
0 0 255
0 0 255
0 0 254
0 0 255
0 0 254
0 0 255
0 0 255
0 0 255
0 0 253
0 0 255
0 0 255
0 0 255
0 0 254
0 0 255
0 0 252
0 0 255
0 0 255
0 0 254
0 0 253
0 0 255
0 0 254
0 0 255
0 0 255
0 0 254
0 0 255
0 0 255
0 0 255
0 0 250
0 0 255
0 0 255
0 0 254
0 0 254
0 0 255
0 0 254
0 0 254
0 0 253
0 0 253
0 0 255
0 0 255
0 0 253
0 0 253
0 0 255
0 0 254
0 0 254
0 0 255
0 0 254
0 0 253
0 0 255
0 0 250
0 0 253
0 0 253
0 0 253
0 0 253
0 0 252
0 0 252
0 0 252
0 0 254
0 0 254
0 0 254
0 0 255
0 0 253
0 0 252
0 0 252
0 0 249
0 0 254
0 0 255
0 0 253
0 0 255
0 0 250
0 0 250
0 0 253
0 0 253
0 0 253
0 0 253
0 0 252
0 0 252
0 0 254
0 0 249
0 0 254
0 0 248
0 0 249
0 0 253
0 0 249
0 0 253
0 0 252
0 0 252
0 0 252
0 0 252
0 0 252
0 0 250
0 0 250
0 0 246
0 0 248
0 0 250
0 0 250
0 0 253
0 0 253
0 0 252
0 0 246
0 0 250
0 0 253
0 0 253
0 0 252
0 0 254
0 0 249
0 0 246
0 0 245
0 0 248
0 0 252
0 0 248
0 0 242
0 0 249
0 0 253
0 0 249
0 0 249
0 0 250
0 0 248
0 0 245
0 0 245
0 0 244
0 0 248
0 0 244
0 0 248
0 0 249
0 0 249
0 0 248
0 0 244
0 0 241
0 0 240
0 0 244
0 0 242
0 0 242
0 0 240
0 0 240
0 0 241
0 0 242
0 0 234
0 0 237
0 0 234
0 0 244
0 0 234
0 0 237
0 0 245
0 0 233
0 0 240
0 0 236
0 0 240
0 0 244
0 0 242
0 0 234
0 0 231
0 0 230
0 0 238
0 0 227
0 0 230
0 0 241
0 0 233
0 0 226
0 0 233
0 0 221
0 0 237
0 0 230
0 0 228
0 0 238
0 0 224
0 0 217
0 0 227
0 0 221
0 0 220
0 0 217
0 0 217
0 0 221
0 0 217
0 0 217
0 0 209
0 0 203
0 0 211
0 0 203
0 0 218
0 0 191
0 0 204
0 0 199
0 0 199
0 0 198
0 0 194
0 0 173
0 0 179
0 0 171
23 24 171
222 232 250
232 242 255
232 242 255
232 242 255
232 242 255
232 242 255
232 242 255
232 242 255
232 242 255
232 242 255
232 242 255
232 242 255
232 242 255
232 242 255
232 242 255
230 227 240
182 34 36
169 0 0
173 0 0
184 0 0
174 0 0
176 0 0
179 0 0
185 0 0
196 0 0
173 0 0
186 0 0
192 0 0
194 0 0
186 0 0
203 0 0
193 0 0
188 0 0
209 0 0
199 0 0
199 0 0
202 0 0
201 0 0
201 0 0
203 0 0
208 0 0
208 0 0
211 0 0
200 0 0
208 0 0
199 0 0
210 0 0
209 0 0
214 0 0
208 0 0
209 0 0
210 0 0
203 0 0
195 0 0
209 0 0
208 0 0
212 0 0
212 0 0
213 0 0
212 0 0
211 0 0
210 0 0
209 0 0
216 0 0
214 0 0
212 0 0
215 0 0
214 0 0
211 0 0
217 0 0
201 0 0
206 0 0
216 0 0
221 0 0
218 0 0
208 0 0
219 0 0
219 0 0
215 0 0
211 0 0
223 0 0
223 0 0
219 0 0
212 0 0
217 0 0
219 0 0
217 0 0
215 0 0
213 0 0
215 0 0
217 0 0
219 0 0
216 0 0
217 0 0
216 0 0
222 0 0
220 0 0
216 0 0
221 0 0
216 0 0
219 0 0
214 0 0
224 0 0
219 0 0
221 0 0
225 0 0
225 0 0
225 0 0
220 0 0
225 0 0
218 0 0
222 0 0
219 0 0
224 0 0
225 0 0
221 0 0
220 0 0
223 0 0
221 0 0
226 0 0
219 0 0
226 0 0
223 0 0
217 0 0
223 0 0
223 0 0
223 0 0
227 0 0
226 0 0
222 0 0
223 0 0
222 0 0
221 0 0
220 0 0
220 0 0
226 0 0
221 0 0
219 0 0
223 0 0
224 0 0
226 0 0
220 0 0
221 0 0
224 0 0
227 0 0
225 0 0
224 0 0
224 0 0
226 0 0
222 0 0
222 0 0
223 0 0
226 0 0
223 0 0
224 0 0
218 0 0
227 0 0
228 0 0
224 0 0
223 0 0
224 0 0
221 0 0
223 0 0
224 0 0
221 0 0
225 0 0
223 0 0
223 0 0
225 0 0
220 0 0
223 0 0
225 0 0
222 0 0
225 0 0
226 0 0
223 0 0
222 0 0
222 0 0
225 0 0
222 0 0
225 0 0
225 0 0
227 0 0
226 0 0
218 0 0
225 0 0
222 0 0
223 0 0
224 0 0
226 0 0
223 0 0
226 0 0
222 0 0
225 0 0
224 0 0
224 0 0
228 0 0
224 0 0
226 0 0
222 0 0
225 0 0
225 0 0
226 0 0
220 0 0
223 0 0
223 0 0
223 0 0
223 0 0
0 0 254
0 0 255
0 0 254
0 0 255
0 0 253
0 0 255
0 0 255
0 0 255
0 0 254
0 0 255
0 0 255
0 0 254
0 0 254
0 0 255
0 0 255
0 0 255
0 0 254
0 0 254
0 0 255
0 0 254
0 0 254
0 0 255
0 0 255
0 0 253
0 0 255
0 0 252
0 0 254
0 0 253
0 0 255
0 0 255
0 0 255
0 0 252
0 0 255
0 0 253
0 0 254
0 0 254
0 0 255
0 0 255
0 0 253
0 0 254
0 0 254
0 0 252
0 0 253
0 0 255
0 0 253
0 0 255
0 0 254
0 0 252
0 0 252
0 0 253
0 0 249
0 0 253
0 0 255
0 0 254
0 0 255
0 0 255
0 0 250
0 0 255
0 0 253
0 0 249
0 0 253
0 0 253
0 0 249
0 0 254
0 0 253
0 0 253
0 0 255
0 0 254
0 0 253
0 0 250
0 0 253
0 0 254
0 0 254
0 0 254
0 0 253
0 0 252
0 0 252
0 0 252
0 0 252
0 0 252
0 0 252
0 0 250
0 0 254
0 0 252
0 0 254
0 0 246
0 0 248
0 0 253
0 0 249
0 0 250
0 0 249
0 0 253
0 0 252
0 0 252
0 0 244
0 0 250
0 0 249
0 0 255
0 0 250
0 0 249
0 0 249
0 0 249
0 0 253
0 0 248
0 0 246
0 0 248
0 0 253
0 0 245
0 0 250
0 0 252
0 0 242
0 0 253
0 0 249
0 0 252
0 0 248
0 0 246
0 0 248
0 0 246
0 0 244
0 0 245
0 0 248
0 0 242
0 0 248
0 0 242
0 0 245
0 0 245
0 0 248
0 0 248
0 0 242
0 0 240
0 0 240
0 0 242
0 0 248
0 0 245
0 0 244
0 0 236
0 0 246
0 0 246
0 0 242
0 0 238
0 0 250
0 0 240
0 0 233
0 0 237
0 0 236
0 0 252
0 0 248
0 0 233
0 0 238
0 0 238
0 0 240
0 0 242
0 0 231
0 0 220
0 0 241
0 0 228
0 0 237
0 0 228
0 0 241
0 0 231
0 0 231
0 0 244
0 0 226
0 0 227
0 0 228
0 0 228
0 0 218
0 0 221
0 0 227
0 0 223
0 0 228
0 0 231
0 0 218
0 0 215
0 0 220
0 0 211
0 0 224
0 0 218
0 0 209
0 0 209
0 0 217
0 0 220
0 0 211
0 0 196
0 0 186
0 0 203
0 0 194
0 0 198
0 0 188
0 0 181
0 0 188
131 137 204
232 242 255
232 242 255
232 242 255
232 242 255
232 242 255
232 242 255
232 242 255
232 242 255
232 242 255
232 242 255
232 242 255
232 242 255
232 242 255
232 242 255
232 242 255
232 242 255
204 137 144
177 0 0
176 0 0
188 0 0
171 0 0
185 0 0
190 0 0
177 0 0
191 0 0
187 0 0
192 0 0
200 0 0
190 0 0
202 0 0
189 0 0
186 0 0
186 0 0
200 0 0
196 0 0
202 0 0
194 0 0
198 0 0
207 0 0
199 0 0
204 0 0
203 0 0
200 0 0
200 0 0
213 0 0
214 0 0
200 0 0
214 0 0
216 0 0
206 0 0
202 0 0
207 0 0
207 0 0
210 0 0
218 0 0
213 0 0
212 0 0
209 0 0
219 0 0
215 0 0
212 0 0
209 0 0
218 0 0
217 0 0
216 0 0
215 0 0
220 0 0
214 0 0
220 0 0
216 0 0
223 0 0
220 0 0
218 0 0
226 0 0
213 0 0
218 0 0
213 0 0
218 0 0
213 0 0
216 0 0
212 0 0
222 0 0
222 0 0
215 0 0
213 0 0
218 0 0
225 0 0
217 0 0
217 0 0
216 0 0
219 0 0
215 0 0
218 0 0
213 0 0
219 0 0
216 0 0
217 0 0
216 0 0
220 0 0
217 0 0
221 0 0
227 0 0
217 0 0
224 0 0
215 0 0
218 0 0
217 0 0
218 0 0
224 0 0
221 0 0
219 0 0
222 0 0
224 0 0
215 0 0
223 0 0
221 0 0
219 0 0
218 0 0
220 0 0
224 0 0
225 0 0
224 0 0
222 0 0
225 0 0
221 0 0
223 0 0
224 0 0
224 0 0
225 0 0
221 0 0
222 0 0
223 0 0
227 0 0
224 0 0
219 0 0
223 0 0
224 0 0
222 0 0
226 0 0
222 0 0
218 0 0
223 0 0
220 0 0
221 0 0
223 0 0
224 0 0
225 0 0
223 0 0
220 0 0
226 0 0
225 0 0
221 0 0
223 0 0
224 0 0
223 0 0
222 0 0
222 0 0
225 0 0
224 0 0
225 0 0
225 0 0
224 0 0
226 0 0
225 0 0
222 0 0
225 0 0
224 0 0
221 0 0
226 0 0
226 0 0
221 0 0
227 0 0
228 0 0
220 0 0
221 0 0
222 0 0
224 0 0
224 0 0
224 0 0
223 0 0
221 0 0
227 0 0
225 0 0
224 0 0
225 0 0
221 0 0
223 0 0
224 0 0
229 0 0
226 0 0
224 0 0
220 0 0
225 0 0
225 0 0
225 0 0
226 0 0
222 0 0
222 0 0
224 0 0
227 0 0
226 0 0
227 0 0
224 0 0
222 0 0
227 0 0
226 0 0
224 0 0
226 0 0
0 0 254
0 0 253
0 0 255
0 0 254
0 0 255
0 0 255
0 0 255
0 0 254
0 0 255
0 0 255
0 0 255
0 0 253
0 0 252
0 0 255
0 0 255
0 0 255
0 0 254
0 0 255
0 0 254
0 0 255
0 0 254
0 0 253
0 0 255
0 0 255
0 0 255
0 0 255
0 0 254
0 0 254
0 0 255
0 0 255
0 0 254
0 0 254
0 0 254
0 0 254
0 0 254
0 0 254
0 0 255
0 0 252
0 0 252
0 0 255
0 0 253
0 0 254
0 0 254
0 0 255
0 0 254
0 0 253
0 0 255
0 0 250
0 0 254
0 0 254
0 0 254
0 0 252
0 0 254
0 0 252
0 0 255
0 0 253
0 0 250
0 0 254
0 0 254
0 0 250
0 0 253
0 0 253
0 0 252
0 0 252
0 0 253
0 0 252
0 0 249
0 0 248
0 0 249
0 0 250
0 0 253
0 0 253
0 0 252
0 0 248
0 0 255
0 0 252
0 0 248
0 0 248
0 0 253
0 0 250
0 0 254
0 0 250
0 0 249
0 0 253
0 0 250
0 0 253
0 0 253
0 0 250
0 0 249
0 0 252
0 0 252
0 0 253
0 0 252
0 0 254
0 0 252
0 0 250
0 0 248
0 0 249
0 0 246
0 0 248
0 0 254
0 0 245
0 0 248
0 0 246
0 0 250
0 0 248
0 0 248
0 0 246
0 0 249
0 0 252
0 0 252
0 0 249
0 0 248
0 0 248
0 0 245
0 0 246
0 0 248
0 0 244
0 0 248
0 0 249
0 0 248
0 0 244
0 0 244
0 0 244
0 0 238
0 0 248
0 0 240
0 0 246
0 0 245
0 0 252
0 0 242
0 0 246
0 0 248
0 0 246
0 0 244
0 0 238
0 0 242
0 0 242
0 0 250
0 0 241
0 0 242
0 0 242
0 0 242
0 0 237
0 0 240
0 0 240
0 0 242
0 0 242
0 0 242
0 0 240
0 0 240
0 0 230
0 0 236
0 0 237
0 0 240
0 0 242
0 0 234
0 0 236
0 0 231
0 0 228
0 0 228
0 0 236
0 0 228
0 0 226
0 0 227
0 0 228
0 0 220
0 0 228
0 0 238
0 0 209
0 0 221
0 0 231
0 0 217
0 0 226
0 0 212
0 0 233
0 0 217
0 0 227
0 0 214
0 0 214
0 0 204
0 0 207
0 0 214
0 0 220
0 0 201
0 0 209
0 0 199
0 0 193
0 0 188
0 0 181
23 24 191
213 222 240
232 242 255
232 242 255
232 242 255
232 242 255
232 242 255
232 242 255
232 242 255
232 242 255
232 242 255
232 242 255
232 242 255
232 242 255
232 242 255
232 242 255
232 242 255
232 242 255
225 219 231
166 0 0
177 0 0
173 0 0
190 0 0
170 0 0
188 0 0
183 0 0
183 0 0
169 0 0
183 0 0
177 0 0
175 0 0
190 0 0
211 0 0
204 0 0
198 0 0
201 0 0
198 0 0
203 0 0
195 0 0
206 0 0
204 0 0
194 0 0
203 0 0
209 0 0
205 0 0
208 0 0
212 0 0
213 0 0
202 0 0
202 0 0
211 0 0
210 0 0
208 0 0
215 0 0
212 0 0
209 0 0
216 0 0
215 0 0
215 0 0
215 0 0
214 0 0
210 0 0
220 0 0
216 0 0
213 0 0
209 0 0
212 0 0
207 0 0
215 0 0
215 0 0
217 0 0
222 0 0
216 0 0
208 0 0
218 0 0
213 0 0
214 0 0
225 0 0
213 0 0
220 0 0
214 0 0
214 0 0
219 0 0
216 0 0
219 0 0
219 0 0
225 0 0
217 0 0
215 0 0
223 0 0
224 0 0
217 0 0
214 0 0
218 0 0
221 0 0
220 0 0
222 0 0
221 0 0
222 0 0
215 0 0
219 0 0
219 0 0
216 0 0
222 0 0
219 0 0
224 0 0
223 0 0
218 0 0
219 0 0
223 0 0
220 0 0
219 0 0
218 0 0
223 0 0
221 0 0
223 0 0
226 0 0
224 0 0
224 0 0
218 0 0
221 0 0
220 0 0
225 0 0
220 0 0
226 0 0
219 0 0
223 0 0
224 0 0
222 0 0
225 0 0
220 0 0
225 0 0
222 0 0
224 0 0
224 0 0
225 0 0
221 0 0
221 0 0
223 0 0
227 0 0
225 0 0
217 0 0
222 0 0
222 0 0
221 0 0
221 0 0
222 0 0
224 0 0
223 0 0
225 0 0
227 0 0
221 0 0
223 0 0
222 0 0
226 0 0
224 0 0
228 0 0
226 0 0
224 0 0
225 0 0
227 0 0
221 0 0
223 0 0
223 0 0
224 0 0
222 0 0
223 0 0
222 0 0
223 0 0
222 0 0
222 0 0
227 0 0
222 0 0
225 0 0
226 0 0
222 0 0
222 0 0
227 0 0
227 0 0
225 0 0
222 0 0
223 0 0
223 0 0
220 0 0
225 0 0
225 0 0
222 0 0
218 0 0
222 0 0
226 0 0
222 0 0
222 0 0
228 0 0
220 0 0
223 0 0
224 0 0
223 0 0
223 0 0
223 0 0
223 0 0
226 0 0
221 0 0
224 0 0
224 0 0
224 0 0
222 0 0
223 0 0
225 0 0
223 0 0
223 0 0
0 0 255
0 0 255
0 0 255
0 0 254
0 0 254
0 0 254
0 0 254
0 0 255
0 0 255
0 0 252
0 0 255
0 0 254
0 0 255
0 0 254
0 0 254
0 0 255
0 0 255
0 0 254
0 0 255
0 0 255
0 0 255
0 0 255
0 0 255
0 0 255
0 0 254
0 0 255
0 0 255
0 0 254
0 0 250
0 0 254
0 0 255
0 0 255
0 0 253
0 0 253
0 0 253
0 0 252
0 0 254
0 0 254
0 0 254
0 0 255
0 0 253
0 0 254
0 0 255
0 0 254
0 0 254
0 0 254
0 0 255
0 0 253
0 0 254
0 0 248
0 0 250
0 0 250
0 0 255
0 0 254
0 0 252
0 0 253
0 0 250
0 0 252
0 0 252
0 0 255
0 0 254
0 0 254
0 0 253
0 0 254
0 0 253
0 0 253
0 0 252
0 0 254
0 0 252
0 0 252
0 0 252
0 0 250
0 0 250
0 0 255
0 0 252
0 0 252
0 0 252
0 0 254
0 0 250
0 0 249
0 0 250
0 0 253
0 0 254
0 0 252
0 0 254
0 0 252
0 0 248
0 0 252
0 0 254
0 0 254
0 0 250
0 0 253
0 0 253
0 0 254
0 0 245
0 0 249
0 0 249
0 0 250
0 0 253
0 0 250
0 0 253
0 0 252
0 0 253
0 0 252
0 0 246
0 0 252
0 0 244
0 0 245
0 0 249
0 0 253
0 0 248
0 0 249
0 0 249
0 0 242
0 0 250
0 0 250
0 0 248
0 0 250
0 0 246
0 0 249
0 0 245
0 0 244
0 0 240
0 0 244
0 0 242
0 0 244
0 0 244
0 0 245
0 0 249
0 0 246
0 0 242
0 0 246
0 0 244
0 0 242
0 0 244
0 0 244
0 0 245
0 0 245
0 0 241
0 0 238
0 0 241
0 0 238
0 0 241
0 0 244
0 0 242
0 0 237
0 0 240
0 0 245
0 0 245
0 0 244
0 0 230
0 0 241
0 0 230
0 0 231
0 0 227
0 0 231
0 0 234
0 0 234
0 0 231
0 0 228
0 0 220
0 0 240
0 0 231
0 0 233
0 0 228
0 0 233
0 0 227
0 0 234
0 0 231
0 0 230
0 0 218
0 0 223
0 0 215
0 0 231
0 0 226
0 0 220
0 0 206
0 0 214
0 0 223
0 0 206
0 0 220
0 0 204
0 0 212
0 0 189
0 0 204
0 0 204
0 0 203
0 0 179
0 0 179
0 0 181
147 153 214
233 242 255
233 242 255
233 242 255
233 242 255
233 242 255
233 242 255
233 242 255
233 242 255
233 242 255
233 242 255
233 242 255
233 242 255
233 242 255
233 242 255
233 242 255
233 242 255
233 242 255
233 242 255
189 143 151
178 0 0
188 0 0
178 0 0
176 0 0
191 0 0
180 0 0
187 0 0
184 0 0
188 0 0
185 0 0
205 0 0
197 0 0
192 0 0
192 0 0
204 0 0
195 0 0
200 0 0
215 0 0
201 0 0
202 0 0
200 0 0
202 0 0
205 0 0
203 0 0
197 0 0
215 0 0
207 0 0
214 0 0
207 0 0
212 0 0
218 0 0
217 0 0
210 0 0
202 0 0
204 0 0
221 0 0
221 0 0
212 0 0
219 0 0
222 0 0
215 0 0
211 0 0
205 0 0
216 0 0
210 0 0
210 0 0
213 0 0
217 0 0
217 0 0
216 0 0
214 0 0
211 0 0
208 0 0
215 0 0
218 0 0
214 0 0
217 0 0
209 0 0
221 0 0
222 0 0
208 0 0
221 0 0
219 0 0
212 0 0
220 0 0
220 0 0
217 0 0
216 0 0
216 0 0
217 0 0
218 0 0
216 0 0
218 0 0
218 0 0
217 0 0
216 0 0
217 0 0
220 0 0
221 0 0
217 0 0
222 0 0
215 0 0
222 0 0
222 0 0
221 0 0
215 0 0
218 0 0
221 0 0
222 0 0
224 0 0
217 0 0
225 0 0
220 0 0
218 0 0
217 0 0
224 0 0
218 0 0
222 0 0
220 0 0
223 0 0
215 0 0
223 0 0
221 0 0
225 0 0
219 0 0
220 0 0
224 0 0
221 0 0
216 0 0
225 0 0
222 0 0
224 0 0
223 0 0
223 0 0
222 0 0
222 0 0
224 0 0
222 0 0
220 0 0
228 0 0
226 0 0
219 0 0
222 0 0
224 0 0
220 0 0
222 0 0
223 0 0
225 0 0
225 0 0
219 0 0
223 0 0
225 0 0
221 0 0
226 0 0
223 0 0
223 0 0
222 0 0
222 0 0
223 0 0
224 0 0
226 0 0
224 0 0
227 0 0
226 0 0
220 0 0
225 0 0
221 0 0
222 0 0
222 0 0
222 0 0
224 0 0
221 0 0
222 0 0
225 0 0
221 0 0
223 0 0
221 0 0
221 0 0
221 0 0
222 0 0
223 0 0
226 0 0
221 0 0
221 0 0
223 0 0
222 0 0
220 0 0
228 0 0
223 0 0
224 0 0
224 0 0
225 0 0
222 0 0
225 0 0
225 0 0
223 0 0
225 0 0
224 0 0
223 0 0
221 0 0
227 0 0
224 0 0
225 0 0
225 0 0
223 0 0
222 0 0
226 0 0
223 0 0
225 0 0
223 0 0
0 0 255
0 0 254
0 0 255
0 0 255
0 0 254
0 0 253
0 0 255
0 0 255
0 0 254
0 0 255
0 0 255
0 0 255
0 0 253
0 0 255
0 0 255
0 0 253
0 0 254
0 0 253
0 0 252
0 0 255
0 0 252
0 0 255
0 0 253
0 0 255
0 0 253
0 0 253
0 0 254
0 0 255
0 0 255
0 0 254
0 0 253
0 0 255
0 0 254
0 0 254
0 0 254
0 0 255
0 0 253
0 0 254
0 0 253
0 0 250
0 0 253
0 0 254
0 0 254
0 0 254
0 0 254
0 0 255
0 0 254
0 0 255
0 0 255
0 0 254
0 0 252
0 0 254
0 0 254
0 0 255
0 0 253
0 0 253
0 0 254
0 0 249
0 0 252
0 0 252
0 0 253
0 0 254
0 0 255
0 0 253
0 0 254
0 0 253
0 0 254
0 0 253
0 0 252
0 0 252
0 0 254
0 0 252
0 0 252
0 0 252
0 0 253
0 0 249
0 0 252
0 0 254
0 0 250
0 0 254
0 0 250
0 0 249
0 0 249
0 0 253
0 0 254
0 0 254
0 0 249
0 0 252
0 0 249
0 0 250
0 0 249
0 0 249
0 0 249
0 0 252
0 0 253
0 0 250
0 0 248
0 0 253
0 0 255
0 0 248
0 0 252
0 0 252
0 0 250
0 0 250
0 0 252
0 0 252
0 0 252
0 0 246
0 0 246
0 0 246
0 0 254
0 0 248
0 0 253
0 0 248
0 0 248
0 0 249
0 0 242
0 0 241
0 0 248
0 0 244
0 0 249
0 0 250
0 0 242
0 0 241
0 0 245
0 0 242
0 0 246
0 0 245
0 0 246
0 0 240
0 0 248
0 0 241
0 0 249
0 0 245
0 0 241
0 0 246
0 0 245
0 0 245
0 0 238
0 0 240
0 0 240
0 0 234
0 0 245
0 0 238
0 0 240
0 0 240
0 0 234
0 0 237
0 0 245
0 0 242
0 0 234
0 0 233
0 0 240
0 0 240
0 0 241
0 0 234
0 0 224
0 0 238
0 0 236
0 0 236
0 0 230
0 0 237
0 0 209
0 0 226
0 0 226
0 0 234
0 0 233
0 0 221
0 0 228
0 0 214
0 0 230
0 0 227
0 0 218
0 0 215
0 0 218
0 0 220
0 0 207
0 0 224
0 0 209
0 0 206
0 0 220
0 0 220
0 0 204
0 0 204
0 0 211
0 0 198
0 0 196
0 0 201
0 0 194
0 0 196
220 228 249
233 242 255
233 242 255
233 242 255
233 242 255
233 242 255
233 242 255
233 242 255
233 242 255
233 242 255
233 242 255
233 242 255
233 242 255
233 242 255
233 242 255
233 242 255
233 242 255
233 242 255
233 242 255
229 228 241
194 24 25
190 0 0
194 0 0
177 0 0
197 0 0
189 0 0
192 0 0
206 0 0
191 0 0
193 0 0
201 0 0
205 0 0
191 0 0
185 0 0
209 0 0
195 0 0
207 0 0
201 0 0
199 0 0
200 0 0
205 0 0
204 0 0
200 0 0
207 0 0
195 0 0
204 0 0
202 0 0
196 0 0
194 0 0
213 0 0
212 0 0
215 0 0
215 0 0
215 0 0
206 0 0
206 0 0
212 0 0
200 0 0
208 0 0
211 0 0
212 0 0
210 0 0
223 0 0
212 0 0
217 0 0
218 0 0
210 0 0
216 0 0
214 0 0
219 0 0
214 0 0
221 0 0
223 0 0
213 0 0
220 0 0
220 0 0
216 0 0
215 0 0
220 0 0
219 0 0
209 0 0
215 0 0
217 0 0
222 0 0
220 0 0
214 0 0
220 0 0
219 0 0
213 0 0
218 0 0
220 0 0
219 0 0
222 0 0
218 0 0
222 0 0
217 0 0
218 0 0
218 0 0
220 0 0
216 0 0
224 0 0
221 0 0
222 0 0
219 0 0
221 0 0
216 0 0
222 0 0
222 0 0
220 0 0
219 0 0
220 0 0
223 0 0
217 0 0
221 0 0
219 0 0
226 0 0
224 0 0
221 0 0
221 0 0
219 0 0
216 0 0
221 0 0
224 0 0
220 0 0
222 0 0
222 0 0
222 0 0
224 0 0
223 0 0
225 0 0
227 0 0
218 0 0
226 0 0
223 0 0
225 0 0
218 0 0
222 0 0
221 0 0
224 0 0
223 0 0
225 0 0
218 0 0
226 0 0
227 0 0
219 0 0
228 0 0
225 0 0
226 0 0
225 0 0
223 0 0
223 0 0
224 0 0
223 0 0
221 0 0
226 0 0
223 0 0
221 0 0
223 0 0
226 0 0
224 0 0
225 0 0
225 0 0
225 0 0
223 0 0
225 0 0
225 0 0
223 0 0
227 0 0
224 0 0
225 0 0
224 0 0
227 0 0
226 0 0
220 0 0
223 0 0
224 0 0
222 0 0
221 0 0
220 0 0
224 0 0
224 0 0
226 0 0
223 0 0
222 0 0
224 0 0
227 0 0
223 0 0
224 0 0
226 0 0
220 0 0
223 0 0
225 0 0
224 0 0
222 0 0
224 0 0
224 0 0
228 0 0
223 0 0
227 0 0
227 0 0
224 0 0
225 0 0
226 0 0
226 0 0
223 0 0
223 0 0
225 0 0
222 0 0
225 0 0
225 0 0
0 0 255
0 0 255
0 0 255
0 0 255
0 0 254
0 0 255
0 0 255
0 0 255
0 0 254
0 0 253
0 0 255
0 0 255
0 0 255
0 0 255
0 0 255
0 0 254
0 0 255
0 0 255
0 0 254
0 0 255
0 0 255
0 0 255
0 0 254
0 0 253
0 0 254
0 0 254
0 0 255
0 0 255
0 0 255
0 0 254
0 0 255
0 0 253
0 0 255
0 0 254
0 0 255
0 0 254
0 0 255
0 0 255
0 0 253
0 0 255
0 0 254
0 0 255
0 0 254
0 0 254
0 0 253
0 0 253
0 0 255
0 0 253
0 0 255
0 0 254
0 0 252
0 0 250
0 0 250
0 0 254
0 0 255
0 0 254
0 0 254
0 0 254
0 0 254
0 0 254
0 0 254
0 0 254
0 0 254
0 0 254
0 0 250
0 0 253
0 0 255
0 0 255
0 0 253
0 0 253
0 0 252
0 0 250
0 0 255
0 0 253
0 0 250
0 0 254
0 0 253
0 0 252
0 0 252
0 0 253
0 0 250
0 0 252
0 0 249
0 0 249
0 0 253
0 0 254
0 0 249
0 0 254
0 0 250
0 0 250
0 0 246
0 0 252
0 0 248
0 0 245
0 0 250
0 0 253
0 0 250
0 0 253
0 0 250
0 0 253
0 0 248
0 0 249
0 0 249
0 0 249
0 0 248
0 0 253
0 0 245
0 0 249
0 0 248
0 0 244
0 0 250
0 0 249
0 0 248
0 0 248
0 0 248
0 0 250
0 0 253
0 0 248
0 0 244
0 0 249
0 0 248
0 0 248
0 0 249
0 0 244
0 0 249
0 0 248
0 0 250
0 0 252
0 0 241
0 0 245
0 0 244
0 0 248
0 0 246
0 0 244
0 0 245
0 0 245
0 0 244
0 0 236
0 0 242
0 0 245
0 0 242
0 0 241
0 0 249
0 0 242
0 0 245
0 0 240
0 0 242
0 0 236
0 0 242
0 0 240
0 0 237
0 0 238
0 0 234
0 0 240
0 0 236
0 0 233
0 0 234
0 0 244
0 0 228
0 0 227
0 0 234
0 0 233
0 0 227
0 0 231
0 0 234
0 0 230
0 0 227
0 0 228
0 0 236
0 0 226
0 0 221
0 0 220
0 0 214
0 0 231
0 0 220
0 0 209
0 0 221
0 0 215
0 0 220
0 0 207
0 0 203
0 0 198
0 0 206
0 0 206
0 0 209
0 0 203
0 0 196
0 0 199
0 0 199
153 159 220
233 242 255
233 242 255
233 242 255
233 242 255
233 242 255
233 242 255
233 242 255
233 242 255
233 242 255
233 242 255
233 242 255
233 242 255
233 242 255
233 242 255
233 242 255
233 242 255
233 242 255
233 242 255
233 242 255
233 242 255
199 157 165
163 0 0
182 0 0
173 0 0
191 0 0
185 0 0
183 0 0
191 0 0
191 0 0
209 0 0
192 0 0
193 0 0
200 0 0
193 0 0
197 0 0
201 0 0
209 0 0
200 0 0
210 0 0
213 0 0
194 0 0
205 0 0
209 0 0
210 0 0
204 0 0
215 0 0
209 0 0
212 0 0
207 0 0
214 0 0
206 0 0
219 0 0
208 0 0
214 0 0
209 0 0
211 0 0
215 0 0
212 0 0
215 0 0
219 0 0
219 0 0
213 0 0
216 0 0
212 0 0
207 0 0
216 0 0
217 0 0
219 0 0
219 0 0
215 0 0
218 0 0
217 0 0
215 0 0
219 0 0
223 0 0
220 0 0
216 0 0
218 0 0
215 0 0
217 0 0
214 0 0
219 0 0
215 0 0
221 0 0
218 0 0
217 0 0
219 0 0
222 0 0
216 0 0
218 0 0
216 0 0
221 0 0
217 0 0
225 0 0
221 0 0
218 0 0
222 0 0
216 0 0
219 0 0
220 0 0
222 0 0
220 0 0
215 0 0
223 0 0
219 0 0
223 0 0
226 0 0
224 0 0
227 0 0
222 0 0
222 0 0
218 0 0
220 0 0
225 0 0
222 0 0
219 0 0
222 0 0
218 0 0
221 0 0
223 0 0
221 0 0
228 0 0
228 0 0
222 0 0
219 0 0
222 0 0
220 0 0
224 0 0
223 0 0
220 0 0
224 0 0
219 0 0
223 0 0
226 0 0
224 0 0
221 0 0
220 0 0
226 0 0
221 0 0
226 0 0
222 0 0
220 0 0
222 0 0
223 0 0
221 0 0
217 0 0
227 0 0
224 0 0
223 0 0
226 0 0
222 0 0
227 0 0
227 0 0
227 0 0
224 0 0
222 0 0
225 0 0
224 0 0
223 0 0
224 0 0
227 0 0
225 0 0
223 0 0
225 0 0
225 0 0
225 0 0
225 0 0
228 0 0
222 0 0
222 0 0
224 0 0
225 0 0
226 0 0
220 0 0
224 0 0
225 0 0
226 0 0
225 0 0
221 0 0
224 0 0
225 0 0
223 0 0
224 0 0
225 0 0
224 0 0
223 0 0
227 0 0
227 0 0
224 0 0
224 0 0
224 0 0
223 0 0
222 0 0
228 0 0
224 0 0
224 0 0
225 0 0
225 0 0
226 0 0
221 0 0
224 0 0
224 0 0
224 0 0
221 0 0
229 0 0
223 0 0
224 0 0
227 0 0
223 0 0
226 0 0
0 0 253
0 0 255
0 0 255
0 0 255
0 0 253
0 0 255
0 0 255
0 0 255
0 0 255
0 0 255
0 0 255
0 0 255
0 0 253
0 0 254
0 0 255
0 0 254
0 0 255
0 0 255
0 0 255
0 0 253
0 0 255
0 0 255
0 0 253
0 0 255
0 0 252
0 0 254
0 0 255
0 0 253
0 0 255
0 0 254
0 0 255
0 0 255
0 0 254
0 0 255
0 0 254
0 0 254
0 0 254
0 0 255
0 0 255
0 0 252
0 0 253
0 0 254
0 0 255
0 0 254
0 0 253
0 0 252
0 0 252
0 0 255
0 0 254
0 0 254
0 0 254
0 0 254
0 0 250
0 0 253
0 0 254
0 0 252
0 0 255
0 0 255
0 0 253
0 0 254
0 0 254
0 0 252
0 0 252
0 0 250
0 0 254
0 0 252
0 0 252
0 0 254
0 0 252
0 0 250
0 0 253
0 0 254
0 0 253
0 0 254
0 0 253
0 0 249
0 0 254
0 0 255
0 0 249
0 0 254
0 0 250
0 0 250
0 0 253
0 0 250
0 0 250
0 0 254
0 0 254
0 0 253
0 0 249
0 0 250
0 0 252
0 0 250
0 0 253
0 0 253
0 0 248
0 0 249
0 0 252
0 0 250
0 0 252
0 0 250
0 0 246
0 0 252
0 0 252
0 0 249
0 0 245
0 0 252
0 0 249
0 0 248
0 0 249
0 0 244
0 0 250
0 0 246
0 0 249
0 0 248
0 0 248
0 0 248
0 0 246
0 0 245
0 0 249
0 0 242
0 0 246
0 0 249
0 0 242
0 0 249
0 0 250
0 0 245
0 0 248
0 0 240
0 0 246
0 0 241
0 0 240
0 0 245
0 0 236
0 0 245
0 0 238
0 0 238
0 0 242
0 0 237
0 0 245
0 0 245
0 0 240
0 0 238
0 0 245
0 0 242
0 0 241
0 0 238
0 0 241
0 0 244
0 0 241
0 0 234
0 0 237
0 0 230
0 0 238
0 0 227
0 0 238
0 0 236
0 0 234
0 0 237
0 0 236
0 0 241
0 0 220
0 0 226
0 0 241
0 0 236
0 0 238
0 0 231
0 0 221
0 0 226
0 0 220
0 0 223
0 0 227
0 0 226
0 0 217
0 0 215
0 0 221
0 0 217
0 0 209
0 0 224
0 0 223
0 0 211
0 0 214
0 0 217
0 0 206
0 0 212
0 0 204
0 0 206
0 0 214
0 0 193
61 64 173
219 227 249
233 243 255
233 243 255
233 243 255
233 243 255
234 243 255
234 243 255
234 243 255
234 243 255
233 243 255
234 243 255
234 243 255
234 243 255
234 243 255
234 243 255
233 243 255
233 243 255
233 243 255
233 243 255
233 243 255
233 243 255
229 227 240
184 54 57
192 0 0
189 0 0
184 0 0
192 0 0
195 0 0
193 0 0
191 0 0
192 0 0
190 0 0
194 0 0
193 0 0
206 0 0
199 0 0
207 0 0
192 0 0
202 0 0
197 0 0
199 0 0
210 0 0
197 0 0
207 0 0
195 0 0
205 0 0
199 0 0
209 0 0
197 0 0
217 0 0
199 0 0
211 0 0
213 0 0
209 0 0
214 0 0
206 0 0
209 0 0
210 0 0
217 0 0
211 0 0
208 0 0
216 0 0
221 0 0
218 0 0
209 0 0
218 0 0
216 0 0
210 0 0
223 0 0
214 0 0
217 0 0
210 0 0
218 0 0
213 0 0
213 0 0
216 0 0
214 0 0
218 0 0
223 0 0
219 0 0
213 0 0
222 0 0
213 0 0
226 0 0
213 0 0
224 0 0
222 0 0
216 0 0
212 0 0
215 0 0
215 0 0
223 0 0
224 0 0
215 0 0
215 0 0
222 0 0
216 0 0
214 0 0
215 0 0
220 0 0
220 0 0
219 0 0
217 0 0
223 0 0
221 0 0
224 0 0
222 0 0
227 0 0
217 0 0
217 0 0
225 0 0
223 0 0
219 0 0
224 0 0
221 0 0
226 0 0
227 0 0
228 0 0
217 0 0
223 0 0
223 0 0
225 0 0
221 0 0
221 0 0
215 0 0
225 0 0
223 0 0
229 0 0
221 0 0
222 0 0
227 0 0
222 0 0
226 0 0
225 0 0
224 0 0
224 0 0
219 0 0
221 0 0
225 0 0
225 0 0
226 0 0
220 0 0
219 0 0
222 0 0
225 0 0
223 0 0
225 0 0
224 0 0
226 0 0
227 0 0
224 0 0
224 0 0
225 0 0
223 0 0
227 0 0
221 0 0
225 0 0
226 0 0
222 0 0
226 0 0
227 0 0
223 0 0
225 0 0
224 0 0
224 0 0
225 0 0
221 0 0
224 0 0
228 0 0
224 0 0
226 0 0
223 0 0
224 0 0
221 0 0
227 0 0
224 0 0
226 0 0
222 0 0
226 0 0
224 0 0
225 0 0
225 0 0
228 0 0
225 0 0
226 0 0
223 0 0
224 0 0
222 0 0
225 0 0
224 0 0
224 0 0
224 0 0
222 0 0
224 0 0
222 0 0
225 0 0
224 0 0
227 0 0
227 0 0
227 0 0
223 0 0
225 0 0
227 0 0
220 0 0
224 0 0
224 0 0
223 0 0
227 0 0
226 0 0
221 0 0
225 0 0
0 0 255
0 0 254
0 0 255
0 0 254
0 0 255
0 0 254
0 0 255
0 0 255
0 0 255
0 0 255
0 0 255
0 0 255
0 0 255
0 0 254
0 0 254
0 0 253
0 0 255
0 0 255
0 0 255
0 0 253
0 0 253
0 0 254
0 0 254
0 0 253
0 0 255
0 0 254
0 0 254
0 0 254
0 0 254
0 0 255
0 0 255
0 0 253
0 0 255
0 0 255
0 0 254
0 0 255
0 0 254
0 0 254
0 0 253
0 0 254
0 0 254
0 0 254
0 0 254
0 0 254
0 0 253
0 0 255
0 0 253
0 0 253
0 0 252
0 0 255
0 0 252
0 0 253
0 0 253
0 0 254
0 0 254
0 0 250
0 0 253
0 0 254
0 0 250
0 0 255
0 0 254
0 0 252
0 0 253
0 0 254
0 0 250
0 0 254
0 0 250
0 0 252
0 0 253
0 0 250
0 0 254
0 0 252
0 0 252
0 0 249
0 0 254
0 0 253
0 0 254
0 0 252
0 0 253
0 0 254
0 0 253
0 0 253
0 0 253
0 0 249
0 0 250
0 0 254
0 0 250
0 0 253
0 0 255
0 0 252
0 0 248
0 0 253
0 0 250
0 0 249
0 0 253
0 0 249
0 0 249
0 0 248
0 0 250
0 0 250
0 0 253
0 0 253
0 0 249
0 0 253
0 0 246
0 0 249
0 0 246
0 0 246
0 0 246
0 0 246
0 0 248
0 0 246
0 0 248
0 0 249
0 0 242
0 0 249
0 0 237
0 0 248
0 0 249
0 0 244
0 0 248
0 0 250
0 0 249
0 0 250
0 0 241
0 0 248
0 0 253
0 0 242
0 0 244
0 0 248
0 0 240
0 0 241
0 0 248
0 0 244
0 0 248
0 0 244
0 0 237
0 0 237
0 0 244
0 0 244
0 0 244
0 0 240
0 0 236
0 0 236
0 0 242
0 0 241
0 0 242
0 0 234
0 0 233
0 0 233
0 0 240
0 0 231
0 0 231
0 0 236
0 0 238
0 0 241
0 0 237
0 0 231
0 0 238
0 0 224
0 0 220
0 0 230
0 0 224
0 0 240
0 0 226
0 0 234
0 0 218
0 0 231
0 0 234
0 0 211
0 0 227
0 0 227
0 0 220
0 0 221
0 0 228
0 0 217
0 0 207
0 0 230
0 0 220
0 0 203
0 0 206
0 0 201
0 0 217
0 0 211
0 0 201
0 0 211
0 0 201
0 0 203
162 168 231
234 243 255
234 243 255
234 243 255
234 243 255
234 243 255
234 243 255
234 243 255
234 243 255
234 243 255
234 243 255
234 243 255
234 243 255
234 243 255
234 243 255
234 243 255
234 243 255
234 243 255
234 243 255
234 243 255
234 243 255
234 243 255
234 243 255
215 185 194
177 0 0
184 0 0
191 0 0
194 0 0
194 0 0
197 0 0
191 0 0
198 0 0
191 0 0
195 0 0
193 0 0
187 0 0
199 0 0
200 0 0
212 0 0
207 0 0
201 0 0
207 0 0
200 0 0
192 0 0
203 0 0
205 0 0
204 0 0
205 0 0
210 0 0
204 0 0
204 0 0
213 0 0
202 0 0
218 0 0
210 0 0
212 0 0
208 0 0
213 0 0
218 0 0
212 0 0
215 0 0
219 0 0
217 0 0
205 0 0
225 0 0
217 0 0
218 0 0
215 0 0
219 0 0
219 0 0
214 0 0
217 0 0
218 0 0
211 0 0
216 0 0
222 0 0
216 0 0
220 0 0
218 0 0
218 0 0
223 0 0
224 0 0
223 0 0
223 0 0
213 0 0
221 0 0
214 0 0
215 0 0
225 0 0
219 0 0
220 0 0
221 0 0
217 0 0
220 0 0
223 0 0
221 0 0
223 0 0
218 0 0
222 0 0
223 0 0
223 0 0
222 0 0
223 0 0
222 0 0
221 0 0
226 0 0
216 0 0
217 0 0
219 0 0
221 0 0
215 0 0
226 0 0
222 0 0
220 0 0
224 0 0
220 0 0
222 0 0
224 0 0
225 0 0
223 0 0
225 0 0
224 0 0
221 0 0
222 0 0
221 0 0
218 0 0
222 0 0
226 0 0
221 0 0
219 0 0
227 0 0
225 0 0
216 0 0
221 0 0
227 0 0
224 0 0
228 0 0
225 0 0
222 0 0
223 0 0
221 0 0
226 0 0
226 0 0
221 0 0
223 0 0
226 0 0
226 0 0
224 0 0
225 0 0
222 0 0
221 0 0
224 0 0
221 0 0
224 0 0
227 0 0
225 0 0
225 0 0
225 0 0
222 0 0
225 0 0
224 0 0
226 0 0
224 0 0
219 0 0
221 0 0
225 0 0
223 0 0
222 0 0
222 0 0
226 0 0
222 0 0
219 0 0
226 0 0
228 0 0
223 0 0
221 0 0
223 0 0
223 0 0
226 0 0
223 0 0
226 0 0
225 0 0
226 0 0
227 0 0
225 0 0
224 0 0
223 0 0
224 0 0
222 0 0
226 0 0
225 0 0
220 0 0
222 0 0
225 0 0
225 0 0
224 0 0
226 0 0
225 0 0
227 0 0
225 0 0
221 0 0
224 0 0
224 0 0
226 0 0
226 0 0
227 0 0
222 0 0
225 0 0
228 0 0
227 0 0
228 0 0
223 0 0
0 0 255
0 0 255
0 0 254
0 0 255
0 0 255
0 0 255
0 0 255
0 0 255
0 0 254
0 0 255
0 0 255
0 0 255
0 0 255
0 0 254
0 0 255
0 0 254
0 0 254
0 0 255
0 0 255
0 0 255
0 0 254
0 0 252
0 0 253
0 0 255
0 0 255
0 0 254
0 0 253
0 0 255
0 0 255
0 0 254
0 0 255
0 0 255
0 0 254
0 0 255
0 0 255
0 0 254
0 0 254
0 0 250
0 0 253
0 0 254
0 0 255
0 0 252
0 0 255
0 0 252
0 0 254
0 0 254
0 0 253
0 0 250
0 0 250
0 0 254
0 0 253
0 0 254
0 0 253
0 0 255
0 0 254
0 0 254
0 0 252
0 0 253
0 0 253
0 0 254
0 0 252
0 0 250
0 0 252
0 0 255
0 0 252
0 0 254
0 0 246
0 0 255
0 0 253
0 0 250
0 0 252
0 0 254
0 0 254
0 0 252
0 0 252
0 0 255
0 0 252
0 0 255
0 0 249
0 0 249
0 0 252
0 0 250
0 0 253
0 0 248
0 0 253
0 0 254
0 0 250
0 0 248
0 0 250
0 0 252
0 0 250
0 0 248
0 0 250
0 0 248
0 0 250
0 0 249
0 0 250
0 0 252
0 0 253
0 0 248
0 0 246
0 0 249
0 0 248
0 0 250
0 0 248
0 0 253
0 0 246
0 0 246
0 0 248
0 0 248
0 0 246
0 0 252
0 0 245
0 0 252
0 0 248
0 0 246
0 0 250
0 0 248
0 0 246
0 0 252
0 0 244
0 0 248
0 0 242
0 0 250
0 0 248
0 0 242
0 0 249
0 0 246
0 0 245
0 0 246
0 0 237
0 0 238
0 0 250
0 0 249
0 0 244
0 0 245
0 0 237
0 0 238
0 0 240
0 0 244
0 0 249
0 0 231
0 0 240
0 0 246
0 0 237
0 0 242
0 0 245
0 0 241
0 0 236
0 0 245
0 0 236
0 0 237
0 0 231
0 0 246
0 0 238
0 0 238
0 0 233
0 0 240
0 0 230
0 0 226
0 0 231
0 0 233
0 0 227
0 0 234
0 0 228
0 0 231
0 0 233
0 0 224
0 0 227
0 0 226
0 0 224
0 0 223
0 0 226
0 0 227
0 0 224
0 0 221
0 0 211
0 0 214
0 0 196
0 0 209
0 0 207
0 0 196
0 0 211
0 0 201
0 0 207
0 0 196
0 0 198
84 87 215
228 237 252
234 243 255
234 243 255
234 243 255
234 243 255
234 243 255
234 243 255
234 243 255
234 243 255
234 243 255
234 243 255
234 243 255
234 243 255
234 243 255
234 243 255
234 243 255
234 243 255
234 243 255
234 243 255
234 243 255
234 243 255
234 243 255
234 243 255
234 238 250
197 87 92
181 0 0
195 0 0
195 0 0
192 0 0
198 0 0
191 0 0
187 0 0
194 0 0
202 0 0
192 0 0
187 0 0
201 0 0
201 0 0
197 0 0
206 0 0
216 0 0
204 0 0
206 0 0
207 0 0
210 0 0
212 0 0
217 0 0
210 0 0
214 0 0
214 0 0
207 0 0
210 0 0
220 0 0
208 0 0
208 0 0
211 0 0
210 0 0
212 0 0
211 0 0
214 0 0
212 0 0
214 0 0
224 0 0
211 0 0
220 0 0
213 0 0
213 0 0
216 0 0
215 0 0
215 0 0
216 0 0
222 0 0
222 0 0
221 0 0
219 0 0
216 0 0
221 0 0
223 0 0
216 0 0
216 0 0
217 0 0
219 0 0
218 0 0
213 0 0
216 0 0
217 0 0
224 0 0
214 0 0
222 0 0
221 0 0
224 0 0
220 0 0
219 0 0
220 0 0
225 0 0
226 0 0
217 0 0
217 0 0
220 0 0
220 0 0
217 0 0
220 0 0
220 0 0
226 0 0
217 0 0
222 0 0
225 0 0
227 0 0
222 0 0
226 0 0
224 0 0
222 0 0
223 0 0
221 0 0
224 0 0
223 0 0
222 0 0
224 0 0
222 0 0
224 0 0
224 0 0
223 0 0
227 0 0
224 0 0
226 0 0
222 0 0
219 0 0
226 0 0
223 0 0
224 0 0
216 0 0
220 0 0
223 0 0
224 0 0
224 0 0
226 0 0
226 0 0
223 0 0
224 0 0
220 0 0
223 0 0
226 0 0
220 0 0
226 0 0
225 0 0
221 0 0
227 0 0
225 0 0
223 0 0
226 0 0
223 0 0
227 0 0
224 0 0
223 0 0
216 0 0
225 0 0
228 0 0
222 0 0
227 0 0
223 0 0
223 0 0
226 0 0
222 0 0
222 0 0
224 0 0
227 0 0
223 0 0
225 0 0
221 0 0
224 0 0
226 0 0
225 0 0
221 0 0
225 0 0
223 0 0
227 0 0
221 0 0
224 0 0
223 0 0
224 0 0
225 0 0
224 0 0
231 0 0
226 0 0
225 0 0
223 0 0
223 0 0
226 0 0
222 0 0
221 0 0
225 0 0
224 0 0
224 0 0
224 0 0
226 0 0
227 0 0
227 0 0
226 0 0
224 0 0
225 0 0
228 0 0
224 0 0
227 0 0
227 0 0
227 0 0
226 0 0
228 0 0
225 0 0
228 0 0
225 0 0
225 0 0
225 0 0
0 0 255
0 0 255
0 0 253
0 0 255
0 0 255
0 0 255
0 0 254
0 0 255
0 0 254
0 0 255
0 0 254
0 0 252
0 0 254
0 0 255
0 0 254
0 0 253
0 0 254
0 0 254
0 0 254
0 0 255
0 0 255
0 0 255
0 0 255
0 0 254
0 0 255
0 0 254
0 0 255
0 0 252
0 0 254
0 0 253
0 0 255
0 0 255
0 0 254
0 0 255
0 0 254
0 0 255
0 0 255
0 0 253
0 0 255
0 0 254
0 0 255
0 0 252
0 0 253
0 0 253
0 0 255
0 0 252
0 0 254
0 0 255
0 0 254
0 0 255
0 0 253
0 0 254
0 0 255
0 0 254
0 0 253
0 0 255
0 0 252
0 0 252
0 0 254
0 0 255
0 0 253
0 0 252
0 0 254
0 0 254
0 0 252
0 0 250
0 0 254
0 0 252
0 0 252
0 0 253
0 0 250
0 0 249
0 0 254
0 0 250
0 0 253
0 0 253
0 0 249
0 0 250
0 0 250
0 0 253
0 0 249
0 0 253
0 0 248
0 0 254
0 0 253
0 0 248
0 0 252
0 0 252
0 0 252
0 0 249
0 0 246
0 0 250
0 0 252
0 0 253
0 0 254
0 0 254
0 0 249
0 0 246
0 0 252
0 0 249
0 0 250
0 0 253
0 0 250
0 0 254
0 0 250
0 0 250
0 0 248
0 0 248
0 0 249
0 0 250
0 0 252
0 0 250
0 0 246
0 0 249
0 0 249
0 0 245
0 0 245
0 0 250
0 0 252
0 0 249
0 0 246
0 0 250
0 0 245
0 0 246
0 0 245
0 0 245
0 0 245
0 0 250
0 0 242
0 0 252
0 0 240
0 0 241
0 0 245
0 0 246
0 0 250
0 0 244
0 0 241
0 0 242
0 0 236
0 0 250
0 0 244
0 0 249
0 0 242
0 0 248
0 0 236
0 0 236
0 0 241
0 0 237
0 0 234
0 0 228
0 0 245
0 0 226
0 0 237
0 0 242
0 0 237
0 0 233
0 0 237
0 0 238
0 0 237
0 0 238
0 0 230
0 0 227
0 0 231
0 0 233
0 0 233
0 0 224
0 0 238
0 0 227
0 0 218
0 0 223
0 0 221
0 0 221
0 0 226
0 0 227
0 0 215
0 0 230
0 0 218
0 0 211
0 0 220
0 0 218
0 0 218
0 0 209
0 0 211
0 0 215
0 0 196
0 0 194
0 0 199
193 200 241
234 243 255
234 243 255
234 243 255
234 243 255
234 243 255
234 243 255
234 243 255
234 243 255
234 243 255
234 243 255
234 243 255
234 243 255
234 243 255
234 243 255
234 243 255
234 243 255
234 243 255
234 243 255
234 243 255
234 243 255
234 243 255
234 243 255
234 243 255
234 243 255
226 194 204
204 0 0
197 0 0
184 0 0
187 0 0
203 0 0
183 0 0
191 0 0
201 0 0
200 0 0
188 0 0
189 0 0
196 0 0
211 0 0
205 0 0
207 0 0
198 0 0
209 0 0
209 0 0
207 0 0
208 0 0
217 0 0
202 0 0
203 0 0
212 0 0
200 0 0
216 0 0
211 0 0
207 0 0
212 0 0
215 0 0
208 0 0
211 0 0
210 0 0
211 0 0
215 0 0
211 0 0
210 0 0
222 0 0
215 0 0
207 0 0
215 0 0
218 0 0
217 0 0
219 0 0
219 0 0
225 0 0
214 0 0
219 0 0
215 0 0
216 0 0
222 0 0
211 0 0
215 0 0
220 0 0
211 0 0
221 0 0
221 0 0
219 0 0
223 0 0
222 0 0
212 0 0
224 0 0
222 0 0
213 0 0
226 0 0
216 0 0
219 0 0
222 0 0
216 0 0
216 0 0
220 0 0
223 0 0
219 0 0
223 0 0
224 0 0
226 0 0
228 0 0
221 0 0
223 0 0
230 0 0
224 0 0
224 0 0
218 0 0
219 0 0
222 0 0
224 0 0
227 0 0
220 0 0
229 0 0
226 0 0
222 0 0
224 0 0
222 0 0
225 0 0
221 0 0
227 0 0
219 0 0
218 0 0
219 0 0
221 0 0
225 0 0
220 0 0
220 0 0
225 0 0
216 0 0
224 0 0
223 0 0
227 0 0
224 0 0
227 0 0
223 0 0
226 0 0
226 0 0
224 0 0
224 0 0
226 0 0
218 0 0
222 0 0
223 0 0
222 0 0
228 0 0
224 0 0
221 0 0
227 0 0
226 0 0
217 0 0
222 0 0
226 0 0
223 0 0
219 0 0
227 0 0
224 0 0
227 0 0
227 0 0
223 0 0
224 0 0
223 0 0
225 0 0
224 0 0
227 0 0
222 0 0
224 0 0
223 0 0
225 0 0
226 0 0
225 0 0
225 0 0
225 0 0
224 0 0
225 0 0
222 0 0
227 0 0
224 0 0
222 0 0
225 0 0
222 0 0
227 0 0
225 0 0
227 0 0
223 0 0
226 0 0
225 0 0
224 0 0
223 0 0
226 0 0
223 0 0
227 0 0
225 0 0
226 0 0
223 0 0
223 0 0
223 0 0
226 0 0
226 0 0
223 0 0
227 0 0
223 0 0
222 0 0
225 0 0
228 0 0
226 0 0
225 0 0
225 0 0
221 0 0
225 0 0
228 0 0
226 0 0
0 0 255
0 0 255
0 0 254
0 0 254
0 0 254
0 0 254
0 0 254
0 0 253
0 0 254
0 0 254
0 0 255
0 0 255
0 0 255
0 0 253
0 0 255
0 0 254
0 0 254
0 0 255
0 0 255
0 0 255
0 0 255
0 0 254
0 0 254
0 0 253
0 0 254
0 0 254
0 0 255
0 0 255
0 0 254
0 0 255
0 0 255
0 0 255
0 0 254
0 0 254
0 0 254
0 0 254
0 0 255
0 0 253
0 0 255
0 0 253
0 0 254
0 0 255
0 0 254
0 0 255
0 0 255
0 0 254
0 0 255
0 0 253
0 0 253
0 0 254
0 0 253
0 0 254
0 0 253
0 0 254
0 0 252
0 0 254
0 0 254
0 0 252
0 0 255
0 0 255
0 0 253
0 0 252
0 0 253
0 0 254
0 0 255
0 0 254
0 0 253
0 0 255
0 0 255
0 0 250
0 0 252
0 0 253
0 0 254
0 0 250
0 0 254
0 0 244
0 0 250
0 0 254
0 0 250
0 0 253
0 0 252
0 0 254
0 0 249
0 0 250
0 0 253
0 0 250
0 0 250
0 0 248
0 0 254
0 0 249
0 0 253
0 0 252
0 0 250
0 0 249
0 0 252
0 0 249
0 0 246
0 0 249
0 0 252
0 0 248
0 0 246
0 0 246
0 0 249
0 0 254
0 0 252
0 0 253
0 0 248
0 0 252
0 0 250
0 0 250
0 0 249
0 0 246
0 0 248
0 0 246
0 0 246
0 0 250
0 0 248
0 0 248
0 0 244
0 0 245
0 0 244
0 0 241
0 0 244
0 0 248
0 0 248
0 0 250
0 0 244
0 0 242
0 0 241
0 0 240
0 0 246
0 0 245
0 0 244
0 0 246
0 0 245
0 0 246
0 0 237
0 0 246
0 0 246
0 0 246
0 0 241
0 0 241
0 0 240
0 0 237
0 0 238
0 0 245
0 0 236
0 0 241
0 0 236
0 0 237
0 0 246
0 0 236
0 0 238
0 0 238
0 0 233
0 0 240
0 0 234
0 0 233
0 0 236
0 0 230
0 0 228
0 0 231
0 0 227
0 0 227
0 0 220
0 0 224
0 0 230
0 0 237
0 0 230
0 0 224
0 0 223
0 0 221
0 0 228
0 0 212
0 0 223
0 0 223
0 0 224
0 0 218
0 0 212
0 0 217
0 0 209
0 0 220
0 0 206
0 0 204
0 0 201
0 0 199
124 128 218
234 243 255
234 243 255
234 243 255
234 243 255
234 243 255
234 243 255
235 243 255
235 243 255
235 243 255
235 243 255
235 243 255
235 243 255
235 243 255
235 243 255
235 243 255
235 243 255
235 243 255
235 243 255
235 243 255
235 243 255
235 243 255
234 243 255
234 243 255
234 243 255
234 243 255
234 243 255
215 126 133
190 0 0
189 0 0
181 0 0
195 0 0
200 0 0
195 0 0
205 0 0
202 0 0
199 0 0
210 0 0
194 0 0
200 0 0
209 0 0
200 0 0
204 0 0
203 0 0
188 0 0
207 0 0
204 0 0
201 0 0
202 0 0
208 0 0
220 0 0
208 0 0
203 0 0
210 0 0
215 0 0
210 0 0
215 0 0
202 0 0
207 0 0
223 0 0
206 0 0
212 0 0
216 0 0
211 0 0
218 0 0
226 0 0
214 0 0
221 0 0
212 0 0
216 0 0
213 0 0
214 0 0
220 0 0
217 0 0
219 0 0
217 0 0
217 0 0
211 0 0
220 0 0
220 0 0
221 0 0
220 0 0
216 0 0
215 0 0
218 0 0
221 0 0
216 0 0
216 0 0
225 0 0
222 0 0
218 0 0
227 0 0
223 0 0
221 0 0
223 0 0
219 0 0
218 0 0
225 0 0
220 0 0
219 0 0
224 0 0
221 0 0
219 0 0
221 0 0
227 0 0
215 0 0
224 0 0
221 0 0
223 0 0
219 0 0
220 0 0
220 0 0
220 0 0
224 0 0
220 0 0
224 0 0
226 0 0
222 0 0
222 0 0
228 0 0
221 0 0
222 0 0
224 0 0
226 0 0
222 0 0
220 0 0
221 0 0
217 0 0
220 0 0
226 0 0
222 0 0
218 0 0
225 0 0
224 0 0
219 0 0
224 0 0
227 0 0
225 0 0
224 0 0
225 0 0
224 0 0
221 0 0
228 0 0
225 0 0
225 0 0
219 0 0
225 0 0
227 0 0
226 0 0
222 0 0
225 0 0
226 0 0
226 0 0
227 0 0
223 0 0
227 0 0
227 0 0
227 0 0
224 0 0
228 0 0
222 0 0
226 0 0
226 0 0
225 0 0
227 0 0
227 0 0
223 0 0
225 0 0
221 0 0
226 0 0
227 0 0
224 0 0
221 0 0
226 0 0
226 0 0
222 0 0
226 0 0
225 0 0
222 0 0
224 0 0
225 0 0
227 0 0
222 0 0
226 0 0
226 0 0
224 0 0
224 0 0
226 0 0
226 0 0
224 0 0
227 0 0
222 0 0
227 0 0
225 0 0
221 0 0
224 0 0
223 0 0
225 0 0
224 0 0
227 0 0
226 0 0
228 0 0
226 0 0
223 0 0
224 0 0
225 0 0
225 0 0
223 0 0
223 0 0
226 0 0
224 0 0
228 0 0
225 0 0
222 0 0
0 0 254
0 0 254
0 0 254
0 0 255
0 0 255
0 0 255
0 0 255
0 0 253
0 0 254
0 0 255
0 0 255
0 0 255
0 0 255
0 0 254
0 0 254
0 0 253
0 0 254
0 0 255
0 0 255
0 0 254
0 0 255
0 0 255
0 0 254
0 0 255
0 0 252
0 0 254
0 0 254
0 0 253
0 0 254
0 0 254
0 0 254
0 0 253
0 0 254
0 0 254
0 0 255
0 0 255
0 0 254
0 0 254
0 0 255
0 0 255
0 0 254
0 0 255
0 0 254
0 0 254
0 0 254
0 0 254
0 0 254
0 0 252
0 0 253
0 0 254
0 0 253
0 0 254
0 0 249
0 0 255
0 0 254
0 0 255
0 0 250
0 0 254
0 0 248
0 0 253
0 0 252
0 0 254
0 0 254
0 0 253
0 0 254
0 0 252
0 0 254
0 0 253
0 0 255
0 0 255
0 0 253
0 0 252
0 0 255
0 0 255
0 0 254
0 0 253
0 0 253
0 0 249
0 0 250
0 0 250
0 0 255
0 0 250
0 0 252
0 0 250
0 0 250
0 0 254
0 0 246
0 0 252
0 0 249
0 0 252
0 0 253
0 0 253
0 0 249
0 0 250
0 0 248
0 0 253
0 0 250
0 0 252
0 0 252
0 0 250
0 0 249
0 0 249
0 0 249
0 0 249
0 0 250
0 0 253
0 0 246
0 0 250
0 0 246
0 0 246
0 0 249
0 0 246
0 0 248
0 0 248
0 0 250
0 0 246
0 0 248
0 0 248
0 0 246
0 0 249
0 0 253
0 0 248
0 0 248
0 0 241
0 0 245
0 0 242
0 0 242
0 0 249
0 0 241
0 0 236
0 0 246
0 0 245
0 0 240
0 0 242
0 0 241
0 0 245
0 0 245
0 0 248
0 0 249
0 0 238
0 0 242
0 0 244
0 0 245
0 0 242
0 0 242
0 0 240
0 0 237
0 0 234
0 0 241
0 0 245
0 0 236
0 0 234
0 0 237
0 0 244
0 0 237
0 0 242
0 0 237
0 0 234
0 0 236
0 0 227
0 0 236
0 0 230
0 0 231
0 0 230
0 0 238
0 0 234
0 0 236
0 0 228
0 0 223
0 0 231
0 0 221
0 0 217
0 0 223
0 0 204
0 0 215
0 0 224
0 0 217
0 0 223
0 0 217
0 0 217
0 0 209
0 0 211
0 0 204
0 0 215
0 0 206
57 59 220
216 224 250
235 243 255
235 243 255
235 243 255
235 243 255
235 243 255
235 243 255
235 243 255
235 243 255
235 243 255
235 243 255
235 243 255
235 243 255
235 243 255
235 243 255
235 243 255
235 243 255
235 243 255
235 243 255
235 243 255
235 243 255
235 243 255
235 243 255
235 243 255
235 243 255
235 243 255
235 243 255
232 228 240
198 34 36
182 0 0
201 0 0
206 0 0
194 0 0
205 0 0
191 0 0
194 0 0
199 0 0
213 0 0
199 0 0
213 0 0
186 0 0
202 0 0
203 0 0
205 0 0
194 0 0
208 0 0
204 0 0
209 0 0
205 0 0
210 0 0
202 0 0
221 0 0
202 0 0
212 0 0
205 0 0
221 0 0
215 0 0
204 0 0
207 0 0
218 0 0
214 0 0
219 0 0
210 0 0
212 0 0
219 0 0
222 0 0
208 0 0
213 0 0
218 0 0
217 0 0
216 0 0
207 0 0
211 0 0
216 0 0
218 0 0
219 0 0
217 0 0
218 0 0
211 0 0
220 0 0
211 0 0
216 0 0
217 0 0
227 0 0
218 0 0
221 0 0
217 0 0
218 0 0
224 0 0
212 0 0
227 0 0
226 0 0
228 0 0
220 0 0
223 0 0
220 0 0
221 0 0
216 0 0
216 0 0
219 0 0
221 0 0
219 0 0
217 0 0
218 0 0
219 0 0
224 0 0
221 0 0
222 0 0
226 0 0
225 0 0
219 0 0
220 0 0
217 0 0
226 0 0
226 0 0
224 0 0
220 0 0
221 0 0
221 0 0
228 0 0
225 0 0
225 0 0
223 0 0
222 0 0
220 0 0
227 0 0
218 0 0
225 0 0
226 0 0
226 0 0
221 0 0
225 0 0
224 0 0
223 0 0
222 0 0
227 0 0
219 0 0
227 0 0
223 0 0
221 0 0
227 0 0
226 0 0
226 0 0
218 0 0
224 0 0
224 0 0
225 0 0
223 0 0
225 0 0
228 0 0
226 0 0
228 0 0
226 0 0
224 0 0
224 0 0
226 0 0
228 0 0
227 0 0
224 0 0
224 0 0
225 0 0
226 0 0
226 0 0
227 0 0
225 0 0
224 0 0
225 0 0
226 0 0
227 0 0
224 0 0
225 0 0
224 0 0
225 0 0
225 0 0
225 0 0
225 0 0
224 0 0
226 0 0
228 0 0
223 0 0
225 0 0
227 0 0
228 0 0
221 0 0
226 0 0
224 0 0
225 0 0
223 0 0
224 0 0
221 0 0
227 0 0
226 0 0
225 0 0
229 0 0
223 0 0
226 0 0
227 0 0
223 0 0
226 0 0
224 0 0
224 0 0
225 0 0
221 0 0
223 0 0
225 0 0
225 0 0
225 0 0
224 0 0
226 0 0
224 0 0
220 0 0
225 0 0
222 0 0
223 0 0
0 0 255
0 0 252
0 0 255
0 0 254
0 0 255
0 0 255
0 0 255
0 0 255
0 0 254
0 0 255
0 0 255
0 0 255
0 0 255
0 0 255
0 0 253
0 0 254
0 0 254
0 0 253
0 0 254
0 0 254
0 0 255
0 0 255
0 0 254
0 0 254
0 0 253
0 0 254
0 0 254
0 0 254
0 0 255
0 0 252
0 0 255
0 0 255
0 0 253
0 0 254
0 0 255
0 0 255
0 0 255
0 0 252
0 0 250
0 0 253
0 0 254
0 0 254
0 0 252
0 0 254
0 0 255
0 0 252
0 0 249
0 0 254
0 0 253
0 0 255
0 0 253
0 0 255
0 0 249
0 0 254
0 0 255
0 0 254
0 0 255
0 0 254
0 0 255
0 0 253
0 0 253
0 0 254
0 0 253
0 0 252
0 0 253
0 0 253
0 0 252
0 0 253
0 0 249
0 0 254
0 0 255
0 0 255
0 0 253
0 0 255
0 0 252
0 0 253
0 0 253
0 0 255
0 0 249
0 0 248
0 0 253
0 0 252
0 0 250
0 0 253
0 0 253
0 0 250
0 0 254
0 0 248
0 0 253
0 0 249
0 0 253
0 0 248
0 0 248
0 0 254
0 0 249
0 0 254
0 0 249
0 0 248
0 0 249
0 0 250
0 0 252
0 0 253
0 0 252
0 0 242
0 0 250
0 0 245
0 0 250
0 0 249
0 0 253
0 0 252
0 0 248
0 0 246
0 0 249
0 0 246
0 0 253
0 0 246
0 0 250
0 0 249
0 0 246
0 0 252
0 0 249
0 0 249
0 0 249
0 0 242
0 0 241
0 0 245
0 0 246
0 0 241
0 0 245
0 0 250
0 0 246
0 0 244
0 0 245
0 0 242
0 0 252
0 0 249
0 0 250
0 0 246
0 0 242
0 0 241
0 0 240
0 0 244
0 0 238
0 0 244
0 0 240
0 0 237
0 0 244
0 0 234
0 0 234
0 0 246
0 0 238
0 0 238
0 0 240
0 0 234
0 0 238
0 0 240
0 0 228
0 0 236
0 0 223
0 0 236
0 0 241
0 0 238
0 0 234
0 0 230
0 0 227
0 0 224
0 0 230
0 0 240
0 0 220
0 0 228
0 0 228
0 0 226
0 0 221
0 0 218
0 0 223
0 0 209
0 0 215
0 0 223
0 0 214
0 0 215
0 0 201
0 0 212
0 0 198
0 0 209
0 0 201
166 172 233
235 243 255
235 243 255
235 243 255
235 243 255
235 243 255
235 243 255
235 243 255
235 243 255
235 243 255
235 243 255
235 243 255
235 243 255
235 243 255
235 243 255
235 243 255
235 243 255
235 243 255
235 243 255
235 243 255
235 243 255
235 243 255
235 243 255
235 243 255
235 243 255
235 243 255
235 243 255
235 243 255
235 243 255
213 187 196
194 0 0
198 0 0
192 0 0
190 0 0
200 0 0
205 0 0
193 0 0
208 0 0
206 0 0
198 0 0
198 0 0
208 0 0
202 0 0
205 0 0
207 0 0
202 0 0
208 0 0
214 0 0
204 0 0
211 0 0
209 0 0
208 0 0
206 0 0
214 0 0
214 0 0
211 0 0
217 0 0
210 0 0
208 0 0
210 0 0
216 0 0
216 0 0
215 0 0
210 0 0
211 0 0
218 0 0
214 0 0
211 0 0
218 0 0
222 0 0
216 0 0
215 0 0
221 0 0
214 0 0
218 0 0
217 0 0
218 0 0
214 0 0
212 0 0
221 0 0
216 0 0
223 0 0
222 0 0
217 0 0
224 0 0
223 0 0
225 0 0
217 0 0
216 0 0
214 0 0
220 0 0
218 0 0
216 0 0
222 0 0
218 0 0
215 0 0
223 0 0
221 0 0
228 0 0
224 0 0
223 0 0
223 0 0
216 0 0
219 0 0
220 0 0
225 0 0
217 0 0
226 0 0
218 0 0
223 0 0
221 0 0
223 0 0
224 0 0
221 0 0
224 0 0
221 0 0
220 0 0
215 0 0
221 0 0
223 0 0
221 0 0
223 0 0
226 0 0
224 0 0
220 0 0
221 0 0
221 0 0
222 0 0
225 0 0
223 0 0
224 0 0
223 0 0
227 0 0
224 0 0
224 0 0
227 0 0
224 0 0
227 0 0
225 0 0
224 0 0
226 0 0
223 0 0
220 0 0
225 0 0
225 0 0
225 0 0
223 0 0
225 0 0
226 0 0
226 0 0
226 0 0
225 0 0
221 0 0
223 0 0
223 0 0
228 0 0
224 0 0
215 0 0
223 0 0
227 0 0
226 0 0
228 0 0
227 0 0
223 0 0
224 0 0
225 0 0
224 0 0
227 0 0
227 0 0
226 0 0
226 0 0
228 0 0
225 0 0
222 0 0
219 0 0
226 0 0
228 0 0
224 0 0
223 0 0
225 0 0
223 0 0
227 0 0
225 0 0
229 0 0
224 0 0
227 0 0
232 0 0
227 0 0
227 0 0
222 0 0
226 0 0
227 0 0
227 0 0
227 0 0
226 0 0
228 0 0
225 0 0
223 0 0
227 0 0
227 0 0
223 0 0
224 0 0
224 0 0
226 0 0
225 0 0
225 0 0
222 0 0
225 0 0
226 0 0
226 0 0
224 0 0
224 0 0
226 0 0
226 0 0
226 0 0
0 0 255
0 0 255
0 0 255
0 0 255
0 0 255
0 0 255
0 0 255
0 0 255
0 0 255
0 0 254
0 0 255
0 0 255
0 0 255
0 0 255
0 0 254
0 0 255
0 0 254
0 0 255
0 0 255
0 0 255
0 0 255
0 0 254
0 0 254
0 0 255
0 0 253
0 0 254
0 0 254
0 0 255
0 0 253
0 0 252
0 0 255
0 0 252
0 0 255
0 0 255
0 0 255
0 0 254
0 0 253
0 0 253
0 0 255
0 0 254
0 0 252
0 0 254
0 0 255
0 0 253
0 0 255
0 0 253
0 0 255
0 0 252
0 0 255
0 0 248
0 0 253
0 0 254
0 0 255
0 0 252
0 0 252
0 0 255
0 0 254
0 0 254
0 0 253
0 0 254
0 0 253
0 0 252
0 0 254
0 0 252
0 0 253
0 0 252
0 0 254
0 0 252
0 0 253
0 0 254
0 0 252
0 0 253
0 0 255
0 0 252
0 0 252
0 0 253
0 0 250
0 0 255
0 0 254
0 0 250
0 0 250
0 0 253
0 0 249
0 0 250
0 0 253
0 0 254
0 0 250
0 0 253
0 0 252
0 0 254
0 0 253
0 0 250
0 0 249
0 0 252
0 0 249
0 0 250
0 0 249
0 0 245
0 0 249
0 0 249
0 0 246
0 0 252
0 0 253
0 0 254
0 0 253
0 0 253
0 0 246
0 0 250
0 0 249
0 0 255
0 0 248
0 0 246
0 0 245
0 0 248
0 0 245
0 0 246
0 0 250
0 0 244
0 0 249
0 0 249
0 0 249
0 0 250
0 0 244
0 0 250
0 0 245
0 0 244
0 0 249
0 0 245
0 0 244
0 0 242
0 0 238
0 0 241
0 0 241
0 0 242
0 0 241
0 0 246
0 0 242
0 0 242
0 0 245
0 0 242
0 0 240
0 0 248
0 0 234
0 0 244
0 0 242
0 0 240
0 0 234
0 0 241
0 0 237
0 0 248
0 0 245
0 0 236
0 0 234
0 0 238
0 0 231
0 0 238
0 0 228
0 0 228
0 0 240
0 0 237
0 0 244
0 0 240
0 0 233
0 0 228
0 0 226
0 0 236
0 0 226
0 0 223
0 0 227
0 0 226
0 0 220
0 0 227
0 0 215
0 0 228
0 0 227
0 0 223
0 0 221
0 0 224
0 0 218
0 0 214
0 0 220
0 0 215
0 0 207
0 0 223
110 114 228
232 240 255
235 244 255
235 244 255
235 244 255
235 244 255
235 244 255
235 244 255
235 244 255
235 244 255
235 244 255
235 244 255
235 244 255
235 244 255
235 244 255
235 244 255
235 244 255
235 244 255
235 244 255
235 244 255
235 244 255
235 244 255
235 244 255
235 244 255
235 244 255
235 244 255
235 244 255
235 244 255
235 244 255
235 244 255
235 241 253
199 91 95
194 0 0
207 0 0
187 0 0
202 0 0
203 0 0
206 0 0
204 0 0
199 0 0
194 0 0
209 0 0
200 0 0
203 0 0
204 0 0
205 0 0
205 0 0
199 0 0
211 0 0
220 0 0
209 0 0
214 0 0
210 0 0
203 0 0
207 0 0
208 0 0
212 0 0
211 0 0
212 0 0
206 0 0
212 0 0
217 0 0
211 0 0
210 0 0
217 0 0
219 0 0
219 0 0
216 0 0
214 0 0
213 0 0
213 0 0
223 0 0
225 0 0
211 0 0
225 0 0
213 0 0
230 0 0
212 0 0
213 0 0
218 0 0
223 0 0
213 0 0
230 0 0
212 0 0
215 0 0
207 0 0
222 0 0
217 0 0
220 0 0
217 0 0
221 0 0
220 0 0
227 0 0
223 0 0
224 0 0
221 0 0
220 0 0
222 0 0
228 0 0
224 0 0
229 0 0
221 0 0
216 0 0
225 0 0
220 0 0
219 0 0
222 0 0
222 0 0
225 0 0
223 0 0
223 0 0
224 0 0
215 0 0
225 0 0
220 0 0
222 0 0
225 0 0
222 0 0
225 0 0
228 0 0
226 0 0
221 0 0
226 0 0
226 0 0
218 0 0
226 0 0
223 0 0
222 0 0
221 0 0
226 0 0
224 0 0
227 0 0
219 0 0
225 0 0
220 0 0
223 0 0
226 0 0
222 0 0
225 0 0
228 0 0
225 0 0
225 0 0
227 0 0
224 0 0
225 0 0
225 0 0
225 0 0
228 0 0
226 0 0
224 0 0
223 0 0
225 0 0
229 0 0
220 0 0
223 0 0
224 0 0
226 0 0
224 0 0
225 0 0
226 0 0
225 0 0
225 0 0
223 0 0
224 0 0
224 0 0
221 0 0
221 0 0
223 0 0
228 0 0
219 0 0
227 0 0
225 0 0
222 0 0
223 0 0
227 0 0
223 0 0
224 0 0
226 0 0
225 0 0
226 0 0
226 0 0
222 0 0
227 0 0
226 0 0
227 0 0
226 0 0
224 0 0
226 0 0
229 0 0
224 0 0
225 0 0
223 0 0
227 0 0
227 0 0
223 0 0
226 0 0
223 0 0
228 0 0
226 0 0
224 0 0
226 0 0
224 0 0
225 0 0
223 0 0
225 0 0
227 0 0
227 0 0
223 0 0
226 0 0
224 0 0
226 0 0
227 0 0
223 0 0
228 0 0
226 0 0
225 0 0
0 0 253
0 0 254
0 0 255
0 0 255
0 0 255
0 0 255
0 0 255
0 0 254
0 0 255
0 0 254
0 0 254
0 0 254
0 0 255
0 0 255
0 0 254
0 0 254
0 0 255
0 0 254
0 0 255
0 0 253
0 0 254
0 0 255
0 0 253
0 0 253
0 0 254
0 0 255
0 0 255
0 0 254
0 0 252
0 0 253
0 0 253
0 0 253
0 0 254
0 0 254
0 0 255
0 0 254
0 0 255
0 0 254
0 0 253
0 0 254
0 0 254
0 0 254
0 0 254
0 0 253
0 0 252
0 0 250
0 0 254
0 0 254
0 0 253
0 0 253
0 0 254
0 0 254
0 0 250
0 0 254
0 0 252
0 0 252
0 0 253
0 0 254
0 0 252
0 0 253
0 0 254
0 0 254
0 0 255
0 0 253
0 0 250
0 0 253
0 0 253
0 0 252
0 0 254
0 0 255
0 0 255
0 0 252
0 0 250
0 0 252
0 0 254
0 0 252
0 0 252
0 0 252
0 0 253
0 0 253
0 0 252
0 0 249
0 0 252
0 0 246
0 0 248
0 0 246
0 0 250
0 0 248
0 0 249
0 0 252
0 0 253
0 0 252
0 0 254
0 0 254
0 0 252
0 0 253
0 0 248
0 0 253
0 0 254
0 0 248
0 0 254
0 0 250
0 0 246
0 0 250
0 0 249
0 0 248
0 0 246
0 0 246
0 0 245
0 0 249
0 0 249
0 0 253
0 0 248
0 0 253
0 0 250
0 0 249
0 0 250
0 0 246
0 0 246
0 0 245
0 0 242
0 0 253
0 0 249
0 0 249
0 0 249
0 0 246
0 0 250
0 0 244
0 0 250
0 0 249
0 0 252
0 0 252
0 0 246
0 0 248
0 0 241
0 0 240
0 0 245
0 0 240
0 0 248
0 0 240
0 0 244
0 0 236
0 0 242
0 0 244
0 0 245
0 0 236
0 0 233
0 0 248
0 0 249
0 0 234
0 0 237
0 0 237
0 0 242
0 0 245
0 0 233
0 0 236
0 0 242
0 0 230
0 0 241
0 0 228
0 0 238
0 0 244
0 0 236
0 0 233
0 0 231
0 0 234
0 0 227
0 0 230
0 0 228
0 0 231
0 0 221
0 0 212
0 0 227
0 0 218
0 0 221
0 0 218
0 0 230
0 0 212
0 0 227
0 0 223
0 0 209
0 0 215
0 0 215
52 54 228
213 221 246
235 244 255
235 244 255
235 244 255
235 244 255
235 244 255
235 244 255
235 244 255
235 244 255
235 244 255
235 244 255
235 244 255
235 244 255
235 244 255
235 244 255
236 244 255
235 244 255
235 244 255
236 244 255
235 244 255
235 244 255
235 244 255
235 244 255
235 244 255
235 244 255
235 244 255
235 244 255
235 244 255
235 244 255
235 244 255
235 244 255
232 225 236
196 48 51
201 0 0
213 0 0
197 0 0
208 0 0
198 0 0
212 0 0
200 0 0
204 0 0
204 0 0
217 0 0
208 0 0
213 0 0
212 0 0
210 0 0
205 0 0
209 0 0
213 0 0
214 0 0
209 0 0
211 0 0
207 0 0
214 0 0
213 0 0
208 0 0
217 0 0
213 0 0
210 0 0
210 0 0
217 0 0
209 0 0
211 0 0
217 0 0
212 0 0
221 0 0
220 0 0
212 0 0
217 0 0
215 0 0
220 0 0
211 0 0
218 0 0
224 0 0
217 0 0
217 0 0
215 0 0
217 0 0
219 0 0
215 0 0
221 0 0
219 0 0
224 0 0
216 0 0
213 0 0
225 0 0
217 0 0
209 0 0
219 0 0
220 0 0
217 0 0
220 0 0
220 0 0
217 0 0
219 0 0
221 0 0
221 0 0
224 0 0
217 0 0
222 0 0
217 0 0
226 0 0
222 0 0
218 0 0
223 0 0
219 0 0
219 0 0
221 0 0
225 0 0
221 0 0
223 0 0
226 0 0
223 0 0
220 0 0
228 0 0
222 0 0
224 0 0
224 0 0
224 0 0
221 0 0
220 0 0
220 0 0
223 0 0
226 0 0
226 0 0
224 0 0
229 0 0
226 0 0
226 0 0
224 0 0
225 0 0
221 0 0
219 0 0
228 0 0
226 0 0
222 0 0
229 0 0
221 0 0
224 0 0
224 0 0
224 0 0
221 0 0
225 0 0
224 0 0
222 0 0
227 0 0
225 0 0
228 0 0
226 0 0
225 0 0
228 0 0
225 0 0
223 0 0
223 0 0
227 0 0
225 0 0
228 0 0
225 0 0
228 0 0
227 0 0
221 0 0
225 0 0
226 0 0
228 0 0
225 0 0
228 0 0
225 0 0
223 0 0
225 0 0
225 0 0
227 0 0
226 0 0
223 0 0
221 0 0
224 0 0
228 0 0
226 0 0
226 0 0
227 0 0
224 0 0
224 0 0
225 0 0
221 0 0
228 0 0
224 0 0
224 0 0
223 0 0
223 0 0
226 0 0
224 0 0
224 0 0
222 0 0
226 0 0
228 0 0
226 0 0
224 0 0
229 0 0
226 0 0
226 0 0
224 0 0
225 0 0
226 0 0
226 0 0
223 0 0
226 0 0
224 0 0
225 0 0
225 0 0
226 0 0
226 0 0
224 0 0
225 0 0
226 0 0
227 0 0
224 0 0
0 0 255
0 0 255
0 0 254
0 0 255
0 0 254
0 0 255
0 0 255
0 0 254
0 0 255
0 0 255
0 0 255
0 0 254
0 0 254
0 0 255
0 0 255
0 0 254
0 0 255
0 0 254
0 0 254
0 0 255
0 0 254
0 0 255
0 0 255
0 0 254
0 0 255
0 0 255
0 0 254
0 0 252
0 0 255
0 0 255
0 0 255
0 0 255
0 0 254
0 0 254
0 0 255
0 0 252
0 0 255
0 0 254
0 0 255
0 0 254
0 0 253
0 0 254
0 0 255
0 0 253
0 0 254
0 0 252
0 0 253
0 0 254
0 0 250
0 0 253
0 0 254
0 0 255
0 0 253
0 0 252
0 0 255
0 0 254
0 0 254
0 0 255
0 0 255
0 0 252
0 0 253
0 0 255
0 0 253
0 0 254
0 0 253
0 0 253
0 0 250
0 0 253
0 0 250
0 0 248
0 0 254
0 0 253
0 0 252
0 0 249
0 0 252
0 0 253
0 0 248
0 0 254
0 0 253
0 0 253
0 0 249
0 0 253
0 0 254
0 0 253
0 0 253
0 0 254
0 0 249
0 0 254
0 0 250
0 0 252
0 0 249
0 0 250
0 0 248
0 0 254
0 0 252
0 0 252
0 0 252
0 0 246
0 0 253
0 0 248
0 0 250
0 0 246
0 0 249
0 0 249
0 0 249
0 0 254
0 0 252
0 0 248
0 0 250
0 0 252
0 0 250
0 0 246
0 0 252
0 0 253
0 0 249
0 0 245
0 0 248
0 0 252
0 0 245
0 0 250
0 0 248
0 0 242
0 0 253
0 0 244
0 0 244
0 0 249
0 0 248
0 0 242
0 0 245
0 0 242
0 0 250
0 0 248
0 0 246
0 0 244
0 0 241
0 0 238
0 0 248
0 0 240
0 0 241
0 0 245
0 0 238
0 0 246
0 0 241
0 0 240
0 0 241
0 0 238
0 0 245
0 0 231
0 0 237
0 0 240
0 0 234
0 0 238
0 0 241
0 0 237
0 0 231
0 0 237
0 0 238
0 0 234
0 0 233
0 0 228
0 0 238
0 0 220
0 0 233
0 0 234
0 0 234
0 0 230
0 0 226
0 0 227
0 0 226
0 0 220
0 0 220
0 0 214
0 0 217
0 0 227
0 0 218
0 0 228
0 0 215
0 0 215
0 0 228
0 0 223
0 0 214
0 0 212
0 0 215
193 199 241
236 244 255
236 244 255
236 244 255
236 244 255
236 244 255
236 244 255
236 244 255
236 244 255
236 244 255
236 244 255
236 244 255
236 244 255
236 244 255
236 244 255
236 244 255
236 244 255
236 244 255
236 244 255
236 244 255
236 244 255
236 244 255
236 244 255
236 244 255
236 244 255
236 244 255
236 244 255
236 244 255
236 244 255
236 244 255
236 244 255
236 244 255
236 244 255
221 186 194
203 0 0
198 0 0
206 0 0
195 0 0
201 0 0
199 0 0
191 0 0
212 0 0
209 0 0
192 0 0
200 0 0
191 0 0
213 0 0
200 0 0
215 0 0
206 0 0
212 0 0
214 0 0
207 0 0
205 0 0
210 0 0
217 0 0
218 0 0
206 0 0
212 0 0
215 0 0
206 0 0
199 0 0
217 0 0
215 0 0
211 0 0
219 0 0
219 0 0
217 0 0
221 0 0
215 0 0
218 0 0
221 0 0
215 0 0
223 0 0
210 0 0
206 0 0
217 0 0
213 0 0
215 0 0
219 0 0
218 0 0
219 0 0
212 0 0
220 0 0
221 0 0
223 0 0
220 0 0
219 0 0
220 0 0
222 0 0
211 0 0
216 0 0
220 0 0
220 0 0
226 0 0
220 0 0
224 0 0
220 0 0
218 0 0
223 0 0
218 0 0
222 0 0
225 0 0
222 0 0
217 0 0
222 0 0
220 0 0
222 0 0
221 0 0
223 0 0
221 0 0
220 0 0
220 0 0
222 0 0
222 0 0
223 0 0
220 0 0
224 0 0
219 0 0
225 0 0
224 0 0
221 0 0
225 0 0
221 0 0
224 0 0
223 0 0
222 0 0
225 0 0
222 0 0
222 0 0
223 0 0
223 0 0
220 0 0
224 0 0
223 0 0
223 0 0
224 0 0
223 0 0
223 0 0
225 0 0
226 0 0
223 0 0
222 0 0
226 0 0
227 0 0
229 0 0
226 0 0
227 0 0
229 0 0
226 0 0
222 0 0
224 0 0
227 0 0
223 0 0
222 0 0
223 0 0
220 0 0
227 0 0
225 0 0
224 0 0
225 0 0
225 0 0
222 0 0
228 0 0
224 0 0
219 0 0
225 0 0
230 0 0
220 0 0
224 0 0
225 0 0
227 0 0
226 0 0
228 0 0
224 0 0
225 0 0
227 0 0
227 0 0
226 0 0
225 0 0
224 0 0
223 0 0
226 0 0
226 0 0
223 0 0
225 0 0
221 0 0
228 0 0
227 0 0
226 0 0
227 0 0
230 0 0
227 0 0
226 0 0
223 0 0
227 0 0
222 0 0
225 0 0
225 0 0
226 0 0
223 0 0
225 0 0
226 0 0
226 0 0
226 0 0
227 0 0
226 0 0
228 0 0
225 0 0
228 0 0
227 0 0
225 0 0
230 0 0
226 0 0
224 0 0
226 0 0
227 0 0
0 0 255
0 0 254
0 0 255
0 0 254
0 0 255
0 0 253
0 0 254
0 0 255
0 0 254
0 0 254
0 0 255
0 0 255
0 0 255
0 0 255
0 0 254
0 0 255
0 0 255
0 0 254
0 0 254
0 0 255
0 0 254
0 0 255
0 0 255
0 0 254
0 0 255
0 0 253
0 0 254
0 0 254
0 0 253
0 0 254
0 0 255
0 0 255
0 0 254
0 0 253
0 0 255
0 0 253
0 0 254
0 0 255
0 0 255
0 0 254
0 0 254
0 0 254
0 0 254
0 0 253
0 0 254
0 0 253
0 0 254
0 0 255
0 0 255
0 0 254
0 0 255
0 0 255
0 0 255
0 0 255
0 0 255
0 0 255
0 0 254
0 0 255
0 0 254
0 0 255
0 0 253
0 0 254
0 0 253
0 0 249
0 0 252
0 0 250
0 0 253
0 0 252
0 0 253
0 0 253
0 0 254
0 0 255
0 0 253
0 0 248
0 0 252
0 0 253
0 0 252
0 0 253
0 0 254
0 0 253
0 0 253
0 0 254
0 0 250
0 0 252
0 0 252
0 0 252
0 0 250
0 0 252
0 0 255
0 0 246
0 0 253
0 0 248
0 0 250
0 0 252
0 0 246
0 0 254
0 0 250
0 0 252
0 0 250
0 0 252
0 0 252
0 0 252
0 0 252
0 0 252
0 0 250
0 0 248
0 0 248
0 0 244
0 0 250
0 0 248
0 0 246
0 0 248
0 0 248
0 0 246
0 0 249
0 0 252
0 0 249
0 0 244
0 0 244
0 0 242
0 0 244
0 0 252
0 0 252
0 0 248
0 0 250
0 0 246
0 0 249
0 0 242
0 0 253
0 0 244
0 0 244
0 0 245
0 0 241
0 0 244
0 0 248
0 0 238
0 0 238
0 0 244
0 0 245
0 0 245
0 0 246
0 0 248
0 0 249
0 0 241
0 0 240
0 0 242
0 0 244
0 0 242
0 0 238
0 0 241
0 0 238
0 0 236
0 0 228
0 0 231
0 0 236
0 0 237
0 0 236
0 0 234
0 0 236
0 0 236
0 0 240
0 0 233
0 0 236
0 0 230
0 0 234
0 0 228
0 0 233
0 0 234
0 0 220
0 0 226
0 0 221
0 0 237
0 0 220
0 0 234
0 0 227
0 0 214
0 0 218
0 0 217
0 0 220
0 0 230
0 0 214
0 0 218
120 124 223
235 243 254
236 244 255
236 244 255
236 244 255
236 244 255
236 244 255
236 244 255
236 244 255
236 244 255
236 244 255
236 244 255
236 244 255
236 244 255
236 244 255
236 244 255
236 244 255
236 244 255
236 244 255
236 244 255
236 244 255
236 244 255
236 244 255
236 244 255
236 244 255
236 244 255
236 244 255
236 244 255
236 244 255
236 244 255
236 244 255
236 244 255
236 244 255
236 244 255
236 244 255
216 131 137
204 0 0
188 0 0
201 0 0
207 0 0
214 0 0
200 0 0
204 0 0
210 0 0
194 0 0
210 0 0
204 0 0
217 0 0
204 0 0
206 0 0
206 0 0
215 0 0
213 0 0
208 0 0
206 0 0
212 0 0
208 0 0
205 0 0
212 0 0
211 0 0
211 0 0
218 0 0
223 0 0
213 0 0
220 0 0
218 0 0
209 0 0
218 0 0
220 0 0
212 0 0
223 0 0
221 0 0
225 0 0
221 0 0
221 0 0
223 0 0
213 0 0
220 0 0
224 0 0
220 0 0
213 0 0
222 0 0
220 0 0
216 0 0
220 0 0
224 0 0
217 0 0
223 0 0
218 0 0
219 0 0
219 0 0
222 0 0
221 0 0
219 0 0
213 0 0
221 0 0
223 0 0
220 0 0
225 0 0
221 0 0
222 0 0
224 0 0
220 0 0
224 0 0
220 0 0
222 0 0
220 0 0
220 0 0
224 0 0
227 0 0
221 0 0
226 0 0
226 0 0
219 0 0
223 0 0
220 0 0
228 0 0
223 0 0
222 0 0
222 0 0
223 0 0
224 0 0
225 0 0
227 0 0
223 0 0
222 0 0
224 0 0
226 0 0
229 0 0
222 0 0
225 0 0
225 0 0
219 0 0
225 0 0
225 0 0
222 0 0
224 0 0
224 0 0
227 0 0
227 0 0
224 0 0
225 0 0
219 0 0
224 0 0
224 0 0
222 0 0
229 0 0
224 0 0
224 0 0
227 0 0
225 0 0
223 0 0
223 0 0
221 0 0
227 0 0
223 0 0
224 0 0
229 0 0
225 0 0
224 0 0
228 0 0
225 0 0
228 0 0
227 0 0
223 0 0
222 0 0
224 0 0
225 0 0
226 0 0
227 0 0
224 0 0
222 0 0
216 0 0
226 0 0
227 0 0
225 0 0
224 0 0
227 0 0
226 0 0
225 0 0
229 0 0
223 0 0
221 0 0
230 0 0
226 0 0
225 0 0
226 0 0
224 0 0
228 0 0
228 0 0
227 0 0
226 0 0
222 0 0
225 0 0
226 0 0
223 0 0
227 0 0
227 0 0
224 0 0
228 0 0
225 0 0
223 0 0
225 0 0
227 0 0
227 0 0
221 0 0
225 0 0
228 0 0
226 0 0
221 0 0
226 0 0
229 0 0
222 0 0
231 0 0
228 0 0
224 0 0
226 0 0
226 0 0
0 0 255
0 0 255
0 0 255
0 0 255
0 0 255
0 0 255
0 0 255
0 0 254
0 0 255
0 0 255
0 0 255
0 0 255
0 0 255
0 0 255
0 0 255
0 0 254
0 0 254
0 0 255
0 0 254
0 0 255
0 0 255
0 0 254
0 0 253
0 0 255
0 0 255
0 0 255
0 0 255
0 0 252
0 0 255
0 0 255
0 0 254
0 0 254
0 0 255
0 0 254
0 0 253
0 0 255
0 0 254
0 0 254
0 0 254
0 0 253
0 0 254
0 0 253
0 0 254
0 0 253
0 0 255
0 0 255
0 0 253
0 0 253
0 0 255
0 0 255
0 0 253
0 0 254
0 0 252
0 0 255
0 0 253
0 0 254
0 0 254
0 0 254
0 0 253
0 0 248
0 0 253
0 0 254
0 0 252
0 0 253
0 0 253
0 0 253
0 0 255
0 0 253
0 0 255
0 0 253
0 0 254
0 0 250
0 0 250
0 0 252
0 0 252
0 0 253
0 0 254
0 0 255
0 0 254
0 0 250
0 0 248
0 0 252
0 0 253
0 0 249
0 0 254
0 0 253
0 0 254
0 0 252
0 0 255
0 0 252
0 0 253
0 0 254
0 0 254
0 0 249
0 0 253
0 0 250
0 0 252
0 0 245
0 0 245
0 0 252
0 0 248
0 0 250
0 0 250
0 0 250
0 0 253
0 0 249
0 0 248
0 0 245
0 0 248
0 0 252
0 0 245
0 0 246
0 0 248
0 0 248
0 0 252
0 0 246
0 0 246
0 0 249
0 0 246
0 0 245
0 0 250
0 0 241
0 0 252
0 0 237
0 0 246
0 0 244
0 0 242
0 0 242
0 0 242
0 0 248
0 0 249
0 0 246
0 0 241
0 0 241
0 0 246
0 0 244
0 0 241
0 0 245
0 0 242
0 0 227
0 0 241
0 0 240
0 0 233
0 0 242
0 0 242
0 0 236
0 0 245
0 0 241
0 0 240
0 0 241
0 0 237
0 0 242
0 0 236
0 0 236
0 0 240
0 0 238
0 0 236
0 0 241
0 0 237
0 0 230
0 0 238
0 0 228
0 0 226
0 0 226
0 0 228
0 0 238
0 0 230
0 0 224
0 0 230
0 0 220
0 0 227
0 0 218
0 0 212
0 0 223
0 0 221
0 0 220
0 0 223
0 0 228
0 0 217
0 0 212
0 0 226
66 69 227
224 231 253
236 244 255
236 244 255
236 244 255
236 244 255
236 244 255
236 244 255
236 244 255
236 244 255
236 244 255
236 244 255
236 244 255
236 244 255
236 244 255
236 244 255
236 244 255
236 244 255
236 244 255
236 244 255
236 244 255
236 244 255
236 244 255
236 244 255
236 244 255
236 244 255
236 244 255
236 244 255
236 244 255
236 244 255
236 244 255
236 244 255
236 244 255
236 244 255
236 244 255
236 244 255
231 233 244
213 64 67
202 0 0
207 0 0
196 0 0
201 0 0
204 0 0
209 0 0
216 0 0
208 0 0
210 0 0
213 0 0
200 0 0
205 0 0
208 0 0
210 0 0
210 0 0
220 0 0
207 0 0
210 0 0
215 0 0
222 0 0
223 0 0
212 0 0
214 0 0
222 0 0
221 0 0
204 0 0
217 0 0
216 0 0
214 0 0
218 0 0
219 0 0
220 0 0
212 0 0
217 0 0
219 0 0
221 0 0
213 0 0
213 0 0
219 0 0
221 0 0
219 0 0
222 0 0
219 0 0
224 0 0
213 0 0
222 0 0
219 0 0
224 0 0
226 0 0
221 0 0
218 0 0
227 0 0
218 0 0
220 0 0
218 0 0
222 0 0
217 0 0
221 0 0
229 0 0
217 0 0
223 0 0
218 0 0
223 0 0
224 0 0
219 0 0
227 0 0
220 0 0
226 0 0
219 0 0
222 0 0
221 0 0
223 0 0
223 0 0
225 0 0
226 0 0
226 0 0
227 0 0
221 0 0
222 0 0
220 0 0
227 0 0
223 0 0
225 0 0
225 0 0
219 0 0
222 0 0
226 0 0
226 0 0
226 0 0
228 0 0
222 0 0
222 0 0
224 0 0
224 0 0
222 0 0
225 0 0
219 0 0
227 0 0
225 0 0
223 0 0
225 0 0
225 0 0
226 0 0
223 0 0
220 0 0
226 0 0
225 0 0
228 0 0
224 0 0
229 0 0
225 0 0
227 0 0
228 0 0
229 0 0
227 0 0
224 0 0
228 0 0
227 0 0
226 0 0
229 0 0
224 0 0
223 0 0
228 0 0
222 0 0
226 0 0
223 0 0
227 0 0
222 0 0
224 0 0
226 0 0
229 0 0
226 0 0
225 0 0
228 0 0
223 0 0
223 0 0
224 0 0
227 0 0
226 0 0
224 0 0
227 0 0
223 0 0
228 0 0
229 0 0
223 0 0
228 0 0
229 0 0
227 0 0
228 0 0
227 0 0
221 0 0
224 0 0
224 0 0
221 0 0
226 0 0
225 0 0
225 0 0
227 0 0
225 0 0
224 0 0
226 0 0
224 0 0
229 0 0
225 0 0
226 0 0
227 0 0
225 0 0
226 0 0
223 0 0
228 0 0
226 0 0
226 0 0
227 0 0
225 0 0
227 0 0
224 0 0
228 0 0
226 0 0
227 0 0
225 0 0
227 0 0
0 0 254
0 0 255
0 0 255
0 0 255
0 0 254
0 0 255
0 0 254
0 0 255
0 0 254
0 0 255
0 0 253
0 0 254
0 0 255
0 0 255
0 0 255
0 0 255
0 0 254
0 0 255
0 0 255
0 0 254
0 0 253
0 0 255
0 0 254
0 0 254
0 0 255
0 0 254
0 0 254
0 0 255
0 0 255
0 0 253
0 0 254
0 0 254
0 0 255
0 0 255
0 0 254
0 0 254
0 0 254
0 0 253
0 0 255
0 0 254
0 0 255
0 0 254
0 0 254
0 0 254
0 0 254
0 0 254
0 0 252
0 0 254
0 0 255
0 0 255
0 0 255
0 0 254
0 0 255
0 0 253
0 0 254
0 0 255
0 0 250
0 0 254
0 0 253
0 0 252
0 0 250
0 0 252
0 0 254
0 0 254
0 0 254
0 0 253
0 0 250
0 0 255
0 0 250
0 0 253
0 0 254
0 0 254
0 0 250
0 0 250
0 0 253
0 0 252
0 0 249
0 0 254
0 0 253
0 0 250
0 0 252
0 0 253
0 0 248
0 0 252
0 0 250
0 0 248
0 0 254
0 0 248
0 0 252
0 0 250
0 0 245
0 0 250
0 0 246
0 0 245
0 0 255
0 0 252
0 0 246
0 0 253
0 0 253
0 0 248
0 0 252
0 0 252
0 0 253
0 0 250
0 0 248
0 0 253
0 0 253
0 0 252
0 0 254
0 0 249
0 0 248
0 0 246
0 0 248
0 0 253
0 0 242
0 0 248
0 0 246
0 0 248
0 0 250
0 0 246
0 0 250
0 0 246
0 0 248
0 0 249
0 0 246
0 0 250
0 0 248
0 0 245
0 0 248
0 0 248
0 0 238
0 0 246
0 0 249
0 0 248
0 0 244
0 0 241
0 0 241
0 0 248
0 0 248
0 0 245
0 0 244
0 0 245
0 0 240
0 0 241
0 0 244
0 0 240
0 0 238
0 0 237
0 0 240
0 0 236
0 0 245
0 0 237
0 0 227
0 0 236
0 0 237
0 0 234
0 0 238
0 0 233
0 0 228
0 0 240
0 0 236
0 0 236
0 0 242
0 0 236
0 0 231
0 0 238
0 0 231
0 0 234
0 0 236
0 0 228
0 0 224
0 0 226
0 0 228
0 0 214
0 0 234
0 0 228
0 0 230
0 0 226
0 0 211
0 0 209
23 24 220
207 214 253
236 244 255
236 244 255
236 244 255
236 244 255
236 244 255
236 244 255
236 244 255
236 244 255
236 244 255
236 244 255
236 244 255
236 244 255
236 244 255
236 244 255
236 244 255
236 244 255
236 244 255
236 244 255
236 244 255
236 244 255
236 244 255
236 244 255
236 244 255
236 244 255
236 244 255
236 244 255
236 244 255
236 244 255
236 244 255
236 244 255
236 244 255
236 244 255
236 244 255
236 244 255
236 244 255
236 244 255
230 213 223
210 24 25
187 0 0
199 0 0
206 0 0
207 0 0
210 0 0
202 0 0
208 0 0
207 0 0
206 0 0
206 0 0
215 0 0
206 0 0
208 0 0
218 0 0
215 0 0
216 0 0
208 0 0
224 0 0
216 0 0
216 0 0
220 0 0
217 0 0
220 0 0
219 0 0
212 0 0
213 0 0
213 0 0
219 0 0
226 0 0
222 0 0
216 0 0
218 0 0
222 0 0
216 0 0
224 0 0
221 0 0
222 0 0
219 0 0
221 0 0
225 0 0
222 0 0
226 0 0
217 0 0
220 0 0
222 0 0
216 0 0
222 0 0
217 0 0
222 0 0
229 0 0
217 0 0
222 0 0
214 0 0
220 0 0
219 0 0
218 0 0
221 0 0
225 0 0
226 0 0
219 0 0
221 0 0
223 0 0
216 0 0
226 0 0
218 0 0
228 0 0
225 0 0
222 0 0
224 0 0
225 0 0
222 0 0
227 0 0
221 0 0
222 0 0
223 0 0
222 0 0
228 0 0
226 0 0
224 0 0
219 0 0
226 0 0
225 0 0
222 0 0
223 0 0
224 0 0
227 0 0
225 0 0
222 0 0
226 0 0
221 0 0
221 0 0
221 0 0
226 0 0
220 0 0
232 0 0
223 0 0
222 0 0
221 0 0
221 0 0
222 0 0
224 0 0
225 0 0
220 0 0
218 0 0
229 0 0
223 0 0
226 0 0
228 0 0
225 0 0
222 0 0
221 0 0
225 0 0
222 0 0
225 0 0
227 0 0
224 0 0
225 0 0
222 0 0
226 0 0
225 0 0
225 0 0
226 0 0
227 0 0
226 0 0
227 0 0
222 0 0
226 0 0
226 0 0
223 0 0
229 0 0
228 0 0
223 0 0
225 0 0
224 0 0
223 0 0
226 0 0
226 0 0
227 0 0
229 0 0
228 0 0
225 0 0
225 0 0
227 0 0
225 0 0
226 0 0
225 0 0
225 0 0
224 0 0
226 0 0
226 0 0
227 0 0
228 0 0
229 0 0
225 0 0
226 0 0
222 0 0
228 0 0
228 0 0
229 0 0
224 0 0
224 0 0
223 0 0
226 0 0
228 0 0
223 0 0
228 0 0
220 0 0
225 0 0
224 0 0
226 0 0
225 0 0
223 0 0
226 0 0
225 0 0
227 0 0
226 0 0
228 0 0
224 0 0
227 0 0
229 0 0
0 0 254
0 0 255
0 0 254
0 0 254
0 0 255
0 0 254
0 0 254
0 0 254
0 0 255
0 0 255
0 0 254
0 0 253
0 0 254
0 0 255
0 0 254
0 0 254
0 0 254
0 0 254
0 0 254
0 0 255
0 0 255
0 0 253
0 0 254
0 0 255
0 0 255
0 0 253
0 0 255
0 0 254
0 0 254
0 0 254
0 0 254
0 0 254
0 0 255
0 0 255
0 0 252
0 0 250
0 0 255
0 0 253
0 0 254
0 0 254
0 0 254
0 0 253
0 0 252
0 0 254
0 0 252
0 0 253
0 0 254
0 0 255
0 0 255
0 0 255
0 0 253
0 0 253
0 0 250
0 0 254
0 0 255
0 0 252
0 0 253
0 0 255
0 0 253
0 0 253
0 0 253
0 0 252
0 0 253
0 0 254
0 0 253
0 0 250
0 0 253
0 0 252
0 0 248
0 0 254
0 0 254
0 0 249
0 0 255
0 0 252
0 0 255
0 0 252
0 0 254
0 0 252
0 0 253
0 0 253
0 0 250
0 0 249
0 0 252
0 0 254
0 0 254
0 0 254
0 0 250
0 0 249
0 0 253
0 0 252
0 0 250
0 0 254
0 0 249
0 0 250
0 0 249
0 0 249
0 0 253
0 0 253
0 0 250
0 0 252
0 0 252
0 0 253
0 0 255
0 0 248
0 0 248
0 0 254
0 0 253
0 0 254
0 0 249
0 0 241
0 0 248
0 0 250
0 0 248
0 0 252
0 0 248
0 0 250
0 0 249
0 0 250
0 0 238
0 0 246
0 0 250
0 0 248
0 0 246
0 0 246
0 0 246
0 0 245
0 0 254
0 0 248
0 0 246
0 0 245
0 0 238
0 0 245
0 0 234
0 0 245
0 0 245
0 0 238
0 0 246
0 0 246
0 0 245
0 0 245
0 0 244
0 0 241
0 0 238
0 0 249
0 0 244
0 0 233
0 0 244
0 0 241
0 0 240
0 0 236
0 0 238
0 0 238
0 0 238
0 0 233
0 0 244
0 0 246
0 0 234
0 0 233
0 0 227
0 0 234
0 0 240
0 0 234
0 0 237
0 0 233
0 0 236
0 0 238
0 0 238
0 0 221
0 0 223
0 0 226
0 0 226
0 0 227
0 0 230
0 0 218
0 0 228
0 0 226
0 0 223
0 0 220
0 0 227
0 0 226
164 169 241
237 244 255
237 244 255
237 244 255
237 244 255
237 244 255
237 244 255
237 244 255
237 244 255
237 244 255
237 244 255
237 244 255
237 244 255
237 244 255
237 244 255
237 244 255
237 244 255
237 244 255
237 244 255
237 244 255
237 244 255
237 244 255
237 244 255
237 244 255
237 244 255
237 244 255
237 244 255
237 244 255
237 244 255
237 244 255
237 244 255
237 244 255
237 244 255
237 244 255
237 244 255
237 244 255
237 244 255
237 244 255
236 244 255
221 183 191
206 0 0
207 0 0
207 0 0
214 0 0
212 0 0
202 0 0
222 0 0
207 0 0
204 0 0
205 0 0
218 0 0
216 0 0
192 0 0
208 0 0
209 0 0
204 0 0
209 0 0
207 0 0
214 0 0
217 0 0
213 0 0
218 0 0
215 0 0
211 0 0
202 0 0
214 0 0
212 0 0
218 0 0
221 0 0
224 0 0
224 0 0
224 0 0
215 0 0
215 0 0
220 0 0
217 0 0
220 0 0
218 0 0
215 0 0
222 0 0
211 0 0
221 0 0
223 0 0
210 0 0
217 0 0
221 0 0
216 0 0
223 0 0
220 0 0
221 0 0
220 0 0
224 0 0
218 0 0
217 0 0
225 0 0
221 0 0
215 0 0
219 0 0
227 0 0
221 0 0
220 0 0
216 0 0
222 0 0
221 0 0
223 0 0
218 0 0
208 0 0
222 0 0
227 0 0
226 0 0
223 0 0
226 0 0
227 0 0
225 0 0
225 0 0
221 0 0
221 0 0
222 0 0
225 0 0
226 0 0
220 0 0
225 0 0
225 0 0
224 0 0
224 0 0
222 0 0
223 0 0
219 0 0
224 0 0
227 0 0
226 0 0
223 0 0
220 0 0
226 0 0
221 0 0
223 0 0
228 0 0
225 0 0
224 0 0
227 0 0
224 0 0
226 0 0
227 0 0
222 0 0
226 0 0
221 0 0
223 0 0
224 0 0
226 0 0
226 0 0
228 0 0
226 0 0
227 0 0
229 0 0
227 0 0
226 0 0
226 0 0
225 0 0
227 0 0
228 0 0
223 0 0
225 0 0
225 0 0
228 0 0
225 0 0
227 0 0
224 0 0
228 0 0
223 0 0
226 0 0
226 0 0
225 0 0
223 0 0
225 0 0
225 0 0
224 0 0
226 0 0
227 0 0
227 0 0
229 0 0
225 0 0
228 0 0
227 0 0
223 0 0
229 0 0
227 0 0
226 0 0
228 0 0
229 0 0
230 0 0
223 0 0
223 0 0
227 0 0
224 0 0
226 0 0
222 0 0
225 0 0
225 0 0
230 0 0
228 0 0
227 0 0
227 0 0
226 0 0
228 0 0
225 0 0
226 0 0
226 0 0
228 0 0
229 0 0
224 0 0
227 0 0
226 0 0
224 0 0
223 0 0
227 0 0
225 0 0
228 0 0
226 0 0
224 0 0
228 0 0
0 0 255
0 0 253
0 0 255
0 0 255
0 0 255
0 0 254
0 0 255
0 0 255
0 0 255
0 0 255
0 0 255
0 0 255
0 0 255
0 0 255
0 0 255
0 0 254
0 0 253
0 0 255
0 0 254
0 0 255
0 0 254
0 0 254
0 0 253
0 0 255
0 0 255
0 0 254
0 0 254
0 0 254
0 0 253
0 0 253
0 0 254
0 0 255
0 0 255
0 0 254
0 0 254
0 0 252
0 0 255
0 0 254
0 0 253
0 0 254
0 0 254
0 0 254
0 0 254
0 0 254
0 0 255
0 0 253
0 0 250
0 0 255
0 0 253
0 0 254
0 0 253
0 0 254
0 0 255
0 0 253
0 0 252
0 0 254
0 0 253
0 0 253
0 0 253
0 0 252
0 0 252
0 0 253
0 0 255
0 0 254
0 0 250
0 0 254
0 0 250
0 0 250
0 0 253
0 0 254
0 0 250
0 0 252
0 0 252
0 0 254
0 0 252
0 0 254
0 0 246
0 0 252
0 0 254
0 0 250
0 0 249
0 0 252
0 0 253
0 0 252
0 0 255
0 0 244
0 0 253
0 0 248
0 0 250
0 0 252
0 0 252
0 0 249
0 0 252
0 0 254
0 0 250
0 0 249
0 0 254
0 0 252
0 0 248
0 0 253
0 0 254
0 0 252
0 0 255
0 0 252
0 0 253
0 0 249
0 0 252
0 0 248
0 0 249
0 0 250
0 0 248
0 0 246
0 0 248
0 0 248
0 0 246
0 0 249
0 0 252
0 0 250
0 0 248
0 0 245
0 0 253
0 0 249
0 0 249
0 0 245
0 0 242
0 0 248
0 0 253
0 0 241
0 0 245
0 0 242
0 0 241
0 0 246
0 0 248
0 0 248
0 0 245
0 0 246
0 0 248
0 0 249
0 0 241
0 0 241
0 0 241
0 0 245
0 0 238
0 0 250
0 0 237
0 0 244
0 0 237
0 0 240
0 0 237
0 0 244
0 0 241
0 0 238
0 0 242
0 0 237
0 0 241
0 0 240
0 0 237
0 0 238
0 0 228
0 0 244
0 0 234
0 0 238
0 0 237
0 0 230
0 0 238
0 0 223
0 0 237
0 0 233
0 0 228
0 0 231
0 0 224
0 0 224
0 0 221
0 0 227
0 0 224
0 0 217
0 0 211
0 0 204
0 0 217
132 136 228
237 244 255
237 244 255
237 244 255
237 244 255
237 244 255
237 244 255
237 244 255
237 244 255
237 244 255
237 244 255
237 244 255
237 244 255
237 244 255
237 244 255
237 244 255
237 244 255
237 244 255
237 244 255
237 244 255
237 244 255
237 244 255
237 244 255
237 244 255
237 244 255
237 244 255
237 244 255
237 244 255
237 244 255
237 244 255
237 244 255
237 244 255
237 244 255
237 244 255
237 244 255
237 244 255
237 244 255
237 244 255
237 244 255
237 244 255
237 244 255
222 154 161
207 0 0
216 0 0
197 0 0
216 0 0
204 0 0
208 0 0
204 0 0
202 0 0
217 0 0
215 0 0
214 0 0
203 0 0
209 0 0
214 0 0
212 0 0
209 0 0
216 0 0
212 0 0
219 0 0
221 0 0
216 0 0
212 0 0
215 0 0
217 0 0
217 0 0
224 0 0
216 0 0
208 0 0
215 0 0
217 0 0
218 0 0
213 0 0
225 0 0
217 0 0
213 0 0
222 0 0
207 0 0
221 0 0
212 0 0
224 0 0
225 0 0
214 0 0
223 0 0
219 0 0
217 0 0
222 0 0
222 0 0
224 0 0
226 0 0
217 0 0
223 0 0
216 0 0
225 0 0
221 0 0
221 0 0
222 0 0
224 0 0
224 0 0
226 0 0
222 0 0
216 0 0
223 0 0
222 0 0
225 0 0
221 0 0
225 0 0
228 0 0
228 0 0
222 0 0
217 0 0
227 0 0
220 0 0
223 0 0
225 0 0
223 0 0
228 0 0
223 0 0
217 0 0
220 0 0
226 0 0
229 0 0
226 0 0
225 0 0
227 0 0
223 0 0
222 0 0
226 0 0
227 0 0
225 0 0
222 0 0
228 0 0
224 0 0
232 0 0
224 0 0
228 0 0
229 0 0
225 0 0
222 0 0
227 0 0
227 0 0
228 0 0
222 0 0
228 0 0
229 0 0
226 0 0
224 0 0
228 0 0
226 0 0
225 0 0
229 0 0
230 0 0
227 0 0
227 0 0
228 0 0
220 0 0
230 0 0
224 0 0
223 0 0
226 0 0
226 0 0
229 0 0
227 0 0
227 0 0
222 0 0
220 0 0
229 0 0
231 0 0
225 0 0
226 0 0
225 0 0
227 0 0
227 0 0
228 0 0
225 0 0
222 0 0
225 0 0
224 0 0
224 0 0
226 0 0
226 0 0
222 0 0
230 0 0
225 0 0
228 0 0
223 0 0
226 0 0
229 0 0
222 0 0
227 0 0
227 0 0
226 0 0
226 0 0
224 0 0
225 0 0
225 0 0
225 0 0
226 0 0
227 0 0
225 0 0
226 0 0
227 0 0
228 0 0
227 0 0
228 0 0
224 0 0
226 0 0
225 0 0
229 0 0
224 0 0
225 0 0
226 0 0
228 0 0
226 0 0
228 0 0
227 0 0
227 0 0
227 0 0
229 0 0
223 0 0
0 0 254
0 0 255
0 0 254
0 0 255
0 0 255
0 0 255
0 0 255
0 0 255
0 0 254
0 0 253
0 0 254
0 0 254
0 0 255
0 0 254
0 0 255
0 0 255
0 0 254
0 0 255
0 0 254
0 0 254
0 0 255
0 0 255
0 0 255
0 0 255
0 0 255
0 0 254
0 0 255
0 0 254
0 0 254
0 0 255
0 0 255
0 0 255
0 0 255
0 0 255
0 0 255
0 0 255
0 0 254
0 0 255
0 0 254
0 0 255
0 0 254
0 0 255
0 0 252
0 0 250
0 0 253
0 0 255
0 0 254
0 0 254
0 0 254
0 0 254
0 0 255
0 0 254
0 0 254
0 0 255
0 0 255
0 0 254
0 0 253
0 0 253
0 0 255
0 0 252
0 0 253
0 0 255
0 0 254
0 0 253
0 0 254
0 0 252
0 0 252
0 0 255
0 0 254
0 0 253
0 0 255
0 0 252
0 0 255
0 0 252
0 0 248
0 0 250
0 0 254
0 0 248
0 0 253
0 0 249
0 0 252
0 0 253
0 0 252
0 0 252
0 0 253
0 0 252
0 0 253
0 0 252
0 0 253
0 0 250
0 0 250
0 0 252
0 0 249
0 0 254
0 0 253
0 0 248
0 0 250
0 0 253
0 0 253
0 0 250
0 0 249
0 0 254
0 0 246
0 0 252
0 0 248
0 0 250
0 0 250
0 0 253
0 0 252
0 0 245
0 0 245
0 0 246
0 0 252
0 0 253
0 0 250
0 0 249
0 0 249
0 0 245
0 0 248
0 0 249
0 0 245
0 0 246
0 0 246
0 0 244
0 0 248
0 0 249
0 0 242
0 0 246
0 0 246
0 0 248
0 0 246
0 0 248
0 0 242
0 0 249
0 0 249
0 0 241
0 0 241
0 0 246
0 0 245
0 0 245
0 0 246
0 0 248
0 0 242
0 0 240
0 0 238
0 0 241
0 0 237
0 0 236
0 0 233
0 0 242
0 0 234
0 0 240
0 0 234
0 0 234
0 0 238
0 0 237
0 0 237
0 0 234
0 0 242
0 0 234
0 0 234
0 0 238
0 0 230
0 0 227
0 0 242
0 0 234
0 0 231
0 0 230
0 0 230
0 0 236
0 0 220
0 0 227
0 0 224
0 0 227
0 0 228
0 0 223
0 0 227
0 0 226
97 101 234
232 240 254
237 245 255
237 245 255
237 245 255
237 245 255
237 245 255
237 245 255
237 245 255
237 245 255
237 245 255
237 245 255
237 245 255
237 245 255
237 245 255
237 245 255
237 245 255
237 245 255
237 245 255
237 245 255
237 245 255
237 245 255
237 245 255
237 245 255
237 245 255
237 245 255
237 245 255
237 245 255
237 245 255
237 245 255
237 245 255
237 245 255
237 245 255
237 245 255
237 245 255
237 245 255
237 245 255
237 245 255
237 245 255
237 245 255
237 245 255
237 245 255
237 236 246
222 98 102
210 0 0
214 0 0
215 0 0
206 0 0
201 0 0
213 0 0
205 0 0
213 0 0
210 0 0
214 0 0
206 0 0
212 0 0
213 0 0
217 0 0
216 0 0
217 0 0
215 0 0
219 0 0
213 0 0
225 0 0
214 0 0
213 0 0
213 0 0
219 0 0
225 0 0
216 0 0
222 0 0
220 0 0
221 0 0
218 0 0
218 0 0
216 0 0
218 0 0
222 0 0
225 0 0
215 0 0
220 0 0
209 0 0
219 0 0
212 0 0
213 0 0
218 0 0
218 0 0
221 0 0
226 0 0
230 0 0
224 0 0
223 0 0
215 0 0
216 0 0
225 0 0
217 0 0
222 0 0
227 0 0
223 0 0
217 0 0
221 0 0
221 0 0
219 0 0
218 0 0
220 0 0
224 0 0
225 0 0
221 0 0
221 0 0
228 0 0
221 0 0
220 0 0
223 0 0
224 0 0
220 0 0
221 0 0
222 0 0
225 0 0
220 0 0
221 0 0
226 0 0
224 0 0
223 0 0
224 0 0
222 0 0
227 0 0
221 0 0
230 0 0
224 0 0
226 0 0
225 0 0
229 0 0
226 0 0
227 0 0
217 0 0
222 0 0
223 0 0
224 0 0
225 0 0
224 0 0
227 0 0
223 0 0
228 0 0
226 0 0
229 0 0
226 0 0
226 0 0
228 0 0
223 0 0
224 0 0
223 0 0
227 0 0
228 0 0
226 0 0
221 0 0
224 0 0
220 0 0
224 0 0
226 0 0
227 0 0
226 0 0
221 0 0
228 0 0
226 0 0
226 0 0
231 0 0
222 0 0
224 0 0
227 0 0
227 0 0
223 0 0
225 0 0
227 0 0
228 0 0
231 0 0
224 0 0
225 0 0
231 0 0
223 0 0
225 0 0
222 0 0
223 0 0
223 0 0
225 0 0
227 0 0
229 0 0
230 0 0
226 0 0
228 0 0
226 0 0
227 0 0
226 0 0
227 0 0
227 0 0
229 0 0
225 0 0
226 0 0
228 0 0
226 0 0
226 0 0
223 0 0
229 0 0
227 0 0
227 0 0
229 0 0
226 0 0
226 0 0
229 0 0
227 0 0
225 0 0
225 0 0
224 0 0
227 0 0
224 0 0
224 0 0
227 0 0
224 0 0
227 0 0
226 0 0
223 0 0
226 0 0
227 0 0
0 0 254
0 0 255
0 0 255
0 0 255
0 0 254
0 0 255
0 0 255
0 0 255
0 0 255
0 0 255
0 0 255
0 0 253
0 0 255
0 0 255
0 0 254
0 0 255
0 0 254
0 0 255
0 0 255
0 0 254
0 0 254
0 0 255
0 0 254
0 0 254
0 0 255
0 0 255
0 0 253
0 0 255
0 0 254
0 0 254
0 0 255
0 0 255
0 0 253
0 0 255
0 0 253
0 0 255
0 0 255
0 0 254
0 0 255
0 0 254
0 0 255
0 0 252
0 0 253
0 0 255
0 0 254
0 0 252
0 0 255
0 0 255
0 0 254
0 0 254
0 0 253
0 0 255
0 0 254
0 0 254
0 0 253
0 0 254
0 0 253
0 0 255
0 0 255
0 0 252
0 0 252
0 0 253
0 0 253
0 0 254
0 0 253
0 0 255
0 0 253
0 0 254
0 0 255
0 0 253
0 0 254
0 0 250
0 0 249
0 0 250
0 0 253
0 0 253
0 0 250
0 0 254
0 0 250
0 0 255
0 0 254
0 0 253
0 0 254
0 0 249
0 0 252
0 0 250
0 0 253
0 0 250
0 0 249
0 0 254
0 0 246
0 0 255
0 0 255
0 0 252
0 0 250
0 0 246
0 0 250
0 0 253
0 0 250
0 0 250
0 0 253
0 0 252
0 0 252
0 0 254
0 0 250
0 0 248
0 0 249
0 0 248
0 0 250
0 0 253
0 0 248
0 0 253
0 0 255
0 0 249
0 0 253
0 0 245
0 0 248
0 0 242
0 0 248
0 0 240
0 0 246
0 0 249
0 0 248
0 0 249
0 0 245
0 0 238
0 0 252
0 0 250
0 0 248
0 0 242
0 0 244
0 0 242
0 0 245
0 0 241
0 0 242
0 0 249
0 0 241
0 0 241
0 0 245
0 0 241
0 0 240
0 0 245
0 0 240
0 0 242
0 0 245
0 0 241
0 0 245
0 0 245
0 0 240
0 0 237
0 0 233
0 0 238
0 0 236
0 0 236
0 0 233
0 0 245
0 0 237
0 0 238
0 0 234
0 0 242
0 0 240
0 0 234
0 0 237
0 0 228
0 0 236
0 0 226
0 0 228
0 0 227
0 0 224
0 0 228
0 0 228
0 0 234
0 0 236
0 0 220
0 0 226
0 0 224
0 0 220
58 60 226
216 223 250
237 245 255
237 245 255
237 245 255
237 245 255
237 245 255
237 245 255
237 245 255
237 245 255
237 245 255
237 245 255
237 245 255
237 245 255
237 245 255
237 245 255
237 245 255
237 245 255
237 245 255
237 245 255
237 245 255
237 245 255
237 245 255
237 245 255
237 245 255
237 245 255
237 245 255
237 245 255
237 245 255
237 245 255
237 245 255
237 245 255
237 245 255
237 245 255
237 245 255
237 245 255
237 245 255
237 245 255
237 245 255
237 245 255
237 245 255
237 245 255
237 245 255
237 245 255
236 229 240
225 54 57
217 0 0
213 0 0
207 0 0
207 0 0
208 0 0
206 0 0
199 0 0
219 0 0
216 0 0
219 0 0
205 0 0
215 0 0
213 0 0
213 0 0
216 0 0
209 0 0
202 0 0
212 0 0
220 0 0
217 0 0
217 0 0
212 0 0
217 0 0
221 0 0
220 0 0
215 0 0
219 0 0
218 0 0
209 0 0
224 0 0
215 0 0
224 0 0
226 0 0
215 0 0
220 0 0
223 0 0
219 0 0
221 0 0
221 0 0
219 0 0
217 0 0
225 0 0
226 0 0
218 0 0
222 0 0
221 0 0
221 0 0
226 0 0
223 0 0
226 0 0
218 0 0
225 0 0
222 0 0
226 0 0
226 0 0
225 0 0
224 0 0
222 0 0
222 0 0
226 0 0
227 0 0
224 0 0
218 0 0
228 0 0
224 0 0
224 0 0
223 0 0
226 0 0
219 0 0
224 0 0
228 0 0
226 0 0
225 0 0
222 0 0
225 0 0
228 0 0
225 0 0
220 0 0
224 0 0
225 0 0
224 0 0
220 0 0
219 0 0
225 0 0
223 0 0
220 0 0
227 0 0
225 0 0
223 0 0
225 0 0
223 0 0
227 0 0
227 0 0
226 0 0
226 0 0
228 0 0
222 0 0
218 0 0
224 0 0
226 0 0
221 0 0
225 0 0
227 0 0
224 0 0
225 0 0
222 0 0
229 0 0
231 0 0
226 0 0
226 0 0
228 0 0
228 0 0
227 0 0
221 0 0
231 0 0
228 0 0
227 0 0
225 0 0
227 0 0
226 0 0
226 0 0
227 0 0
227 0 0
226 0 0
227 0 0
229 0 0
225 0 0
226 0 0
228 0 0
226 0 0
227 0 0
224 0 0
225 0 0
226 0 0
227 0 0
226 0 0
225 0 0
225 0 0
224 0 0
224 0 0
227 0 0
225 0 0
226 0 0
228 0 0
224 0 0
225 0 0
228 0 0
225 0 0
228 0 0
225 0 0
226 0 0
228 0 0
228 0 0
226 0 0
228 0 0
224 0 0
225 0 0
228 0 0
223 0 0
225 0 0
229 0 0
226 0 0
227 0 0
225 0 0
226 0 0
227 0 0
227 0 0
225 0 0
229 0 0
230 0 0
228 0 0
230 0 0
230 0 0
224 0 0
227 0 0
227 0 0
228 0 0
0 0 255
0 0 254
0 0 254
0 0 255
0 0 254
0 0 255
0 0 255
0 0 255
0 0 255
0 0 254
0 0 253
0 0 255
0 0 254
0 0 255
0 0 255
0 0 255
0 0 255
0 0 255
0 0 255
0 0 254
0 0 254
0 0 255
0 0 255
0 0 253
0 0 255
0 0 255
0 0 253
0 0 254
0 0 254
0 0 254
0 0 253
0 0 253
0 0 254
0 0 253
0 0 255
0 0 253
0 0 252
0 0 255
0 0 254
0 0 254
0 0 255
0 0 253
0 0 254
0 0 254
0 0 254
0 0 253
0 0 255
0 0 255
0 0 254
0 0 254
0 0 253
0 0 253
0 0 254
0 0 254
0 0 255
0 0 252
0 0 253
0 0 255
0 0 255
0 0 253
0 0 254
0 0 253
0 0 254
0 0 253
0 0 253
0 0 254
0 0 254
0 0 255
0 0 252
0 0 252
0 0 253
0 0 254
0 0 253
0 0 253
0 0 254
0 0 252
0 0 252
0 0 250
0 0 255
0 0 254
0 0 253
0 0 253
0 0 250
0 0 252
0 0 252
0 0 253
0 0 249
0 0 249
0 0 252
0 0 252
0 0 253
0 0 253
0 0 250
0 0 254
0 0 249
0 0 252
0 0 250
0 0 246
0 0 253
0 0 252
0 0 249
0 0 253
0 0 250
0 0 249
0 0 246
0 0 252
0 0 254
0 0 252
0 0 252
0 0 245
0 0 248
0 0 253
0 0 252
0 0 244
0 0 244
0 0 245
0 0 248
0 0 248
0 0 249
0 0 248
0 0 246
0 0 252
0 0 249
0 0 244
0 0 245
0 0 246
0 0 244
0 0 249
0 0 249
0 0 245
0 0 238
0 0 248
0 0 250
0 0 245
0 0 249
0 0 249
0 0 245
0 0 236
0 0 249
0 0 246
0 0 246
0 0 237
0 0 242
0 0 245
0 0 238
0 0 240
0 0 237
0 0 244
0 0 238
0 0 240
0 0 237
0 0 244
0 0 233
0 0 238
0 0 234
0 0 242
0 0 245
0 0 238
0 0 240
0 0 236
0 0 242
0 0 233
0 0 234
0 0 237
0 0 233
0 0 233
0 0 227
0 0 224
0 0 230
0 0 236
0 0 233
0 0 226
0 0 241
0 0 234
0 0 223
0 0 221
33 34 230
208 215 249
237 245 255
237 245 255
237 245 255
237 245 255
237 245 255
237 245 255
237 245 255
237 245 255
237 245 255
237 245 255
237 245 255
237 245 255
237 245 255
237 245 255
237 245 255
238 245 255
238 245 255
238 245 255
238 245 255
238 245 255
238 245 255
238 245 255
238 245 255
238 245 255
238 245 255
238 245 255
238 245 255
238 245 255
238 245 255
238 245 255
237 245 255
237 245 255
237 245 255
237 245 255
237 245 255
237 245 255
237 245 255
237 245 255
237 245 255
237 245 255
237 245 255
237 245 255
237 245 255
237 245 255
231 216 226
212 49 51
211 0 0
202 0 0
215 0 0
219 0 0
207 0 0
215 0 0
212 0 0
207 0 0
221 0 0
220 0 0
223 0 0
214 0 0
216 0 0
220 0 0
222 0 0
217 0 0
216 0 0
217 0 0
224 0 0
217 0 0
211 0 0
213 0 0
217 0 0
223 0 0
221 0 0
219 0 0
217 0 0
204 0 0
225 0 0
221 0 0
215 0 0
220 0 0
221 0 0
226 0 0
214 0 0
216 0 0
222 0 0
227 0 0
221 0 0
225 0 0
217 0 0
220 0 0
225 0 0
225 0 0
221 0 0
218 0 0
225 0 0
223 0 0
223 0 0
225 0 0
223 0 0
216 0 0
221 0 0
223 0 0
220 0 0
223 0 0
222 0 0
227 0 0
225 0 0
220 0 0
225 0 0
228 0 0
221 0 0
221 0 0
222 0 0
223 0 0
227 0 0
226 0 0
224 0 0
216 0 0
221 0 0
225 0 0
221 0 0
227 0 0
225 0 0
222 0 0
223 0 0
227 0 0
228 0 0
223 0 0
229 0 0
230 0 0
226 0 0
221 0 0
225 0 0
225 0 0
219 0 0
225 0 0
227 0 0
227 0 0
225 0 0
222 0 0
227 0 0
229 0 0
224 0 0
225 0 0
228 0 0
230 0 0
226 0 0
225 0 0
226 0 0
223 0 0
223 0 0
227 0 0
221 0 0
225 0 0
223 0 0
227 0 0
226 0 0
224 0 0
228 0 0
226 0 0
223 0 0
226 0 0
228 0 0
226 0 0
227 0 0
224 0 0
225 0 0
230 0 0
226 0 0
226 0 0
225 0 0
225 0 0
226 0 0
225 0 0
226 0 0
229 0 0
224 0 0
227 0 0
228 0 0
225 0 0
224 0 0
224 0 0
227 0 0
224 0 0
228 0 0
224 0 0
229 0 0
224 0 0
224 0 0
228 0 0
227 0 0
226 0 0
226 0 0
228 0 0
228 0 0
224 0 0
224 0 0
227 0 0
226 0 0
229 0 0
223 0 0
226 0 0
224 0 0
225 0 0
227 0 0
230 0 0
224 0 0
226 0 0
228 0 0
226 0 0
227 0 0
227 0 0
225 0 0
227 0 0
227 0 0
227 0 0
229 0 0
230 0 0
228 0 0
225 0 0
229 0 0
227 0 0
226 0 0
226 0 0
0 0 255
0 0 253
0 0 255
0 0 255
0 0 255
0 0 255
0 0 255
0 0 255
0 0 254
0 0 255
0 0 255
0 0 253
0 0 254
0 0 255
0 0 255
0 0 253
0 0 255
0 0 253
0 0 255
0 0 255
0 0 253
0 0 255
0 0 255
0 0 255
0 0 255
0 0 254
0 0 255
0 0 254
0 0 255
0 0 255
0 0 255
0 0 250
0 0 255
0 0 254
0 0 255
0 0 255
0 0 254
0 0 255
0 0 255
0 0 254
0 0 253
0 0 254
0 0 254
0 0 255
0 0 253
0 0 253
0 0 254
0 0 254
0 0 253
0 0 255
0 0 254
0 0 254
0 0 253
0 0 252
0 0 254
0 0 254
0 0 255
0 0 254
0 0 254
0 0 252
0 0 253
0 0 253
0 0 254
0 0 252
0 0 253
0 0 253
0 0 250
0 0 249
0 0 249
0 0 253
0 0 254
0 0 252
0 0 254
0 0 254
0 0 252
0 0 250
0 0 252
0 0 249
0 0 253
0 0 252
0 0 254
0 0 253
0 0 254
0 0 255
0 0 254
0 0 252
0 0 252
0 0 254
0 0 253
0 0 253
0 0 254
0 0 254
0 0 254
0 0 248
0 0 253
0 0 255
0 0 249
0 0 250
0 0 253
0 0 250
0 0 249
0 0 249
0 0 254
0 0 246
0 0 245
0 0 249
0 0 254
0 0 252
0 0 252
0 0 249
0 0 250
0 0 245
0 0 252
0 0 246
0 0 240
0 0 250
0 0 253
0 0 242
0 0 249
0 0 246
0 0 252
0 0 245
0 0 248
0 0 248
0 0 244
0 0 248
0 0 248
0 0 241
0 0 248
0 0 241
0 0 241
0 0 253
0 0 246
0 0 248
0 0 245
0 0 250
0 0 244
0 0 245
0 0 236
0 0 241
0 0 245
0 0 244
0 0 244
0 0 237
0 0 244
0 0 240
0 0 240
0 0 238
0 0 242
0 0 244
0 0 234
0 0 238
0 0 245
0 0 230
0 0 242
0 0 233
0 0 242
0 0 234
0 0 233
0 0 220
0 0 242
0 0 233
0 0 234
0 0 236
0 0 234
0 0 221
0 0 236
0 0 228
0 0 226
0 0 230
0 0 238
0 0 231
0 0 217
0 0 231
0 0 223
0 0 230
191 197 240
237 245 255
238 245 255
238 245 255
238 245 255
238 245 255
238 245 255
238 245 255
238 245 255
238 245 255
238 245 255
238 245 255
238 245 255
238 245 255
238 245 255
238 245 255
238 245 255
238 245 255
238 245 255
238 245 255
238 245 255
238 245 255
238 245 255
238 245 255
238 245 255
238 245 255
238 245 255
238 245 255
238 245 255
238 245 255
238 245 255
238 245 255
238 245 255
238 245 255
238 245 255
238 245 255
238 245 255
238 245 255
238 245 255
238 245 255
238 245 255
238 245 255
238 245 255
238 245 255
238 245 255
238 245 255
238 245 255
229 200 209
213 24 25
212 0 0
220 0 0
207 0 0
201 0 0
212 0 0
215 0 0
216 0 0
226 0 0
206 0 0
219 0 0
220 0 0
217 0 0
212 0 0
218 0 0
218 0 0
213 0 0
213 0 0
218 0 0
217 0 0
224 0 0
223 0 0
213 0 0
220 0 0
219 0 0
221 0 0
223 0 0
220 0 0
218 0 0
214 0 0
220 0 0
223 0 0
228 0 0
217 0 0
225 0 0
222 0 0
213 0 0
223 0 0
219 0 0
217 0 0
221 0 0
222 0 0
217 0 0
220 0 0
218 0 0
223 0 0
220 0 0
222 0 0
221 0 0
219 0 0
217 0 0
228 0 0
216 0 0
223 0 0
226 0 0
223 0 0
232 0 0
227 0 0
216 0 0
225 0 0
225 0 0
228 0 0
226 0 0
219 0 0
224 0 0
224 0 0
226 0 0
222 0 0
221 0 0
226 0 0
228 0 0
219 0 0
225 0 0
223 0 0
224 0 0
226 0 0
219 0 0
227 0 0
222 0 0
224 0 0
227 0 0
226 0 0
228 0 0
225 0 0
223 0 0
226 0 0
226 0 0
221 0 0
228 0 0
221 0 0
223 0 0
229 0 0
222 0 0
229 0 0
224 0 0
222 0 0
228 0 0
226 0 0
223 0 0
231 0 0
223 0 0
225 0 0
226 0 0
227 0 0
229 0 0
227 0 0
228 0 0
228 0 0
229 0 0
223 0 0
226 0 0
229 0 0
225 0 0
227 0 0
225 0 0
232 0 0
226 0 0
226 0 0
227 0 0
227 0 0
229 0 0
223 0 0
225 0 0
228 0 0
229 0 0
230 0 0
229 0 0
228 0 0
228 0 0
229 0 0
227 0 0
228 0 0
221 0 0
228 0 0
225 0 0
227 0 0
226 0 0
230 0 0
227 0 0
229 0 0
229 0 0
230 0 0
227 0 0
225 0 0
226 0 0
229 0 0
225 0 0
226 0 0
230 0 0
225 0 0
225 0 0
227 0 0
227 0 0
223 0 0
224 0 0
223 0 0
228 0 0
227 0 0
228 0 0
228 0 0
229 0 0
230 0 0
226 0 0
228 0 0
226 0 0
227 0 0
227 0 0
229 0 0
225 0 0
231 0 0
228 0 0
229 0 0
227 0 0
226 0 0
225 0 0
226 0 0
0 0 254
0 0 254
0 0 255
0 0 255
0 0 255
0 0 255
0 0 255
0 0 255
0 0 255
0 0 254
0 0 254
0 0 254
0 0 255
0 0 254
0 0 255
0 0 255
0 0 255
0 0 255
0 0 255
0 0 255
0 0 255
0 0 254
0 0 255
0 0 254
0 0 255
0 0 255
0 0 254
0 0 254
0 0 254
0 0 254
0 0 252
0 0 255
0 0 255
0 0 255
0 0 255
0 0 253
0 0 255
0 0 255
0 0 253
0 0 253
0 0 255
0 0 255
0 0 254
0 0 254
0 0 254
0 0 254
0 0 253
0 0 254
0 0 252
0 0 254
0 0 254
0 0 250
0 0 253
0 0 255
0 0 254
0 0 255
0 0 253
0 0 254
0 0 252
0 0 254
0 0 254
0 0 255
0 0 253
0 0 255
0 0 252
0 0 253
0 0 254
0 0 252
0 0 254
0 0 254
0 0 253
0 0 252
0 0 254
0 0 252
0 0 252
0 0 253
0 0 253
0 0 255
0 0 255
0 0 254
0 0 252
0 0 253
0 0 253
0 0 246
0 0 254
0 0 250
0 0 252
0 0 249
0 0 248
0 0 250
0 0 252
0 0 252
0 0 250
0 0 254
0 0 253
0 0 248
0 0 249
0 0 248
0 0 254
0 0 248
0 0 249
0 0 250
0 0 253
0 0 245
0 0 252
0 0 242
0 0 249
0 0 248
0 0 248
0 0 253
0 0 250
0 0 254
0 0 248
0 0 248
0 0 249
0 0 254
0 0 252
0 0 248
0 0 250
0 0 246
0 0 245
0 0 242
0 0 248
0 0 245
0 0 249
0 0 245
0 0 244
0 0 249
0 0 246
0 0 252
0 0 250
0 0 244
0 0 246
0 0 245
0 0 242
0 0 245
0 0 246
0 0 246
0 0 240
0 0 244
0 0 234
0 0 244
0 0 244
0 0 240
0 0 249
0 0 241
0 0 246
0 0 242
0 0 252
0 0 241
0 0 241
0 0 236
0 0 244
0 0 240
0 0 233
0 0 241
0 0 238
0 0 236
0 0 237
0 0 237
0 0 234
0 0 236
0 0 236
0 0 231
0 0 237
0 0 236
0 0 234
0 0 236
0 0 241
0 0 221
0 0 237
0 0 224
0 0 224
0 0 227
0 0 231
156 160 245
238 245 255
238 245 255
238 245 255
238 245 255
238 245 255
238 245 255
238 245 255
238 245 255
238 245 255
238 245 255
238 245 255
238 245 255
238 245 255
238 245 255
238 245 255
238 245 255
238 245 255
238 245 255
238 245 255
238 245 255
238 245 255
238 245 255
238 245 255
238 245 255
238 245 255
238 245 255
238 245 255
238 245 255
238 245 255
238 245 255
238 245 255
238 245 255
238 245 255
238 245 255
238 245 255
238 245 255
238 245 255
238 245 255
238 245 255
238 245 255
238 245 255
238 245 255
238 245 255
238 245 255
238 245 255
238 245 255
238 245 255
238 245 255
230 173 181
213 0 0
217 0 0
221 0 0
210 0 0
209 0 0
218 0 0
212 0 0
223 0 0
208 0 0
210 0 0
216 0 0
224 0 0
222 0 0
215 0 0
221 0 0
201 0 0
217 0 0
218 0 0
216 0 0
220 0 0
219 0 0
214 0 0
221 0 0
219 0 0
227 0 0
223 0 0
220 0 0
224 0 0
222 0 0
215 0 0
222 0 0
221 0 0
215 0 0
226 0 0
221 0 0
226 0 0
221 0 0
225 0 0
222 0 0
222 0 0
215 0 0
224 0 0
225 0 0
223 0 0
220 0 0
226 0 0
217 0 0
221 0 0
223 0 0
215 0 0
222 0 0
225 0 0
225 0 0
223 0 0
225 0 0
226 0 0
224 0 0
224 0 0
228 0 0
225 0 0
222 0 0
223 0 0
223 0 0
222 0 0
222 0 0
221 0 0
223 0 0
225 0 0
226 0 0
221 0 0
227 0 0
224 0 0
230 0 0
224 0 0
227 0 0
227 0 0
225 0 0
227 0 0
216 0 0
224 0 0
226 0 0
224 0 0
226 0 0
227 0 0
222 0 0
228 0 0
226 0 0
227 0 0
226 0 0
228 0 0
226 0 0
225 0 0
225 0 0
226 0 0
225 0 0
222 0 0
227 0 0
222 0 0
226 0 0
223 0 0
230 0 0
228 0 0
227 0 0
228 0 0
228 0 0
224 0 0
227 0 0
227 0 0
227 0 0
222 0 0
228 0 0
227 0 0
226 0 0
230 0 0
228 0 0
230 0 0
228 0 0
221 0 0
228 0 0
229 0 0
225 0 0
226 0 0
230 0 0
227 0 0
225 0 0
227 0 0
225 0 0
224 0 0
228 0 0
227 0 0
228 0 0
224 0 0
223 0 0
227 0 0
223 0 0
228 0 0
225 0 0
227 0 0
229 0 0
224 0 0
228 0 0
227 0 0
229 0 0
225 0 0
229 0 0
224 0 0
227 0 0
225 0 0
227 0 0
230 0 0
231 0 0
225 0 0
225 0 0
227 0 0
227 0 0
228 0 0
229 0 0
227 0 0
226 0 0
224 0 0
222 0 0
228 0 0
229 0 0
230 0 0
226 0 0
228 0 0
225 0 0
228 0 0
223 0 0
227 0 0
229 0 0
225 0 0
229 0 0
226 0 0
228 0 0
0 0 255
0 0 255
0 0 254
0 0 255
0 0 255
0 0 255
0 0 255
0 0 255
0 0 255
0 0 255
0 0 254
0 0 254
0 0 254
0 0 254
0 0 255
0 0 255
0 0 255
0 0 255
0 0 255
0 0 254
0 0 255
0 0 254
0 0 255
0 0 255
0 0 253
0 0 255
0 0 255
0 0 255
0 0 255
0 0 254
0 0 255
0 0 255
0 0 254
0 0 255
0 0 254
0 0 255
0 0 255
0 0 255
0 0 255
0 0 253
0 0 254
0 0 254
0 0 255
0 0 253
0 0 255
0 0 255
0 0 255
0 0 255
0 0 254
0 0 253
0 0 254
0 0 254
0 0 255
0 0 254
0 0 253
0 0 249
0 0 254
0 0 253
0 0 254
0 0 255
0 0 253
0 0 253
0 0 254
0 0 254
0 0 253
0 0 254
0 0 250
0 0 255
0 0 255
0 0 254
0 0 250
0 0 250
0 0 254
0 0 253
0 0 252
0 0 254
0 0 252
0 0 250
0 0 252
0 0 255
0 0 254
0 0 255
0 0 254
0 0 250
0 0 253
0 0 252
0 0 254
0 0 252
0 0 246
0 0 252
0 0 253
0 0 253
0 0 250
0 0 249
0 0 249
0 0 249
0 0 246
0 0 250
0 0 252
0 0 254
0 0 253
0 0 249
0 0 252
0 0 248
0 0 250
0 0 252
0 0 250
0 0 252
0 0 254
0 0 252
0 0 249
0 0 248
0 0 249
0 0 250
0 0 252
0 0 250
0 0 249
0 0 250
0 0 248
0 0 250
0 0 250
0 0 250
0 0 252
0 0 244
0 0 246
0 0 249
0 0 245
0 0 249
0 0 249
0 0 244
0 0 244
0 0 246
0 0 250
0 0 246
0 0 252
0 0 253
0 0 248
0 0 245
0 0 246
0 0 242
0 0 245
0 0 245
0 0 244
0 0 244
0 0 244
0 0 231
0 0 242
0 0 246
0 0 246
0 0 238
0 0 231
0 0 240
0 0 242
0 0 245
0 0 238
0 0 237
0 0 237
0 0 238
0 0 240
0 0 238
0 0 240
0 0 234
0 0 242
0 0 231
0 0 231
0 0 245
0 0 233
0 0 237
0 0 233
0 0 234
0 0 237
0 0 230
0 0 228
0 0 233
170 175 244
238 245 255
238 245 255
238 245 255
238 245 255
238 245 255
238 245 255
238 245 255
238 245 255
238 245 255
238 245 255
238 245 255
238 245 255
238 245 255
238 245 255
238 245 255
238 245 255
238 245 255
238 245 255
238 245 255
238 245 255
238 245 255
238 245 255
238 245 255
238 245 255
238 245 255
238 245 255
238 245 255
238 245 255
238 245 255
238 245 255
238 245 255
238 245 255
238 245 255
238 245 255
238 245 255
238 245 255
238 245 255
238 245 255
238 245 255
238 245 255
238 245 255
238 245 255
238 245 255
238 245 255
238 245 255
238 245 255
238 245 255
238 245 255
238 245 255
238 245 255
234 166 173
226 0 0
207 0 0
217 0 0
214 0 0
217 0 0
215 0 0
211 0 0
216 0 0
210 0 0
222 0 0
218 0 0
210 0 0
228 0 0
211 0 0
220 0 0
209 0 0
217 0 0
219 0 0
225 0 0
233 0 0
220 0 0
220 0 0
221 0 0
221 0 0
222 0 0
219 0 0
220 0 0
218 0 0
216 0 0
223 0 0
215 0 0
211 0 0
222 0 0
217 0 0
225 0 0
224 0 0
221 0 0
219 0 0
223 0 0
224 0 0
220 0 0
225 0 0
226 0 0
220 0 0
223 0 0
225 0 0
223 0 0
221 0 0
226 0 0
225 0 0
225 0 0
220 0 0
221 0 0
229 0 0
220 0 0
229 0 0
224 0 0
221 0 0
219 0 0
227 0 0
219 0 0
216 0 0
221 0 0
228 0 0
229 0 0
222 0 0
229 0 0
224 0 0
223 0 0
224 0 0
227 0 0
225 0 0
226 0 0
226 0 0
223 0 0
226 0 0
228 0 0
228 0 0
223 0 0
226 0 0
232 0 0
222 0 0
229 0 0
224 0 0
222 0 0
223 0 0
223 0 0
224 0 0
228 0 0
228 0 0
228 0 0
225 0 0
221 0 0
226 0 0
224 0 0
228 0 0
223 0 0
228 0 0
227 0 0
227 0 0
223 0 0
224 0 0
224 0 0
229 0 0
225 0 0
230 0 0
224 0 0
228 0 0
226 0 0
226 0 0
226 0 0
229 0 0
228 0 0
220 0 0
228 0 0
228 0 0
229 0 0
222 0 0
223 0 0
225 0 0
223 0 0
226 0 0
227 0 0
226 0 0
227 0 0
229 0 0
227 0 0
227 0 0
227 0 0
222 0 0
226 0 0
225 0 0
228 0 0
228 0 0
228 0 0
228 0 0
226 0 0
226 0 0
227 0 0
230 0 0
229 0 0
228 0 0
230 0 0
230 0 0
227 0 0
227 0 0
229 0 0
225 0 0
226 0 0
229 0 0
227 0 0
226 0 0
224 0 0
226 0 0
226 0 0
228 0 0
228 0 0
228 0 0
229 0 0
226 0 0
225 0 0
226 0 0
227 0 0
226 0 0
227 0 0
228 0 0
229 0 0
227 0 0
227 0 0
229 0 0
229 0 0
227 0 0
228 0 0
225 0 0
0 0 255
0 0 255
0 0 255
0 0 254
0 0 255
0 0 254
0 0 254
0 0 255
0 0 255
0 0 255
0 0 254
0 0 255
0 0 255
0 0 254
0 0 255
0 0 255
0 0 255
0 0 255
0 0 254
0 0 254
0 0 255
0 0 255
0 0 255
0 0 255
0 0 255
0 0 254
0 0 255
0 0 255
0 0 254
0 0 255
0 0 255
0 0 254
0 0 255
0 0 254
0 0 254
0 0 253
0 0 255
0 0 255
0 0 253
0 0 255
0 0 253
0 0 255
0 0 254
0 0 253
0 0 255
0 0 253
0 0 255
0 0 253
0 0 254
0 0 252
0 0 254
0 0 253
0 0 254
0 0 253
0 0 255
0 0 255
0 0 254
0 0 254
0 0 255
0 0 252
0 0 252
0 0 253
0 0 255
0 0 246
0 0 250
0 0 255
0 0 254
0 0 254
0 0 255
0 0 250
0 0 250
0 0 255
0 0 254
0 0 252
0 0 253
0 0 253
0 0 250
0 0 254
0 0 255
0 0 249
0 0 253
0 0 253
0 0 252
0 0 250
0 0 255
0 0 252
0 0 254
0 0 250
0 0 254
0 0 252
0 0 249
0 0 246
0 0 248
0 0 250
0 0 254
0 0 248
0 0 255
0 0 250
0 0 253
0 0 248
0 0 250
0 0 249
0 0 252
0 0 241
0 0 249
0 0 250
0 0 250
0 0 250
0 0 250
0 0 248
0 0 248
0 0 250
0 0 244
0 0 245
0 0 249
0 0 246
0 0 249
0 0 249
0 0 253
0 0 250
0 0 248
0 0 248
0 0 250
0 0 249
0 0 249
0 0 250
0 0 244
0 0 248
0 0 249
0 0 248
0 0 244
0 0 245
0 0 248
0 0 237
0 0 244
0 0 248
0 0 244
0 0 248
0 0 241
0 0 244
0 0 241
0 0 238
0 0 242
0 0 233
0 0 241
0 0 245
0 0 238
0 0 245
0 0 242
0 0 245
0 0 241
0 0 246
0 0 238
0 0 240
0 0 244
0 0 245
0 0 238
0 0 230
0 0 240
0 0 240
0 0 236
0 0 238
0 0 221
0 0 234
0 0 233
0 0 237
0 0 244
0 0 238
0 0 237
0 0 227
0 0 238
0 0 233
0 0 228
145 149 238
237 244 255
238 245 255
238 245 255
238 245 255
238 245 255
238 245 255
238 245 255
238 245 255
238 245 255
238 245 255
238 245 255
238 245 255
238 245 255
238 245 255
238 245 255
238 245 255
238 245 255
238 245 255
238 245 255
238 245 255
238 245 255
238 245 255
238 245 255
238 245 255
238 245 255
238 245 255
238 245 255
238 245 255
238 245 255
238 245 255
238 245 255
238 245 255
238 245 255
238 245 255
238 245 255
238 245 255
238 245 255
238 245 255
238 245 255
238 245 255
238 245 255
238 245 255
238 245 255
238 245 255
238 245 255
238 245 255
238 245 255
238 245 255
238 245 255
238 245 255
238 245 255
238 244 254
220 130 135
217 0 0
213 0 0
218 0 0
219 0 0
222 0 0
219 0 0
218 0 0
217 0 0
213 0 0
220 0 0
216 0 0
214 0 0
216 0 0
219 0 0
215 0 0
224 0 0
221 0 0
223 0 0
221 0 0
217 0 0
219 0 0
216 0 0
222 0 0
226 0 0
221 0 0
221 0 0
219 0 0
222 0 0
224 0 0
220 0 0
213 0 0
224 0 0
220 0 0
217 0 0
224 0 0
222 0 0
218 0 0
226 0 0
225 0 0
226 0 0
226 0 0
217 0 0
229 0 0
224 0 0
226 0 0
223 0 0
228 0 0
220 0 0
224 0 0
230 0 0
222 0 0
225 0 0
223 0 0
230 0 0
228 0 0
229 0 0
224 0 0
219 0 0
231 0 0
228 0 0
226 0 0
226 0 0
221 0 0
226 0 0
226 0 0
223 0 0
226 0 0
226 0 0
219 0 0
227 0 0
223 0 0
225 0 0
223 0 0
223 0 0
227 0 0
224 0 0
222 0 0
222 0 0
228 0 0
226 0 0
227 0 0
229 0 0
223 0 0
222 0 0
227 0 0
225 0 0
226 0 0
227 0 0
225 0 0
227 0 0
231 0 0
231 0 0
225 0 0
226 0 0
225 0 0
223 0 0
225 0 0
228 0 0
224 0 0
224 0 0
230 0 0
222 0 0
225 0 0
224 0 0
227 0 0
226 0 0
227 0 0
227 0 0
225 0 0
223 0 0
231 0 0
228 0 0
226 0 0
227 0 0
222 0 0
225 0 0
225 0 0
225 0 0
229 0 0
229 0 0
226 0 0
230 0 0
229 0 0
225 0 0
227 0 0
229 0 0
229 0 0
229 0 0
227 0 0
222 0 0
224 0 0
229 0 0
228 0 0
229 0 0
223 0 0
226 0 0
229 0 0
227 0 0
232 0 0
229 0 0
226 0 0
227 0 0
229 0 0
226 0 0
226 0 0
227 0 0
228 0 0
225 0 0
226 0 0
228 0 0
229 0 0
227 0 0
227 0 0
227 0 0
228 0 0
229 0 0
227 0 0
224 0 0
227 0 0
227 0 0
229 0 0
227 0 0
226 0 0
227 0 0
230 0 0
225 0 0
229 0 0
226 0 0
223 0 0
227 0 0
228 0 0
224 0 0
223 0 0
0 0 255
0 0 255
0 0 255
0 0 255
0 0 255
0 0 254
0 0 255
0 0 255
0 0 255
0 0 255
0 0 254
0 0 255
0 0 255
0 0 255
0 0 255
0 0 253
0 0 255
0 0 255
0 0 255
0 0 255
0 0 255
0 0 253
0 0 254
0 0 255
0 0 255
0 0 255
0 0 253
0 0 255
0 0 255
0 0 254
0 0 255
0 0 255
0 0 254
0 0 253
0 0 254
0 0 255
0 0 254
0 0 254
0 0 255
0 0 255
0 0 254
0 0 250
0 0 255
0 0 253
0 0 253
0 0 254
0 0 254
0 0 253
0 0 255
0 0 253
0 0 254
0 0 252
0 0 255
0 0 255
0 0 249
0 0 253
0 0 255
0 0 250
0 0 253
0 0 252
0 0 255
0 0 254
0 0 254
0 0 248
0 0 252
0 0 255
0 0 255
0 0 254
0 0 254
0 0 254
0 0 250
0 0 252
0 0 249
0 0 252
0 0 250
0 0 250
0 0 253
0 0 252
0 0 253
0 0 253
0 0 250
0 0 252
0 0 252
0 0 253
0 0 249
0 0 254
0 0 254
0 0 249
0 0 248
0 0 252
0 0 250
0 0 252
0 0 249
0 0 253
0 0 250
0 0 245
0 0 246
0 0 250
0 0 255
0 0 244
0 0 253
0 0 252
0 0 249
0 0 252
0 0 248
0 0 246
0 0 253
0 0 248
0 0 252
0 0 253
0 0 252
0 0 248
0 0 249
0 0 252
0 0 245
0 0 246
0 0 248
0 0 245
0 0 250
0 0 254
0 0 248
0 0 250
0 0 242
0 0 248
0 0 244
0 0 252
0 0 250
0 0 246
0 0 245
0 0 248
0 0 241
0 0 245
0 0 244
0 0 250
0 0 252
0 0 250
0 0 246
0 0 245
0 0 249
0 0 252
0 0 245
0 0 245
0 0 238
0 0 237
0 0 242
0 0 242
0 0 244
0 0 244
0 0 237
0 0 248
0 0 238
0 0 250
0 0 241
0 0 241
0 0 241
0 0 244
0 0 238
0 0 241
0 0 234
0 0 238
0 0 244
0 0 241
0 0 238
0 0 242
0 0 242
0 0 230
0 0 234
0 0 237
0 0 231
0 0 228
0 0 244
0 0 241
121 125 233
233 240 254
238 245 255
238 245 255
238 245 255
238 245 255
238 245 255
238 245 255
238 245 255
238 245 255
238 245 255
238 245 255
238 245 255
238 245 255
238 245 255
238 245 255
239 245 255
239 245 255
239 245 255
239 245 255
239 245 255
239 245 255
239 245 255
239 245 255
239 245 255
239 245 255
239 245 255
239 245 255
239 245 255
239 245 255
239 245 255
239 245 255
239 245 255
239 245 255
239 245 255
239 245 255
239 245 255
239 245 255
239 245 255
239 245 255
238 245 255
238 245 255
238 245 255
238 245 255
238 245 255
238 245 255
238 245 255
238 245 255
238 245 255
238 245 255
238 245 255
238 245 255
238 245 255
238 245 255
238 244 254
226 132 137
211 0 0
210 0 0
213 0 0
225 0 0
222 0 0
215 0 0
218 0 0
214 0 0
219 0 0
223 0 0
211 0 0
207 0 0
218 0 0
219 0 0
224 0 0
217 0 0
225 0 0
221 0 0
220 0 0
220 0 0
225 0 0
223 0 0
223 0 0
216 0 0
228 0 0
220 0 0
226 0 0
219 0 0
224 0 0
223 0 0
217 0 0
221 0 0
217 0 0
232 0 0
226 0 0
218 0 0
216 0 0
216 0 0
215 0 0
225 0 0
224 0 0
224 0 0
225 0 0
226 0 0
222 0 0
222 0 0
220 0 0
227 0 0
222 0 0
223 0 0
229 0 0
222 0 0
223 0 0
225 0 0
232 0 0
229 0 0
219 0 0
219 0 0
227 0 0
228 0 0
225 0 0
225 0 0
218 0 0
229 0 0
226 0 0
228 0 0
227 0 0
226 0 0
227 0 0
226 0 0
227 0 0
222 0 0
224 0 0
223 0 0
228 0 0
225 0 0
226 0 0
226 0 0
224 0 0
227 0 0
227 0 0
226 0 0
229 0 0
225 0 0
230 0 0
221 0 0
227 0 0
227 0 0
226 0 0
225 0 0
226 0 0
229 0 0
227 0 0
226 0 0
224 0 0
227 0 0
229 0 0
227 0 0
223 0 0
227 0 0
226 0 0
222 0 0
225 0 0
227 0 0
228 0 0
226 0 0
229 0 0
226 0 0
226 0 0
228 0 0
224 0 0
222 0 0
226 0 0
227 0 0
226 0 0
228 0 0
227 0 0
227 0 0
228 0 0
228 0 0
225 0 0
227 0 0
225 0 0
227 0 0
226 0 0
228 0 0
227 0 0
228 0 0
226 0 0
223 0 0
226 0 0
224 0 0
232 0 0
228 0 0
224 0 0
228 0 0
229 0 0
229 0 0
227 0 0
224 0 0
224 0 0
230 0 0
230 0 0
229 0 0
225 0 0
229 0 0
230 0 0
227 0 0
230 0 0
225 0 0
230 0 0
225 0 0
226 0 0
227 0 0
227 0 0
229 0 0
227 0 0
227 0 0
227 0 0
225 0 0
226 0 0
228 0 0
228 0 0
227 0 0
226 0 0
229 0 0
230 0 0
225 0 0
225 0 0
225 0 0
231 0 0
228 0 0
0 0 255
0 0 254
0 0 255
0 0 254
0 0 254
0 0 253
0 0 255
0 0 255
0 0 254
0 0 255
0 0 254
0 0 255
0 0 255
0 0 255
0 0 255
0 0 255
0 0 254
0 0 253
0 0 255
0 0 254
0 0 254
0 0 255
0 0 255
0 0 255
0 0 254
0 0 255
0 0 255
0 0 254
0 0 255
0 0 254
0 0 255
0 0 253
0 0 254
0 0 253
0 0 254
0 0 254
0 0 254
0 0 255
0 0 252
0 0 255
0 0 254
0 0 254
0 0 255
0 0 253
0 0 255
0 0 254
0 0 255
0 0 255
0 0 254
0 0 254
0 0 254
0 0 254
0 0 254
0 0 253
0 0 253
0 0 255
0 0 254
0 0 255
0 0 254
0 0 253
0 0 254
0 0 254
0 0 254
0 0 254
0 0 253
0 0 255
0 0 254
0 0 252
0 0 250
0 0 253
0 0 252
0 0 253
0 0 254
0 0 253
0 0 252
0 0 252
0 0 248
0 0 252
0 0 252
0 0 249
0 0 255
0 0 253
0 0 253
0 0 252
0 0 253
0 0 250
0 0 252
0 0 254
0 0 253
0 0 250
0 0 249
0 0 250
0 0 253
0 0 248
0 0 253
0 0 253
0 0 252
0 0 246
0 0 253
0 0 252
0 0 250
0 0 253
0 0 249
0 0 252
0 0 250
0 0 245
0 0 246
0 0 253
0 0 249
0 0 249
0 0 250
0 0 249
0 0 253
0 0 246
0 0 249
0 0 254
0 0 250
0 0 255
0 0 250
0 0 252
0 0 252
0 0 252
0 0 250
0 0 249
0 0 248
0 0 249
0 0 248
0 0 245
0 0 250
0 0 245
0 0 250
0 0 241
0 0 246
0 0 245
0 0 246
0 0 242
0 0 246
0 0 245
0 0 238
0 0 241
0 0 245
0 0 246
0 0 252
0 0 241
0 0 244
0 0 244
0 0 249
0 0 236
0 0 242
0 0 241
0 0 240
0 0 240
0 0 241
0 0 244
0 0 242
0 0 237
0 0 237
0 0 236
0 0 237
0 0 241
0 0 240
0 0 246
0 0 233
0 0 240
0 0 218
0 0 234
0 0 226
0 0 240
0 0 234
0 0 234
0 0 236
126 130 241
236 243 254
238 245 255
238 245 255
238 245 255
239 245 255
239 245 255
239 245 255
239 245 255
239 245 255
239 245 255
239 246 255
239 246 255
239 246 255
239 246 255
239 246 255
239 246 255
239 246 255
239 246 255
239 246 255
239 246 255
239 246 255
239 246 255
239 246 255
239 246 255
239 246 255
239 246 255
239 246 255
239 246 255
239 246 255
239 246 255
239 246 255
239 246 255
239 246 255
239 246 255
239 246 255
239 246 255
239 246 255
239 246 255
239 246 255
239 246 255
239 246 255
239 246 255
239 246 255
239 246 255
239 246 255
239 246 255
239 245 255
239 245 255
239 245 255
239 245 255
239 245 255
239 245 255
238 245 255
238 245 255
238 245 255
239 240 250
226 127 133
214 0 0
218 0 0
219 0 0
220 0 0
223 0 0
221 0 0
211 0 0
204 0 0
221 0 0
221 0 0
217 0 0
223 0 0
225 0 0
218 0 0
227 0 0
216 0 0
218 0 0
214 0 0
224 0 0
223 0 0
217 0 0
229 0 0
223 0 0
212 0 0
223 0 0
221 0 0
224 0 0
222 0 0
221 0 0
225 0 0
224 0 0
225 0 0
229 0 0
222 0 0
224 0 0
220 0 0
223 0 0
223 0 0
225 0 0
224 0 0
223 0 0
225 0 0
226 0 0
224 0 0
226 0 0
225 0 0
223 0 0
227 0 0
226 0 0
223 0 0
222 0 0
224 0 0
217 0 0
225 0 0
228 0 0
225 0 0
222 0 0
229 0 0
228 0 0
226 0 0
225 0 0
225 0 0
222 0 0
226 0 0
231 0 0
227 0 0
223 0 0
227 0 0
226 0 0
225 0 0
223 0 0
221 0 0
226 0 0
219 0 0
227 0 0
221 0 0
226 0 0
227 0 0
228 0 0
226 0 0
226 0 0
229 0 0
229 0 0
225 0 0
228 0 0
224 0 0
223 0 0
228 0 0
223 0 0
228 0 0
228 0 0
228 0 0
226 0 0
226 0 0
229 0 0
231 0 0
228 0 0
227 0 0
223 0 0
229 0 0
226 0 0
220 0 0
225 0 0
225 0 0
227 0 0
222 0 0
229 0 0
226 0 0
226 0 0
224 0 0
228 0 0
223 0 0
231 0 0
226 0 0
226 0 0
220 0 0
228 0 0
226 0 0
227 0 0
228 0 0
225 0 0
229 0 0
226 0 0
226 0 0
222 0 0
228 0 0
229 0 0
231 0 0
226 0 0
226 0 0
226 0 0
230 0 0
228 0 0
228 0 0
227 0 0
225 0 0
226 0 0
228 0 0
227 0 0
227 0 0
228 0 0
228 0 0
226 0 0
225 0 0
227 0 0
228 0 0
226 0 0
229 0 0
225 0 0
227 0 0
225 0 0
227 0 0
224 0 0
222 0 0
230 0 0
223 0 0
225 0 0
227 0 0
227 0 0
226 0 0
225 0 0
226 0 0
229 0 0
228 0 0
227 0 0
228 0 0
228 0 0
229 0 0
229 0 0
228 0 0
230 0 0
0 0 255
0 0 255
0 0 255
0 0 255
0 0 255
0 0 254
0 0 255
0 0 255
0 0 255
0 0 255
0 0 254
0 0 255
0 0 255
0 0 254
0 0 253
0 0 255
0 0 254
0 0 255
0 0 255
0 0 255
0 0 255
0 0 254
0 0 255
0 0 255
0 0 254
0 0 255
0 0 255
0 0 255
0 0 255
0 0 254
0 0 255
0 0 255
0 0 254
0 0 255
0 0 254
0 0 253
0 0 253
0 0 254
0 0 253
0 0 254
0 0 253
0 0 254
0 0 254
0 0 254
0 0 253
0 0 254
0 0 252
0 0 254
0 0 255
0 0 254
0 0 253
0 0 254
0 0 254
0 0 252
0 0 254
0 0 253
0 0 255
0 0 253
0 0 254
0 0 254
0 0 253
0 0 253
0 0 252
0 0 253
0 0 254
0 0 253
0 0 253
0 0 254
0 0 253
0 0 254
0 0 253
0 0 253
0 0 252
0 0 252
0 0 250
0 0 255
0 0 254
0 0 253
0 0 254
0 0 255
0 0 249
0 0 250
0 0 252
0 0 252
0 0 250
0 0 253
0 0 255
0 0 254
0 0 250
0 0 252
0 0 252
0 0 253
0 0 252
0 0 246
0 0 249
0 0 252
0 0 253
0 0 252
0 0 250
0 0 250
0 0 248
0 0 250
0 0 252
0 0 253
0 0 252
0 0 248
0 0 250
0 0 250
0 0 248
0 0 246
0 0 249
0 0 252
0 0 252
0 0 254
0 0 252
0 0 246
0 0 253
0 0 249
0 0 250
0 0 250
0 0 249
0 0 252
0 0 248
0 0 246
0 0 246
0 0 250
0 0 253
0 0 248
0 0 248
0 0 241
0 0 252
0 0 240
0 0 244
0 0 248
0 0 249
0 0 241
0 0 245
0 0 244
0 0 246
0 0 248
0 0 237
0 0 246
0 0 246
0 0 233
0 0 245
0 0 241
0 0 245
0 0 245
0 0 227
0 0 246
0 0 241
0 0 240
0 0 238
0 0 240
0 0 244
0 0 241
0 0 240
0 0 242
0 0 237
0 0 230
0 0 237
0 0 244
0 0 234
0 0 238
0 0 240
0 0 233
0 0 242
0 0 231
0 0 241
0 0 238
114 117 249
234 241 253
239 246 255
239 246 255
239 246 255
239 246 255
239 246 255
239 246 255
239 246 255
239 246 255
239 246 255
239 246 255
239 246 255
239 246 255
239 246 255
239 246 255
239 246 255
239 246 255
239 246 255
239 246 255
239 246 255
239 246 255
239 246 255
239 246 255
239 246 255
239 246 255
239 246 255
239 246 255
239 246 255
239 246 255
239 246 255
239 246 255
239 246 255
239 246 255
239 246 255
239 246 255
239 246 255
239 246 255
239 246 255
239 246 255
239 246 255
239 246 255
239 246 255
239 246 255
239 246 255
239 246 255
239 246 255
239 246 255
239 246 255
239 246 255
239 246 255
239 246 255
239 246 255
239 246 255
239 246 255
239 246 255
239 246 255
239 245 255
239 242 252
222 134 140
214 0 0
219 0 0
213 0 0
225 0 0
218 0 0
220 0 0
222 0 0
217 0 0
226 0 0
216 0 0
226 0 0
223 0 0
226 0 0
218 0 0
221 0 0
212 0 0
214 0 0
221 0 0
221 0 0
226 0 0
218 0 0
222 0 0
227 0 0
223 0 0
224 0 0
226 0 0
222 0 0
223 0 0
222 0 0
220 0 0
224 0 0
224 0 0
218 0 0
226 0 0
227 0 0
220 0 0
226 0 0
225 0 0
223 0 0
226 0 0
219 0 0
222 0 0
220 0 0
228 0 0
224 0 0
226 0 0
221 0 0
229 0 0
228 0 0
228 0 0
226 0 0
223 0 0
226 0 0
228 0 0
221 0 0
229 0 0
227 0 0
224 0 0
219 0 0
221 0 0
223 0 0
225 0 0
222 0 0
225 0 0
225 0 0
228 0 0
229 0 0
229 0 0
231 0 0
225 0 0
232 0 0
226 0 0
225 0 0
224 0 0
222 0 0
222 0 0
227 0 0
226 0 0
226 0 0
223 0 0
225 0 0
224 0 0
226 0 0
225 0 0
229 0 0
224 0 0
231 0 0
229 0 0
229 0 0
225 0 0
224 0 0
229 0 0
221 0 0
231 0 0
223 0 0
228 0 0
226 0 0
226 0 0
224 0 0
227 0 0
226 0 0
225 0 0
224 0 0
224 0 0
229 0 0
229 0 0
230 0 0
225 0 0
227 0 0
229 0 0
226 0 0
222 0 0
229 0 0
227 0 0
229 0 0
227 0 0
228 0 0
227 0 0
228 0 0
231 0 0
230 0 0
228 0 0
228 0 0
228 0 0
227 0 0
229 0 0
227 0 0
227 0 0
230 0 0
228 0 0
228 0 0
230 0 0
230 0 0
230 0 0
228 0 0
225 0 0
224 0 0
228 0 0
229 0 0
226 0 0
222 0 0
230 0 0
226 0 0
228 0 0
228 0 0
229 0 0
227 0 0
225 0 0
229 0 0
229 0 0
225 0 0
228 0 0
228 0 0
230 0 0
227 0 0
225 0 0
225 0 0
229 0 0
230 0 0
229 0 0
225 0 0
229 0 0
230 0 0
230 0 0
230 0 0
226 0 0
228 0 0
228 0 0
231 0 0
227 0 0
0 0 255
0 0 255
0 0 255
0 0 255
0 0 255
0 0 255
0 0 255
0 0 255
0 0 255
0 0 255
0 0 255
0 0 254
0 0 255
0 0 255
0 0 254
0 0 255
0 0 253
0 0 255
0 0 255
0 0 255
0 0 255
0 0 255
0 0 254
0 0 255
0 0 255
0 0 254
0 0 255
0 0 252
0 0 255
0 0 255
0 0 255
0 0 254
0 0 255
0 0 253
0 0 255
0 0 254
0 0 254
0 0 255
0 0 253
0 0 254
0 0 254
0 0 252
0 0 253
0 0 255
0 0 254
0 0 254
0 0 255
0 0 255
0 0 255
0 0 254
0 0 255
0 0 255
0 0 253
0 0 254
0 0 254
0 0 249
0 0 255
0 0 252
0 0 254
0 0 255
0 0 253
0 0 253
0 0 252
0 0 254
0 0 253
0 0 248
0 0 253
0 0 254
0 0 255
0 0 252
0 0 253
0 0 254
0 0 255
0 0 255
0 0 253
0 0 253
0 0 252
0 0 255
0 0 252
0 0 253
0 0 252
0 0 249
0 0 254
0 0 249
0 0 252
0 0 253
0 0 249
0 0 252
0 0 249
0 0 252
0 0 250
0 0 250
0 0 249
0 0 245
0 0 253
0 0 248
0 0 248
0 0 246
0 0 248
0 0 253
0 0 255
0 0 248
0 0 252
0 0 253
0 0 252
0 0 250
0 0 246
0 0 249
0 0 249
0 0 249
0 0 253
0 0 250
0 0 246
0 0 249
0 0 250
0 0 248
0 0 248
0 0 248
0 0 249
0 0 248
0 0 252
0 0 250
0 0 241
0 0 244
0 0 249
0 0 246
0 0 248
0 0 245
0 0 249
0 0 246
0 0 248
0 0 248
0 0 249
0 0 246
0 0 242
0 0 246
0 0 242
0 0 244
0 0 249
0 0 248
0 0 240
0 0 245
0 0 248
0 0 244
0 0 244
0 0 250
0 0 246
0 0 246
0 0 240
0 0 246
0 0 244
0 0 242
0 0 234
0 0 238
0 0 242
0 0 240
0 0 244
0 0 234
0 0 240
0 0 240
0 0 242
0 0 236
0 0 233
0 0 245
0 0 230
0 0 241
0 0 237
0 0 230
0 0 236
147 151 236
233 239 254
239 246 255
239 246 255
239 246 255
239 246 255
239 246 255
239 246 255
239 246 255
239 246 255
239 246 255
239 246 255
239 246 255
239 246 255
239 246 255
239 246 255
239 246 255
239 246 255
239 246 255
239 246 255
239 246 255
239 246 255
239 246 255
239 246 255
239 246 255
239 246 255
239 246 255
239 246 255
239 246 255
239 246 255
239 246 255
239 246 255
239 246 255
239 246 255
239 246 255
239 246 255
239 246 255
239 246 255
239 246 255
239 246 255
239 246 255
239 246 255
239 246 255
239 246 255
239 246 255
239 246 255
239 246 255
239 246 255
239 246 255
239 246 255
239 246 255
239 246 255
239 246 255
239 246 255
239 246 255
239 246 255
239 246 255
239 246 255
239 246 255
239 246 255
239 243 253
229 132 137
227 0 0
220 0 0
227 0 0
223 0 0
220 0 0
222 0 0
223 0 0
220 0 0
221 0 0
224 0 0
224 0 0
219 0 0
217 0 0
218 0 0
213 0 0
219 0 0
215 0 0
218 0 0
222 0 0
213 0 0
219 0 0
224 0 0
220 0 0
215 0 0
222 0 0
225 0 0
218 0 0
220 0 0
217 0 0
220 0 0
229 0 0
224 0 0
218 0 0
225 0 0
221 0 0
221 0 0
224 0 0
226 0 0
219 0 0
224 0 0
222 0 0
222 0 0
221 0 0
225 0 0
225 0 0
223 0 0
222 0 0
223 0 0
225 0 0
222 0 0
225 0 0
227 0 0
225 0 0
223 0 0
226 0 0
231 0 0
225 0 0
228 0 0
226 0 0
223 0 0
228 0 0
226 0 0
223 0 0
229 0 0
227 0 0
223 0 0
225 0 0
219 0 0
227 0 0
231 0 0
226 0 0
230 0 0
229 0 0
226 0 0
225 0 0
225 0 0
223 0 0
224 0 0
223 0 0
227 0 0
229 0 0
227 0 0
229 0 0
225 0 0
229 0 0
223 0 0
225 0 0
223 0 0
228 0 0
222 0 0
224 0 0
224 0 0
230 0 0
229 0 0
224 0 0
226 0 0
229 0 0
230 0 0
230 0 0
227 0 0
229 0 0
230 0 0
230 0 0
225 0 0
227 0 0
226 0 0
226 0 0
230 0 0
224 0 0
228 0 0
227 0 0
224 0 0
229 0 0
226 0 0
223 0 0
226 0 0
228 0 0
230 0 0
223 0 0
226 0 0
228 0 0
225 0 0
227 0 0
229 0 0
227 0 0
230 0 0
225 0 0
228 0 0
229 0 0
224 0 0
228 0 0
229 0 0
225 0 0
227 0 0
227 0 0
224 0 0
230 0 0
228 0 0
226 0 0
227 0 0
227 0 0
228 0 0
227 0 0
228 0 0
229 0 0
226 0 0
223 0 0
227 0 0
227 0 0
229 0 0
229 0 0
229 0 0
228 0 0
225 0 0
229 0 0
230 0 0
231 0 0
226 0 0
229 0 0
228 0 0
226 0 0
230 0 0
227 0 0
227 0 0
220 0 0
226 0 0
227 0 0
226 0 0
224 0 0
0 0 255
0 0 255
0 0 255
0 0 255
0 0 255
0 0 255
0 0 255
0 0 254
0 0 255
0 0 255
0 0 255
0 0 255
0 0 252
0 0 254
0 0 255
0 0 255
0 0 255
0 0 253
0 0 255
0 0 255
0 0 255
0 0 254
0 0 254
0 0 255
0 0 255
0 0 254
0 0 255
0 0 255
0 0 255
0 0 255
0 0 254
0 0 253
0 0 255
0 0 254
0 0 254
0 0 255
0 0 255
0 0 255
0 0 254
0 0 255
0 0 254
0 0 255
0 0 255
0 0 253
0 0 254
0 0 254
0 0 254
0 0 255
0 0 254
0 0 253
0 0 254
0 0 255
0 0 254
0 0 253
0 0 252
0 0 253
0 0 252
0 0 252
0 0 253
0 0 255
0 0 253
0 0 254
0 0 252
0 0 252
0 0 250
0 0 255
0 0 254
0 0 253
0 0 250
0 0 253
0 0 250
0 0 252
0 0 252
0 0 254
0 0 250
0 0 252
0 0 254
0 0 253
0 0 249
0 0 253
0 0 254
0 0 248
0 0 250
0 0 254
0 0 254
0 0 253
0 0 254
0 0 253
0 0 254
0 0 246
0 0 245
0 0 253
0 0 249
0 0 253
0 0 248
0 0 253
0 0 252
0 0 254
0 0 249
0 0 252
0 0 249
0 0 253
0 0 253
0 0 248
0 0 248
0 0 249
0 0 252
0 0 249
0 0 248
0 0 253
0 0 252
0 0 253
0 0 250
0 0 246
0 0 244
0 0 246
0 0 246
0 0 249
0 0 246
0 0 244
0 0 246
0 0 248
0 0 245
0 0 248
0 0 248
0 0 249
0 0 245
0 0 245
0 0 250
0 0 241
0 0 246
0 0 249
0 0 246
0 0 246
0 0 246
0 0 252
0 0 248
0 0 242
0 0 240
0 0 249
0 0 242
0 0 244
0 0 241
0 0 242
0 0 248
0 0 240
0 0 252
0 0 246
0 0 241
0 0 241
0 0 238
0 0 242
0 0 238
0 0 245
0 0 244
0 0 242
0 0 230
0 0 236
0 0 236
0 0 233
0 0 223
0 0 238
0 0 240
0 0 231
0 0 234
0 0 236
0 0 240
0 0 245
141 145 241
236 243 254
239 246 255
239 246 255
239 246 255
239 246 255
239 246 255
239 246 255
239 246 255
239 246 255
239 246 255
239 246 255
239 246 255
239 246 255
239 246 255
239 246 255
239 246 255
239 246 255
239 246 255
239 246 255
239 246 255
239 246 255
239 246 255
239 246 255
239 246 255
239 246 255
239 246 255
239 246 255
239 246 255
239 246 255
239 246 255
239 246 255
239 246 255
239 246 255
239 246 255
239 246 255
239 246 255
239 246 255
239 246 255
239 246 255
239 246 255
239 246 255
239 246 255
239 246 255
239 246 255
239 246 255
239 246 255
239 246 255
239 246 255
239 246 255
239 246 255
239 246 255
239 246 255
239 246 255
239 246 255
239 246 255
239 246 255
239 246 255
239 246 255
239 246 255
239 246 255
239 246 255
239 242 252
231 149 155
226 0 0
222 0 0
226 0 0
223 0 0
225 0 0
217 0 0
218 0 0
222 0 0
223 0 0
227 0 0
222 0 0
218 0 0
217 0 0
224 0 0
226 0 0
222 0 0
219 0 0
213 0 0
223 0 0
229 0 0
220 0 0
221 0 0
229 0 0
227 0 0
224 0 0
229 0 0
219 0 0
225 0 0
222 0 0
227 0 0
223 0 0
221 0 0
224 0 0
218 0 0
224 0 0
218 0 0
220 0 0
225 0 0
219 0 0
228 0 0
216 0 0
224 0 0
231 0 0
227 0 0
220 0 0
220 0 0
223 0 0
221 0 0
227 0 0
227 0 0
225 0 0
231 0 0
221 0 0
229 0 0
228 0 0
225 0 0
227 0 0
222 0 0
223 0 0
228 0 0
223 0 0
223 0 0
229 0 0
226 0 0
228 0 0
228 0 0
229 0 0
225 0 0
224 0 0
223 0 0
224 0 0
226 0 0
226 0 0
229 0 0
224 0 0
224 0 0
229 0 0
222 0 0
224 0 0
230 0 0
221 0 0
225 0 0
227 0 0
230 0 0
229 0 0
230 0 0
228 0 0
224 0 0
229 0 0
229 0 0
228 0 0
225 0 0
227 0 0
229 0 0
227 0 0
227 0 0
226 0 0
226 0 0
226 0 0
231 0 0
224 0 0
228 0 0
230 0 0
229 0 0
227 0 0
229 0 0
227 0 0
224 0 0
225 0 0
227 0 0
230 0 0
228 0 0
220 0 0
227 0 0
232 0 0
228 0 0
225 0 0
228 0 0
228 0 0
230 0 0
230 0 0
226 0 0
230 0 0
226 0 0
229 0 0
231 0 0
228 0 0
227 0 0
230 0 0
227 0 0
230 0 0
228 0 0
230 0 0
229 0 0
228 0 0
225 0 0
228 0 0
229 0 0
228 0 0
229 0 0
226 0 0
228 0 0
225 0 0
225 0 0
229 0 0
226 0 0
228 0 0
230 0 0
228 0 0
226 0 0
229 0 0
227 0 0
226 0 0
226 0 0
227 0 0
229 0 0
229 0 0
226 0 0
228 0 0
230 0 0
227 0 0
226 0 0
228 0 0
228 0 0
228 0 0
227 0 0
229 0 0
224 0 0
0 0 255
0 0 255
0 0 255
0 0 255
0 0 255
0 0 255
0 0 255
0 0 254
0 0 255
0 0 255
0 0 254
0 0 254
0 0 255
0 0 255
0 0 255
0 0 254
0 0 254
0 0 255
0 0 255
0 0 255
0 0 255
0 0 255
0 0 255
0 0 255
0 0 254
0 0 255
0 0 255
0 0 254
0 0 253
0 0 253
0 0 255
0 0 250
0 0 253
0 0 254
0 0 255
0 0 255
0 0 253
0 0 255
0 0 254
0 0 254
0 0 254
0 0 254
0 0 254
0 0 254
0 0 254
0 0 255
0 0 255
0 0 254
0 0 254
0 0 253
0 0 253
0 0 255
0 0 255
0 0 250
0 0 255
0 0 254
0 0 255
0 0 249
0 0 254
0 0 255
0 0 252
0 0 253
0 0 255
0 0 249
0 0 254
0 0 253
0 0 253
0 0 253
0 0 255
0 0 250
0 0 254
0 0 253
0 0 254
0 0 249
0 0 249
0 0 252
0 0 250
0 0 254
0 0 254
0 0 250
0 0 254
0 0 255
0 0 254
0 0 252
0 0 252
0 0 252
0 0 253
0 0 252
0 0 252
0 0 255
0 0 253
0 0 253
0 0 252
0 0 252
0 0 253
0 0 249
0 0 253
0 0 255
0 0 255
0 0 255
0 0 250
0 0 246
0 0 250
0 0 252
0 0 253
0 0 250
0 0 250
0 0 245
0 0 248
0 0 248
0 0 250
0 0 246
0 0 252
0 0 253
0 0 249
0 0 252
0 0 253
0 0 250
0 0 253
0 0 252
0 0 245
0 0 252
0 0 250
0 0 252
0 0 245
0 0 241
0 0 244
0 0 250
0 0 242
0 0 245
0 0 245
0 0 245
0 0 249
0 0 238
0 0 252
0 0 249
0 0 250
0 0 240
0 0 242
0 0 245
0 0 248
0 0 242
0 0 234
0 0 246
0 0 244
0 0 245
0 0 244
0 0 238
0 0 246
0 0 241
0 0 238
0 0 246
0 0 242
0 0 241
0 0 238
0 0 241
0 0 233
0 0 241
0 0 246
0 0 238
0 0 238
0 0 236
0 0 240
0 0 236
0 0 240
0 0 237
0 0 238
137 141 244
237 243 255
239 246 255
239 246 255
239 246 255
239 246 255
239 246 255
239 246 255
239 246 255
239 246 255
239 246 255
239 246 255
239 246 255
239 246 255
239 246 255
239 246 255
239 246 255
239 246 255
239 246 255
239 246 255
239 246 255
239 246 255
239 246 255
240 246 255
240 246 255
240 246 255
240 246 255
240 246 255
240 246 255
240 246 255
240 246 255
240 246 255
240 246 255
240 246 255
240 246 255
240 246 255
240 246 255
240 246 255
240 246 255
240 246 255
240 246 255
240 246 255
240 246 255
239 246 255
240 246 255
239 246 255
239 246 255
239 246 255
239 246 255
239 246 255
239 246 255
239 246 255
239 246 255
239 246 255
239 246 255
239 246 255
239 246 255
239 246 255
239 246 255
239 246 255
239 246 255
239 246 255
239 246 255
239 246 255
239 242 252
232 153 159
224 0 0
225 0 0
215 0 0
215 0 0
223 0 0
224 0 0
224 0 0
220 0 0
222 0 0
214 0 0
216 0 0
222 0 0
215 0 0
218 0 0
225 0 0
223 0 0
224 0 0
218 0 0
226 0 0
226 0 0
218 0 0
224 0 0
222 0 0
224 0 0
228 0 0
217 0 0
227 0 0
223 0 0
221 0 0
220 0 0
228 0 0
225 0 0
224 0 0
227 0 0
222 0 0
229 0 0
227 0 0
224 0 0
222 0 0
226 0 0
231 0 0
228 0 0
223 0 0
222 0 0
229 0 0
229 0 0
227 0 0
228 0 0
225 0 0
226 0 0
227 0 0
230 0 0
224 0 0
226 0 0
228 0 0
227 0 0
229 0 0
221 0 0
231 0 0
223 0 0
220 0 0
224 0 0
231 0 0
227 0 0
224 0 0
227 0 0
219 0 0
225 0 0
228 0 0
227 0 0
227 0 0
228 0 0
228 0 0
228 0 0
229 0 0
224 0 0
229 0 0
228 0 0
226 0 0
230 0 0
228 0 0
226 0 0
229 0 0
226 0 0
224 0 0
227 0 0
224 0 0
229 0 0
224 0 0
229 0 0
226 0 0
226 0 0
226 0 0
226 0 0
229 0 0
230 0 0
227 0 0
225 0 0
227 0 0
226 0 0
227 0 0
225 0 0
230 0 0
228 0 0
224 0 0
227 0 0
229 0 0
227 0 0
230 0 0
228 0 0
228 0 0
226 0 0
225 0 0
229 0 0
224 0 0
229 0 0
230 0 0
229 0 0
228 0 0
228 0 0
228 0 0
229 0 0
227 0 0
228 0 0
228 0 0
231 0 0
231 0 0
227 0 0
231 0 0
231 0 0
225 0 0
227 0 0
225 0 0
226 0 0
230 0 0
225 0 0
225 0 0
227 0 0
226 0 0
227 0 0
228 0 0
233 0 0
227 0 0
226 0 0
228 0 0
227 0 0
228 0 0
225 0 0
228 0 0
228 0 0
230 0 0
226 0 0
227 0 0
226 0 0
225 0 0
229 0 0
225 0 0
226 0 0
225 0 0
230 0 0
228 0 0
226 0 0
228 0 0
228 0 0
224 0 0
230 0 0
231 0 0
0 0 255
0 0 255
0 0 255
0 0 255
0 0 254
0 0 255
0 0 254
0 0 255
0 0 255
0 0 255
0 0 255
0 0 255
0 0 252
0 0 255
0 0 253
0 0 255
0 0 255
0 0 255
0 0 254
0 0 255
0 0 255
0 0 255
0 0 255
0 0 255
0 0 255
0 0 255
0 0 255
0 0 255
0 0 254
0 0 255
0 0 255
0 0 255
0 0 253
0 0 254
0 0 253
0 0 254
0 0 255
0 0 255
0 0 252
0 0 253
0 0 255
0 0 255
0 0 255
0 0 255
0 0 253
0 0 255
0 0 253
0 0 255
0 0 254
0 0 255
0 0 254
0 0 254
0 0 253
0 0 254
0 0 254
0 0 253
0 0 255
0 0 255
0 0 254
0 0 255
0 0 253
0 0 250
0 0 252
0 0 250
0 0 250
0 0 254
0 0 254
0 0 252
0 0 255
0 0 255
0 0 253
0 0 253
0 0 254
0 0 255
0 0 255
0 0 252
0 0 253
0 0 252
0 0 253
0 0 249
0 0 255
0 0 254
0 0 255
0 0 254
0 0 254
0 0 252
0 0 253
0 0 249
0 0 253
0 0 250
0 0 252
0 0 249
0 0 249
0 0 248
0 0 253
0 0 250
0 0 253
0 0 250
0 0 253
0 0 255
0 0 252
0 0 253
0 0 253
0 0 252
0 0 249
0 0 252
0 0 249
0 0 253
0 0 250
0 0 250
0 0 248
0 0 248
0 0 250
0 0 253
0 0 250
0 0 249
0 0 249
0 0 246
0 0 253
0 0 248
0 0 253
0 0 254
0 0 248
0 0 249
0 0 246
0 0 252
0 0 242
0 0 250
0 0 242
0 0 248
0 0 250
0 0 240
0 0 248
0 0 248
0 0 250
0 0 250
0 0 240
0 0 248
0 0 245
0 0 245
0 0 242
0 0 240
0 0 245
0 0 252
0 0 246
0 0 245
0 0 237
0 0 238
0 0 242
0 0 244
0 0 249
0 0 236
0 0 241
0 0 237
0 0 249
0 0 241
0 0 234
0 0 236
0 0 231
0 0 231
0 0 238
0 0 240
0 0 242
0 0 244
0 0 248
0 0 238
164 168 250
239 246 255
239 246 255
239 246 255
239 246 255
239 246 255
239 246 255
239 246 255
239 246 255
239 246 255
239 246 255
239 246 255
240 246 255
240 246 255
240 246 255
240 246 255
240 246 255
240 246 255
240 246 255
240 246 255
240 246 255
240 246 255
240 246 255
240 246 255
240 246 255
240 246 255
240 246 255
240 246 255
240 246 255
240 246 255
240 246 255
240 246 255
240 246 255
240 246 255
240 246 255
240 246 255
240 246 255
240 246 255
240 246 255
240 246 255
240 246 255
240 246 255
240 246 255
240 246 255
240 246 255
240 246 255
240 246 255
240 246 255
240 246 255
240 246 255
240 246 255
240 246 255
240 246 255
240 246 255
240 246 255
240 246 255
239 246 255
239 246 255
239 246 255
239 246 255
239 246 255
239 246 255
239 246 255
239 246 255
239 246 255
239 246 255
239 246 255
235 163 169
227 0 0
225 0 0
229 0 0
225 0 0
221 0 0
219 0 0
225 0 0
224 0 0
220 0 0
218 0 0
225 0 0
217 0 0
230 0 0
218 0 0
224 0 0
224 0 0
226 0 0
225 0 0
221 0 0
225 0 0
222 0 0
228 0 0
224 0 0
225 0 0
230 0 0
229 0 0
219 0 0
228 0 0
220 0 0
227 0 0
226 0 0
227 0 0
220 0 0
232 0 0
218 0 0
219 0 0
224 0 0
229 0 0
220 0 0
226 0 0
218 0 0
224 0 0
217 0 0
231 0 0
224 0 0
224 0 0
226 0 0
225 0 0
224 0 0
227 0 0
230 0 0
223 0 0
225 0 0
228 0 0
230 0 0
227 0 0
230 0 0
224 0 0
227 0 0
222 0 0
228 0 0
226 0 0
224 0 0
224 0 0
221 0 0
227 0 0
230 0 0
225 0 0
230 0 0
229 0 0
227 0 0
225 0 0
225 0 0
227 0 0
229 0 0
231 0 0
230 0 0
228 0 0
230 0 0
229 0 0
230 0 0
224 0 0
227 0 0
227 0 0
227 0 0
223 0 0
231 0 0
230 0 0
231 0 0
231 0 0
231 0 0
228 0 0
229 0 0
231 0 0
229 0 0
227 0 0
229 0 0
230 0 0
227 0 0
227 0 0
229 0 0
231 0 0
226 0 0
233 0 0
228 0 0
229 0 0
228 0 0
230 0 0
229 0 0
226 0 0
226 0 0
227 0 0
229 0 0
228 0 0
226 0 0
227 0 0
226 0 0
228 0 0
231 0 0
229 0 0
226 0 0
225 0 0
227 0 0
228 0 0
228 0 0
229 0 0
226 0 0
229 0 0
221 0 0
229 0 0
228 0 0
228 0 0
229 0 0
226 0 0
225 0 0
227 0 0
230 0 0
225 0 0
226 0 0
228 0 0
230 0 0
230 0 0
226 0 0
227 0 0
231 0 0
229 0 0
227 0 0
228 0 0
230 0 0
228 0 0
225 0 0
227 0 0
231 0 0
230 0 0
229 0 0
229 0 0
231 0 0
227 0 0
229 0 0
233 0 0
226 0 0
228 0 0
229 0 0
230 0 0
228 0 0
231 0 0
0 0 255
0 0 255
0 0 254
0 0 255
0 0 255
0 0 255
0 0 255
0 0 254
0 0 255
0 0 254
0 0 255
0 0 253
0 0 255
0 0 255
0 0 255
0 0 254
0 0 254
0 0 255
0 0 255
0 0 255
0 0 255
0 0 255
0 0 255
0 0 254
0 0 254
0 0 252
0 0 255
0 0 255
0 0 254
0 0 253
0 0 255
0 0 255
0 0 253
0 0 255
0 0 255
0 0 253
0 0 255
0 0 252
0 0 255
0 0 255
0 0 253
0 0 253
0 0 254
0 0 253
0 0 254
0 0 254
0 0 253
0 0 253
0 0 253
0 0 254
0 0 254
0 0 252
0 0 252
0 0 254
0 0 254
0 0 253
0 0 255
0 0 249
0 0 252
0 0 255
0 0 253
0 0 254
0 0 254
0 0 253
0 0 252
0 0 254
0 0 255
0 0 255
0 0 255
0 0 255
0 0 252
0 0 254
0 0 249
0 0 255
0 0 252
0 0 252
0 0 254
0 0 253
0 0 250
0 0 254
0 0 250
0 0 250
0 0 252
0 0 253
0 0 255
0 0 249
0 0 252
0 0 254
0 0 253
0 0 250
0 0 250
0 0 248
0 0 253
0 0 253
0 0 253
0 0 248
0 0 253
0 0 255
0 0 248
0 0 248
0 0 253
0 0 249
0 0 254
0 0 249
0 0 250
0 0 248
0 0 245
0 0 250
0 0 245
0 0 252
0 0 246
0 0 249
0 0 242
0 0 244
0 0 246
0 0 249
0 0 250
0 0 248
0 0 249
0 0 252
0 0 242
0 0 249
0 0 252
0 0 245
0 0 244
0 0 246
0 0 241
0 0 249
0 0 245
0 0 250
0 0 241
0 0 250
0 0 248
0 0 245
0 0 248
0 0 244
0 0 250
0 0 244
0 0 249
0 0 250
0 0 249
0 0 238
0 0 245
0 0 237
0 0 246
0 0 244
0 0 237
0 0 248
0 0 237
0 0 241
0 0 246
0 0 245
0 0 246
0 0 237
0 0 241
0 0 238
0 0 233
0 0 240
0 0 241
0 0 238
0 0 240
0 0 240
0 0 237
0 0 237
0 0 244
171 176 253
239 246 255
239 246 255
239 246 255
239 246 255
240 246 255
240 246 255
240 246 255
240 246 255
240 246 255
240 246 255
240 246 255
240 246 255
240 246 255
240 246 255
240 246 255
240 246 255
240 246 255
240 246 255
240 246 255
240 246 255
240 246 255
240 246 255
240 246 255
240 246 255
240 246 255
240 246 255
240 246 255
240 246 255
240 246 255
240 246 255
240 246 255
240 246 255
240 246 255
240 246 255
240 246 255
240 246 255
240 246 255
240 246 255
240 246 255
240 246 255
240 246 255
240 246 255
240 246 255
240 246 255
240 246 255
240 246 255
240 246 255
240 246 255
240 246 255
240 246 255
240 246 255
240 246 255
240 246 255
240 246 255
240 246 255
240 246 255
240 246 255
240 246 255
240 246 255
240 246 255
240 246 255
240 246 255
240 246 255
239 246 255
239 246 255
239 246 255
239 246 255
239 246 255
235 198 206
218 0 0
229 0 0
229 0 0
223 0 0
224 0 0
227 0 0
226 0 0
218 0 0
225 0 0
223 0 0
225 0 0
229 0 0
222 0 0
227 0 0
213 0 0
225 0 0
229 0 0
224 0 0
219 0 0
224 0 0
226 0 0
228 0 0
223 0 0
228 0 0
219 0 0
224 0 0
227 0 0
223 0 0
223 0 0
227 0 0
220 0 0
223 0 0
230 0 0
221 0 0
221 0 0
231 0 0
222 0 0
229 0 0
222 0 0
224 0 0
224 0 0
226 0 0
225 0 0
229 0 0
223 0 0
229 0 0
223 0 0
228 0 0
221 0 0
223 0 0
225 0 0
229 0 0
229 0 0
227 0 0
231 0 0
227 0 0
229 0 0
231 0 0
228 0 0
228 0 0
223 0 0
226 0 0
228 0 0
226 0 0
224 0 0
228 0 0
225 0 0
225 0 0
227 0 0
224 0 0
227 0 0
228 0 0
228 0 0
230 0 0
230 0 0
230 0 0
229 0 0
230 0 0
226 0 0
229 0 0
229 0 0
230 0 0
225 0 0
227 0 0
227 0 0
226 0 0
226 0 0
227 0 0
227 0 0
227 0 0
226 0 0
227 0 0
229 0 0
229 0 0
229 0 0
226 0 0
229 0 0
230 0 0
227 0 0
225 0 0
227 0 0
230 0 0
227 0 0
229 0 0
225 0 0
225 0 0
227 0 0
233 0 0
227 0 0
228 0 0
228 0 0
232 0 0
228 0 0
229 0 0
228 0 0
230 0 0
229 0 0
230 0 0
226 0 0
229 0 0
225 0 0
227 0 0
228 0 0
227 0 0
230 0 0
230 0 0
223 0 0
226 0 0
230 0 0
229 0 0
228 0 0
229 0 0
228 0 0
227 0 0
228 0 0
231 0 0
228 0 0
225 0 0
226 0 0
230 0 0
227 0 0
229 0 0
231 0 0
231 0 0
230 0 0
223 0 0
230 0 0
230 0 0
231 0 0
229 0 0
228 0 0
226 0 0
226 0 0
231 0 0
233 0 0
230 0 0
229 0 0
230 0 0
226 0 0
230 0 0
227 0 0
227 0 0
226 0 0
229 0 0
227 0 0
0 0 255
0 0 255
0 0 254
0 0 255
0 0 255
0 0 255
0 0 255
0 0 255
0 0 253
0 0 255
0 0 255
0 0 255
0 0 255
0 0 255
0 0 255
0 0 255
0 0 255
0 0 254
0 0 255
0 0 255
0 0 254
0 0 255
0 0 255
0 0 255
0 0 255
0 0 255
0 0 254
0 0 255
0 0 253
0 0 254
0 0 255
0 0 254
0 0 253
0 0 254
0 0 254
0 0 254
0 0 255
0 0 255
0 0 252
0 0 254
0 0 255
0 0 253
0 0 255
0 0 254
0 0 255
0 0 253
0 0 254
0 0 254
0 0 254
0 0 254
0 0 253
0 0 255
0 0 255
0 0 255
0 0 254
0 0 254
0 0 254
0 0 250
0 0 254
0 0 255
0 0 254
0 0 250
0 0 254
0 0 252
0 0 254
0 0 254
0 0 255
0 0 253
0 0 254
0 0 254
0 0 255
0 0 254
0 0 250
0 0 250
0 0 253
0 0 254
0 0 253
0 0 253
0 0 253
0 0 253
0 0 249
0 0 253
0 0 254
0 0 252
0 0 252
0 0 253
0 0 254
0 0 254
0 0 253
0 0 253
0 0 252
0 0 249
0 0 254
0 0 250
0 0 252
0 0 252
0 0 249
0 0 250
0 0 254
0 0 249
0 0 253
0 0 252
0 0 250
0 0 252
0 0 252
0 0 253
0 0 252
0 0 250
0 0 253
0 0 249
0 0 250
0 0 249
0 0 250
0 0 254
0 0 253
0 0 248
0 0 249
0 0 248
0 0 246
0 0 249
0 0 252
0 0 248
0 0 249
0 0 246
0 0 248
0 0 246
0 0 252
0 0 250
0 0 248
0 0 246
0 0 241
0 0 245
0 0 250
0 0 245
0 0 244
0 0 246
0 0 248
0 0 249
0 0 241
0 0 242
0 0 241
0 0 246
0 0 246
0 0 245
0 0 246
0 0 244
0 0 241
0 0 242
0 0 245
0 0 246
0 0 241
0 0 244
0 0 236
0 0 241
0 0 241
0 0 249
0 0 240
0 0 246
0 0 241
0 0 248
0 0 236
0 0 240
0 0 244
33 34 237
181 186 249
240 246 255
240 246 255
240 246 255
240 246 255
240 246 255
240 246 255
240 246 255
240 246 255
240 246 255
240 246 255
240 246 255
240 246 255
240 246 255
240 246 255
240 246 255
240 246 255
240 246 255
240 246 255
240 246 255
240 246 255
240 246 255
240 246 255
240 246 255
240 246 255
240 246 255
240 246 255
240 246 255
240 246 255
240 246 255
240 246 255
240 246 255
240 246 255
240 246 255
240 246 255
240 246 255
240 246 255
240 246 255
240 246 255
240 246 255
240 246 255
240 246 255
240 246 255
240 246 255
240 246 255
240 246 255
240 246 255
240 246 255
240 246 255
240 246 255
240 246 255
240 246 255
240 246 255
240 246 255
240 246 255
240 246 255
240 246 255
240 246 255
240 246 255
240 246 255
240 246 255
240 246 255
240 246 255
240 246 255
240 246 255
240 246 255
240 246 255
240 246 255
240 246 255
240 246 255
240 246 255
239 209 217
221 34 36
220 0 0
219 0 0
226 0 0
214 0 0
223 0 0
221 0 0
231 0 0
225 0 0
223 0 0
222 0 0
230 0 0
225 0 0
225 0 0
223 0 0
224 0 0
216 0 0
221 0 0
222 0 0
217 0 0
226 0 0
222 0 0
227 0 0
222 0 0
220 0 0
228 0 0
219 0 0
230 0 0
227 0 0
228 0 0
223 0 0
225 0 0
221 0 0
228 0 0
228 0 0
225 0 0
224 0 0
227 0 0
229 0 0
219 0 0
221 0 0
226 0 0
221 0 0
222 0 0
225 0 0
225 0 0
227 0 0
225 0 0
224 0 0
224 0 0
227 0 0
227 0 0
225 0 0
220 0 0
223 0 0
220 0 0
230 0 0
226 0 0
224 0 0
231 0 0
226 0 0
224 0 0
228 0 0
224 0 0
228 0 0
226 0 0
230 0 0
231 0 0
228 0 0
229 0 0
220 0 0
228 0 0
226 0 0
222 0 0
226 0 0
228 0 0
228 0 0
229 0 0
229 0 0
226 0 0
227 0 0
225 0 0
227 0 0
223 0 0
220 0 0
227 0 0
228 0 0
230 0 0
229 0 0
227 0 0
229 0 0
226 0 0
227 0 0
225 0 0
225 0 0
228 0 0
225 0 0
228 0 0
227 0 0
232 0 0
228 0 0
229 0 0
229 0 0
227 0 0
229 0 0
227 0 0
226 0 0
229 0 0
231 0 0
226 0 0
229 0 0
230 0 0
230 0 0
229 0 0
228 0 0
224 0 0
227 0 0
227 0 0
228 0 0
227 0 0
227 0 0
231 0 0
229 0 0
228 0 0
229 0 0
227 0 0
226 0 0
224 0 0
231 0 0
230 0 0
224 0 0
226 0 0
227 0 0
225 0 0
231 0 0
229 0 0
231 0 0
229 0 0
227 0 0
228 0 0
229 0 0
231 0 0
229 0 0
227 0 0
228 0 0
231 0 0
228 0 0
227 0 0
227 0 0
229 0 0
229 0 0
227 0 0
227 0 0
227 0 0
229 0 0
230 0 0
230 0 0
229 0 0
231 0 0
228 0 0
227 0 0
230 0 0
230 0 0
230 0 0
0 0 255
0 0 255
0 0 254
0 0 254
0 0 255
0 0 255
0 0 255
0 0 254
0 0 255
0 0 255
0 0 255
0 0 254
0 0 255
0 0 255
0 0 254
0 0 255
0 0 255
0 0 254
0 0 255
0 0 254
0 0 255
0 0 254
0 0 255
0 0 254
0 0 255
0 0 253
0 0 255
0 0 254
0 0 255
0 0 255
0 0 253
0 0 254
0 0 254
0 0 255
0 0 254
0 0 254
0 0 253
0 0 253
0 0 253
0 0 255
0 0 254
0 0 255
0 0 254
0 0 254
0 0 253
0 0 254
0 0 254
0 0 252
0 0 252
0 0 254
0 0 255
0 0 254
0 0 249
0 0 254
0 0 253
0 0 254
0 0 255
0 0 253
0 0 253
0 0 254
0 0 252
0 0 253
0 0 253
0 0 255
0 0 254
0 0 254
0 0 249
0 0 255
0 0 254
0 0 255
0 0 253
0 0 252
0 0 252
0 0 252
0 0 254
0 0 250
0 0 253
0 0 250
0 0 252
0 0 252
0 0 252
0 0 253
0 0 250
0 0 253
0 0 249
0 0 255
0 0 255
0 0 254
0 0 253
0 0 252
0 0 252
0 0 245
0 0 252
0 0 245
0 0 249
0 0 250
0 0 253
0 0 253
0 0 250
0 0 252
0 0 252
0 0 254
0 0 252
0 0 250
0 0 253
0 0 254
0 0 246
0 0 252
0 0 242
0 0 252
0 0 246
0 0 252
0 0 246
0 0 250
0 0 252
0 0 245
0 0 248
0 0 248
0 0 253
0 0 249
0 0 255
0 0 250
0 0 250
0 0 245
0 0 246
0 0 248
0 0 250
0 0 249
0 0 248
0 0 250
0 0 245
0 0 250
0 0 245
0 0 249
0 0 248
0 0 249
0 0 238
0 0 246
0 0 242
0 0 252
0 0 244
0 0 246
0 0 250
0 0 244
0 0 241
0 0 242
0 0 238
0 0 246
0 0 248
0 0 241
0 0 240
0 0 245
0 0 245
0 0 249
0 0 244
0 0 241
0 0 233
0 0 237
0 0 242
0 0 246
0 0 238
0 0 238
86 88 237
210 216 254
240 246 255
240 246 255
240 246 255
240 246 255
240 246 255
240 246 255
240 246 255
240 246 255
240 246 255
240 246 255
240 246 255
240 246 255
240 246 255
240 246 255
240 246 255
240 246 255
240 246 255
240 246 255
240 246 255
240 246 255
240 246 255
240 246 255
240 246 255
240 246 255
240 246 255
240 246 255
240 246 255
240 246 255
240 246 255
240 246 255
240 246 255
240 246 255
240 246 255
240 246 255
240 246 255
240 246 255
240 246 255
240 246 255
240 246 255
240 246 255
240 246 255
240 246 255
240 246 255
240 246 255
240 246 255
240 246 255
240 246 255
240 246 255
240 246 255
240 246 255
240 246 255
240 246 255
240 246 255
240 246 255
240 246 255
240 246 255
240 246 255
240 246 255
240 246 255
240 246 255
240 246 255
240 246 255
240 246 255
240 246 255
240 246 255
240 246 255
240 246 255
240 246 255
240 246 255
240 246 255
240 246 255
240 246 255
237 223 231
230 69 72
233 0 0
224 0 0
237 0 0
226 0 0
228 0 0
222 0 0
224 0 0
225 0 0
225 0 0
217 0 0
224 0 0
230 0 0
221 0 0
227 0 0
222 0 0
225 0 0
219 0 0
229 0 0
223 0 0
226 0 0
229 0 0
224 0 0
225 0 0
220 0 0
228 0 0
229 0 0
228 0 0
229 0 0
227 0 0
221 0 0
228 0 0
225 0 0
225 0 0
225 0 0
224 0 0
222 0 0
225 0 0
223 0 0
221 0 0
232 0 0
225 0 0
226 0 0
226 0 0
223 0 0
226 0 0
225 0 0
229 0 0
229 0 0
231 0 0
232 0 0
227 0 0
225 0 0
227 0 0
227 0 0
226 0 0
233 0 0
224 0 0
226 0 0
227 0 0
229 0 0
232 0 0
229 0 0
224 0 0
225 0 0
228 0 0
227 0 0
226 0 0
230 0 0
230 0 0
226 0 0
228 0 0
228 0 0
229 0 0
226 0 0
227 0 0
227 0 0
225 0 0
230 0 0
229 0 0
227 0 0
230 0 0
227 0 0
231 0 0
222 0 0
229 0 0
230 0 0
230 0 0
222 0 0
223 0 0
226 0 0
229 0 0
229 0 0
230 0 0
228 0 0
229 0 0
226 0 0
226 0 0
228 0 0
227 0 0
228 0 0
224 0 0
225 0 0
227 0 0
227 0 0
229 0 0
230 0 0
228 0 0
230 0 0
231 0 0
226 0 0
229 0 0
226 0 0
230 0 0
228 0 0
229 0 0
225 0 0
230 0 0
230 0 0
228 0 0
231 0 0
226 0 0
229 0 0
228 0 0
226 0 0
230 0 0
230 0 0
228 0 0
228 0 0
227 0 0
230 0 0
227 0 0
228 0 0
230 0 0
228 0 0
227 0 0
231 0 0
229 0 0
229 0 0
225 0 0
229 0 0
230 0 0
228 0 0
230 0 0
228 0 0
229 0 0
231 0 0
230 0 0
228 0 0
231 0 0
228 0 0
229 0 0
229 0 0
229 0 0
228 0 0
230 0 0
230 0 0
228 0 0
229 0 0
231 0 0
228 0 0
229 0 0
228 0 0
0 0 255
0 0 255
0 0 254
0 0 255
0 0 255
0 0 254
0 0 255
0 0 255
0 0 255
0 0 254
0 0 254
0 0 255
0 0 255
0 0 255
0 0 255
0 0 255
0 0 255
0 0 255
0 0 254
0 0 255
0 0 255
0 0 255
0 0 253
0 0 255
0 0 255
0 0 254
0 0 253
0 0 255
0 0 255
0 0 255
0 0 253
0 0 254
0 0 255
0 0 255
0 0 254
0 0 255
0 0 254
0 0 255
0 0 254
0 0 254
0 0 255
0 0 255
0 0 254
0 0 255
0 0 253
0 0 254
0 0 250
0 0 255
0 0 255
0 0 254
0 0 253
0 0 253
0 0 253
0 0 254
0 0 255
0 0 254
0 0 255
0 0 254
0 0 254
0 0 252
0 0 252
0 0 254
0 0 253
0 0 255
0 0 250
0 0 253
0 0 254
0 0 252
0 0 255
0 0 253
0 0 253
0 0 254
0 0 253
0 0 254
0 0 254
0 0 254
0 0 253
0 0 254
0 0 252
0 0 254
0 0 255
0 0 253
0 0 249
0 0 254
0 0 253
0 0 250
0 0 253
0 0 255
0 0 250
0 0 252
0 0 253
0 0 252
0 0 253
0 0 254
0 0 250
0 0 248
0 0 253
0 0 253
0 0 249
0 0 249
0 0 252
0 0 253
0 0 252
0 0 250
0 0 252
0 0 249
0 0 253
0 0 250
0 0 246
0 0 253
0 0 252
0 0 252
0 0 254
0 0 250
0 0 253
0 0 252
0 0 253
0 0 248
0 0 254
0 0 246
0 0 254
0 0 252
0 0 249
0 0 246
0 0 249
0 0 246
0 0 245
0 0 252
0 0 246
0 0 254
0 0 245
0 0 249
0 0 249
0 0 245
0 0 246
0 0 246
0 0 249
0 0 240
0 0 245
0 0 240
0 0 241
0 0 248
0 0 248
0 0 244
0 0 248
0 0 245
0 0 248
0 0 248
0 0 241
0 0 238
0 0 240
0 0 245
0 0 237
0 0 245
0 0 240
0 0 242
0 0 245
0 0 237
0 0 245
0 0 236
0 0 241
112 115 248
225 231 253
240 246 255
240 246 255
240 246 255
240 246 255
240 246 255
240 246 255
240 246 255
240 246 255
240 246 255
240 246 255
240 246 255
240 246 255
240 246 255
240 246 255
240 246 255
240 246 255
240 246 255
240 246 255
240 247 255
240 247 255
240 247 255
240 247 255
240 247 255
240 247 255
240 247 255
240 247 255
240 247 255
240 247 255
240 247 255
240 247 255
240 247 255
240 247 255
240 247 255
240 247 255
240 247 255
240 247 255
240 247 255
240 247 255
240 247 255
240 247 255
240 247 255
240 247 255
240 247 255
240 247 255
240 247 255
240 247 255
240 247 255
240 247 255
240 247 255
240 247 255
240 247 255
240 247 255
240 247 255
240 247 255
240 247 255
240 246 255
240 246 255
240 246 255
240 246 255
240 246 255
240 246 255
240 246 255
240 246 255
240 246 255
240 246 255
240 246 255
240 246 255
240 246 255
240 246 255
240 246 255
240 246 255
240 246 255
240 246 255
240 246 255
237 228 237
233 113 117
227 0 0
232 0 0
226 0 0
222 0 0
229 0 0
226 0 0
224 0 0
227 0 0
229 0 0
220 0 0
226 0 0
219 0 0
225 0 0
231 0 0
222 0 0
230 0 0
227 0 0
227 0 0
223 0 0
231 0 0
228 0 0
223 0 0
231 0 0
230 0 0
220 0 0
224 0 0
224 0 0
221 0 0
226 0 0
224 0 0
223 0 0
226 0 0
222 0 0
226 0 0
230 0 0
227 0 0
225 0 0
224 0 0
227 0 0
225 0 0
223 0 0
227 0 0
229 0 0
226 0 0
223 0 0
226 0 0
224 0 0
228 0 0
227 0 0
232 0 0
222 0 0
229 0 0
228 0 0
220 0 0
228 0 0
228 0 0
229 0 0
226 0 0
228 0 0
227 0 0
228 0 0
230 0 0
228 0 0
227 0 0
224 0 0
228 0 0
225 0 0
224 0 0
229 0 0
225 0 0
228 0 0
228 0 0
228 0 0
229 0 0
226 0 0
226 0 0
229 0 0
231 0 0
224 0 0
230 0 0
231 0 0
226 0 0
229 0 0
223 0 0
228 0 0
226 0 0
230 0 0
229 0 0
223 0 0
226 0 0
229 0 0
227 0 0
227 0 0
223 0 0
228 0 0
226 0 0
230 0 0
231 0 0
228 0 0
228 0 0
230 0 0
232 0 0
233 0 0
228 0 0
231 0 0
228 0 0
227 0 0
230 0 0
229 0 0
229 0 0
228 0 0
230 0 0
229 0 0
227 0 0
228 0 0
228 0 0
231 0 0
226 0 0
227 0 0
231 0 0
226 0 0
230 0 0
228 0 0
231 0 0
226 0 0
229 0 0
226 0 0
227 0 0
229 0 0
231 0 0
226 0 0
227 0 0
230 0 0
230 0 0
229 0 0
229 0 0
230 0 0
226 0 0
228 0 0
229 0 0
229 0 0
229 0 0
224 0 0
229 0 0
230 0 0
228 0 0
230 0 0
229 0 0
229 0 0
229 0 0
226 0 0
229 0 0
229 0 0
227 0 0
231 0 0
227 0 0
228 0 0
228 0 0
230 0 0
224 0 0
230 0 0
0 0 255
0 0 255
0 0 255
0 0 255
0 0 255
0 0 254
0 0 255
0 0 255
0 0 254
0 0 255
0 0 255
0 0 254
0 0 254
0 0 255
0 0 255
0 0 255
0 0 254
0 0 254
0 0 252
0 0 255
0 0 255
0 0 253
0 0 255
0 0 255
0 0 255
0 0 255
0 0 254
0 0 255
0 0 254
0 0 255
0 0 254
0 0 255
0 0 254
0 0 255
0 0 253
0 0 254
0 0 253
0 0 254
0 0 254
0 0 255
0 0 254
0 0 255
0 0 254
0 0 253
0 0 254
0 0 254
0 0 255
0 0 254
0 0 254
0 0 250
0 0 255
0 0 255
0 0 255
0 0 254
0 0 254
0 0 255
0 0 253
0 0 254
0 0 253
0 0 255
0 0 252
0 0 254
0 0 253
0 0 252
0 0 248
0 0 255
0 0 254
0 0 254
0 0 253
0 0 255
0 0 254
0 0 255
0 0 254
0 0 253
0 0 253
0 0 249
0 0 249
0 0 252
0 0 253
0 0 252
0 0 250
0 0 255
0 0 255
0 0 250
0 0 252
0 0 255
0 0 254
0 0 253
0 0 250
0 0 252
0 0 253
0 0 250
0 0 253
0 0 253
0 0 252
0 0 252
0 0 252
0 0 252
0 0 250
0 0 252
0 0 245
0 0 254
0 0 246
0 0 252
0 0 249
0 0 252
0 0 253
0 0 249
0 0 249
0 0 252
0 0 254
0 0 253
0 0 245
0 0 245
0 0 248
0 0 246
0 0 252
0 0 255
0 0 246
0 0 252
0 0 249
0 0 244
0 0 250
0 0 244
0 0 250
0 0 250
0 0 250
0 0 250
0 0 245
0 0 245
0 0 253
0 0 242
0 0 250
0 0 248
0 0 240
0 0 248
0 0 250
0 0 248
0 0 245
0 0 248
0 0 242
0 0 250
0 0 249
0 0 244
0 0 244
0 0 245
0 0 245
0 0 244
0 0 244
0 0 224
0 0 253
0 0 236
0 0 236
0 0 241
0 0 241
0 0 244
0 0 242
0 0 246
0 0 242
0 0 245
127 130 242
230 236 255
240 246 255
240 246 255
240 246 255
240 246 255
240 246 255
240 246 255
240 246 255
240 246 255
240 246 255
240 246 255
240 246 255
240 246 255
240 247 255
240 247 255
240 247 255
240 247 255
240 247 255
240 247 255
240 247 255
240 247 255
240 247 255
241 247 255
241 247 255
241 247 255
241 247 255
241 247 255
241 247 255
241 247 255
241 247 255
241 247 255
241 247 255
241 247 255
241 247 255
241 247 255
241 247 255
241 247 255
241 247 255
241 247 255
241 247 255
241 247 255
241 247 255
241 247 255
241 247 255
241 247 255
241 247 255
241 247 255
241 247 255
241 247 255
241 247 255
241 247 255
241 247 255
241 247 255
241 247 255
241 247 255
241 247 255
240 247 255
240 247 255
240 247 255
240 247 255
240 247 255
240 247 255
240 247 255
240 247 255
240 247 255
240 246 255
240 246 255
240 246 255
240 246 255
240 246 255
240 246 255
240 246 255
240 246 255
240 246 255
240 246 255
240 246 255
240 246 255
240 240 249
234 132 137
222 0 0
232 0 0
224 0 0
227 0 0
234 0 0
225 0 0
225 0 0
227 0 0
228 0 0
223 0 0
224 0 0
223 0 0
232 0 0
226 0 0
227 0 0
224 0 0
228 0 0
225 0 0
226 0 0
229 0 0
232 0 0
229 0 0
230 0 0
224 0 0
227 0 0
228 0 0
227 0 0
225 0 0
227 0 0
223 0 0
225 0 0
226 0 0
225 0 0
226 0 0
226 0 0
230 0 0
226 0 0
227 0 0
224 0 0
224 0 0
228 0 0
224 0 0
224 0 0
222 0 0
225 0 0
225 0 0
224 0 0
227 0 0
227 0 0
225 0 0
233 0 0
230 0 0
225 0 0
229 0 0
228 0 0
228 0 0
223 0 0
226 0 0
227 0 0
227 0 0
228 0 0
227 0 0
228 0 0
230 0 0
226 0 0
226 0 0
231 0 0
223 0 0
228 0 0
228 0 0
230 0 0
230 0 0
226 0 0
226 0 0
231 0 0
227 0 0
228 0 0
223 0 0
225 0 0
226 0 0
225 0 0
228 0 0
228 0 0
230 0 0
230 0 0
227 0 0
234 0 0
229 0 0
226 0 0
229 0 0
230 0 0
227 0 0
226 0 0
229 0 0
224 0 0
230 0 0
231 0 0
229 0 0
228 0 0
227 0 0
230 0 0
226 0 0
226 0 0
231 0 0
231 0 0
228 0 0
228 0 0
226 0 0
227 0 0
224 0 0
227 0 0
231 0 0
232 0 0
226 0 0
233 0 0
226 0 0
228 0 0
228 0 0
231 0 0
230 0 0
228 0 0
231 0 0
228 0 0
232 0 0
231 0 0
226 0 0
232 0 0
227 0 0
227 0 0
231 0 0
231 0 0
228 0 0
228 0 0
231 0 0
227 0 0
231 0 0
225 0 0
226 0 0
229 0 0
226 0 0
232 0 0
229 0 0
230 0 0
229 0 0
231 0 0
231 0 0
226 0 0
226 0 0
233 0 0
226 0 0
228 0 0
229 0 0
229 0 0
231 0 0
231 0 0
230 0 0
227 0 0
228 0 0
227 0 0
229 0 0
0 0 254
0 0 255
0 0 255
0 0 255
0 0 254
0 0 255
0 0 255
0 0 255
0 0 255
0 0 255
0 0 255
0 0 254
0 0 255
0 0 255
0 0 255
0 0 253
0 0 254
0 0 255
0 0 255
0 0 253
0 0 255
0 0 255
0 0 253
0 0 255
0 0 254
0 0 255
0 0 255
0 0 253
0 0 255
0 0 255
0 0 254
0 0 254
0 0 254
0 0 255
0 0 254
0 0 254
0 0 254
0 0 255
0 0 255
0 0 254
0 0 255
0 0 254
0 0 250
0 0 253
0 0 253
0 0 254
0 0 255
0 0 254
0 0 255
0 0 255
0 0 253
0 0 254
0 0 253
0 0 253
0 0 255
0 0 255
0 0 255
0 0 253
0 0 255
0 0 255
0 0 253
0 0 253
0 0 255
0 0 255
0 0 254
0 0 253
0 0 254
0 0 254
0 0 253
0 0 254
0 0 255
0 0 254
0 0 254
0 0 253
0 0 254
0 0 254
0 0 253
0 0 253
0 0 254
0 0 254
0 0 254
0 0 250
0 0 249
0 0 254
0 0 254
0 0 252
0 0 254
0 0 252
0 0 249
0 0 252
0 0 254
0 0 249
0 0 254
0 0 249
0 0 254
0 0 254
0 0 250
0 0 253
0 0 250
0 0 250
0 0 250
0 0 252
0 0 249
0 0 254
0 0 253
0 0 253
0 0 253
0 0 246
0 0 253
0 0 250
0 0 249
0 0 252
0 0 246
0 0 252
0 0 252
0 0 253
0 0 249
0 0 252
0 0 249
0 0 254
0 0 250
0 0 252
0 0 245
0 0 250
0 0 248
0 0 248
0 0 250
0 0 248
0 0 248
0 0 252
0 0 249
0 0 245
0 0 252
0 0 244
0 0 245
0 0 249
0 0 249
0 0 249
0 0 246
0 0 248
0 0 249
0 0 244
0 0 245
0 0 252
0 0 249
0 0 248
0 0 237
0 0 246
0 0 245
0 0 244
0 0 238
0 0 250
0 0 244
0 0 238
0 0 240
0 0 252
0 0 246
0 0 245
34 34 245
175 179 249
240 246 255
240 246 255
240 246 255
240 246 255
240 246 255
240 246 255
240 246 255
240 246 255
240 247 255
240 247 255
240 247 255
240 247 255
240 247 255
240 247 255
241 247 255
241 247 255
241 247 255
241 247 255
241 247 255
241 247 255
241 247 255
241 247 255
241 247 255
241 247 255
241 247 255
241 247 255
241 247 255
241 247 255
241 247 255
241 247 255
241 247 255
241 247 255
241 247 255
241 247 255
241 247 255
241 247 255
241 247 255
241 247 255
241 247 255
241 247 255
241 247 255
241 247 255
241 247 255
241 247 255
241 247 255
241 247 255
241 247 255
241 247 255
241 247 255
241 247 255
241 247 255
241 247 255
241 247 255
241 247 255
241 247 255
241 247 255
241 247 255
241 247 255
241 247 255
241 247 255
241 247 255
241 247 255
241 247 255
241 247 255
241 247 255
241 247 255
240 247 255
240 247 255
240 247 255
240 247 255
240 247 255
240 247 255
240 246 255
240 246 255
240 246 255
240 246 255
240 246 255
240 246 255
240 246 255
240 246 255
235 179 186
226 0 0
230 0 0
231 0 0
226 0 0
229 0 0
230 0 0
225 0 0
227 0 0
222 0 0
232 0 0
226 0 0
228 0 0
228 0 0
226 0 0
224 0 0
221 0 0
226 0 0
228 0 0
227 0 0
224 0 0
230 0 0
230 0 0
226 0 0
230 0 0
223 0 0
225 0 0
225 0 0
226 0 0
227 0 0
225 0 0
226 0 0
227 0 0
226 0 0
224 0 0
229 0 0
229 0 0
229 0 0
232 0 0
228 0 0
227 0 0
223 0 0
226 0 0
229 0 0
230 0 0
230 0 0
224 0 0
223 0 0
225 0 0
230 0 0
228 0 0
226 0 0
227 0 0
228 0 0
227 0 0
224 0 0
227 0 0
230 0 0
225 0 0
223 0 0
228 0 0
228 0 0
230 0 0
227 0 0
230 0 0
226 0 0
228 0 0
232 0 0
226 0 0
227 0 0
228 0 0
227 0 0
232 0 0
231 0 0
229 0 0
222 0 0
228 0 0
226 0 0
223 0 0
226 0 0
225 0 0
232 0 0
232 0 0
228 0 0
228 0 0
228 0 0
228 0 0
232 0 0
225 0 0
226 0 0
228 0 0
230 0 0
228 0 0
229 0 0
228 0 0
229 0 0
229 0 0
229 0 0
231 0 0
231 0 0
229 0 0
232 0 0
229 0 0
230 0 0
224 0 0
228 0 0
232 0 0
231 0 0
229 0 0
232 0 0
227 0 0
230 0 0
228 0 0
228 0 0
229 0 0
228 0 0
230 0 0
230 0 0
228 0 0
228 0 0
230 0 0
231 0 0
228 0 0
232 0 0
226 0 0
227 0 0
226 0 0
229 0 0
232 0 0
233 0 0
231 0 0
229 0 0
228 0 0
224 0 0
232 0 0
229 0 0
229 0 0
230 0 0
229 0 0
228 0 0
227 0 0
230 0 0
230 0 0
229 0 0
229 0 0
228 0 0
230 0 0
226 0 0
227 0 0
229 0 0
228 0 0
227 0 0
226 0 0
232 0 0
227 0 0
231 0 0
233 0 0
230 0 0
232 0 0
230 0 0
0 0 254
0 0 255
0 0 255
0 0 254
0 0 254
0 0 254
0 0 254
0 0 255
0 0 252
0 0 255
0 0 255
0 0 255
0 0 255
0 0 254
0 0 254
0 0 255
0 0 255
0 0 254
0 0 255
0 0 255
0 0 255
0 0 255
0 0 255
0 0 254
0 0 255
0 0 254
0 0 255
0 0 255
0 0 255
0 0 255
0 0 254
0 0 254
0 0 255
0 0 252
0 0 255
0 0 255
0 0 255
0 0 253
0 0 254
0 0 255
0 0 253
0 0 255
0 0 254
0 0 253
0 0 253
0 0 255
0 0 252
0 0 255
0 0 254
0 0 253
0 0 254
0 0 253
0 0 254
0 0 254
0 0 254
0 0 252
0 0 254
0 0 255
0 0 254
0 0 255
0 0 254
0 0 252
0 0 253
0 0 252
0 0 254
0 0 254
0 0 254
0 0 253
0 0 255
0 0 252
0 0 255
0 0 254
0 0 254
0 0 254
0 0 253
0 0 250
0 0 254
0 0 253
0 0 249
0 0 252
0 0 252
0 0 254
0 0 253
0 0 254
0 0 253
0 0 254
0 0 250
0 0 253
0 0 254
0 0 254
0 0 250
0 0 254
0 0 253
0 0 249
0 0 249
0 0 253
0 0 248
0 0 252
0 0 250
0 0 248
0 0 250
0 0 249
0 0 248
0 0 253
0 0 254
0 0 249
0 0 254
0 0 246
0 0 254
0 0 245
0 0 253
0 0 250
0 0 244
0 0 248
0 0 254
0 0 245
0 0 245
0 0 250
0 0 250
0 0 254
0 0 242
0 0 250
0 0 249
0 0 252
0 0 253
0 0 253
0 0 248
0 0 252
0 0 252
0 0 248
0 0 249
0 0 249
0 0 253
0 0 252
0 0 250
0 0 250
0 0 249
0 0 245
0 0 249
0 0 245
0 0 244
0 0 246
0 0 248
0 0 241
0 0 248
0 0 246
0 0 240
0 0 252
0 0 245
0 0 241
0 0 242
0 0 248
0 0 242
0 0 249
0 0 245
0 0 238
0 0 248
72 74 237
202 208 253
240 246 255
240 246 255
240 246 255
240 247 255
240 247 255
240 247 255
240 247 255
240 247 255
240 247 255
241 247 255
241 247 255
241 247 255
241 247 255
241 247 255
241 247 255
241 247 255
241 247 255
241 247 255
241 247 255
241 247 255
241 247 255
241 247 255
241 247 255
241 247 255
241 247 255
241 247 255
241 247 255
241 247 255
241 247 255
241 247 255
241 247 255
241 247 255
241 247 255
241 247 255
241 247 255
241 247 255
241 247 255
241 247 255
241 247 255
241 247 255
241 247 255
241 247 255
241 247 255
241 247 255
241 247 255
241 247 255
241 247 255
241 247 255
241 247 255
241 247 255
241 247 255
241 247 255
241 247 255
241 247 255
241 247 255
241 247 255
241 247 255
241 247 255
241 247 255
241 247 255
241 247 255
241 247 255
241 247 255
241 247 255
241 247 255
241 247 255
241 247 255
241 247 255
241 247 255
241 247 255
241 247 255
241 247 255
241 247 255
240 247 255
240 247 255
240 247 255
240 247 255
240 247 255
240 247 255
240 246 255
240 246 255
240 246 255
238 216 224
231 60 62
231 0 0
229 0 0
228 0 0
225 0 0
229 0 0
232 0 0
223 0 0
226 0 0
225 0 0
226 0 0
227 0 0
231 0 0
238 0 0
227 0 0
229 0 0
226 0 0
216 0 0
232 0 0
221 0 0
224 0 0
227 0 0
225 0 0
233 0 0
226 0 0
229 0 0
228 0 0
219 0 0
228 0 0
227 0 0
226 0 0
227 0 0
225 0 0
230 0 0
228 0 0
227 0 0
226 0 0
227 0 0
227 0 0
222 0 0
228 0 0
228 0 0
228 0 0
228 0 0
226 0 0
227 0 0
227 0 0
227 0 0
227 0 0
233 0 0
230 0 0
233 0 0
226 0 0
230 0 0
230 0 0
230 0 0
230 0 0
229 0 0
228 0 0
227 0 0
230 0 0
223 0 0
232 0 0
228 0 0
231 0 0
231 0 0
229 0 0
231 0 0
229 0 0
229 0 0
234 0 0
227 0 0
228 0 0
230 0 0
230 0 0
229 0 0
226 0 0
231 0 0
231 0 0
226 0 0
229 0 0
226 0 0
231 0 0
228 0 0
229 0 0
229 0 0
229 0 0
232 0 0
226 0 0
228 0 0
229 0 0
229 0 0
228 0 0
227 0 0
227 0 0
228 0 0
229 0 0
226 0 0
227 0 0
227 0 0
228 0 0
226 0 0
232 0 0
230 0 0
228 0 0
226 0 0
225 0 0
228 0 0
229 0 0
228 0 0
231 0 0
230 0 0
228 0 0
226 0 0
228 0 0
228 0 0
230 0 0
233 0 0
231 0 0
226 0 0
229 0 0
228 0 0
230 0 0
229 0 0
229 0 0
229 0 0
231 0 0
230 0 0
229 0 0
229 0 0
228 0 0
231 0 0
226 0 0
228 0 0
230 0 0
229 0 0
229 0 0
228 0 0
226 0 0
227 0 0
229 0 0
227 0 0
227 0 0
231 0 0
229 0 0
229 0 0
232 0 0
230 0 0
229 0 0
230 0 0
227 0 0
224 0 0
228 0 0
228 0 0
231 0 0
228 0 0
226 0 0
225 0 0
0 0 255
0 0 254
0 0 255
0 0 255
0 0 255
0 0 254
0 0 254
0 0 255
0 0 255
0 0 254
0 0 255
0 0 255
0 0 254
0 0 255
0 0 255
0 0 255
0 0 255
0 0 255
0 0 255
0 0 254
0 0 255
0 0 255
0 0 255
0 0 253
0 0 255
0 0 255
0 0 255
0 0 255
0 0 255
0 0 255
0 0 255
0 0 255
0 0 254
0 0 254
0 0 254
0 0 255
0 0 255
0 0 255
0 0 255
0 0 255
0 0 254
0 0 255
0 0 255
0 0 255
0 0 255
0 0 254
0 0 252
0 0 255
0 0 255
0 0 254
0 0 255
0 0 255
0 0 253
0 0 253
0 0 255
0 0 254
0 0 254
0 0 255
0 0 253
0 0 253
0 0 253
0 0 254
0 0 253
0 0 253
0 0 254
0 0 255
0 0 254
0 0 252
0 0 255
0 0 255
0 0 253
0 0 250
0 0 252
0 0 254
0 0 252
0 0 254
0 0 252
0 0 255
0 0 253
0 0 253
0 0 253
0 0 255
0 0 254
0 0 255
0 0 254
0 0 254
0 0 253
0 0 254
0 0 252
0 0 253
0 0 254
0 0 255
0 0 252
0 0 250
0 0 253
0 0 252
0 0 249
0 0 250
0 0 249
0 0 250
0 0 250
0 0 252
0 0 252
0 0 254
0 0 249
0 0 253
0 0 255
0 0 253
0 0 252
0 0 252
0 0 249
0 0 244
0 0 252
0 0 248
0 0 249
0 0 252
0 0 246
0 0 245
0 0 248
0 0 249
0 0 249
0 0 252
0 0 254
0 0 248
0 0 249
0 0 252
0 0 244
0 0 249
0 0 250
0 0 245
0 0 252
0 0 245
0 0 253
0 0 246
0 0 249
0 0 244
0 0 242
0 0 249
0 0 250
0 0 244
0 0 249
0 0 246
0 0 249
0 0 241
0 0 248
0 0 252
0 0 248
0 0 248
0 0 248
0 0 246
0 0 242
0 0 250
0 0 249
0 0 246
0 0 245
0 0 245
107 110 246
223 229 255
240 247 255
240 247 255
240 247 255
240 247 255
240 247 255
241 247 255
241 247 255
241 247 255
241 247 255
241 247 255
241 247 255
241 247 255
241 247 255
241 247 255
241 247 255
241 247 255
241 247 255
241 247 255
241 247 255
241 247 255
241 247 255
241 247 255
241 247 255
241 247 255
241 247 255
241 247 255
241 247 255
241 247 255
241 247 255
241 247 255
241 247 255
241 247 255
241 247 255
241 247 255
241 247 255
241 247 255
241 247 255
241 247 255
241 247 255
241 247 255
241 247 255
241 247 255
241 247 255
241 247 255
241 247 255
241 247 255
241 247 255
241 247 255
241 247 255
241 247 255
241 247 255
241 247 255
241 247 255
241 247 255
241 247 255
241 247 255
241 247 255
241 247 255
241 247 255
241 247 255
241 247 255
241 247 255
241 247 255
241 247 255
241 247 255
241 247 255
241 247 255
241 247 255
241 247 255
241 247 255
241 247 255
241 247 255
241 247 255
241 247 255
241 247 255
241 247 255
241 247 255
241 247 255
241 247 255
240 247 255
240 247 255
240 247 255
240 247 255
240 247 255
236 227 236
233 121 125
231 0 0
229 0 0
224 0 0
233 0 0
222 0 0
228 0 0
232 0 0
230 0 0
228 0 0
230 0 0
230 0 0
231 0 0
229 0 0
232 0 0
223 0 0
226 0 0
222 0 0
224 0 0
230 0 0
222 0 0
224 0 0
231 0 0
229 0 0
224 0 0
223 0 0
224 0 0
228 0 0
230 0 0
223 0 0
229 0 0
224 0 0
222 0 0
223 0 0
226 0 0
230 0 0
233 0 0
228 0 0
230 0 0
223 0 0
229 0 0
226 0 0
231 0 0
230 0 0
230 0 0
230 0 0
223 0 0
230 0 0
226 0 0
226 0 0
231 0 0
233 0 0
230 0 0
230 0 0
227 0 0
227 0 0
231 0 0
229 0 0
225 0 0
232 0 0
225 0 0
233 0 0
230 0 0
228 0 0
231 0 0
230 0 0
230 0 0
229 0 0
227 0 0
227 0 0
227 0 0
229 0 0
232 0 0
227 0 0
231 0 0
228 0 0
229 0 0
227 0 0
228 0 0
231 0 0
230 0 0
229 0 0
229 0 0
226 0 0
228 0 0
226 0 0
230 0 0
228 0 0
227 0 0
228 0 0
231 0 0
232 0 0
227 0 0
229 0 0
231 0 0
228 0 0
232 0 0
232 0 0
230 0 0
232 0 0
228 0 0
228 0 0
230 0 0
231 0 0
228 0 0
229 0 0
231 0 0
231 0 0
227 0 0
228 0 0
230 0 0
227 0 0
231 0 0
231 0 0
227 0 0
231 0 0
230 0 0
231 0 0
230 0 0
230 0 0
230 0 0
228 0 0
228 0 0
233 0 0
228 0 0
231 0 0
228 0 0
228 0 0
227 0 0
231 0 0
226 0 0
229 0 0
227 0 0
226 0 0
227 0 0
227 0 0
230 0 0
229 0 0
229 0 0
228 0 0
226 0 0
229 0 0
231 0 0
229 0 0
228 0 0
231 0 0
232 0 0
225 0 0
229 0 0
227 0 0
230 0 0
231 0 0
228 0 0
230 0 0
230 0 0
229 0 0
230 0 0
0 0 255
0 0 255
0 0 254
0 0 255
0 0 255
0 0 255
0 0 255
0 0 254
0 0 255
0 0 255
0 0 255
0 0 255
0 0 255
0 0 255
0 0 255
0 0 255
0 0 255
0 0 253
0 0 255
0 0 254
0 0 254
0 0 255
0 0 255
0 0 255
0 0 255
0 0 255
0 0 252
0 0 253
0 0 255
0 0 254
0 0 255
0 0 255
0 0 255
0 0 253
0 0 255
0 0 253
0 0 254
0 0 255
0 0 254
0 0 255
0 0 252
0 0 254
0 0 254
0 0 255
0 0 255
0 0 255
0 0 255
0 0 253
0 0 254
0 0 255
0 0 252
0 0 254
0 0 255
0 0 254
0 0 254
0 0 255
0 0 255
0 0 254
0 0 254
0 0 253
0 0 255
0 0 253
0 0 253
0 0 254
0 0 255
0 0 255
0 0 254
0 0 253
0 0 250
0 0 254
0 0 254
0 0 255
0 0 252
0 0 253
0 0 254
0 0 252
0 0 254
0 0 252
0 0 253
0 0 254
0 0 255
0 0 250
0 0 250
0 0 253
0 0 246
0 0 254
0 0 253
0 0 254
0 0 250
0 0 252
0 0 254
0 0 253
0 0 254
0 0 253
0 0 253
0 0 249
0 0 252
0 0 249
0 0 253
0 0 252
0 0 254
0 0 249
0 0 252
0 0 253
0 0 254
0 0 252
0 0 249
0 0 246
0 0 252
0 0 246
0 0 250
0 0 254
0 0 253
0 0 249
0 0 252
0 0 252
0 0 250
0 0 245
0 0 252
0 0 249
0 0 248
0 0 252
0 0 248
0 0 252
0 0 244
0 0 252
0 0 249
0 0 250
0 0 249
0 0 245
0 0 248
0 0 244
0 0 253
0 0 252
0 0 245
0 0 242
0 0 249
0 0 245
0 0 248
0 0 246
0 0 248
0 0 246
0 0 246
0 0 237
0 0 242
0 0 248
0 0 248
0 0 246
0 0 249
0 0 248
0 0 242
0 0 248
0 0 246
0 0 244
34 34 252
154 158 248
239 245 255
240 247 255
241 247 255
241 247 255
241 247 255
241 247 255
241 247 255
241 247 255
241 247 255
241 247 255
241 247 255
241 247 255
241 247 255
241 247 255
241 247 255
241 247 255
241 247 255
241 247 255
241 247 255
241 247 255
241 247 255
241 247 255
241 247 255
241 247 255
241 247 255
241 247 255
241 247 255
241 247 255
241 247 255
241 247 255
241 247 255
241 247 255
241 247 255
241 247 255
241 247 255
241 247 255
241 247 255
241 247 255
241 247 255
241 247 255
241 247 255
241 247 255
241 247 255
241 247 255
241 247 255
241 247 255
241 247 255
241 247 255
241 247 255
241 247 255
241 247 255
241 247 255
241 247 255
241 247 255
241 247 255
241 247 255
241 247 255
241 247 255
241 247 255
241 247 255
241 247 255
241 247 255
241 247 255
241 247 255
241 247 255
241 247 255
241 247 255
241 247 255
241 247 255
241 247 255
241 247 255
241 247 255
241 247 255
241 247 255
241 247 255
241 247 255
241 247 255
241 247 255
241 247 255
241 247 255
241 247 255
241 247 255
241 247 255
241 247 255
241 247 255
241 247 255
240 247 255
240 247 255
233 169 175
237 24 25
235 0 0
228 0 0
230 0 0
231 0 0
226 0 0
228 0 0
228 0 0
233 0 0
228 0 0
230 0 0
234 0 0
231 0 0
228 0 0
219 0 0
225 0 0
231 0 0
221 0 0
227 0 0
230 0 0
229 0 0
231 0 0
229 0 0
224 0 0
230 0 0
230 0 0
232 0 0
222 0 0
225 0 0
228 0 0
237 0 0
229 0 0
228 0 0
230 0 0
229 0 0
223 0 0
225 0 0
230 0 0
233 0 0
226 0 0
221 0 0
229 0 0
230 0 0
225 0 0
231 0 0
229 0 0
230 0 0
225 0 0
227 0 0
228 0 0
227 0 0
231 0 0
224 0 0
234 0 0
234 0 0
227 0 0
231 0 0
228 0 0
232 0 0
227 0 0
230 0 0
228 0 0
230 0 0
231 0 0
231 0 0
232 0 0
233 0 0
230 0 0
229 0 0
230 0 0
228 0 0
228 0 0
229 0 0
233 0 0
223 0 0
230 0 0
224 0 0
232 0 0
230 0 0
227 0 0
227 0 0
232 0 0
230 0 0
226 0 0
227 0 0
224 0 0
228 0 0
227 0 0
227 0 0
229 0 0
230 0 0
229 0 0
226 0 0
225 0 0
225 0 0
229 0 0
225 0 0
231 0 0
226 0 0
230 0 0
231 0 0
231 0 0
228 0 0
229 0 0
230 0 0
229 0 0
231 0 0
228 0 0
230 0 0
234 0 0
227 0 0
227 0 0
229 0 0
225 0 0
230 0 0
230 0 0
228 0 0
229 0 0
231 0 0
229 0 0
231 0 0
229 0 0
227 0 0
230 0 0
230 0 0
229 0 0
232 0 0
230 0 0
228 0 0
226 0 0
232 0 0
229 0 0
229 0 0
229 0 0
229 0 0
229 0 0
229 0 0
228 0 0
226 0 0
229 0 0
226 0 0
230 0 0
228 0 0
230 0 0
226 0 0
227 0 0
227 0 0
230 0 0
225 0 0
230 0 0
228 0 0
225 0 0
228 0 0
229 0 0
230 0 0
0 0 255
0 0 255
0 0 255
0 0 255
0 0 254
0 0 255
0 0 255
0 0 253
0 0 255
0 0 254
0 0 255
0 0 255
0 0 255
0 0 255
0 0 255
0 0 255
0 0 255
0 0 255
0 0 254
0 0 255
0 0 255
0 0 255
0 0 255
0 0 255
0 0 254
0 0 254
0 0 255
0 0 254
0 0 255
0 0 254
0 0 254
0 0 254
0 0 255
0 0 254
0 0 255
0 0 255
0 0 254
0 0 255
0 0 255
0 0 255
0 0 255
0 0 253
0 0 253
0 0 254
0 0 255
0 0 255
0 0 254
0 0 255
0 0 254
0 0 254
0 0 254
0 0 254
0 0 254
0 0 254
0 0 254
0 0 254
0 0 254
0 0 253
0 0 253
0 0 253
0 0 254
0 0 254
0 0 253
0 0 255
0 0 255
0 0 254
0 0 250
0 0 252
0 0 252
0 0 254
0 0 252
0 0 254
0 0 253
0 0 252
0 0 254
0 0 254
0 0 253
0 0 252
0 0 254
0 0 253
0 0 250
0 0 254
0 0 254
0 0 254
0 0 253
0 0 255
0 0 253
0 0 253
0 0 255
0 0 250
0 0 250
0 0 250
0 0 253
0 0 253
0 0 252
0 0 254
0 0 252
0 0 254
0 0 250
0 0 252
0 0 249
0 0 253
0 0 253
0 0 252
0 0 253
0 0 253
0 0 254
0 0 250
0 0 246
0 0 254
0 0 250
0 0 249
0 0 246
0 0 249
0 0 253
0 0 245
0 0 250
0 0 252
0 0 249
0 0 250
0 0 253
0 0 246
0 0 249
0 0 250
0 0 250
0 0 241
0 0 245
0 0 246
0 0 249
0 0 248
0 0 245
0 0 244
0 0 249
0 0 246
0 0 249
0 0 248
0 0 249
0 0 245
0 0 252
0 0 249
0 0 246
0 0 253
0 0 242
0 0 250
0 0 248
0 0 250
0 0 248
0 0 249
0 0 246
0 0 248
0 0 238
0 0 246
0 0 245
76 78 248
205 211 254
241 247 255
241 247 255
241 247 255
241 247 255
241 247 255
241 247 255
241 247 255
241 247 255
241 247 255
241 247 255
241 247 255
241 247 255
241 247 255
241 247 255
241 247 255
241 247 255
241 247 255
241 247 255
241 247 255
241 247 255
241 247 255
241 247 255
241 247 255
241 247 255
241 247 255
241 247 255
241 247 255
241 247 255
241 247 255
241 247 255
241 247 255
241 247 255
241 247 255
241 247 255
241 247 255
241 247 255
241 247 255
241 247 255
241 247 255
241 247 255
241 247 255
242 247 255
242 247 255
242 247 255
242 247 255
241 247 255
242 247 255
241 247 255
242 247 255
241 247 255
241 247 255
241 247 255
241 247 255
241 247 255
241 247 255
241 247 255
241 247 255
241 247 255
241 247 255
241 247 255
241 247 255
241 247 255
241 247 255
241 247 255
241 247 255
241 247 255
241 247 255
241 247 255
241 247 255
241 247 255
241 247 255
241 247 255
241 247 255
241 247 255
241 247 255
241 247 255
241 247 255
241 247 255
241 247 255
241 247 255
241 247 255
241 247 255
241 247 255
241 247 255
241 247 255
241 247 255
241 247 255
241 247 255
241 247 255
241 247 255
238 214 221
236 98 102
230 0 0
232 0 0
228 0 0
223 0 0
230 0 0
225 0 0
225 0 0
224 0 0
236 0 0
224 0 0
227 0 0
233 0 0
223 0 0
230 0 0
229 0 0
235 0 0
228 0 0
227 0 0
222 0 0
222 0 0
225 0 0
223 0 0
226 0 0
229 0 0
228 0 0
231 0 0
224 0 0
233 0 0
229 0 0
224 0 0
232 0 0
228 0 0
224 0 0
227 0 0
232 0 0
230 0 0
227 0 0
227 0 0
233 0 0
228 0 0
227 0 0
231 0 0
234 0 0
227 0 0
231 0 0
231 0 0
226 0 0
230 0 0
229 0 0
232 0 0
224 0 0
226 0 0
227 0 0
230 0 0
228 0 0
230 0 0
227 0 0
227 0 0
231 0 0
232 0 0
231 0 0
227 0 0
228 0 0
230 0 0
227 0 0
228 0 0
229 0 0
230 0 0
231 0 0
228 0 0
230 0 0
228 0 0
225 0 0
232 0 0
230 0 0
227 0 0
230 0 0
230 0 0
225 0 0
230 0 0
231 0 0
232 0 0
231 0 0
230 0 0
233 0 0
233 0 0
230 0 0
231 0 0
231 0 0
227 0 0
229 0 0
231 0 0
228 0 0
229 0 0
229 0 0
229 0 0
230 0 0
228 0 0
228 0 0
227 0 0
227 0 0
230 0 0
228 0 0
229 0 0
224 0 0
229 0 0
223 0 0
227 0 0
226 0 0
231 0 0
231 0 0
230 0 0
228 0 0
234 0 0
233 0 0
224 0 0
230 0 0
225 0 0
232 0 0
230 0 0
232 0 0
232 0 0
231 0 0
231 0 0
230 0 0
230 0 0
228 0 0
229 0 0
231 0 0
228 0 0
229 0 0
233 0 0
229 0 0
227 0 0
230 0 0
232 0 0
230 0 0
229 0 0
227 0 0
228 0 0
224 0 0
230 0 0
227 0 0
228 0 0
231 0 0
229 0 0
233 0 0
226 0 0
229 0 0
231 0 0
225 0 0
229 0 0
229 0 0
0 0 255
0 0 255
0 0 254
0 0 255
0 0 255
0 0 255
0 0 255
0 0 255
0 0 255
0 0 254
0 0 255
0 0 255
0 0 254
0 0 255
0 0 255
0 0 255
0 0 255
0 0 253
0 0 255
0 0 254
0 0 255
0 0 255
0 0 255
0 0 255
0 0 255
0 0 253
0 0 255
0 0 255
0 0 255
0 0 255
0 0 255
0 0 254
0 0 255
0 0 255
0 0 255
0 0 254
0 0 255
0 0 254
0 0 254
0 0 253
0 0 254
0 0 254
0 0 255
0 0 255
0 0 255
0 0 254
0 0 253
0 0 254
0 0 254
0 0 255
0 0 253
0 0 253
0 0 255
0 0 255
0 0 252
0 0 254
0 0 255
0 0 254
0 0 253
0 0 253
0 0 254
0 0 254
0 0 254
0 0 255
0 0 252
0 0 253
0 0 253
0 0 253
0 0 255
0 0 252
0 0 250
0 0 250
0 0 254
0 0 254
0 0 255
0 0 252
0 0 254
0 0 253
0 0 253
0 0 254
0 0 253
0 0 255
0 0 254
0 0 250
0 0 254
0 0 253
0 0 254
0 0 252
0 0 250
0 0 254
0 0 253
0 0 254
0 0 252
0 0 253
0 0 248
0 0 250
0 0 252
0 0 254
0 0 252
0 0 250
0 0 250
0 0 249
0 0 254
0 0 254
0 0 250
0 0 248
0 0 253
0 0 250
0 0 252
0 0 254
0 0 255
0 0 249
0 0 248
0 0 249
0 0 249
0 0 250
0 0 252
0 0 254
0 0 250
0 0 253
0 0 248
0 0 248
0 0 245
0 0 249
0 0 254
0 0 249
0 0 248
0 0 246
0 0 244
0 0 253
0 0 249
0 0 245
0 0 252
0 0 248
0 0 242
0 0 242
0 0 254
0 0 248
0 0 245
0 0 249
0 0 248
0 0 245
0 0 249
0 0 242
0 0 252
0 0 244
0 0 241
0 0 245
0 0 246
0 0 246
0 0 242
0 0 253
132 135 252
222 227 255
241 247 255
241 247 255
241 247 255
241 247 255
241 247 255
241 247 255
241 247 255
241 247 255
241 247 255
241 247 255
241 247 255
241 247 255
241 247 255
241 247 255
241 247 255
241 247 255
241 247 255
241 247 255
241 247 255
241 247 255
241 247 255
241 247 255
241 247 255
241 247 255
241 247 255
241 247 255
241 247 255
242 247 255
242 247 255
242 247 255
242 247 255
242 247 255
242 247 255
242 247 255
242 247 255
242 247 255
242 247 255
242 247 255
242 247 255
242 247 255
242 247 255
242 247 255
242 247 255
242 247 255
242 247 255
242 247 255
242 247 255
242 247 255
242 247 255
242 247 255
242 247 255
242 247 255
242 247 255
242 247 255
242 247 255
242 247 255
242 247 255
242 247 255
242 247 255
242 247 255
242 247 255
242 247 255
242 247 255
242 247 255
241 247 255
241 247 255
241 247 255
241 247 255
241 247 255
241 247 255
241 247 255
241 247 255
241 247 255
241 247 255
241 247 255
241 247 255
241 247 255
241 247 255
241 247 255
241 247 255
241 247 255
241 247 255
241 247 255
241 247 255
241 247 255
241 247 255
241 247 255
241 247 255
241 247 255
241 247 255
241 247 255
241 247 255
239 235 244
234 137 142
223 0 0
231 0 0
229 0 0
234 0 0
231 0 0
233 0 0
230 0 0
232 0 0
225 0 0
234 0 0
224 0 0
232 0 0
233 0 0
225 0 0
233 0 0
227 0 0
226 0 0
225 0 0
233 0 0
223 0 0
229 0 0
224 0 0
228 0 0
231 0 0
229 0 0
235 0 0
228 0 0
229 0 0
223 0 0
227 0 0
225 0 0
228 0 0
227 0 0
234 0 0
226 0 0
230 0 0
230 0 0
226 0 0
235 0 0
229 0 0
231 0 0
227 0 0
226 0 0
232 0 0
230 0 0
232 0 0
230 0 0
226 0 0
226 0 0
232 0 0
229 0 0
230 0 0
230 0 0
229 0 0
230 0 0
232 0 0
223 0 0
226 0 0
229 0 0
230 0 0
228 0 0
227 0 0
224 0 0
227 0 0
225 0 0
229 0 0
231 0 0
230 0 0
228 0 0
229 0 0
232 0 0
228 0 0
228 0 0
228 0 0
231 0 0
231 0 0
234 0 0
231 0 0
228 0 0
226 0 0
231 0 0
228 0 0
225 0 0
229 0 0
228 0 0
227 0 0
228 0 0
229 0 0
232 0 0
230 0 0
230 0 0
230 0 0
231 0 0
228 0 0
231 0 0
224 0 0
229 0 0
231 0 0
230 0 0
225 0 0
227 0 0
230 0 0
233 0 0
231 0 0
228 0 0
229 0 0
227 0 0
232 0 0
233 0 0
228 0 0
231 0 0
231 0 0
231 0 0
228 0 0
231 0 0
225 0 0
229 0 0
226 0 0
229 0 0
229 0 0
229 0 0
227 0 0
231 0 0
229 0 0
226 0 0
232 0 0
233 0 0
231 0 0
226 0 0
229 0 0
229 0 0
231 0 0
229 0 0
228 0 0
228 0 0
226 0 0
226 0 0
229 0 0
231 0 0
227 0 0
232 0 0
230 0 0
229 0 0
227 0 0
227 0 0
231 0 0
233 0 0
232 0 0
227 0 0
229 0 0
228 0 0
227 0 0
0 0 255
0 0 255
0 0 255
0 0 255
0 0 254
0 0 255
0 0 254
0 0 254
0 0 255
0 0 255
0 0 254
0 0 255
0 0 254
0 0 255
0 0 255
0 0 255
0 0 255
0 0 255
0 0 255
0 0 255
0 0 255
0 0 254
0 0 255
0 0 255
0 0 255
0 0 255
0 0 254
0 0 255
0 0 253
0 0 254
0 0 254
0 0 254
0 0 255
0 0 255
0 0 255
0 0 255
0 0 254
0 0 254
0 0 255
0 0 254
0 0 254
0 0 254
0 0 255
0 0 254
0 0 254
0 0 254
0 0 252
0 0 253
0 0 255
0 0 253
0 0 253
0 0 255
0 0 255
0 0 254
0 0 253
0 0 253
0 0 255
0 0 252
0 0 252
0 0 255
0 0 253
0 0 255
0 0 253
0 0 255
0 0 254
0 0 253
0 0 252
0 0 253
0 0 254
0 0 253
0 0 254
0 0 255
0 0 253
0 0 253
0 0 255
0 0 255
0 0 253
0 0 254
0 0 253
0 0 253
0 0 253
0 0 253
0 0 255
0 0 254
0 0 250
0 0 254
0 0 250
0 0 254
0 0 250
0 0 252
0 0 252
0 0 254
0 0 254
0 0 252
0 0 253
0 0 253
0 0 253
0 0 250
0 0 254
0 0 249
0 0 250
0 0 253
0 0 253
0 0 255
0 0 252
0 0 253
0 0 254
0 0 250
0 0 253
0 0 249
0 0 248
0 0 252
0 0 250
0 0 253
0 0 254
0 0 250
0 0 246
0 0 245
0 0 249
0 0 249
0 0 252
0 0 248
0 0 249
0 0 250
0 0 246
0 0 252
0 0 253
0 0 242
0 0 253
0 0 246
0 0 248
0 0 248
0 0 253
0 0 244
0 0 248
0 0 249
0 0 246
0 0 240
0 0 245
0 0 253
0 0 249
0 0 249
0 0 253
0 0 249
0 0 241
0 0 248
0 0 248
0 0 246
0 0 248
0 0 249
68 69 249
183 188 252
241 247 255
241 247 255
241 247 255
241 247 255
241 247 255
241 247 255
241 247 255
241 247 255
241 247 255
241 247 255
241 247 255
241 247 255
241 247 255
241 247 255
241 247 255
241 247 255
241 247 255
241 247 255
241 247 255
241 247 255
241 247 255
241 247 255
242 247 255
242 247 255
242 247 255
242 247 255
242 247 255
242 247 255
242 247 255
242 247 255
242 247 255
242 247 255
242 247 255
242 247 255
242 247 255
242 247 255
242 247 255
242 247 255
242 247 255
242 247 255
242 247 255
242 247 255
242 247 255
242 247 255
242 247 255
242 247 255
242 247 255
242 247 255
242 247 255
242 247 255
242 247 255
242 247 255
242 247 255
242 247 255
242 247 255
242 247 255
242 247 255
242 247 255
242 247 255
242 247 255
242 247 255
242 247 255
242 247 255
242 247 255
242 247 255
242 247 255
242 247 255
242 247 255
242 247 255
242 247 255
242 247 255
242 247 255
242 247 255
242 247 255
241 247 255
241 247 255
241 247 255
241 247 255
241 247 255
241 247 255
241 247 255
241 247 255
241 247 255
241 247 255
241 247 255
241 247 255
241 247 255
241 247 255
241 247 255
241 247 255
241 247 255
241 247 255
241 247 255
241 247 255
241 247 255
241 247 255
230 188 194
234 74 76
222 0 0
227 0 0
232 0 0
235 0 0
228 0 0
228 0 0
230 0 0
230 0 0
224 0 0
234 0 0
229 0 0
228 0 0
228 0 0
232 0 0
229 0 0
232 0 0
227 0 0
231 0 0
233 0 0
229 0 0
231 0 0
227 0 0
228 0 0
225 0 0
226 0 0
226 0 0
227 0 0
231 0 0
229 0 0
230 0 0
234 0 0
231 0 0
223 0 0
230 0 0
222 0 0
229 0 0
232 0 0
230 0 0
233 0 0
226 0 0
230 0 0
231 0 0
227 0 0
229 0 0
230 0 0
232 0 0
229 0 0
231 0 0
230 0 0
226 0 0
230 0 0
228 0 0
230 0 0
225 0 0
230 0 0
230 0 0
229 0 0
226 0 0
227 0 0
227 0 0
230 0 0
230 0 0
234 0 0
233 0 0
222 0 0
226 0 0
229 0 0
227 0 0
225 0 0
231 0 0
226 0 0
226 0 0
231 0 0
230 0 0
230 0 0
232 0 0
231 0 0
228 0 0
232 0 0
231 0 0
226 0 0
232 0 0
231 0 0
232 0 0
230 0 0
226 0 0
232 0 0
233 0 0
232 0 0
230 0 0
229 0 0
228 0 0
231 0 0
230 0 0
229 0 0
227 0 0
229 0 0
226 0 0
230 0 0
226 0 0
229 0 0
231 0 0
229 0 0
231 0 0
230 0 0
231 0 0
229 0 0
232 0 0
230 0 0
231 0 0
228 0 0
229 0 0
229 0 0
231 0 0
227 0 0
229 0 0
227 0 0
230 0 0
232 0 0
229 0 0
227 0 0
230 0 0
229 0 0
228 0 0
231 0 0
234 0 0
230 0 0
232 0 0
229 0 0
230 0 0
229 0 0
228 0 0
231 0 0
230 0 0
231 0 0
232 0 0
230 0 0
229 0 0
232 0 0
228 0 0
231 0 0
229 0 0
229 0 0
228 0 0
231 0 0
228 0 0
229 0 0
226 0 0
231 0 0
228 0 0
0 0 254
0 0 255
0 0 255
0 0 255
0 0 255
0 0 255
0 0 254
0 0 255
0 0 255
0 0 255
0 0 255
0 0 254
0 0 255
0 0 255
0 0 255
0 0 255
0 0 255
0 0 255
0 0 252
0 0 255
0 0 255
0 0 254
0 0 255
0 0 254
0 0 254
0 0 255
0 0 255
0 0 255
0 0 255
0 0 255
0 0 254
0 0 255
0 0 255
0 0 255
0 0 255
0 0 255
0 0 255
0 0 255
0 0 255
0 0 254
0 0 255
0 0 254
0 0 255
0 0 255
0 0 255
0 0 255
0 0 254
0 0 255
0 0 255
0 0 253
0 0 255
0 0 255
0 0 254
0 0 254
0 0 253
0 0 254
0 0 254
0 0 253
0 0 255
0 0 254
0 0 255
0 0 253
0 0 254
0 0 253
0 0 255
0 0 254
0 0 254
0 0 254
0 0 248
0 0 255
0 0 253
0 0 254
0 0 252
0 0 254
0 0 253
0 0 255
0 0 252
0 0 254
0 0 252
0 0 254
0 0 250
0 0 253
0 0 255
0 0 253
0 0 252
0 0 252
0 0 250
0 0 249
0 0 252
0 0 252
0 0 250
0 0 250
0 0 250
0 0 250
0 0 253
0 0 246
0 0 250
0 0 250
0 0 252
0 0 249
0 0 245
0 0 252
0 0 250
0 0 252
0 0 249
0 0 250
0 0 249
0 0 253
0 0 250
0 0 250
0 0 250
0 0 254
0 0 245
0 0 255
0 0 249
0 0 253
0 0 250
0 0 245
0 0 249
0 0 250
0 0 253
0 0 250
0 0 248
0 0 252
0 0 252
0 0 248
0 0 248
0 0 250
0 0 242
0 0 245
0 0 253
0 0 252
0 0 252
0 0 246
0 0 249
0 0 249
0 0 250
0 0 248
0 0 245
0 0 253
0 0 246
0 0 242
0 0 246
0 0 248
0 0 250
0 0 249
0 0 246
0 0 246
0 0 250
140 144 254
228 234 255
241 247 255
241 247 255
241 247 255
241 247 255
241 247 255
241 247 255
241 247 255
241 247 255
241 247 255
241 247 255
241 247 255
241 247 255
241 247 255
241 247 255
241 247 255
241 247 255
241 247 255
242 247 255
242 247 255
242 247 255
242 247 255
242 247 255
242 247 255
242 247 255
242 247 255
242 247 255
242 247 255
242 247 255
242 247 255
242 247 255
242 247 255
242 247 255
242 247 255
242 247 255
242 247 255
242 247 255
242 247 255
242 247 255
242 247 255
242 247 255
242 247 255
242 247 255
242 247 255
242 247 255
242 247 255
242 247 255
242 247 255
242 247 255
242 247 255
242 247 255
242 247 255
242 247 255
242 247 255
242 247 255
242 247 255
242 247 255
242 247 255
242 247 255
242 247 255
242 247 255
242 247 255
242 247 255
242 247 255
242 247 255
242 247 255
242 247 255
242 247 255
242 247 255
242 247 255
242 247 255
242 247 255
242 247 255
242 247 255
242 247 255
242 247 255
242 247 255
242 247 255
242 247 255
242 247 255
242 247 255
242 247 255
241 247 255
241 247 255
241 247 255
241 247 255
241 247 255
241 247 255
241 247 255
241 247 255
241 247 255
241 247 255
241 247 255
241 247 255
241 247 255
241 247 255
241 247 255
241 247 255
241 247 255
241 229 237
237 128 133
235 0 0
233 0 0
224 0 0
232 0 0
229 0 0
229 0 0
232 0 0
230 0 0
234 0 0
231 0 0
225 0 0
232 0 0
231 0 0
227 0 0
226 0 0
234 0 0
232 0 0
224 0 0
228 0 0
233 0 0
229 0 0
225 0 0
228 0 0
225 0 0
233 0 0
224 0 0
229 0 0
232 0 0
230 0 0
224 0 0
229 0 0
227 0 0
234 0 0
227 0 0
228 0 0
228 0 0
231 0 0
235 0 0
224 0 0
230 0 0
230 0 0
233 0 0
226 0 0
228 0 0
232 0 0
232 0 0
231 0 0
229 0 0
232 0 0
228 0 0
232 0 0
224 0 0
229 0 0
231 0 0
229 0 0
229 0 0
231 0 0
229 0 0
229 0 0
232 0 0
230 0 0
226 0 0
228 0 0
232 0 0
225 0 0
226 0 0
230 0 0
228 0 0
230 0 0
226 0 0
234 0 0
225 0 0
229 0 0
230 0 0
227 0 0
235 0 0
231 0 0
229 0 0
230 0 0
230 0 0
228 0 0
230 0 0
235 0 0
230 0 0
230 0 0
233 0 0
234 0 0
229 0 0
230 0 0
224 0 0
227 0 0
228 0 0
230 0 0
226 0 0
232 0 0
231 0 0
231 0 0
229 0 0
231 0 0
231 0 0
231 0 0
230 0 0
230 0 0
232 0 0
233 0 0
228 0 0
231 0 0
235 0 0
227 0 0
227 0 0
233 0 0
228 0 0
225 0 0
230 0 0
233 0 0
232 0 0
230 0 0
226 0 0
226 0 0
229 0 0
227 0 0
229 0 0
230 0 0
229 0 0
232 0 0
231 0 0
232 0 0
230 0 0
232 0 0
231 0 0
227 0 0
229 0 0
230 0 0
232 0 0
230 0 0
231 0 0
227 0 0
230 0 0
232 0 0
228 0 0
233 0 0
231 0 0
228 0 0
229 0 0
230 0 0
228 0 0
228 0 0
233 0 0
229 0 0
0 0 254
0 0 255
0 0 254
0 0 255
0 0 254
0 0 255
0 0 253
0 0 255
0 0 255
0 0 255
0 0 254
0 0 255
0 0 255
0 0 255
0 0 255
0 0 255
0 0 255
0 0 253
0 0 255
0 0 255
0 0 254
0 0 255
0 0 254
0 0 255
0 0 255
0 0 255
0 0 255
0 0 255
0 0 253
0 0 255
0 0 255
0 0 255
0 0 255
0 0 255
0 0 255
0 0 255
0 0 253
0 0 253
0 0 254
0 0 255
0 0 255
0 0 254
0 0 253
0 0 255
0 0 255
0 0 255
0 0 255
0 0 255
0 0 255
0 0 255
0 0 255
0 0 252
0 0 252
0 0 254
0 0 255
0 0 254
0 0 255
0 0 255
0 0 255
0 0 254
0 0 255
0 0 254
0 0 254
0 0 253
0 0 252
0 0 252
0 0 255
0 0 255
0 0 253
0 0 255
0 0 254
0 0 254
0 0 254
0 0 254
0 0 253
0 0 252
0 0 253
0 0 249
0 0 255
0 0 253
0 0 252
0 0 254
0 0 254
0 0 254
0 0 252
0 0 253
0 0 254
0 0 252
0 0 254
0 0 252
0 0 253
0 0 254
0 0 252
0 0 255
0 0 254
0 0 253
0 0 249
0 0 252
0 0 249
0 0 252
0 0 252
0 0 252
0 0 253
0 0 252
0 0 249
0 0 252
0 0 248
0 0 254
0 0 255
0 0 252
0 0 253
0 0 250
0 0 249
0 0 252
0 0 248
0 0 250
0 0 253
0 0 249
0 0 249
0 0 250
0 0 250
0 0 253
0 0 252
0 0 250
0 0 248
0 0 252
0 0 253
0 0 252
0 0 249
0 0 245
0 0 250
0 0 246
0 0 253
0 0 249
0 0 244
0 0 250
0 0 252
0 0 246
0 0 252
0 0 248
0 0 250
0 0 253
0 0 248
0 0 246
0 0 254
0 0 241
0 0 249
72 74 249
191 196 253
241 247 255
241 247 255
241 247 255
241 247 255
241 247 255
241 247 255
241 247 255
241 247 255
241 247 255
241 247 255
241 247 255
241 247 255
241 247 255
241 247 255
241 247 255
242 247 255
242 247 255
242 247 255
242 247 255
242 247 255
242 247 255
242 247 255
242 247 255
242 247 255
242 247 255
242 247 255
242 247 255
242 247 255
242 247 255
242 247 255
242 247 255
242 247 255
242 247 255
242 247 255
242 247 255
242 248 255
242 248 255
242 248 255
242 248 255
242 248 255
242 248 255
242 248 255
242 248 255
242 248 255
242 248 255
242 248 255
242 248 255
242 248 255
242 248 255
242 248 255
242 248 255
242 248 255
242 248 255
242 248 255
242 248 255
242 248 255
242 248 255
242 248 255
242 248 255
242 248 255
242 248 255
242 248 255
242 248 255
242 248 255
242 248 255
242 248 255
242 248 255
242 247 255
242 247 255
242 247 255
242 247 255
242 247 255
242 247 255
242 247 255
242 247 255
242 247 255
242 247 255
242 247 255
242 247 255
242 247 255
242 247 255
242 247 255
242 247 255
242 247 255
242 247 255
242 247 255
242 247 255
241 247 255
241 247 255
241 247 255
241 247 255
241 247 255
241 247 255
241 247 255
241 247 255
241 247 255
241 247 255
241 247 255
241 247 255
241 247 255
241 247 255
241 247 255
239 199 206
232 74 76
235 0 0
231 0 0
235 0 0
233 0 0
229 0 0
234 0 0
226 0 0
230 0 0
227 0 0
231 0 0
231 0 0
232 0 0
230 0 0
225 0 0
230 0 0
231 0 0
230 0 0
229 0 0
233 0 0
230 0 0
230 0 0
231 0 0
233 0 0
233 0 0
228 0 0
228 0 0
228 0 0
232 0 0
228 0 0
230 0 0
232 0 0
231 0 0
229 0 0
233 0 0
229 0 0
228 0 0
231 0 0
229 0 0
230 0 0
226 0 0
226 0 0
234 0 0
229 0 0
228 0 0
231 0 0
229 0 0
230 0 0
230 0 0
229 0 0
229 0 0
233 0 0
231 0 0
231 0 0
229 0 0
233 0 0
233 0 0
229 0 0
230 0 0
231 0 0
234 0 0
229 0 0
231 0 0
228 0 0
227 0 0
231 0 0
234 0 0
229 0 0
232 0 0
226 0 0
229 0 0
233 0 0
230 0 0
229 0 0
229 0 0
231 0 0
232 0 0
229 0 0
229 0 0
226 0 0
229 0 0
227 0 0
232 0 0
226 0 0
231 0 0
228 0 0
231 0 0
229 0 0
231 0 0
228 0 0
230 0 0
232 0 0
231 0 0
228 0 0
231 0 0
225 0 0
231 0 0
231 0 0
230 0 0
233 0 0
229 0 0
232 0 0
230 0 0
231 0 0
230 0 0
230 0 0
234 0 0
229 0 0
229 0 0
225 0 0
233 0 0
226 0 0
230 0 0
231 0 0
232 0 0
233 0 0
230 0 0
232 0 0
229 0 0
231 0 0
231 0 0
230 0 0
229 0 0
228 0 0
223 0 0
229 0 0
228 0 0
231 0 0
230 0 0
229 0 0
227 0 0
227 0 0
232 0 0
231 0 0
230 0 0
228 0 0
230 0 0
232 0 0
231 0 0
229 0 0
231 0 0
230 0 0
231 0 0
227 0 0
230 0 0
231 0 0
229 0 0
227 0 0
0 0 255
0 0 255
0 0 255
0 0 255
0 0 255
0 0 255
0 0 255
0 0 253
0 0 255
0 0 254
0 0 255
0 0 255
0 0 254
0 0 255
0 0 255
0 0 255
0 0 255
0 0 255
0 0 255
0 0 255
0 0 255
0 0 255
0 0 254
0 0 255
0 0 254
0 0 255
0 0 255
0 0 255
0 0 255
0 0 252
0 0 254
0 0 255
0 0 255
0 0 254
0 0 254
0 0 255
0 0 255
0 0 255
0 0 255
0 0 254
0 0 255
0 0 254
0 0 255
0 0 254
0 0 255
0 0 255
0 0 254
0 0 254
0 0 254
0 0 254
0 0 253
0 0 255
0 0 253
0 0 254
0 0 253
0 0 254
0 0 255
0 0 254
0 0 250
0 0 255
0 0 255
0 0 253
0 0 253
0 0 252
0 0 249
0 0 252
0 0 254
0 0 252
0 0 253
0 0 253
0 0 253
0 0 252
0 0 255
0 0 252
0 0 254
0 0 254
0 0 254
0 0 254
0 0 254
0 0 254
0 0 255
0 0 253
0 0 253
0 0 255
0 0 250
0 0 253
0 0 250
0 0 255
0 0 252
0 0 249
0 0 253
0 0 250
0 0 253
0 0 255
0 0 252
0 0 254
0 0 250
0 0 254
0 0 255
0 0 253
0 0 248
0 0 253
0 0 249
0 0 254
0 0 250
0 0 255
0 0 250
0 0 250
0 0 254
0 0 254
0 0 253
0 0 250
0 0 245
0 0 253
0 0 250
0 0 249
0 0 252
0 0 253
0 0 252
0 0 252
0 0 246
0 0 254
0 0 250
0 0 249
0 0 250
0 0 248
0 0 252
0 0 244
0 0 252
0 0 249
0 0 250
0 0 253
0 0 250
0 0 253
0 0 248
0 0 244
0 0 250
0 0 250
0 0 250
0 0 249
0 0 255
0 0 246
0 0 249
0 0 241
0 0 249
0 0 248
142 146 250
232 238 255
241 247 255
241 247 255
241 247 255
241 247 255
241 247 255
241 247 255
241 247 255
241 247 255
241 247 255
241 247 255
241 247 255
242 247 255
242 247 255
242 247 255
242 247 255
242 247 255
242 247 255
242 247 255
242 247 255
242 247 255
242 247 255
242 247 255
242 247 255
242 247 255
242 247 255
242 247 255
242 247 255
242 247 255
242 248 255
242 248 255
242 248 255
242 248 255
242 248 255
242 248 255
242 248 255
242 248 255
242 248 255
242 248 255
242 248 255
242 248 255
242 248 255
242 248 255
242 248 255
242 248 255
242 248 255
242 248 255
242 248 255
242 248 255
242 248 255
242 248 255
242 248 255
242 248 255
242 248 255
242 248 255
242 248 255
242 248 255
242 248 255
242 248 255
242 248 255
242 248 255
242 248 255
242 248 255
242 248 255
242 248 255
242 248 255
242 248 255
242 248 255
242 248 255
242 248 255
242 248 255
242 248 255
242 248 255
242 248 255
242 248 255
242 248 255
242 248 255
242 247 255
242 247 255
242 247 255
242 247 255
242 247 255
242 247 255
242 247 255
242 247 255
242 247 255
242 247 255
242 247 255
242 247 255
242 247 255
242 247 255
242 247 255
242 247 255
242 247 255
241 247 255
241 247 255
241 247 255
241 247 255
241 247 255
241 247 255
241 247 255
241 247 255
241 247 255
241 247 255
241 247 255
241 234 242
234 150 155
238 0 0
230 0 0
231 0 0
235 0 0
228 0 0
241 0 0
233 0 0
234 0 0
232 0 0
231 0 0
231 0 0
227 0 0
232 0 0
231 0 0
225 0 0
232 0 0
229 0 0
229 0 0
231 0 0
228 0 0
229 0 0
230 0 0
227 0 0
230 0 0
235 0 0
226 0 0
227 0 0
231 0 0
235 0 0
228 0 0
223 0 0
227 0 0
230 0 0
234 0 0
235 0 0
230 0 0
231 0 0
233 0 0
231 0 0
228 0 0
225 0 0
228 0 0
231 0 0
231 0 0
220 0 0
229 0 0
234 0 0
225 0 0
232 0 0
232 0 0
228 0 0
231 0 0
224 0 0
231 0 0
232 0 0
231 0 0
231 0 0
230 0 0
233 0 0
227 0 0
228 0 0
226 0 0
228 0 0
231 0 0
233 0 0
228 0 0
228 0 0
228 0 0
231 0 0
231 0 0
231 0 0
233 0 0
232 0 0
229 0 0
231 0 0
229 0 0
228 0 0
229 0 0
230 0 0
229 0 0
232 0 0
233 0 0
231 0 0
229 0 0
232 0 0
226 0 0
235 0 0
232 0 0
231 0 0
230 0 0
229 0 0
231 0 0
231 0 0
233 0 0
230 0 0
229 0 0
228 0 0
230 0 0
233 0 0
228 0 0
232 0 0
230 0 0
229 0 0
230 0 0
229 0 0
226 0 0
232 0 0
231 0 0
228 0 0
231 0 0
231 0 0
231 0 0
232 0 0
230 0 0
231 0 0
229 0 0
232 0 0
229 0 0
232 0 0
230 0 0
231 0 0
228 0 0
229 0 0
231 0 0
232 0 0
228 0 0
231 0 0
231 0 0
230 0 0
229 0 0
228 0 0
231 0 0
232 0 0
231 0 0
232 0 0
231 0 0
229 0 0
231 0 0
229 0 0
228 0 0
230 0 0
228 0 0
233 0 0
231 0 0
231 0 0
230 0 0
0 0 255
0 0 255
0 0 255
0 0 255
0 0 255
0 0 255
0 0 255
0 0 255
0 0 255
0 0 255
0 0 255
0 0 255
0 0 255
0 0 255
0 0 255
0 0 255
0 0 255
0 0 255
0 0 255
0 0 254
0 0 255
0 0 255
0 0 255
0 0 255
0 0 255
0 0 255
0 0 253
0 0 254
0 0 255
0 0 253
0 0 255
0 0 255
0 0 255
0 0 255
0 0 255
0 0 254
0 0 254
0 0 255
0 0 254
0 0 254
0 0 254
0 0 254
0 0 255
0 0 254
0 0 254
0 0 254
0 0 254
0 0 253
0 0 254
0 0 255
0 0 255
0 0 253
0 0 254
0 0 254
0 0 254
0 0 253
0 0 255
0 0 253
0 0 254
0 0 255
0 0 254
0 0 254
0 0 255
0 0 253
0 0 254
0 0 255
0 0 255
0 0 254
0 0 253
0 0 254
0 0 254
0 0 255
0 0 252
0 0 255
0 0 253
0 0 253
0 0 255
0 0 252
0 0 255
0 0 254
0 0 254
0 0 252
0 0 255
0 0 254
0 0 249
0 0 255
0 0 253
0 0 254
0 0 250
0 0 253
0 0 252
0 0 250
0 0 254
0 0 254
0 0 254
0 0 250
0 0 253
0 0 253
0 0 254
0 0 248
0 0 252
0 0 252
0 0 246
0 0 253
0 0 249
0 0 250
0 0 255
0 0 252
0 0 252
0 0 253
0 0 245
0 0 252
0 0 252
0 0 252
0 0 253
0 0 252
0 0 249
0 0 249
0 0 250
0 0 254
0 0 249
0 0 254
0 0 252
0 0 249
0 0 246
0 0 254
0 0 250
0 0 248
0 0 248
0 0 252
0 0 244
0 0 249
0 0 250
0 0 248
0 0 253
0 0 252
0 0 248
0 0 252
0 0 250
0 0 253
0 0 250
0 0 252
0 0 246
0 0 248
90 92 246
202 207 255
241 247 255
241 247 255
241 247 255
241 247 255
241 247 255
241 247 255
241 247 255
241 247 255
241 247 255
242 247 255
242 247 255
242 247 255
242 247 255
242 247 255
242 247 255
242 247 255
242 247 255
242 247 255
242 247 255
242 247 255
242 247 255
242 247 255
242 247 255
242 247 255
242 248 255
242 248 255
242 248 255
242 248 255
242 248 255
242 248 255
242 248 255
242 248 255
242 248 255
242 248 255
242 248 255
242 248 255
242 248 255
242 248 255
242 248 255
242 248 255
242 248 255
242 248 255
242 248 255
242 248 255
242 248 255
242 248 255
242 248 255
242 248 255
242 248 255
242 248 255
242 248 255
242 248 255
242 248 255
242 248 255
242 248 255
242 248 255
242 248 255
242 248 255
242 248 255
242 248 255
242 248 255
242 248 255
242 248 255
242 248 255
242 248 255
242 248 255
242 248 255
242 248 255
242 248 255
242 248 255
242 248 255
242 248 255
242 248 255
242 248 255
242 248 255
242 248 255
242 248 255
242 248 255
242 248 255
242 248 255
242 248 255
242 248 255
242 248 255
242 248 255
242 247 255
242 247 255
242 247 255
242 247 255
242 247 255
242 247 255
242 247 255
242 247 255
242 247 255
242 247 255
242 247 255
242 247 255
242 247 255
242 247 255
242 247 255
241 247 255
241 247 255
241 247 255
241 247 255
241 247 255
241 247 255
241 247 255
241 247 255
241 247 255
239 209 217
239 102 105
235 0 0
229 0 0
235 0 0
232 0 0
232 0 0
234 0 0
231 0 0
233 0 0
232 0 0
231 0 0
231 0 0
228 0 0
230 0 0
232 0 0
235 0 0
225 0 0
232 0 0
231 0 0
234 0 0
229 0 0
228 0 0
232 0 0
232 0 0
226 0 0
230 0 0
235 0 0
227 0 0
230 0 0
230 0 0
229 0 0
235 0 0
224 0 0
229 0 0
231 0 0
234 0 0
230 0 0
233 0 0
233 0 0
230 0 0
233 0 0
229 0 0
233 0 0
229 0 0
226 0 0
231 0 0
230 0 0
229 0 0
226 0 0
229 0 0
230 0 0
225 0 0
234 0 0
231 0 0
231 0 0
236 0 0
233 0 0
231 0 0
227 0 0
230 0 0
232 0 0
232 0 0
228 0 0
229 0 0
230 0 0
229 0 0
232 0 0
233 0 0
230 0 0
230 0 0
229 0 0
231 0 0
228 0 0
230 0 0
230 0 0
227 0 0
230 0 0
231 0 0
235 0 0
234 0 0
230 0 0
232 0 0
234 0 0
229 0 0
228 0 0
231 0 0
231 0 0
231 0 0
233 0 0
231 0 0
229 0 0
228 0 0
231 0 0
230 0 0
231 0 0
231 0 0
233 0 0
228 0 0
232 0 0
232 0 0
230 0 0
233 0 0
232 0 0
227 0 0
230 0 0
229 0 0
232 0 0
233 0 0
230 0 0
233 0 0
227 0 0
231 0 0
230 0 0
229 0 0
230 0 0
229 0 0
231 0 0
231 0 0
227 0 0
232 0 0
232 0 0
230 0 0
232 0 0
233 0 0
232 0 0
232 0 0
228 0 0
231 0 0
231 0 0
234 0 0
228 0 0
230 0 0
231 0 0
232 0 0
233 0 0
232 0 0
228 0 0
228 0 0
232 0 0
229 0 0
233 0 0
227 0 0
230 0 0
234 0 0
227 0 0
0 0 255
0 0 255
0 0 255
0 0 255
0 0 255
0 0 255
0 0 253
0 0 255
0 0 255
0 0 255
0 0 255
0 0 255
0 0 255
0 0 255
0 0 254
0 0 255
0 0 255
0 0 255
0 0 255
0 0 255
0 0 255
0 0 255
0 0 254
0 0 253
0 0 255
0 0 255
0 0 255
0 0 254
0 0 255
0 0 255
0 0 255
0 0 255
0 0 254
0 0 254
0 0 255
0 0 255
0 0 255
0 0 255
0 0 255
0 0 255
0 0 254
0 0 255
0 0 253
0 0 254
0 0 255
0 0 254
0 0 254
0 0 254
0 0 254
0 0 254
0 0 254
0 0 254
0 0 255
0 0 254
0 0 255
0 0 255
0 0 254
0 0 254
0 0 255
0 0 253
0 0 254
0 0 254
0 0 253
0 0 252
0 0 254
0 0 255
0 0 250
0 0 253
0 0 254
0 0 250
0 0 255
0 0 255
0 0 253
0 0 255
0 0 252
0 0 255
0 0 255
0 0 255
0 0 254
0 0 250
0 0 249
0 0 253
0 0 254
0 0 252
0 0 253
0 0 254
0 0 254
0 0 253
0 0 250
0 0 252
0 0 253
0 0 253
0 0 252
0 0 250
0 0 255
0 0 249
0 0 252
0 0 252
0 0 250
0 0 253
0 0 253
0 0 253
0 0 254
0 0 252
0 0 252
0 0 254
0 0 254
0 0 253
0 0 249
0 0 254
0 0 252
0 0 253
0 0 254
0 0 253
0 0 252
0 0 252
0 0 250
0 0 252
0 0 248
0 0 252
0 0 252
0 0 244
0 0 246
0 0 250
0 0 249
0 0 250
0 0 249
0 0 250
0 0 248
0 0 246
0 0 250
0 0 249
0 0 249
0 0 250
0 0 250
0 0 253
0 0 248
0 0 253
0 0 249
0 0 245
0 0 248
0 0 252
24 24 248
179 183 254
239 245 255
241 247 255
241 247 255
241 247 255
241 247 255
241 247 255
241 247 255
242 247 255
242 247 255
242 247 255
242 247 255
242 247 255
242 247 255
242 247 255
242 247 255
242 247 255
242 247 255
242 247 255
242 247 255
242 247 255
242 247 255
242 248 255
242 248 255
242 248 255
242 248 255
242 248 255
242 248 255
242 248 255
242 248 255
242 248 255
242 248 255
242 248 255
242 248 255
242 248 255
242 248 255
242 248 255
242 248 255
242 248 255
242 248 255
242 248 255
242 248 255
243 248 255
243 248 255
243 248 255
243 248 255
243 248 255
243 248 255
243 248 255
243 248 255
243 248 255
243 248 255
243 248 255
243 248 255
243 248 255
243 248 255
243 248 255
243 248 255
243 248 255
243 248 255
243 248 255
243 248 255
243 248 255
243 248 255
243 248 255
243 248 255
243 248 255
243 248 255
243 248 255
243 248 255
243 248 255
242 248 255
242 248 255
242 248 255
242 248 255
242 248 255
242 248 255
242 248 255
242 248 255
242 248 255
242 248 255
242 248 255
242 248 255
242 248 255
242 248 255
242 248 255
242 248 255
242 248 255
242 248 255
242 248 255
242 248 255
242 248 255
242 247 255
242 247 255
242 247 255
242 247 255
242 247 255
242 247 255
242 247 255
242 247 255
242 247 255
242 247 255
242 247 255
242 247 255
242 247 255
241 247 255
241 247 255
241 247 255
241 247 255
241 247 255
241 247 255
241 247 255
241 247 255
242 186 193
238 55 57
235 0 0
232 0 0
237 0 0
233 0 0
234 0 0
228 0 0
232 0 0
235 0 0
236 0 0
234 0 0
225 0 0
236 0 0
229 0 0
234 0 0
225 0 0
230 0 0
230 0 0
230 0 0
228 0 0
233 0 0
228 0 0
231 0 0
232 0 0
226 0 0
226 0 0
229 0 0
224 0 0
233 0 0
234 0 0
228 0 0
229 0 0
235 0 0
228 0 0
230 0 0
230 0 0
230 0 0
228 0 0
230 0 0
231 0 0
229 0 0
231 0 0
230 0 0
230 0 0
236 0 0
226 0 0
229 0 0
229 0 0
232 0 0
230 0 0
231 0 0
232 0 0
226 0 0
230 0 0
234 0 0
229 0 0
231 0 0
229 0 0
232 0 0
232 0 0
231 0 0
230 0 0
228 0 0
230 0 0
234 0 0
232 0 0
231 0 0
231 0 0
233 0 0
232 0 0
233 0 0
234 0 0
229 0 0
230 0 0
233 0 0
226 0 0
234 0 0
229 0 0
233 0 0
229 0 0
231 0 0
226 0 0
228 0 0
233 0 0
233 0 0
233 0 0
230 0 0
232 0 0
230 0 0
231 0 0
229 0 0
231 0 0
232 0 0
232 0 0
228 0 0
229 0 0
233 0 0
233 0 0
232 0 0
232 0 0
233 0 0
232 0 0
233 0 0
233 0 0
230 0 0
231 0 0
229 0 0
227 0 0
230 0 0
232 0 0
230 0 0
230 0 0
228 0 0
230 0 0
229 0 0
229 0 0
231 0 0
227 0 0
229 0 0
230 0 0
233 0 0
230 0 0
230 0 0
229 0 0
230 0 0
231 0 0
232 0 0
231 0 0
229 0 0
229 0 0
231 0 0
229 0 0
233 0 0
228 0 0
232 0 0
231 0 0
230 0 0
231 0 0
229 0 0
231 0 0
228 0 0
230 0 0
228 0 0
0 0 255
0 0 255
0 0 255
0 0 255
0 0 255
0 0 255
0 0 255
0 0 255
0 0 255
0 0 255
0 0 255
0 0 255
0 0 255
0 0 255
0 0 255
0 0 255
0 0 255
0 0 255
0 0 255
0 0 255
0 0 254
0 0 254
0 0 254
0 0 254
0 0 255
0 0 255
0 0 255
0 0 253
0 0 255
0 0 255
0 0 253
0 0 254
0 0 255
0 0 255
0 0 254
0 0 254
0 0 255
0 0 255
0 0 255
0 0 255
0 0 254
0 0 255
0 0 254
0 0 254
0 0 255
0 0 255
0 0 255
0 0 255
0 0 255
0 0 253
0 0 253
0 0 253
0 0 252
0 0 254
0 0 254
0 0 254
0 0 254
0 0 254
0 0 254
0 0 253
0 0 254
0 0 254
0 0 255
0 0 255
0 0 255
0 0 255
0 0 254
0 0 254
0 0 255
0 0 254
0 0 254
0 0 254
0 0 253
0 0 253
0 0 254
0 0 255
0 0 254
0 0 253
0 0 253
0 0 252
0 0 255
0 0 254
0 0 255
0 0 255
0 0 254
0 0 254
0 0 254
0 0 254
0 0 254
0 0 252
0 0 254
0 0 253
0 0 253
0 0 252
0 0 252
0 0 253
0 0 252
0 0 252
0 0 252
0 0 254
0 0 252
0 0 254
0 0 252
0 0 252
0 0 252
0 0 253
0 0 254
0 0 252
0 0 253
0 0 254
0 0 250
0 0 252
0 0 246
0 0 252
0 0 252
0 0 253
0 0 252
0 0 250
0 0 252
0 0 249
0 0 253
0 0 246
0 0 250
0 0 253
0 0 249
0 0 254
0 0 248
0 0 252
0 0 250
0 0 250
0 0 246
0 0 250
0 0 242
0 0 252
0 0 249
0 0 252
0 0 248
0 0 250
0 0 248
0 0 252
0 0 246
147 150 252
222 228 254
241 247 255
241 247 255
241 247 255
241 247 255
241 247 255
242 247 255
242 247 255
242 247 255
242 247 255
242 247 255
242 247 255
242 247 255
242 247 255
242 247 255
242 247 255
242 247 255
242 247 255
242 247 255
242 248 255
242 248 255
242 248 255
242 248 255
242 248 255
242 248 255
242 248 255
242 248 255
242 248 255
242 248 255
242 248 255
242 248 255
242 248 255
242 248 255
242 248 255
242 248 255
242 248 255
243 248 255
243 248 255
243 248 255
243 248 255
243 248 255
243 248 255
243 248 255
243 248 255
243 248 255
243 248 255
243 248 255
243 248 255
243 248 255
243 248 255
243 248 255
243 248 255
243 248 255
243 248 255
243 248 255
243 248 255
243 248 255
243 248 255
243 248 255
243 248 255
243 248 255
243 248 255
243 248 255
243 248 255
243 248 255
243 248 255
243 248 255
243 248 255
243 248 255
243 248 255
243 248 255
243 248 255
243 248 255
243 248 255
243 248 255
243 248 255
243 248 255
243 248 255
243 248 255
243 248 255
243 248 255
242 248 255
242 248 255
242 248 255
242 248 255
242 248 255
242 248 255
242 248 255
242 248 255
242 248 255
242 248 255
242 248 255
242 248 255
242 248 255
242 248 255
242 248 255
242 248 255
242 247 255
242 247 255
242 247 255
242 247 255
242 247 255
242 247 255
242 247 255
242 247 255
242 247 255
242 247 255
242 247 255
242 247 255
242 247 255
241 247 255
241 247 255
241 247 255
241 247 255
241 247 255
240 234 242
239 154 159
240 0 0
229 0 0
229 0 0
233 0 0
236 0 0
235 0 0
238 0 0
234 0 0
234 0 0
233 0 0
233 0 0
233 0 0
234 0 0
228 0 0
227 0 0
224 0 0
234 0 0
233 0 0
233 0 0
232 0 0
233 0 0
231 0 0
231 0 0
231 0 0
231 0 0
230 0 0
225 0 0
229 0 0
233 0 0
233 0 0
227 0 0
232 0 0
235 0 0
229 0 0
236 0 0
232 0 0
231 0 0
234 0 0
232 0 0
232 0 0
230 0 0
231 0 0
230 0 0
226 0 0
234 0 0
235 0 0
227 0 0
231 0 0
235 0 0
231 0 0
233 0 0
233 0 0
231 0 0
233 0 0
235 0 0
228 0 0
231 0 0
232 0 0
231 0 0
230 0 0
229 0 0
233 0 0
231 0 0
227 0 0
229 0 0
229 0 0
230 0 0
232 0 0
230 0 0
231 0 0
233 0 0
230 0 0
228 0 0
231 0 0
229 0 0
228 0 0
230 0 0
231 0 0
229 0 0
228 0 0
233 0 0
230 0 0
232 0 0
231 0 0
227 0 0
232 0 0
231 0 0
231 0 0
228 0 0
231 0 0
232 0 0
231 0 0
234 0 0
229 0 0
232 0 0
232 0 0
233 0 0
226 0 0
233 0 0
229 0 0
231 0 0
229 0 0
233 0 0
232 0 0
229 0 0
226 0 0
231 0 0
229 0 0
232 0 0
230 0 0
230 0 0
231 0 0
232 0 0
229 0 0
229 0 0
228 0 0
232 0 0
227 0 0
230 0 0
232 0 0
232 0 0
232 0 0
228 0 0
230 0 0
230 0 0
229 0 0
232 0 0
232 0 0
231 0 0
231 0 0
230 0 0
235 0 0
229 0 0
228 0 0
232 0 0
231 0 0
230 0 0
232 0 0
230 0 0
229 0 0
230 0 0
0 0 255
0 0 255
0 0 255
0 0 255
0 0 255
0 0 255
0 0 255
0 0 255
0 0 255
0 0 255
0 0 255
0 0 255
0 0 255
0 0 255
0 0 255
0 0 255
0 0 255
0 0 255
0 0 255
0 0 255
0 0 255
0 0 255
0 0 254
0 0 255
0 0 254
0 0 255
0 0 255
0 0 254
0 0 255
0 0 255
0 0 253
0 0 255
0 0 255
0 0 254
0 0 255
0 0 254
0 0 255
0 0 255
0 0 253
0 0 255
0 0 255
0 0 254
0 0 254
0 0 255
0 0 253
0 0 255
0 0 255
0 0 255
0 0 254
0 0 255
0 0 254
0 0 255
0 0 255
0 0 254
0 0 254
0 0 255
0 0 254
0 0 254
0 0 254
0 0 254
0 0 254
0 0 254
0 0 253
0 0 253
0 0 252
0 0 254
0 0 254
0 0 255
0 0 254
0 0 252
0 0 255
0 0 253
0 0 252
0 0 254
0 0 252
0 0 253
0 0 253
0 0 250
0 0 252
0 0 254
0 0 255
0 0 253
0 0 254
0 0 254
0 0 254
0 0 254
0 0 253
0 0 255
0 0 254
0 0 250
0 0 253
0 0 255
0 0 250
0 0 253
0 0 249
0 0 252
0 0 254
0 0 249
0 0 254
0 0 253
0 0 253
0 0 250
0 0 253
0 0 253
0 0 249
0 0 253
0 0 246
0 0 252
0 0 248
0 0 253
0 0 252
0 0 254
0 0 254
0 0 252
0 0 252
0 0 253
0 0 250
0 0 250
0 0 253
0 0 250
0 0 253
0 0 250
0 0 249
0 0 253
0 0 253
0 0 253
0 0 246
0 0 248
0 0 246
0 0 253
0 0 248
0 0 248
0 0 254
0 0 249
0 0 253
0 0 252
0 0 253
0 0 249
0 0 254
127 131 253
228 233 254
241 247 255
241 247 255
241 247 255
241 247 255
242 247 255
242 247 255
242 247 255
242 247 255
242 247 255
242 247 255
242 247 255
242 247 255
242 247 255
242 247 255
242 247 255
242 247 255
242 248 255
242 248 255
242 248 255
242 248 255
242 248 255
242 248 255
242 248 255
242 248 255
242 248 255
242 248 255
242 248 255
242 248 255
242 248 255
242 248 255
242 248 255
243 248 255
243 248 255
243 248 255
243 248 255
243 248 255
243 248 255
243 248 255
243 248 255
243 248 255
243 248 255
243 248 255
243 248 255
243 248 255
243 248 255
243 248 255
243 248 255
243 248 255
243 248 255
243 248 255
243 248 255
243 248 255
243 248 255
243 248 255
243 248 255
243 248 255
243 248 255
243 248 255
243 248 255
243 248 255
243 248 255
243 248 255
243 248 255
243 248 255
243 248 255
243 248 255
243 248 255
243 248 255
243 248 255
243 248 255
243 248 255
243 248 255
243 248 255
243 248 255
243 248 255
243 248 255
243 248 255
243 248 255
243 248 255
243 248 255
243 248 255
243 248 255
243 248 255
243 248 255
243 248 255
243 248 255
243 248 255
243 248 255
242 248 255
242 248 255
242 248 255
242 248 255
242 248 255
242 248 255
242 248 255
242 248 255
242 248 255
242 248 255
242 248 255
242 248 255
242 248 255
242 248 255
242 247 255
242 247 255
242 247 255
242 247 255
242 247 255
242 247 255
242 247 255
242 247 255
242 247 255
242 247 255
242 247 255
242 247 255
241 247 255
241 247 255
241 247 255
241 247 255
240 214 221
238 126 130
233 0 0
238 0 0
232 0 0
234 0 0
235 0 0
232 0 0
228 0 0
234 0 0
233 0 0
235 0 0
232 0 0
227 0 0
233 0 0
236 0 0
236 0 0
233 0 0
231 0 0
233 0 0
234 0 0
231 0 0
235 0 0
234 0 0
231 0 0
233 0 0
228 0 0
232 0 0
230 0 0
231 0 0
230 0 0
232 0 0
236 0 0
229 0 0
228 0 0
230 0 0
227 0 0
230 0 0
229 0 0
230 0 0
228 0 0
232 0 0
232 0 0
232 0 0
230 0 0
233 0 0
234 0 0
230 0 0
227 0 0
225 0 0
231 0 0
227 0 0
235 0 0
229 0 0
229 0 0
232 0 0
232 0 0
234 0 0
233 0 0
235 0 0
230 0 0
228 0 0
231 0 0
227 0 0
229 0 0
232 0 0
235 0 0
231 0 0
235 0 0
236 0 0
231 0 0
232 0 0
233 0 0
233 0 0
231 0 0
231 0 0
234 0 0
231 0 0
231 0 0
230 0 0
231 0 0
231 0 0
231 0 0
228 0 0
231 0 0
229 0 0
229 0 0
231 0 0
234 0 0
233 0 0
232 0 0
233 0 0
228 0 0
231 0 0
231 0 0
232 0 0
233 0 0
230 0 0
232 0 0
232 0 0
234 0 0
229 0 0
228 0 0
230 0 0
232 0 0
229 0 0
229 0 0
231 0 0
232 0 0
231 0 0
229 0 0
230 0 0
233 0 0
234 0 0
231 0 0
225 0 0
231 0 0
232 0 0
229 0 0
234 0 0
234 0 0
232 0 0
230 0 0
231 0 0
229 0 0
232 0 0
231 0 0
231 0 0
234 0 0
229 0 0
230 0 0
228 0 0
232 0 0
231 0 0
234 0 0
231 0 0
231 0 0
228 0 0
231 0 0
232 0 0
228 0 0
0 0 255
0 0 254
0 0 255
0 0 255
0 0 255
0 0 255
0 0 254
0 0 255
0 0 254
0 0 255
0 0 255
0 0 255
0 0 255
0 0 255
0 0 255
0 0 255
0 0 254
0 0 255
0 0 255
0 0 255
0 0 255
0 0 255
0 0 255
0 0 254
0 0 255
0 0 255
0 0 254
0 0 255
0 0 255
0 0 255
0 0 255
0 0 254
0 0 252
0 0 254
0 0 255
0 0 254
0 0 253
0 0 255
0 0 254
0 0 253
0 0 254
0 0 255
0 0 255
0 0 255
0 0 255
0 0 254
0 0 254
0 0 254
0 0 255
0 0 253
0 0 254
0 0 255
0 0 255
0 0 254
0 0 252
0 0 253
0 0 254
0 0 255
0 0 253
0 0 254
0 0 254
0 0 255
0 0 255
0 0 253
0 0 252
0 0 253
0 0 254
0 0 254
0 0 254
0 0 254
0 0 254
0 0 253
0 0 253
0 0 254
0 0 254
0 0 254
0 0 254
0 0 254
0 0 255
0 0 249
0 0 254
0 0 254
0 0 254
0 0 249
0 0 255
0 0 255
0 0 252
0 0 255
0 0 255
0 0 250
0 0 249
0 0 252
0 0 252
0 0 254
0 0 253
0 0 250
0 0 254
0 0 250
0 0 255
0 0 253
0 0 252
0 0 253
0 0 252
0 0 253
0 0 253
0 0 252
0 0 252
0 0 249
0 0 250
0 0 252
0 0 252
0 0 250
0 0 253
0 0 254
0 0 253
0 0 250
0 0 250
0 0 252
0 0 245
0 0 253
0 0 250
0 0 254
0 0 253
0 0 249
0 0 253
0 0 252
0 0 252
0 0 248
0 0 248
0 0 254
0 0 249
0 0 252
0 0 249
0 0 254
0 0 252
0 0 252
0 0 255
105 107 250
199 204 252
240 246 255
241 247 255
242 247 255
242 247 255
242 247 255
242 247 255
242 247 255
242 247 255
242 247 255
242 247 255
242 247 255
242 247 255
242 247 255
242 247 255
242 248 255
242 248 255
242 248 255
242 248 255
242 248 255
242 248 255
242 248 255
242 248 255
242 248 255
242 248 255
242 248 255
242 248 255
242 248 255
243 248 255
243 248 255
243 248 255
243 248 255
243 248 255
243 248 255
243 248 255
243 248 255
243 248 255
243 248 255
243 248 255
243 248 255
243 248 255
243 248 255
243 248 255
243 248 255
243 248 255
243 248 255
243 248 255
243 248 255
243 248 255
243 248 255
243 248 255
243 248 255
243 248 255
243 248 255
243 248 255
243 248 255
243 248 255
243 248 255
243 248 255
243 248 255
243 248 255
243 248 255
243 248 255
243 248 255
243 248 255
243 248 255
243 248 255
243 248 255
243 248 255
243 248 255
243 248 255
243 248 255
243 248 255
243 248 255
243 248 255
243 248 255
243 248 255
243 248 255
243 248 255
243 248 255
243 248 255
243 248 255
243 248 255
243 248 255
243 248 255
243 248 255
243 248 255
243 248 255
243 248 255
243 248 255
243 248 255
243 248 255
243 248 255
243 248 255
243 248 255
243 248 255
242 248 255
242 248 255
242 248 255
242 248 255
242 248 255
242 248 255
242 248 255
242 248 255
242 248 255
242 248 255
242 248 255
242 248 255
242 248 255
242 247 255
242 247 255
242 247 255
242 247 255
242 247 255
242 247 255
242 247 255
242 247 255
242 247 255
242 247 255
242 247 255
242 247 255
241 247 255
241 246 254
238 194 201
231 99 102
232 0 0
236 0 0
232 0 0
229 0 0
233 0 0
232 0 0
236 0 0
230 0 0
234 0 0
235 0 0
232 0 0
228 0 0
234 0 0
236 0 0
232 0 0
234 0 0
233 0 0
233 0 0
229 0 0
231 0 0
234 0 0
231 0 0
230 0 0
228 0 0
234 0 0
233 0 0
231 0 0
236 0 0
229 0 0
236 0 0
231 0 0
232 0 0
230 0 0
235 0 0
235 0 0
238 0 0
232 0 0
234 0 0
231 0 0
238 0 0
230 0 0
233 0 0
230 0 0
235 0 0
233 0 0
234 0 0
230 0 0
232 0 0
229 0 0
232 0 0
233 0 0
229 0 0
231 0 0
227 0 0
231 0 0
233 0 0
234 0 0
232 0 0
232 0 0
230 0 0
230 0 0
229 0 0
235 0 0
229 0 0
232 0 0
228 0 0
227 0 0
232 0 0
232 0 0
230 0 0
231 0 0
231 0 0
229 0 0
231 0 0
234 0 0
229 0 0
232 0 0
229 0 0
236 0 0
231 0 0
229 0 0
230 0 0
230 0 0
228 0 0
230 0 0
232 0 0
234 0 0
230 0 0
231 0 0
231 0 0
230 0 0
230 0 0
230 0 0
232 0 0
229 0 0
232 0 0
232 0 0
233 0 0
232 0 0
231 0 0
232 0 0
232 0 0
230 0 0
232 0 0
232 0 0
231 0 0
229 0 0
229 0 0
227 0 0
231 0 0
229 0 0
232 0 0
234 0 0
231 0 0
230 0 0
232 0 0
226 0 0
229 0 0
229 0 0
229 0 0
232 0 0
233 0 0
230 0 0
232 0 0
228 0 0
231 0 0
230 0 0
232 0 0
227 0 0
231 0 0
231 0 0
233 0 0
230 0 0
231 0 0
231 0 0
233 0 0
233 0 0
0 0 255
0 0 255
0 0 255
0 0 255
0 0 254
0 0 255
0 0 255
0 0 255
0 0 255
0 0 255
0 0 255
0 0 255
0 0 255
0 0 255
0 0 254
0 0 255
0 0 255
0 0 255
0 0 254
0 0 254
0 0 255
0 0 255
0 0 255
0 0 253
0 0 255
0 0 255
0 0 255
0 0 254
0 0 255
0 0 254
0 0 255
0 0 255
0 0 255
0 0 255
0 0 255
0 0 254
0 0 253
0 0 254
0 0 255
0 0 255
0 0 253
0 0 255
0 0 255
0 0 255
0 0 255
0 0 254
0 0 253
0 0 255
0 0 254
0 0 254
0 0 254
0 0 255
0 0 254
0 0 254
0 0 254
0 0 253
0 0 255
0 0 253
0 0 252
0 0 254
0 0 255
0 0 255
0 0 254
0 0 253
0 0 254
0 0 255
0 0 254
0 0 254
0 0 253
0 0 252
0 0 252
0 0 255
0 0 253
0 0 255
0 0 255
0 0 253
0 0 252
0 0 254
0 0 254
0 0 253
0 0 254
0 0 252
0 0 255
0 0 254
0 0 255
0 0 254
0 0 254
0 0 252
0 0 255
0 0 254
0 0 253
0 0 252
0 0 250
0 0 250
0 0 252
0 0 254
0 0 249
0 0 250
0 0 253
0 0 250
0 0 252
0 0 252
0 0 255
0 0 249
0 0 250
0 0 252
0 0 252
0 0 253
0 0 252
0 0 249
0 0 252
0 0 254
0 0 248
0 0 252
0 0 249
0 0 253
0 0 252
0 0 245
0 0 249
0 0 250
0 0 252
0 0 253
0 0 249
0 0 252
0 0 253
0 0 253
0 0 250
0 0 254
0 0 252
0 0 250
0 0 252
0 0 255
0 0 250
0 0 248
0 0 253
72 74 254
193 198 252
240 246 255
242 247 255
242 247 255
242 247 255
242 247 255
242 247 255
242 247 255
242 247 255
242 247 255
242 247 255
242 247 255
242 247 255
242 247 255
242 248 255
242 248 255
242 248 255
242 248 255
242 248 255
242 248 255
242 248 255
242 248 255
242 248 255
242 248 255
242 248 255
242 248 255
243 248 255
243 248 255
243 248 255
243 248 255
243 248 255
243 248 255
243 248 255
243 248 255
243 248 255
243 248 255
243 248 255
243 248 255
243 248 255
243 248 255
243 248 255
243 248 255
243 248 255
243 248 255
243 248 255
243 248 255
243 248 255
243 248 255
243 248 255
243 248 255
243 248 255
243 248 255
243 248 255
243 248 255
243 248 255
243 248 255
243 248 255
243 248 255
243 248 255
243 248 255
243 248 255
243 248 255
243 248 255
243 248 255
243 248 255
243 248 255
243 248 255
243 248 255
243 248 255
243 248 255
243 248 255
243 248 255
243 248 255
243 248 255
243 248 255
243 248 255
243 248 255
243 248 255
243 248 255
243 248 255
243 248 255
243 248 255
243 248 255
243 248 255
243 248 255
243 248 255
243 248 255
243 248 255
243 248 255
243 248 255
243 248 255
243 248 255
243 248 255
243 248 255
243 248 255
243 248 255
243 248 255
243 248 255
243 248 255
243 248 255
243 248 255
243 248 255
242 248 255
242 248 255
242 248 255
242 248 255
242 248 255
242 248 255
242 248 255
242 248 255
242 248 255
242 248 255
242 248 255
242 248 255
242 247 255
242 247 255
242 247 255
242 247 255
242 247 255
242 247 255
242 247 255
242 247 255
242 247 255
242 247 255
242 247 255
241 247 255
242 245 253
237 190 196
239 60 62
238 0 0
236 0 0
235 0 0
233 0 0
232 0 0
235 0 0
234 0 0
233 0 0
233 0 0
235 0 0
229 0 0
233 0 0
234 0 0
234 0 0
231 0 0
234 0 0
234 0 0
231 0 0
236 0 0
236 0 0
229 0 0
236 0 0
233 0 0
234 0 0
227 0 0
233 0 0
235 0 0
232 0 0
231 0 0
235 0 0
235 0 0
230 0 0
234 0 0
229 0 0
232 0 0
233 0 0
237 0 0
233 0 0
231 0 0
235 0 0
227 0 0
231 0 0
229 0 0
229 0 0
233 0 0
229 0 0
233 0 0
230 0 0
233 0 0
231 0 0
225 0 0
234 0 0
228 0 0
229 0 0
230 0 0
233 0 0
234 0 0
229 0 0
230 0 0
229 0 0
235 0 0
232 0 0
231 0 0
232 0 0
228 0 0
229 0 0
228 0 0
232 0 0
231 0 0
232 0 0
231 0 0
230 0 0
230 0 0
234 0 0
228 0 0
232 0 0
233 0 0
232 0 0
234 0 0
231 0 0
229 0 0
233 0 0
231 0 0
234 0 0
232 0 0
230 0 0
227 0 0
231 0 0
232 0 0
231 0 0
232 0 0
233 0 0
231 0 0
234 0 0
228 0 0
231 0 0
234 0 0
233 0 0
228 0 0
234 0 0
228 0 0
231 0 0
231 0 0
230 0 0
229 0 0
232 0 0
232 0 0
230 0 0
232 0 0
231 0 0
232 0 0
232 0 0
233 0 0
228 0 0
230 0 0
231 0 0
229 0 0
229 0 0
228 0 0
232 0 0
228 0 0
232 0 0
230 0 0
231 0 0
231 0 0
231 0 0
233 0 0
231 0 0
233 0 0
228 0 0
229 0 0
231 0 0
228 0 0
232 0 0
234 0 0
0 0 255
0 0 255
0 0 255
0 0 255
0 0 255
0 0 255
0 0 255
0 0 255
0 0 255
0 0 255
0 0 255
0 0 253
0 0 255
0 0 255
0 0 255
0 0 255
0 0 255
0 0 255
0 0 255
0 0 255
0 0 255
0 0 255
0 0 255
0 0 255
0 0 254
0 0 255
0 0 255
0 0 255
0 0 255
0 0 255
0 0 255
0 0 255
0 0 255
0 0 255
0 0 255
0 0 255
0 0 255
0 0 254
0 0 253
0 0 255
0 0 255
0 0 254
0 0 254
0 0 254
0 0 255
0 0 255
0 0 254
0 0 255
0 0 254
0 0 254
0 0 255
0 0 255
0 0 254
0 0 255
0 0 255
0 0 255
0 0 255
0 0 255
0 0 255
0 0 255
0 0 254
0 0 254
0 0 254
0 0 255
0 0 255
0 0 253
0 0 253
0 0 255
0 0 255
0 0 254
0 0 252
0 0 255
0 0 255
0 0 254
0 0 255
0 0 255
0 0 255
0 0 253
0 0 253
0 0 252
0 0 249
0 0 254
0 0 253
0 0 255
0 0 255
0 0 254
0 0 255
0 0 255
0 0 252
0 0 254
0 0 250
0 0 253
0 0 252
0 0 252
0 0 255
0 0 252
0 0 250
0 0 253
0 0 253
0 0 252
0 0 253
0 0 254
0 0 254
0 0 253
0 0 253
0 0 253
0 0 252
0 0 254
0 0 245
0 0 253
0 0 254
0 0 250
0 0 253
0 0 253
0 0 249
0 0 252
0 0 253
0 0 250
0 0 252
0 0 248
0 0 250
0 0 254
0 0 248
0 0 255
0 0 246
0 0 253
0 0 252
0 0 252
0 0 253
0 0 253
0 0 249
0 0 252
0 0 253
64 65 253
167 171 255
237 242 255
242 247 255
242 247 255
242 247 255
242 247 255
242 247 255
242 247 255
242 247 255
242 247 255
242 247 255
242 247 255
242 247 255
242 248 255
242 248 255
242 248 255
242 248 255
242 248 255
242 248 255
242 248 255
242 248 255
242 248 255
242 248 255
242 248 255
243 248 255
243 248 255
243 248 255
243 248 255
243 248 255
243 248 255
243 248 255
243 248 255
243 248 255
243 248 255
243 248 255
243 248 255
243 248 255
243 248 255
243 248 255
243 248 255
243 248 255
243 248 255
243 248 255
243 248 255
243 248 255
243 248 255
243 248 255
243 248 255
243 248 255
243 248 255
243 248 255
243 248 255
243 248 255
243 248 255
243 248 255
243 248 255
243 248 255
243 248 255
243 248 255
243 248 255
243 248 255
243 248 255
243 248 255
243 248 255
243 248 255
243 248 255
243 248 255
243 248 255
243 248 255
243 248 255
243 248 255
243 248 255
243 248 255
243 248 255
243 248 255
243 248 255
243 248 255
243 248 255
243 248 255
243 248 255
243 248 255
243 248 255
243 248 255
243 248 255
243 248 255
243 248 255
243 248 255
243 248 255
243 248 255
243 248 255
243 248 255
243 248 255
243 248 255
243 248 255
243 248 255
243 248 255
243 248 255
243 248 255
243 248 255
243 248 255
243 248 255
243 248 255
243 248 255
243 248 255
243 248 255
243 248 255
243 248 255
243 248 255
242 248 255
242 248 255
242 248 255
242 248 255
242 248 255
242 248 255
242 248 255
242 248 255
242 248 255
242 248 255
242 248 255
242 247 255
242 247 255
242 247 255
242 247 255
242 247 255
242 247 255
242 247 255
242 247 255
242 247 255
242 247 255
242 247 255
239 240 248
239 180 186
238 60 62
236 0 0
238 0 0
227 0 0
236 0 0
233 0 0
227 0 0
229 0 0
233 0 0
236 0 0
235 0 0
234 0 0
234 0 0
235 0 0
234 0 0
235 0 0
232 0 0
233 0 0
232 0 0
235 0 0
231 0 0
235 0 0
233 0 0
236 0 0
231 0 0
234 0 0
232 0 0
233 0 0
230 0 0
234 0 0
233 0 0
231 0 0
236 0 0
231 0 0
231 0 0
234 0 0
232 0 0
231 0 0
231 0 0
229 0 0
228 0 0
231 0 0
231 0 0
231 0 0
235 0 0
229 0 0
231 0 0
235 0 0
233 0 0
230 0 0
230 0 0
230 0 0
231 0 0
229 0 0
232 0 0
230 0 0
228 0 0
231 0 0
235 0 0
231 0 0
234 0 0
231 0 0
234 0 0
229 0 0
228 0 0
230 0 0
233 0 0
231 0 0
233 0 0
232 0 0
233 0 0
234 0 0
231 0 0
233 0 0
228 0 0
232 0 0
232 0 0
234 0 0
232 0 0
234 0 0
231 0 0
234 0 0
232 0 0
231 0 0
233 0 0
231 0 0
230 0 0
231 0 0
231 0 0
233 0 0
228 0 0
231 0 0
229 0 0
231 0 0
231 0 0
232 0 0
234 0 0
231 0 0
232 0 0
232 0 0
230 0 0
229 0 0
234 0 0
230 0 0
233 0 0
232 0 0
232 0 0
231 0 0
233 0 0
229 0 0
232 0 0
231 0 0
234 0 0
230 0 0
230 0 0
231 0 0
233 0 0
232 0 0
231 0 0
229 0 0
232 0 0
230 0 0
232 0 0
230 0 0
230 0 0
233 0 0
230 0 0
231 0 0
228 0 0
227 0 0
233 0 0
233 0 0
233 0 0
232 0 0
0 0 255
0 0 254
0 0 255
0 0 255
0 0 255
0 0 255
0 0 255
0 0 255
0 0 255
0 0 255
0 0 255
0 0 255
0 0 255
0 0 255
0 0 255
0 0 255
0 0 255
0 0 255
0 0 255
0 0 254
0 0 255
0 0 254
0 0 255
0 0 255
0 0 255
0 0 254
0 0 255
0 0 255
0 0 255
0 0 254
0 0 255
0 0 254
0 0 255
0 0 255
0 0 255
0 0 254
0 0 255
0 0 255
0 0 255
0 0 254
0 0 254
0 0 255
0 0 255
0 0 255
0 0 255
0 0 255
0 0 255
0 0 253
0 0 255
0 0 254
0 0 254
0 0 255
0 0 255
0 0 255
0 0 254
0 0 254
0 0 254
0 0 254
0 0 254
0 0 255
0 0 255
0 0 254
0 0 254
0 0 255
0 0 255
0 0 254
0 0 254
0 0 255
0 0 255
0 0 255
0 0 253
0 0 254
0 0 254
0 0 255
0 0 250
0 0 254
0 0 255
0 0 254
0 0 253
0 0 253
0 0 255
0 0 255
0 0 252
0 0 252
0 0 253
0 0 254
0 0 249
0 0 252
0 0 254
0 0 255
0 0 254
0 0 253
0 0 253
0 0 253
0 0 253
0 0 253
0 0 253
0 0 254
0 0 253
0 0 254
0 0 249
0 0 255
0 0 255
0 0 255
0 0 252
0 0 254
0 0 253
0 0 255
0 0 254
0 0 254
0 0 253
0 0 254
0 0 250
0 0 250
0 0 250
0 0 254
0 0 254
0 0 255
0 0 252
0 0 253
0 0 253
0 0 249
0 0 253
0 0 250
0 0 252
0 0 253
0 0 253
0 0 253
0 0 253
0 0 252
0 0 253
48 49 252
164 168 253
235 241 255
242 247 255
242 247 255
242 247 255
242 247 255
242 247 255
242 247 255
242 247 255
242 247 255
242 247 255
242 248 255
242 248 255
242 248 255
242 248 255
242 248 255
242 248 255
242 248 255
242 248 255
242 248 255
242 248 255
242 248 255
242 248 255
243 248 255
243 248 255
243 248 255
243 248 255
243 248 255
243 248 255
243 248 255
243 248 255
243 248 255
243 248 255
243 248 255
243 248 255
243 248 255
243 248 255
243 248 255
243 248 255
243 248 255
243 248 255
243 248 255
243 248 255
243 248 255
243 248 255
243 248 255
243 248 255
243 248 255
243 248 255
243 248 255
243 248 255
243 248 255
243 248 255
243 248 255
243 248 255
243 248 255
243 248 255
243 248 255
243 248 255
243 248 255
243 248 255
243 248 255
243 248 255
243 248 255
243 248 255
243 248 255
243 248 255
243 248 255
243 248 255
243 248 255
243 248 255
243 248 255
243 248 255
243 248 255
243 248 255
243 248 255
243 248 255
243 248 255
243 248 255
243 248 255
243 248 255
243 248 255
243 248 255
243 248 255
243 248 255
243 248 255
243 248 255
243 248 255
243 248 255
243 248 255
243 248 255
243 248 255
243 248 255
243 248 255
243 248 255
243 248 255
243 248 255
243 248 255
243 248 255
243 248 255
243 248 255
243 248 255
243 248 255
243 248 255
243 248 255
243 248 255
243 248 255
243 248 255
243 248 255
243 248 255
243 248 255
243 248 255
243 248 255
242 248 255
242 248 255
242 248 255
242 248 255
242 248 255
242 248 255
242 248 255
242 248 255
242 248 255
242 248 255
242 248 255
242 248 255
242 247 255
242 247 255
242 247 255
242 247 255
242 247 255
242 247 255
242 247 255
242 247 255
242 247 255
241 237 245
239 164 169
237 65 67
237 0 0
234 0 0
236 0 0
233 0 0
235 0 0
234 0 0
234 0 0
235 0 0
231 0 0
235 0 0
235 0 0
234 0 0
231 0 0
236 0 0
233 0 0
231 0 0
231 0 0
236 0 0
233 0 0
233 0 0
231 0 0
237 0 0
230 0 0
233 0 0
234 0 0
237 0 0
237 0 0
232 0 0
228 0 0
231 0 0
232 0 0
231 0 0
235 0 0
233 0 0
236 0 0
232 0 0
231 0 0
234 0 0
234 0 0
232 0 0
230 0 0
234 0 0
231 0 0
233 0 0
232 0 0
235 0 0
231 0 0
230 0 0
229 0 0
226 0 0
231 0 0
236 0 0
231 0 0
233 0 0
232 0 0
232 0 0
234 0 0
230 0 0
234 0 0
233 0 0
233 0 0
232 0 0
233 0 0
232 0 0
230 0 0
231 0 0
228 0 0
230 0 0
230 0 0
234 0 0
233 0 0
233 0 0
232 0 0
232 0 0
236 0 0
229 0 0
235 0 0
235 0 0
234 0 0
231 0 0
230 0 0
232 0 0
230 0 0
230 0 0
232 0 0
231 0 0
231 0 0
231 0 0
229 0 0
231 0 0
231 0 0
231 0 0
228 0 0
231 0 0
235 0 0
231 0 0
230 0 0
231 0 0
230 0 0
231 0 0
231 0 0
232 0 0
230 0 0
232 0 0
231 0 0
232 0 0
232 0 0
233 0 0
233 0 0
231 0 0
232 0 0
230 0 0
230 0 0
234 0 0
231 0 0
232 0 0
231 0 0
229 0 0
228 0 0
232 0 0
229 0 0
230 0 0
230 0 0
233 0 0
229 0 0
231 0 0
231 0 0
233 0 0
231 0 0
230 0 0
233 0 0
0 0 255
0 0 255
0 0 255
0 0 255
0 0 255
0 0 255
0 0 255
0 0 255
0 0 255
0 0 254
0 0 255
0 0 255
0 0 255
0 0 255
0 0 255
0 0 255
0 0 255
0 0 255
0 0 255
0 0 254
0 0 255
0 0 255
0 0 255
0 0 255
0 0 255
0 0 255
0 0 255
0 0 255
0 0 255
0 0 255
0 0 254
0 0 255
0 0 255
0 0 255
0 0 254
0 0 255
0 0 254
0 0 255
0 0 255
0 0 254
0 0 254
0 0 255
0 0 255
0 0 255
0 0 254
0 0 253
0 0 253
0 0 254
0 0 254
0 0 255
0 0 254
0 0 255
0 0 254
0 0 254
0 0 255
0 0 255
0 0 253
0 0 255
0 0 253
0 0 254
0 0 254
0 0 255
0 0 252
0 0 254
0 0 253
0 0 255
0 0 255
0 0 255
0 0 252
0 0 255
0 0 255
0 0 254
0 0 254
0 0 252
0 0 254
0 0 254
0 0 254
0 0 254
0 0 253
0 0 253
0 0 253
0 0 255
0 0 253
0 0 255
0 0 255
0 0 253
0 0 255
0 0 253
0 0 253
0 0 249
0 0 253
0 0 254
0 0 254
0 0 254
0 0 253
0 0 252
0 0 250
0 0 252
0 0 255
0 0 253
0 0 253
0 0 255
0 0 254
0 0 252
0 0 252
0 0 249
0 0 254
0 0 254
0 0 252
0 0 250
0 0 253
0 0 250
0 0 246
0 0 253
0 0 250
0 0 252
0 0 250
0 0 255
0 0 252
0 0 253
0 0 252
0 0 250
0 0 254
0 0 249
0 0 248
0 0 253
0 0 255
0 0 246
0 0 254
80 82 252
172 176 254
225 231 255
242 247 255
242 247 255
242 247 255
242 247 255
242 247 255
242 247 255
242 247 255
242 247 255
242 248 255
242 248 255
242 248 255
242 248 255
242 248 255
242 248 255
242 248 255
242 248 255
242 248 255
242 248 255
242 248 255
243 248 255
243 248 255
243 248 255
243 248 255
243 248 255
243 248 255
243 248 255
243 248 255
243 248 255
243 248 255
243 248 255
243 248 255
243 248 255
243 248 255
243 248 255
243 248 255
243 248 255
243 248 255
243 248 255
243 248 255
243 248 255
243 248 255
243 248 255
243 248 255
243 248 255
243 248 255
243 248 255
243 248 255
243 248 255
243 248 255
243 248 255
243 248 255
243 248 255
243 248 255
244 248 255
244 248 255
244 248 255
244 248 255
244 248 255
244 248 255
244 248 255
244 248 255
244 248 255
244 248 255
244 248 255
244 248 255
244 248 255
244 248 255
244 248 255
244 248 255
244 248 255
244 248 255
244 248 255
244 248 255
244 248 255
244 248 255
244 248 255
244 248 255
244 248 255
244 248 255
244 248 255
244 248 255
244 248 255
244 248 255
243 248 255
243 248 255
243 248 255
243 248 255
243 248 255
243 248 255
243 248 255
243 248 255
243 248 255
243 248 255
243 248 255
243 248 255
243 248 255
243 248 255
243 248 255
243 248 255
243 248 255
243 248 255
243 248 255
243 248 255
243 248 255
243 248 255
243 248 255
243 248 255
243 248 255
243 248 255
243 248 255
243 248 255
243 248 255
243 248 255
243 248 255
243 248 255
243 248 255
243 248 255
242 248 255
242 248 255
242 248 255
242 248 255
242 248 255
242 248 255
242 248 255
242 248 255
242 248 255
242 248 255
242 248 255
242 247 255
242 247 255
242 247 255
242 247 255
242 247 255
242 247 255
242 247 255
242 247 255
242 242 250
237 190 196
241 70 72
239 0 0
237 0 0
233 0 0
236 0 0
238 0 0
231 0 0
234 0 0
235 0 0
235 0 0
239 0 0
235 0 0
228 0 0
239 0 0
234 0 0
233 0 0
235 0 0
232 0 0
231 0 0
234 0 0
228 0 0
233 0 0
235 0 0
230 0 0
233 0 0
233 0 0
235 0 0
238 0 0
235 0 0
234 0 0
234 0 0
234 0 0
231 0 0
234 0 0
230 0 0
231 0 0
228 0 0
232 0 0
229 0 0
234 0 0
230 0 0
232 0 0
232 0 0
235 0 0
233 0 0
233 0 0
233 0 0
236 0 0
231 0 0
229 0 0
231 0 0
236 0 0
230 0 0
231 0 0
233 0 0
228 0 0
234 0 0
234 0 0
231 0 0
230 0 0
233 0 0
231 0 0
231 0 0
231 0 0
233 0 0
234 0 0
231 0 0
229 0 0
229 0 0
232 0 0
233 0 0
229 0 0
232 0 0
232 0 0
233 0 0
233 0 0
231 0 0
231 0 0
233 0 0
233 0 0
231 0 0
231 0 0
230 0 0
231 0 0
232 0 0
233 0 0
229 0 0
232 0 0
231 0 0
232 0 0
232 0 0
235 0 0
231 0 0
231 0 0
234 0 0
231 0 0
233 0 0
232 0 0
235 0 0
231 0 0
232 0 0
229 0 0
231 0 0
233 0 0
230 0 0
234 0 0
233 0 0
231 0 0
232 0 0
234 0 0
232 0 0
233 0 0
231 0 0
231 0 0
233 0 0
231 0 0
231 0 0
230 0 0
230 0 0
230 0 0
231 0 0
233 0 0
230 0 0
233 0 0
232 0 0
231 0 0
233 0 0
233 0 0
232 0 0
231 0 0
0 0 255
0 0 255
0 0 255
0 0 255
0 0 255
0 0 255
0 0 255
0 0 255
0 0 255
0 0 255
0 0 255
0 0 255
0 0 255
0 0 255
0 0 254
0 0 255
0 0 254
0 0 255
0 0 255
0 0 255
0 0 254
0 0 254
0 0 255
0 0 255
0 0 255
0 0 255
0 0 255
0 0 255
0 0 255
0 0 255
0 0 252
0 0 255
0 0 255
0 0 254
0 0 255
0 0 255
0 0 254
0 0 255
0 0 253
0 0 255
0 0 255
0 0 255
0 0 254
0 0 255
0 0 254
0 0 253
0 0 253
0 0 255
0 0 255
0 0 253
0 0 254
0 0 255
0 0 254
0 0 255
0 0 255
0 0 255
0 0 254
0 0 253
0 0 255
0 0 254
0 0 255
0 0 254
0 0 254
0 0 253
0 0 255
0 0 255
0 0 253
0 0 253
0 0 253
0 0 254
0 0 253
0 0 254
0 0 254
0 0 253
0 0 255
0 0 253
0 0 255
0 0 254
0 0 254
0 0 255
0 0 254
0 0 255
0 0 253
0 0 253
0 0 255
0 0 252
0 0 253
0 0 250
0 0 252
0 0 252
0 0 254
0 0 253
0 0 252
0 0 254
0 0 252
0 0 252
0 0 250
0 0 252
0 0 253
0 0 255
0 0 253
0 0 253
0 0 254
0 0 254
0 0 254
0 0 253
0 0 253
0 0 254
0 0 252
0 0 254
0 0 252
0 0 249
0 0 252
0 0 250
0 0 248
0 0 254
0 0 252
0 0 252
0 0 253
0 0 254
0 0 252
0 0 250
0 0 250
0 0 250
0 0 252
0 0 253
0 0 255
99 102 253
184 188 252
239 245 255
242 247 255
242 247 255
242 247 255
242 247 255
242 247 255
242 247 255
242 247 255
242 247 255
242 248 255
242 248 255
242 248 255
242 248 255
242 248 255
242 248 255
242 248 255
242 248 255
242 248 255
242 248 255
243 248 255
243 248 255
243 248 255
243 248 255
243 248 255
243 248 255
243 248 255
243 248 255
243 248 255
243 248 255
243 248 255
243 248 255
243 248 255
243 248 255
243 248 255
243 248 255
243 248 255
243 248 255
243 248 255
243 248 255
243 248 255
243 248 255
243 248 255
243 248 255
243 248 255
243 248 255
243 248 255
243 248 255
243 248 255
244 248 255
244 248 255
244 248 255
244 248 255
244 248 255
244 248 255
244 248 255
244 248 255
244 248 255
244 248 255
244 248 255
244 248 255
244 248 255
244 248 255
244 248 255
244 248 255
244 249 255
244 249 255
244 249 255
244 249 255
244 249 255
244 249 255
244 249 255
244 249 255
244 249 255
244 249 255
244 249 255
244 249 255
244 249 255
244 248 255
244 248 255
244 248 255
244 248 255
244 248 255
244 248 255
244 248 255
244 248 255
244 248 255
244 248 255
244 248 255
244 248 255
244 248 255
244 248 255
244 248 255
244 248 255
243 248 255
243 248 255
243 248 255
243 248 255
243 248 255
243 248 255
243 248 255
243 248 255
243 248 255
243 248 255
243 248 255
243 248 255
243 248 255
243 248 255
243 248 255
243 248 255
243 248 255
243 248 255
243 248 255
243 248 255
243 248 255
243 248 255
243 248 255
243 248 255
243 248 255
243 248 255
243 248 255
243 248 255
243 248 255
243 248 255
242 248 255
242 248 255
242 248 255
242 248 255
242 248 255
242 248 255
242 248 255
242 248 255
242 248 255
242 248 255
242 248 255
242 247 255
242 247 255
242 247 255
242 247 255
242 247 255
242 247 255
242 247 255
241 241 249
239 187 193
239 95 99
235 0 0
241 0 0
239 0 0
232 0 0
236 0 0
236 0 0
238 0 0
238 0 0
234 0 0
233 0 0
234 0 0
235 0 0
231 0 0
234 0 0
232 0 0
233 0 0
234 0 0
234 0 0
231 0 0
230 0 0
223 0 0
234 0 0
237 0 0
231 0 0
238 0 0
234 0 0
232 0 0
231 0 0
234 0 0
230 0 0
237 0 0
229 0 0
233 0 0
236 0 0
234 0 0
229 0 0
234 0 0
228 0 0
233 0 0
231 0 0
231 0 0
232 0 0
233 0 0
230 0 0
231 0 0
230 0 0
232 0 0
231 0 0
234 0 0
234 0 0
230 0 0
235 0 0
230 0 0
232 0 0
230 0 0
232 0 0
234 0 0
230 0 0
235 0 0
228 0 0
230 0 0
233 0 0
234 0 0
235 0 0
232 0 0
231 0 0
231 0 0
231 0 0
234 0 0
231 0 0
233 0 0
233 0 0
229 0 0
232 0 0
230 0 0
231 0 0
231 0 0
231 0 0
233 0 0
232 0 0
232 0 0
231 0 0
233 0 0
230 0 0
232 0 0
233 0 0
231 0 0
233 0 0
231 0 0
234 0 0
227 0 0
237 0 0
233 0 0
232 0 0
234 0 0
233 0 0
231 0 0
236 0 0
230 0 0
231 0 0
231 0 0
230 0 0
233 0 0
230 0 0
231 0 0
232 0 0
230 0 0
232 0 0
233 0 0
230 0 0
232 0 0
227 0 0
233 0 0
233 0 0
231 0 0
232 0 0
230 0 0
228 0 0
232 0 0
229 0 0
233 0 0
231 0 0
231 0 0
229 0 0
231 0 0
229 0 0
232 0 0
0 0 255
0 0 255
0 0 255
0 0 255
0 0 255
0 0 254
0 0 255
0 0 255
0 0 255
0 0 255
0 0 255
0 0 255
0 0 255
0 0 255
0 0 255
0 0 255
0 0 255
0 0 255
0 0 255
0 0 255
0 0 255
0 0 255
0 0 255
0 0 255
0 0 255
0 0 254
0 0 255
0 0 255
0 0 255
0 0 255
0 0 254
0 0 255
0 0 255
0 0 255
0 0 253
0 0 255
0 0 254
0 0 254
0 0 254
0 0 255
0 0 255
0 0 255
0 0 255
0 0 255
0 0 255
0 0 254
0 0 255
0 0 255
0 0 255
0 0 253
0 0 255
0 0 255
0 0 255
0 0 255
0 0 255
0 0 255
0 0 255
0 0 254
0 0 254
0 0 255
0 0 255
0 0 255
0 0 254
0 0 254
0 0 252
0 0 255
0 0 254
0 0 254
0 0 255
0 0 255
0 0 255
0 0 254
0 0 254
0 0 255
0 0 253
0 0 253
0 0 255
0 0 255
0 0 254
0 0 250
0 0 254
0 0 254
0 0 253
0 0 254
0 0 254
0 0 253
0 0 255
0 0 253
0 0 255
0 0 253
0 0 255
0 0 254
0 0 252
0 0 249
0 0 252
0 0 252
0 0 253
0 0 253
0 0 250
0 0 253
0 0 254
0 0 254
0 0 252
0 0 253
0 0 255
0 0 253
0 0 255
0 0 253
0 0 255
0 0 253
0 0 255
0 0 249
0 0 254
0 0 255
0 0 250
0 0 252
0 0 250
0 0 254
0 0 252
0 0 255
0 0 254
0 0 248
0 0 252
0 0 254
0 0 254
108 110 252
199 204 255
240 246 255
242 247 255
242 247 255
242 247 255
242 247 255
242 247 255
242 247 255
242 247 255
242 248 255
242 248 255
242 248 255
242 248 255
242 248 255
242 248 255
242 248 255
242 248 255
242 248 255
242 248 255
243 248 255
243 248 255
243 248 255
243 248 255
243 248 255
243 248 255
243 248 255
243 248 255
243 248 255
243 248 255
243 248 255
243 248 255
243 248 255
243 248 255
243 248 255
243 248 255
243 248 255
243 248 255
243 248 255
243 248 255
243 248 255
243 248 255
243 248 255
243 248 255
243 248 255
243 248 255
243 248 255
244 248 255
244 248 255
244 248 255
244 248 255
244 248 255
244 248 255
244 248 255
244 248 255
244 248 255
244 248 255
244 249 255
244 249 255
244 249 255
244 249 255
244 249 255
244 249 255
244 249 255
244 249 255
244 249 255
244 249 255
244 249 255
244 249 255
244 249 255
244 249 255
244 249 255
244 249 255
244 249 255
244 249 255
244 249 255
244 249 255
244 249 255
244 249 255
244 249 255
244 249 255
244 249 255
244 249 255
244 249 255
244 249 255
244 249 255
244 249 255
244 249 255
244 249 255
244 249 255
244 249 255
244 249 255
244 249 255
244 248 255
244 248 255
244 248 255
244 248 255
244 248 255
244 248 255
244 248 255
244 248 255
244 248 255
244 248 255
243 248 255
243 248 255
243 248 255
243 248 255
243 248 255
243 248 255
243 248 255
243 248 255
243 248 255
243 248 255
243 248 255
243 248 255
243 248 255
243 248 255
243 248 255
243 248 255
243 248 255
243 248 255
243 248 255
243 248 255
243 248 255
243 248 255
243 248 255
243 248 255
243 248 255
243 248 255
243 248 255
242 248 255
242 248 255
242 248 255
242 248 255
242 248 255
242 248 255
242 248 255
242 248 255
242 248 255
242 248 255
242 247 255
242 247 255
242 247 255
242 247 255
242 247 255
242 247 255
242 247 255
242 245 253
240 208 215
239 107 111
239 0 0
238 0 0
235 0 0
238 0 0
234 0 0
237 0 0
239 0 0
236 0 0
233 0 0
234 0 0
239 0 0
233 0 0
234 0 0
230 0 0
234 0 0
230 0 0
235 0 0
234 0 0
229 0 0
235 0 0
232 0 0
234 0 0
230 0 0
234 0 0
237 0 0
231 0 0
233 0 0
237 0 0
232 0 0
235 0 0
232 0 0
233 0 0
235 0 0
234 0 0
236 0 0
234 0 0
235 0 0
231 0 0
231 0 0
233 0 0
234 0 0
234 0 0
234 0 0
232 0 0
234 0 0
234 0 0
233 0 0
233 0 0
233 0 0
232 0 0
229 0 0
232 0 0
236 0 0
236 0 0
232 0 0
231 0 0
230 0 0
229 0 0
230 0 0
235 0 0
229 0 0
232 0 0
231 0 0
233 0 0
235 0 0
233 0 0
234 0 0
232 0 0
229 0 0
234 0 0
233 0 0
232 0 0
232 0 0
233 0 0
228 0 0
235 0 0
233 0 0
232 0 0
232 0 0
233 0 0
232 0 0
230 0 0
232 0 0
232 0 0
231 0 0
230 0 0
230 0 0
232 0 0
231 0 0
232 0 0
229 0 0
231 0 0
236 0 0
229 0 0
230 0 0
230 0 0
229 0 0
229 0 0
231 0 0
233 0 0
230 0 0
231 0 0
231 0 0
237 0 0
233 0 0
233 0 0
234 0 0
233 0 0
228 0 0
234 0 0
230 0 0
232 0 0
231 0 0
230 0 0
233 0 0
232 0 0
231 0 0
233 0 0
234 0 0
230 0 0
234 0 0
233 0 0
235 0 0
233 0 0
231 0 0
0 0 254
0 0 255
0 0 255
0 0 255
0 0 255
0 0 255
0 0 255
0 0 255
0 0 255
0 0 255
0 0 255
0 0 255
0 0 255
0 0 255
0 0 255
0 0 255
0 0 255
0 0 255
0 0 255
0 0 255
0 0 255
0 0 255
0 0 255
0 0 255
0 0 255
0 0 254
0 0 254
0 0 254
0 0 255
0 0 255
0 0 255
0 0 255
0 0 254
0 0 255
0 0 254
0 0 255
0 0 255
0 0 255
0 0 255
0 0 255
0 0 254
0 0 255
0 0 255
0 0 255
0 0 254
0 0 255
0 0 254
0 0 254
0 0 255
0 0 255
0 0 254
0 0 255
0 0 254
0 0 255
0 0 255
0 0 255
0 0 254
0 0 255
0 0 255
0 0 255
0 0 254
0 0 254
0 0 255
0 0 254
0 0 255
0 0 254
0 0 254
0 0 252
0 0 252
0 0 255
0 0 255
0 0 254
0 0 255
0 0 254
0 0 254
0 0 254
0 0 255
0 0 255
0 0 254
0 0 254
0 0 255
0 0 255
0 0 250
0 0 254
0 0 254
0 0 254
0 0 253
0 0 255
0 0 254
0 0 252
0 0 252
0 0 254
0 0 253
0 0 254
0 0 255
0 0 255
0 0 254
0 0 253
0 0 253
0 0 250
0 0 255
0 0 252
0 0 253
0 0 254
0 0 253
0 0 249
0 0 252
0 0 254
0 0 254
0 0 253
0 0 252
0 0 252
0 0 254
0 0 249
0 0 254
0 0 252
0 0 253
0 0 254
0 0 254
0 0 254
0 0 254
0 0 254
34 35 252
151 154 254
213 218 255
242 247 255
242 247 255
242 247 255
242 247 255
242 247 255
242 247 255
242 247 255
242 248 255
242 248 255
242 248 255
242 248 255
242 248 255
242 248 255
242 248 255
242 248 255
242 248 255
242 248 255
243 248 255
243 248 255
243 248 255
243 248 255
243 248 255
243 248 255
243 248 255
243 248 255
243 248 255
243 248 255
243 248 255
243 248 255
243 248 255
243 248 255
243 248 255
243 248 255
243 248 255
243 248 255
243 248 255
243 248 255
243 248 255
243 248 255
243 248 255
243 248 255
243 248 255
244 248 255
244 248 255
244 248 255
244 248 255
244 248 255
244 248 255
244 248 255
244 248 255
244 248 255
244 249 255
244 249 255
244 249 255
244 249 255
244 249 255
244 249 255
244 249 255
244 249 255
244 249 255
244 249 255
244 249 255
244 249 255
244 249 255
244 249 255
244 249 255
244 249 255
244 249 255
244 249 255
244 249 255
244 249 255
244 249 255
244 249 255
244 249 255
244 249 255
244 249 255
244 249 255
244 249 255
244 249 255
244 249 255
244 249 255
244 249 255
244 249 255
244 249 255
244 249 255
244 249 255
244 249 255
244 249 255
244 249 255
244 249 255
244 249 255
244 249 255
244 249 255
244 249 255
244 249 255
244 249 255
244 249 255
244 249 255
244 249 255
244 249 255
244 248 255
244 248 255
244 248 255
244 248 255
244 248 255
244 248 255
244 248 255
244 248 255
243 248 255
243 248 255
243 248 255
243 248 255
243 248 255
243 248 255
243 248 255
243 248 255
243 248 255
243 248 255
243 248 255
243 248 255
243 248 255
243 248 255
243 248 255
243 248 255
243 248 255
243 248 255
243 248 255
243 248 255
243 248 255
243 248 255
243 248 255
243 248 255
243 248 255
242 248 255
242 248 255
242 248 255
242 248 255
242 248 255
242 248 255
242 248 255
242 248 255
242 248 255
242 248 255
242 247 255
242 247 255
242 247 255
242 247 255
242 247 255
242 247 255
242 247 255
240 210 217
241 150 155
234 0 0
239 0 0
231 0 0
236 0 0
238 0 0
239 0 0
234 0 0
236 0 0
236 0 0
236 0 0
231 0 0
236 0 0
237 0 0
237 0 0
235 0 0
234 0 0
235 0 0
234 0 0
235 0 0
232 0 0
232 0 0
234 0 0
236 0 0
235 0 0
234 0 0
236 0 0
236 0 0
233 0 0
233 0 0
234 0 0
232 0 0
232 0 0
234 0 0
233 0 0
233 0 0
233 0 0
235 0 0
233 0 0
231 0 0
233 0 0
234 0 0
232 0 0
232 0 0
232 0 0
235 0 0
230 0 0
228 0 0
230 0 0
233 0 0
231 0 0
234 0 0
232 0 0
236 0 0
233 0 0
234 0 0
233 0 0
235 0 0
234 0 0
233 0 0
235 0 0
229 0 0
236 0 0
235 0 0
233 0 0
232 0 0
233 0 0
234 0 0
235 0 0
231 0 0
232 0 0
231 0 0
233 0 0
231 0 0
231 0 0
235 0 0
234 0 0
231 0 0
233 0 0
229 0 0
233 0 0
233 0 0
233 0 0
231 0 0
235 0 0
233 0 0
230 0 0
231 0 0
234 0 0
227 0 0
234 0 0
235 0 0
230 0 0
232 0 0
231 0 0
231 0 0
233 0 0
233 0 0
231 0 0
233 0 0
235 0 0
236 0 0
234 0 0
230 0 0
232 0 0
229 0 0
235 0 0
231 0 0
233 0 0
232 0 0
234 0 0
232 0 0
234 0 0
231 0 0
232 0 0
234 0 0
227 0 0
231 0 0
233 0 0
231 0 0
231 0 0
234 0 0
230 0 0
231 0 0
0 0 255
0 0 255
0 0 255
0 0 255
0 0 255
0 0 255
0 0 255
0 0 255
0 0 255
0 0 255
0 0 255
0 0 255
0 0 255
0 0 255
0 0 255
0 0 255
0 0 255
0 0 255
0 0 255
0 0 255
0 0 255
0 0 255
0 0 255
0 0 255
0 0 255
0 0 255
0 0 255
0 0 255
0 0 255
0 0 255
0 0 255
0 0 255
0 0 255
0 0 255
0 0 255
0 0 255
0 0 255
0 0 255
0 0 255
0 0 255
0 0 252
0 0 255
0 0 254
0 0 254
0 0 252
0 0 254
0 0 252
0 0 255
0 0 254
0 0 255
0 0 255
0 0 254
0 0 255
0 0 254
0 0 255
0 0 254
0 0 255
0 0 254
0 0 255
0 0 254
0 0 254
0 0 255
0 0 255
0 0 255
0 0 255
0 0 254
0 0 255
0 0 253
0 0 255
0 0 254
0 0 254
0 0 255
0 0 254
0 0 252
0 0 254
0 0 253
0 0 255
0 0 254
0 0 254
0 0 253
0 0 253
0 0 254
0 0 252
0 0 249
0 0 254
0 0 255
0 0 254
0 0 253
0 0 255
0 0 254
0 0 254
0 0 255
0 0 252
0 0 253
0 0 253
0 0 255
0 0 254
0 0 253
0 0 252
0 0 252
0 0 254
0 0 254
0 0 252
0 0 254
0 0 253
0 0 252
0 0 255
0 0 253
0 0 255
0 0 250
0 0 255
0 0 254
0 0 252
0 0 250
0 0 254
0 0 250
0 0 255
0 0 254
0 0 254
0 0 255
83 85 253
164 168 255
223 228 255
242 247 255
242 247 255
242 247 255
242 247 255
242 247 255
242 247 255
242 247 255
242 248 255
242 248 255
242 248 255
242 248 255
242 248 255
242 248 255
242 248 255
242 248 255
242 248 255
243 248 255
243 248 255
243 248 255
243 248 255
243 248 255
243 248 255
243 248 255
243 248 255
243 248 255
243 248 255
243 248 255
243 248 255
243 248 255
243 248 255
243 248 255
243 248 255
243 248 255
243 248 255
243 248 255
243 248 255
243 248 255
243 248 255
243 248 255
243 248 255
244 248 255
244 248 255
244 248 255
244 248 255
244 248 255
244 248 255
244 248 255
244 249 255
244 249 255
244 249 255
244 249 255
244 249 255
244 249 255
244 249 255
244 249 255
244 249 255
244 249 255
244 249 255
244 249 255
244 249 255
244 249 255
244 249 255
244 249 255
244 249 255
244 249 255
244 249 255
244 249 255
244 249 255
244 249 255
244 249 255
244 249 255
244 249 255
244 249 255
244 249 255
244 249 255
244 249 255
244 249 255
244 249 255
244 249 255
244 249 255
244 249 255
244 249 255
244 249 255
244 249 255
244 249 255
244 249 255
244 249 255
244 249 255
244 249 255
244 249 255
244 249 255
244 249 255
244 249 255
244 249 255
244 249 255
244 249 255
244 249 255
244 249 255
244 249 255
244 249 255
244 249 255
244 249 255
244 249 255
244 249 255
244 249 255
244 249 255
244 249 255
244 248 255
244 248 255
244 248 255
244 248 255
244 248 255
244 248 255
244 248 255
243 248 255
243 248 255
243 248 255
243 248 255
243 248 255
243 248 255
243 248 255
243 248 255
243 248 255
243 248 255
243 248 255
243 248 255
243 248 255
243 248 255
243 248 255
243 248 255
243 248 255
243 248 255
243 248 255
243 248 255
243 248 255
243 248 255
243 248 255
243 248 255
242 248 255
242 248 255
242 248 255
242 248 255
242 248 255
242 248 255
242 248 255
242 248 255
242 248 255
242 248 255
242 247 255
242 247 255
242 247 255
242 247 255
242 247 255
242 247 255
242 238 246
237 183 189
241 89 92
239 0 0
237 0 0
240 0 0
236 0 0
238 0 0
238 0 0
238 0 0
235 0 0
238 0 0
233 0 0
239 0 0
237 0 0
235 0 0
237 0 0
233 0 0
233 0 0
238 0 0
233 0 0
232 0 0
234 0 0
231 0 0
236 0 0
237 0 0
233 0 0
232 0 0
232 0 0
233 0 0
233 0 0
235 0 0
237 0 0
236 0 0
231 0 0
234 0 0
235 0 0
234 0 0
229 0 0
234 0 0
232 0 0
234 0 0
228 0 0
237 0 0
233 0 0
232 0 0
230 0 0
229 0 0
233 0 0
233 0 0
232 0 0
234 0 0
232 0 0
233 0 0
234 0 0
236 0 0
234 0 0
230 0 0
232 0 0
231 0 0
234 0 0
232 0 0
232 0 0
231 0 0
231 0 0
230 0 0
233 0 0
233 0 0
232 0 0
231 0 0
232 0 0
230 0 0
232 0 0
227 0 0
236 0 0
234 0 0
230 0 0
234 0 0
234 0 0
232 0 0
234 0 0
234 0 0
234 0 0
232 0 0
232 0 0
236 0 0
233 0 0
230 0 0
232 0 0
231 0 0
234 0 0
232 0 0
233 0 0
233 0 0
237 0 0
231 0 0
234 0 0
232 0 0
229 0 0
231 0 0
232 0 0
231 0 0
232 0 0
231 0 0
232 0 0
229 0 0
232 0 0
231 0 0
233 0 0
233 0 0
231 0 0
228 0 0
233 0 0
231 0 0
234 0 0
230 0 0
230 0 0
231 0 0
234 0 0
234 0 0
232 0 0
232 0 0
233 0 0
0 0 255
0 0 255
0 0 255
0 0 255
0 0 255
0 0 255
0 0 255
0 0 255
0 0 254
0 0 255
0 0 255
0 0 255
0 0 255
0 0 255
0 0 255
0 0 255
0 0 255
0 0 255
0 0 255
0 0 255
0 0 254
0 0 255
0 0 255
0 0 255
0 0 255
0 0 255
0 0 255
0 0 255
0 0 255
0 0 255
0 0 255
0 0 255
0 0 254
0 0 255
0 0 255
0 0 254
0 0 255
0 0 255
0 0 255
0 0 255
0 0 255
0 0 254
0 0 255
0 0 254
0 0 254
0 0 255
0 0 254
0 0 255
0 0 255
0 0 255
0 0 254
0 0 254
0 0 255
0 0 255
0 0 254
0 0 255
0 0 254
0 0 254
0 0 255
0 0 253
0 0 254
0 0 255
0 0 255
0 0 255
0 0 255
0 0 254
0 0 255
0 0 255
0 0 253
0 0 253
0 0 255
0 0 253
0 0 253
0 0 255
0 0 254
0 0 255
0 0 254
0 0 255
0 0 254
0 0 255
0 0 254
0 0 254
0 0 253
0 0 255
0 0 254
0 0 252
0 0 249
0 0 253
0 0 254
0 0 255
0 0 255
0 0 253
0 0 255
0 0 253
0 0 254
0 0 254
0 0 255
0 0 252
0 0 254
0 0 253
0 0 255
0 0 252
0 0 252
0 0 252
0 0 255
0 0 254
0 0 255
0 0 255
0 0 253
0 0 253
0 0 254
0 0 253
0 0 254
0 0 254
0 0 249
0 0 255
0 0 252
24 24 255
132 135 252
202 207 255
240 246 255
242 247 255
242 247 255
242 247 255
242 247 255
242 247 255
242 247 255
242 248 255
242 248 255
242 248 255
242 248 255
242 248 255
242 248 255
242 248 255
242 248 255
242 248 255
243 248 255
243 248 255
243 248 255
243 248 255
243 248 255
243 248 255
243 248 255
243 248 255
243 248 255
243 248 255
243 248 255
243 248 255
243 248 255
243 248 255
243 248 255
243 248 255
243 248 255
243 248 255
243 248 255
243 248 255
243 248 255
243 248 255
243 248 255
244 248 255
244 248 255
244 248 255
244 248 255
244 248 255
244 248 255
244 248 255
244 249 255
244 249 255
244 249 255
244 249 255
244 249 255
244 249 255
244 249 255
244 249 255
244 249 255
244 249 255
244 249 255
244 249 255
244 249 255
244 249 255
244 249 255
244 249 255
244 249 255
244 249 255
244 249 255
244 249 255
244 249 255
244 249 255
244 249 255
244 249 255
244 249 255
244 249 255
244 249 255
244 249 255
244 249 255
244 249 255
244 249 255
244 249 255
244 249 255
244 249 255
244 249 255
244 249 255
244 249 255
244 249 255
244 249 255
244 249 255
244 249 255
244 249 255
244 249 255
244 249 255
244 249 255
244 249 255
244 249 255
244 249 255
244 249 255
244 249 255
244 249 255
244 249 255
244 249 255
244 249 255
244 249 255
244 249 255
244 249 255
244 249 255
244 249 255
244 249 255
244 249 255
244 249 255
244 249 255
244 249 255
244 249 255
244 249 255
244 249 255
244 249 255
244 248 255
244 248 255
244 248 255
244 248 255
244 248 255
244 248 255
244 248 255
243 248 255
243 248 255
243 248 255
243 248 255
243 248 255
243 248 255
243 248 255
243 248 255
243 248 255
243 248 255
243 248 255
243 248 255
243 248 255
243 248 255
243 248 255
243 248 255
243 248 255
243 248 255
243 248 255
243 248 255
243 248 255
243 248 255
243 248 255
242 248 255
242 248 255
242 248 255
242 248 255
242 248 255
242 248 255
242 248 255
242 248 255
242 248 255
242 247 255
242 247 255
242 247 255
242 247 255
242 247 255
242 247 255
242 245 253
241 201 207
235 135 140
237 24 25
237 0 0
239 0 0
237 0 0
239 0 0
235 0 0
240 0 0
235 0 0
232 0 0
236 0 0
239 0 0
236 0 0
236 0 0
229 0 0
237 0 0
237 0 0
233 0 0
239 0 0
236 0 0
234 0 0
237 0 0
237 0 0
236 0 0
230 0 0
236 0 0
237 0 0
232 0 0
233 0 0
236 0 0
233 0 0
233 0 0
233 0 0
231 0 0
234 0 0
232 0 0
231 0 0
236 0 0
233 0 0
235 0 0
231 0 0
236 0 0
233 0 0
233 0 0
234 0 0
235 0 0
233 0 0
234 0 0
237 0 0
234 0 0
231 0 0
232 0 0
235 0 0
233 0 0
232 0 0
235 0 0
230 0 0
231 0 0
233 0 0
233 0 0
234 0 0
234 0 0
231 0 0
234 0 0
233 0 0
234 0 0
232 0 0
232 0 0
232 0 0
231 0 0
233 0 0
232 0 0
232 0 0
234 0 0
232 0 0
234 0 0
232 0 0
234 0 0
236 0 0
234 0 0
236 0 0
234 0 0
231 0 0
233 0 0
234 0 0
233 0 0
229 0 0
232 0 0
235 0 0
233 0 0
232 0 0
231 0 0
232 0 0
236 0 0
233 0 0
230 0 0
236 0 0
235 0 0
231 0 0
234 0 0
235 0 0
230 0 0
232 0 0
229 0 0
233 0 0
233 0 0
231 0 0
235 0 0
234 0 0
232 0 0
231 0 0
233 0 0
234 0 0
229 0 0
234 0 0
233 0 0
229 0 0
229 0 0
232 0 0
0 0 255
0 0 255
0 0 255
0 0 255
0 0 255
0 0 255
0 0 255
0 0 255
0 0 255
0 0 255
0 0 255
0 0 255
0 0 255
0 0 255
0 0 255
0 0 255
0 0 255
0 0 255
0 0 255
0 0 255
0 0 255
0 0 255
0 0 255
0 0 255
0 0 255
0 0 255
0 0 255
0 0 254
0 0 255
0 0 255
0 0 254
0 0 255
0 0 255
0 0 255
0 0 255
0 0 254
0 0 255
0 0 255
0 0 254
0 0 255
0 0 255
0 0 255
0 0 255
0 0 255
0 0 255
0 0 254
0 0 255
0 0 255
0 0 255
0 0 255
0 0 254
0 0 255
0 0 254
0 0 254
0 0 254
0 0 254
0 0 255
0 0 255
0 0 255
0 0 254
0 0 254
0 0 254
0 0 254
0 0 254
0 0 254
0 0 255
0 0 255
0 0 253
0 0 255
0 0 255
0 0 255
0 0 254
0 0 254
0 0 254
0 0 253
0 0 253
0 0 254
0 0 255
0 0 255
0 0 254
0 0 255
0 0 254
0 0 255
0 0 254
0 0 255
0 0 254
0 0 254
0 0 254
0 0 253
0 0 254
0 0 255
0 0 253
0 0 255
0 0 255
0 0 253
0 0 254
0 0 255
0 0 254
0 0 250
0 0 255
0 0 254
0 0 254
0 0 254
0 0 253
0 0 254
0 0 252
0 0 255
0 0 254
0 0 255
0 0 255
0 0 254
0 0 254
0 0 254
0 0 254
0 0 254
93 95 254
167 171 254
223 228 254
242 247 255
242 247 255
242 247 255
242 247 255
242 247 255
242 247 255
242 248 255
242 248 255
242 248 255
242 248 255
242 248 255
242 248 255
242 248 255
242 248 255
242 248 255
242 248 255
243 248 255
243 248 255
243 248 255
243 248 255
243 248 255
243 248 255
243 248 255
243 248 255
243 248 255
243 248 255
243 248 255
243 248 255
243 248 255
243 248 255
243 248 255
243 248 255
243 248 255
243 248 255
243 248 255
243 248 255
243 248 255
243 248 255
244 248 255
244 248 255
244 248 255
244 248 255
244 248 255
244 248 255
244 249 255
244 249 255
244 249 255
244 249 255
244 249 255
244 249 255
244 249 255
244 249 255
244 249 255
244 249 255
244 249 255
244 249 255
244 249 255
244 249 255
244 249 255
244 249 255
244 249 255
244 249 255
244 249 255
244 249 255
244 249 255
244 249 255
244 249 255
244 249 255
244 249 255
244 249 255
244 249 255
244 249 255
244 249 255
244 249 255
244 249 255
244 249 255
244 249 255
244 249 255
244 249 255
244 249 255
244 249 255
244 249 255
244 249 255
244 249 255
244 249 255
244 249 255
244 249 255
244 249 255
244 249 255
244 249 255
244 249 255
244 249 255
244 249 255
244 249 255
244 249 255
244 249 255
244 249 255
244 249 255
244 249 255
244 249 255
244 249 255
244 249 255
244 249 255
244 249 255
244 249 255
244 249 255
244 249 255
244 249 255
244 249 255
244 249 255
244 249 255
244 249 255
244 249 255
244 249 255
244 249 255
244 249 255
244 249 255
244 249 255
244 249 255
244 249 255
244 248 255
244 248 255
244 248 255
244 248 255
244 248 255
244 248 255
243 248 255
243 248 255
243 248 255
243 248 255
243 248 255
243 248 255
243 248 255
243 248 255
243 248 255
243 248 255
243 248 255
243 248 255
243 248 255
243 248 255
243 248 255
243 248 255
243 248 255
243 248 255
243 248 255
243 248 255
243 248 255
243 248 255
242 248 255
242 248 255
242 248 255
242 248 255
242 248 255
242 248 255
242 248 255
242 248 255
242 248 255
242 248 255
242 247 255
242 247 255
242 247 255
242 247 255
242 247 255
242 247 255
242 235 242
241 185 191
238 99 102
239 0 0
233 0 0
235 0 0
239 0 0
238 0 0
236 0 0
234 0 0
235 0 0
236 0 0
235 0 0
237 0 0
234 0 0
238 0 0
236 0 0
238 0 0
238 0 0
236 0 0
236 0 0
230 0 0
231 0 0
233 0 0
238 0 0
236 0 0
236 0 0
235 0 0
234 0 0
234 0 0
236 0 0
235 0 0
232 0 0
231 0 0
235 0 0
234 0 0
234 0 0
236 0 0
233 0 0
237 0 0
237 0 0
235 0 0
234 0 0
231 0 0
236 0 0
235 0 0
236 0 0
236 0 0
237 0 0
234 0 0
234 0 0
235 0 0
236 0 0
233 0 0
233 0 0
235 0 0
231 0 0
233 0 0
233 0 0
233 0 0
234 0 0
231 0 0
230 0 0
230 0 0
231 0 0
234 0 0
233 0 0
233 0 0
233 0 0
233 0 0
232 0 0
231 0 0
230 0 0
234 0 0
229 0 0
234 0 0
233 0 0
235 0 0
231 0 0
234 0 0
233 0 0
234 0 0
231 0 0
230 0 0
233 0 0
232 0 0
235 0 0
232 0 0
231 0 0
232 0 0
232 0 0
233 0 0
232 0 0
233 0 0
233 0 0
232 0 0
233 0 0
234 0 0
233 0 0
231 0 0
233 0 0
233 0 0
235 0 0
231 0 0
232 0 0
232 0 0
236 0 0
234 0 0
231 0 0
234 0 0
229 0 0
234 0 0
234 0 0
232 0 0
233 0 0
232 0 0
234 0 0
231 0 0
0 0 255
0 0 255
0 0 255
0 0 255
0 0 255
0 0 255
0 0 255
0 0 255
0 0 255
0 0 255
0 0 254
0 0 255
0 0 255
0 0 255
0 0 255
0 0 255
0 0 255
0 0 255
0 0 255
0 0 255
0 0 255
0 0 255
0 0 255
0 0 255
0 0 254
0 0 255
0 0 254
0 0 255
0 0 255
0 0 255
0 0 255
0 0 255
0 0 255
0 0 255
0 0 255
0 0 254
0 0 255
0 0 255
0 0 255
0 0 254
0 0 255
0 0 255
0 0 255
0 0 255
0 0 254
0 0 254
0 0 253
0 0 255
0 0 255
0 0 254
0 0 255
0 0 253
0 0 254
0 0 255
0 0 254
0 0 250
0 0 254
0 0 255
0 0 255
0 0 255
0 0 255
0 0 255
0 0 254
0 0 255
0 0 254
0 0 255
0 0 254
0 0 255
0 0 253
0 0 254
0 0 254
0 0 255
0 0 255
0 0 254
0 0 255
0 0 254
0 0 252
0 0 254
0 0 255
0 0 255
0 0 254
0 0 254
0 0 255
0 0 254
0 0 254
0 0 253
0 0 255
0 0 253
0 0 254
0 0 253
0 0 255
0 0 254
0 0 253
0 0 255
0 0 253
0 0 254
0 0 255
0 0 254
0 0 255
0 0 254
0 0 254
0 0 252
0 0 254
0 0 250
0 0 254
0 0 252
0 0 254
0 0 253
0 0 255
0 0 252
0 0 253
0 0 254
54 55 253
164 168 255
215 220 255
242 247 255
242 247 255
242 247 255
242 247 255
242 247 255
242 247 255
242 247 255
242 248 255
242 248 255
242 248 255
242 248 255
242 248 255
242 248 255
242 248 255
242 248 255
242 248 255
243 248 255
243 248 255
243 248 255
243 248 255
243 248 255
243 248 255
243 248 255
243 248 255
243 248 255
243 248 255
243 248 255
243 248 255
243 248 255
243 248 255
243 248 255
243 248 255
243 248 255
243 248 255
243 248 255
243 248 255
243 248 255
243 248 255
244 248 255
244 248 255
244 248 255
244 248 255
244 248 255
244 249 255
244 249 255
244 249 255
244 249 255
244 249 255
244 249 255
244 249 255
244 249 255
244 249 255
244 249 255
244 249 255
244 249 255
244 249 255
244 249 255
244 249 255
244 249 255
244 249 255
244 249 255
244 249 255
244 249 255
244 249 255
244 249 255
244 249 255
244 249 255
244 249 255
244 249 255
244 249 255
244 249 255
244 249 255
244 249 255
244 249 255
244 249 255
244 249 255
244 249 255
244 249 255
245 249 255
245 249 255
245 249 255
245 249 255
245 249 255
245 249 255
245 249 255
245 249 255
245 249 255
245 249 255
245 249 255
245 249 255
245 249 255
244 249 255
244 249 255
244 249 255
244 249 255
244 249 255
244 249 255
244 249 255
244 249 255
244 249 255
244 249 255
244 249 255
244 249 255
244 249 255
244 249 255
244 249 255
244 249 255
244 249 255
244 249 255
244 249 255
244 249 255
244 249 255
244 249 255
244 249 255
244 249 255
244 249 255
244 249 255
244 249 255
244 249 255
244 249 255
244 249 255
244 249 255
244 249 255
244 249 255
244 249 255
244 249 255
244 249 255
244 248 255
244 248 255
244 248 255
244 248 255
244 248 255
243 248 255
243 248 255
243 248 255
243 248 255
243 248 255
243 248 255
243 248 255
243 248 255
243 248 255
243 248 255
243 248 255
243 248 255
243 248 255
243 248 255
243 248 255
243 248 255
243 248 255
243 248 255
243 248 255
243 248 255
243 248 255
243 248 255
242 248 255
242 248 255
242 248 255
242 248 255
242 248 255
242 248 255
242 248 255
242 248 255
242 248 255
242 247 255
242 247 255
242 247 255
242 247 255
242 247 255
242 247 255
242 247 255
242 222 230
240 152 157
241 85 88
235 0 0
239 0 0
238 0 0
239 0 0
236 0 0
237 0 0
236 0 0
237 0 0
236 0 0
235 0 0
236 0 0
232 0 0
232 0 0
236 0 0
235 0 0
235 0 0
234 0 0
234 0 0
232 0 0
234 0 0
236 0 0
233 0 0
234 0 0
237 0 0
234 0 0
233 0 0
231 0 0
238 0 0
233 0 0
235 0 0
236 0 0
235 0 0
234 0 0
235 0 0
237 0 0
233 0 0
235 0 0
231 0 0
234 0 0
234 0 0
234 0 0
237 0 0
234 0 0
234 0 0
234 0 0
236 0 0
234 0 0
235 0 0
231 0 0
236 0 0
230 0 0
233 0 0
234 0 0
233 0 0
232 0 0
231 0 0
233 0 0
233 0 0
232 0 0
228 0 0
235 0 0
238 0 0
236 0 0
233 0 0
232 0 0
234 0 0
234 0 0
233 0 0
231 0 0
233 0 0
235 0 0
235 0 0
234 0 0
237 0 0
235 0 0
233 0 0
232 0 0
234 0 0
232 0 0
229 0 0
231 0 0
233 0 0
234 0 0
232 0 0
233 0 0
232 0 0
232 0 0
236 0 0
232 0 0
232 0 0
231 0 0
234 0 0
234 0 0
233 0 0
233 0 0
235 0 0
236 0 0
234 0 0
235 0 0
233 0 0
235 0 0
235 0 0
234 0 0
231 0 0
235 0 0
233 0 0
234 0 0
234 0 0
233 0 0
231 0 0
234 0 0
231 0 0
0 0 255
0 0 255
0 0 255
0 0 255
0 0 255
0 0 255
0 0 255
0 0 255
0 0 255
0 0 255
0 0 255
0 0 255
0 0 255
0 0 255
0 0 255
0 0 255
0 0 255
0 0 255
0 0 255
0 0 255
0 0 255
0 0 255
0 0 255
0 0 255
0 0 255
0 0 255
0 0 255
0 0 255
0 0 255
0 0 255
0 0 255
0 0 255
0 0 255
0 0 255
0 0 255
0 0 254
0 0 255
0 0 255
0 0 254
0 0 255
0 0 255
0 0 255
0 0 255
0 0 255
0 0 255
0 0 255
0 0 255
0 0 255
0 0 255
0 0 255
0 0 254
0 0 255
0 0 255
0 0 255
0 0 255
0 0 255
0 0 255
0 0 254
0 0 255
0 0 255
0 0 255
0 0 254
0 0 254
0 0 255
0 0 254
0 0 255
0 0 255
0 0 255
0 0 255
0 0 255
0 0 255
0 0 255
0 0 255
0 0 253
0 0 252
0 0 254
0 0 254
0 0 255
0 0 254
0 0 255
0 0 253
0 0 250
0 0 255
0 0 254
0 0 253
0 0 254
0 0 254
0 0 254
0 0 255
0 0 255
0 0 254
0 0 254
0 0 254
0 0 253
0 0 253
0 0 253
0 0 254
0 0 252
0 0 253
0 0 254
0 0 254
0 0 253
0 0 254
0 0 254
0 0 252
0 0 252
0 0 254
0 0 254
0 0 254
64 65 253
147 150 253
205 210 255
238 244 255
242 247 255
242 247 255
242 247 255
242 247 255
242 247 255
242 247 255
242 247 255
242 248 255
242 248 255
242 248 255
242 248 255
242 248 255
242 248 255
242 248 255
242 248 255
242 248 255
243 248 255
243 248 255
243 248 255
243 248 255
243 248 255
243 248 255
243 248 255
243 248 255
243 248 255
243 248 255
243 248 255
243 248 255
243 248 255
243 248 255
243 248 255
243 248 255
243 248 255
243 248 255
243 248 255
243 248 255
243 248 255
244 248 255
244 248 255
244 248 255
244 248 255
244 248 255
244 249 255
244 249 255
244 249 255
244 249 255
244 249 255
244 249 255
244 249 255
244 249 255
244 249 255
244 249 255
244 249 255
244 249 255
244 249 255
244 249 255
244 249 255
244 249 255
244 249 255
244 249 255
244 249 255
244 249 255
244 249 255
244 249 255
244 249 255
244 249 255
244 249 255
244 249 255
244 249 255
245 249 255
245 249 255
245 249 255
245 249 255
245 249 255
245 249 255
245 249 255
245 249 255
245 249 255
245 249 255
245 249 255
245 249 255
245 249 255
245 249 255
245 249 255
245 249 255
245 249 255
245 249 255
245 249 255
245 249 255
245 249 255
245 249 255
245 249 255
245 249 255
245 249 255
245 249 255
245 249 255
245 249 255
245 249 255
245 249 255
245 249 255
245 249 255
245 249 255
245 249 255
245 249 255
245 249 255
244 249 255
244 249 255
244 249 255
244 249 255
244 249 255
244 249 255
244 249 255
244 249 255
244 249 255
244 249 255
244 249 255
244 249 255
244 249 255
244 249 255
244 249 255
244 249 255
244 249 255
244 249 255
244 249 255
244 249 255
244 249 255
244 249 255
244 249 255
244 249 255
244 249 255
244 249 255
244 249 255
244 248 255
244 248 255
244 248 255
244 248 255
244 248 255
243 248 255
243 248 255
243 248 255
243 248 255
243 248 255
243 248 255
243 248 255
243 248 255
243 248 255
243 248 255
243 248 255
243 248 255
243 248 255
243 248 255
243 248 255
243 248 255
243 248 255
243 248 255
243 248 255
243 248 255
243 248 255
243 248 255
242 248 255
242 248 255
242 248 255
242 248 255
242 248 255
242 248 255
242 248 255
242 248 255
242 247 255
242 247 255
242 247 255
242 247 255
242 247 255
242 247 255
242 247 255
242 245 253
241 215 223
239 137 142
237 49 51
235 0 0
236 0 0
239 0 0
237 0 0
238 0 0
234 0 0
239 0 0
235 0 0
235 0 0
238 0 0
235 0 0
235 0 0
233 0 0
236 0 0
234 0 0
239 0 0
238 0 0
235 0 0
238 0 0
236 0 0
233 0 0
237 0 0
234 0 0
235 0 0
234 0 0
231 0 0
235 0 0
234 0 0
235 0 0
234 0 0
235 0 0
236 0 0
234 0 0
237 0 0
236 0 0
232 0 0
235 0 0
234 0 0
233 0 0
235 0 0
235 0 0
236 0 0
233 0 0
234 0 0
231 0 0
234 0 0
233 0 0
234 0 0
235 0 0
233 0 0
235 0 0
237 0 0
236 0 0
235 0 0
235 0 0
232 0 0
231 0 0
230 0 0
231 0 0
232 0 0
235 0 0
236 0 0
231 0 0
235 0 0
233 0 0
232 0 0
234 0 0
232 0 0
234 0 0
235 0 0
233 0 0
235 0 0
235 0 0
234 0 0
234 0 0
233 0 0
233 0 0
234 0 0
234 0 0
232 0 0
232 0 0
233 0 0
233 0 0
234 0 0
232 0 0
233 0 0
232 0 0
234 0 0
233 0 0
232 0 0
232 0 0
236 0 0
232 0 0
233 0 0
233 0 0
234 0 0
231 0 0
233 0 0
232 0 0
233 0 0
233 0 0
233 0 0
231 0 0
234 0 0
234 0 0
232 0 0
232 0 0
233 0 0
232 0 0
0 0 255
0 0 255
0 0 255
0 0 255
0 0 255
0 0 255
0 0 255
0 0 255
0 0 255
0 0 255
0 0 255
0 0 255
0 0 255
0 0 255
0 0 255
0 0 255
0 0 255
0 0 255
0 0 255
0 0 255
0 0 255
0 0 254
0 0 255
0 0 255
0 0 255
0 0 255
0 0 255
0 0 255
0 0 255
0 0 255
0 0 254
0 0 255
0 0 255
0 0 254
0 0 254
0 0 255
0 0 255
0 0 255
0 0 255
0 0 254
0 0 255
0 0 255
0 0 255
0 0 255
0 0 255
0 0 253
0 0 255
0 0 255
0 0 254
0 0 254
0 0 255
0 0 255
0 0 255
0 0 254
0 0 254
0 0 254
0 0 255
0 0 255
0 0 255
0 0 255
0 0 254
0 0 255
0 0 254
0 0 255
0 0 255
0 0 254
0 0 254
0 0 255
0 0 255
0 0 253
0 0 255
0 0 254
0 0 254
0 0 253
0 0 255
0 0 253
0 0 253
0 0 255
0 0 255
0 0 255
0 0 254
0 0 255
0 0 254
0 0 254
0 0 254
0 0 254
0 0 254
0 0 255
0 0 254
0 0 255
0 0 254
0 0 250
0 0 255
0 0 252
0 0 254
0 0 253
0 0 254
0 0 253
0 0 254
0 0 253
0 0 254
0 0 255
0 0 255
0 0 253
0 0 253
0 0 253
59 60 254
141 144 254
203 208 255
237 242 255
242 247 255
242 247 255
242 247 255
242 247 255
242 247 255
242 247 255
242 247 255
242 248 255
242 248 255
242 248 255
242 248 255
242 248 255
242 248 255
242 248 255
242 248 255
242 248 255
243 248 255
243 248 255
243 248 255
243 248 255
243 248 255
243 248 255
243 248 255
243 248 255
243 248 255
243 248 255
243 248 255
243 248 255
243 248 255
243 248 255
243 248 255
243 248 255
243 248 255
243 248 255
243 248 255
243 248 255
243 248 255
244 248 255
244 248 255
244 248 255
244 248 255
244 248 255
244 249 255
244 249 255
244 249 255
244 249 255
244 249 255
244 249 255
244 249 255
244 249 255
244 249 255
244 249 255
244 249 255
244 249 255
244 249 255
244 249 255
244 249 255
244 249 255
244 249 255
244 249 255
244 249 255
244 249 255
244 249 255
244 249 255
244 249 255
244 249 255
245 249 255
245 249 255
245 249 255
245 249 255
245 249 255
245 249 255
245 249 255
245 249 255
245 249 255
245 249 255
245 249 255
245 249 255
245 249 255
245 249 255
245 249 255
245 249 255
245 249 255
245 249 255
245 249 255
245 249 255
245 249 255
245 249 255
245 249 255
245 249 255
245 249 255
245 249 255
245 249 255
245 249 255
245 249 255
245 249 255
245 249 255
245 249 255
245 249 255
245 249 255
245 249 255
245 249 255
245 249 255
245 249 255
245 249 255
245 249 255
245 249 255
245 249 255
245 249 255
245 249 255
245 249 255
245 249 255
245 249 255
244 249 255
244 249 255
244 249 255
244 249 255
244 249 255
244 249 255
244 249 255
244 249 255
244 249 255
244 249 255
244 249 255
244 249 255
244 249 255
244 249 255
244 249 255
244 249 255
244 249 255
244 249 255
244 249 255
244 249 255
244 249 255
244 249 255
244 249 255
244 249 255
244 249 255
244 248 255
244 248 255
244 248 255
244 248 255
244 248 255
243 248 255
243 248 255
243 248 255
243 248 255
243 248 255
243 248 255
243 248 255
243 248 255
243 248 255
243 248 255
243 248 255
243 248 255
243 248 255
243 248 255
243 248 255
243 248 255
243 248 255
243 248 255
243 248 255
243 248 255
243 248 255
242 248 255
242 248 255
242 248 255
242 248 255
242 248 255
242 248 255
242 248 255
242 248 255
242 248 255
242 247 255
242 247 255
242 247 255
242 247 255
242 247 255
242 247 255
242 247 255
241 245 253
240 199 206
240 152 157
240 60 62
235 0 0
236 0 0
240 0 0
236 0 0
232 0 0
239 0 0
239 0 0
239 0 0
238 0 0
236 0 0
237 0 0
234 0 0
236 0 0
235 0 0
239 0 0
236 0 0
236 0 0
236 0 0
238 0 0
238 0 0
234 0 0
233 0 0
236 0 0
236 0 0
238 0 0
238 0 0
236 0 0
237 0 0
235 0 0
235 0 0
235 0 0
237 0 0
236 0 0
234 0 0
233 0 0
235 0 0
236 0 0
235 0 0
231 0 0
233 0 0
233 0 0
235 0 0
231 0 0
233 0 0
234 0 0
237 0 0
234 0 0
234 0 0
235 0 0
235 0 0
234 0 0
235 0 0
234 0 0
233 0 0
234 0 0
233 0 0
234 0 0
234 0 0
237 0 0
236 0 0
232 0 0
231 0 0
234 0 0
233 0 0
233 0 0
234 0 0
233 0 0
234 0 0
232 0 0
236 0 0
233 0 0
236 0 0
233 0 0
232 0 0
234 0 0
234 0 0
232 0 0
234 0 0
232 0 0
235 0 0
234 0 0
234 0 0
233 0 0
234 0 0
235 0 0
234 0 0
231 0 0
236 0 0
231 0 0
231 0 0
236 0 0
229 0 0
236 0 0
238 0 0
234 0 0
234 0 0
231 0 0
233 0 0
235 0 0
235 0 0
235 0 0
234 0 0
234 0 0
233 0 0
232 0 0
232 0 0
0 0 255
0 0 255
0 0 255
0 0 255
0 0 255
0 0 255
0 0 255
0 0 255
0 0 255
0 0 255
0 0 255
0 0 255
0 0 255
0 0 255
0 0 255
0 0 255
0 0 255
0 0 255
0 0 255
0 0 255
0 0 255
0 0 255
0 0 255
0 0 254
0 0 255
0 0 255
0 0 255
0 0 255
0 0 255
0 0 255
0 0 255
0 0 255
0 0 255
0 0 255
0 0 255
0 0 255
0 0 255
0 0 255
0 0 255
0 0 254
0 0 255
0 0 255
0 0 255
0 0 254
0 0 254
0 0 255
0 0 255
0 0 255
0 0 255
0 0 255
0 0 255
0 0 255
0 0 255
0 0 254
0 0 255
0 0 255
0 0 255
0 0 255
0 0 255
0 0 255
0 0 255
0 0 255
0 0 254
0 0 255
0 0 254
0 0 255
0 0 255
0 0 255
0 0 255
0 0 254
0 0 254
0 0 255
0 0 255
0 0 255
0 0 253
0 0 255
0 0 254
0 0 253
0 0 255
0 0 253
0 0 254
0 0 255
0 0 255
0 0 254
0 0 254
0 0 252
0 0 253
0 0 253
0 0 255
0 0 254
0 0 254
0 0 255
0 0 254
0 0 254
0 0 255
0 0 253
0 0 255
0 0 255
0 0 255
0 0 254
0 0 253
0 0 253
0 0 254
68 70 255
143 146 254
199 204 254
234 240 255
242 247 255
242 247 255
242 247 255
242 247 255
242 247 255
242 247 255
242 247 255
242 247 255
242 248 255
242 248 255
242 248 255
242 248 255
242 248 255
242 248 255
242 248 255
242 248 255
242 248 255
243 248 255
243 248 255
243 248 255
243 248 255
243 248 255
243 248 255
243 248 255
243 248 255
243 248 255
243 248 255
243 248 255
243 248 255
243 248 255
243 248 255
243 248 255
243 248 255
243 248 255
243 248 255
243 248 255
243 248 255
244 248 255
244 248 255
244 248 255
244 248 255
244 248 255
244 249 255
244 249 255
244 249 255
244 249 255
244 249 255
244 249 255
244 249 255
244 249 255
244 249 255
244 249 255
244 249 255
244 249 255
244 249 255
244 249 255
244 249 255
244 249 255
244 249 255
244 249 255
244 249 255
244 249 255
244 249 255
244 249 255
245 249 255
245 249 255
245 249 255
245 249 255
245 249 255
245 249 255
245 249 255
245 249 255
245 249 255
245 249 255
245 249 255
245 249 255
245 249 255
245 249 255
245 249 255
245 249 255
245 249 255
245 249 255
245 249 255
245 249 255
245 249 255
245 249 255
245 249 255
245 249 255
245 249 255
245 249 255
245 249 255
245 249 255
245 249 255
245 249 255
245 249 255
245 249 255
245 249 255
245 249 255
245 249 255
245 249 255
245 249 255
245 249 255
245 249 255
245 249 255
245 249 255
245 249 255
245 249 255
245 249 255
245 249 255
245 249 255
245 249 255
245 249 255
245 249 255
245 249 255
245 249 255
245 249 255
245 249 255
245 249 255
245 249 255
245 249 255
245 249 255
245 249 255
244 249 255
244 249 255
244 249 255
244 249 255
244 249 255
244 249 255
244 249 255
244 249 255
244 249 255
244 249 255
244 249 255
244 249 255
244 249 255
244 249 255
244 249 255
244 249 255
244 249 255
244 249 255
244 249 255
244 249 255
244 249 255
244 249 255
244 248 255
244 248 255
244 248 255
244 248 255
244 248 255
243 248 255
243 248 255
243 248 255
243 248 255
243 248 255
243 248 255
243 248 255
243 248 255
243 248 255
243 248 255
243 248 255
243 248 255
243 248 255
243 248 255
243 248 255
243 248 255
243 248 255
243 248 255
243 248 255
243 248 255
242 248 255
242 248 255
242 248 255
242 248 255
242 248 255
242 248 255
242 248 255
242 248 255
242 248 255
242 247 255
242 247 255
242 247 255
242 247 255
242 247 255
242 247 255
242 247 255
242 247 255
242 245 253
240 210 217
242 148 153
239 60 62
235 0 0
237 0 0
239 0 0
235 0 0
237 0 0
234 0 0
238 0 0
239 0 0
238 0 0
237 0 0
229 0 0
237 0 0
239 0 0
236 0 0
237 0 0
231 0 0
238 0 0
238 0 0
238 0 0
234 0 0
234 0 0
239 0 0
236 0 0
232 0 0
237 0 0
235 0 0
234 0 0
236 0 0
233 0 0
233 0 0
235 0 0
238 0 0
234 0 0
236 0 0
234 0 0
235 0 0
234 0 0
236 0 0
236 0 0
234 0 0
237 0 0
235 0 0
232 0 0
235 0 0
236 0 0
232 0 0
237 0 0
233 0 0
233 0 0
235 0 0
235 0 0
237 0 0
233 0 0
234 0 0
235 0 0
235 0 0
234 0 0
231 0 0
233 0 0
235 0 0
232 0 0
234 0 0
232 0 0
235 0 0
234 0 0
232 0 0
235 0 0
234 0 0
231 0 0
234 0 0
232 0 0
237 0 0
234 0 0
234 0 0
234 0 0
231 0 0
233 0 0
235 0 0
231 0 0
234 0 0
232 0 0
234 0 0
236 0 0
235 0 0
233 0 0
230 0 0
233 0 0
235 0 0
232 0 0
236 0 0
233 0 0
233 0 0
235 0 0
232 0 0
232 0 0
232 0 0
234 0 0
233 0 0
232 0 0
234 0 0
232 0 0
235 0 0
231 0 0
0 0 255
0 0 255
0 0 255
0 0 255
0 0 255
0 0 255
0 0 255
0 0 255
0 0 255
0 0 255
0 0 255
0 0 255
0 0 255
0 0 255
0 0 255
0 0 255
0 0 255
0 0 255
0 0 255
0 0 254
0 0 255
0 0 255
0 0 255
0 0 255
0 0 255
0 0 255
0 0 254
0 0 254
0 0 255
0 0 255
0 0 255
0 0 255
0 0 255
0 0 255
0 0 255
0 0 255
0 0 255
0 0 255
0 0 255
0 0 255
0 0 255
0 0 255
0 0 255
0 0 255
0 0 255
0 0 255
0 0 253
0 0 255
0 0 254
0 0 255
0 0 255
0 0 255
0 0 255
0 0 253
0 0 255
0 0 255
0 0 254
0 0 254
0 0 255
0 0 255
0 0 253
0 0 255
0 0 253
0 0 255
0 0 253
0 0 255
0 0 254
0 0 255
0 0 253
0 0 255
0 0 255
0 0 254
0 0 255
0 0 255
0 0 254
0 0 253
0 0 254
0 0 255
0 0 253
0 0 253
0 0 254
0 0 254
0 0 254
0 0 254
0 0 254
0 0 255
0 0 254
0 0 255
0 0 254
0 0 253
0 0 254
0 0 255
0 0 254
0 0 253
0 0 253
0 0 252
0 0 255
0 0 255
0 0 254
24 24 255
108 110 255
162 166 255
192 196 254
239 245 255
242 247 255
242 247 255
242 247 255
242 247 255
242 247 255
242 247 255
242 247 255
242 247 255
242 247 255
242 248 255
242 248 255
242 248 255
242 248 255
242 248 255
242 248 255
242 248 255
242 248 255
242 248 255
243 248 255
243 248 255
243 248 255
243 248 255
243 248 255
243 248 255
243 248 255
243 248 255
243 248 255
243 248 255
243 248 255
243 248 255
243 248 255
243 248 255
243 248 255
243 248 255
243 248 255
243 248 255
243 248 255
244 248 255
244 248 255
244 248 255
244 248 255
244 248 255
244 249 255
244 249 255
244 249 255
244 249 255
244 249 255
244 249 255
244 249 255
244 249 255
244 249 255
244 249 255
244 249 255
244 249 255
244 249 255
244 249 255
244 249 255
244 249 255
244 249 255
244 249 255
244 249 255
244 249 255
244 249 255
245 249 255
245 249 255
245 249 255
245 249 255
245 249 255
245 249 255
245 249 255
245 249 255
245 249 255
245 249 255
245 249 255
245 249 255
245 249 255
245 249 255
245 249 255
245 249 255
245 249 255
245 249 255
245 249 255
245 249 255
245 249 255
245 249 255
245 249 255
245 249 255
245 249 255
245 249 255
245 249 255
245 249 255
245 249 255
245 249 255
245 249 255
245 249 255
245 249 255
245 249 255
245 249 255
245 249 255
245 249 255
245 249 255
245 249 255
245 249 255
245 249 255
245 249 255
245 249 255
245 249 255
245 249 255
245 249 255
245 249 255
245 249 255
245 249 255
245 249 255
245 249 255
245 249 255
245 249 255
245 249 255
245 249 255
245 249 255
245 249 255
245 249 255
245 249 255
245 249 255
245 249 255
245 249 255
245 249 255
245 249 255
245 249 255
245 249 255
244 249 255
244 249 255
244 249 255
244 249 255
244 249 255
244 249 255
244 249 255
244 249 255
244 249 255
244 249 255
244 249 255
244 249 255
244 249 255
244 249 255
244 249 255
244 249 255
244 249 255
244 249 255
244 249 255
244 249 255
244 249 255
244 248 255
244 248 255
244 248 255
244 248 255
244 248 255
243 248 255
243 248 255
243 248 255
243 248 255
243 248 255
243 248 255
243 248 255
243 248 255
243 248 255
243 248 255
243 248 255
243 248 255
243 248 255
243 248 255
243 248 255
243 248 255
243 248 255
243 248 255
243 248 255
243 248 255
242 248 255
242 248 255
242 248 255
242 248 255
242 248 255
242 248 255
242 248 255
242 248 255
242 247 255
242 247 255
242 247 255
242 247 255
242 247 255
242 247 255
242 247 255
242 247 255
242 247 255
241 245 253
241 214 221
241 160 165
240 99 102
239 0 0
235 0 0
239 0 0
236 0 0
235 0 0
237 0 0
235 0 0
238 0 0
237 0 0
236 0 0
235 0 0
236 0 0
235 0 0
237 0 0
235 0 0
235 0 0
235 0 0
235 0 0
235 0 0
232 0 0
236 0 0
236 0 0
236 0 0
231 0 0
236 0 0
234 0 0
234 0 0
236 0 0
236 0 0
236 0 0
237 0 0
235 0 0
233 0 0
235 0 0
233 0 0
237 0 0
232 0 0
236 0 0
233 0 0
232 0 0
236 0 0
231 0 0
234 0 0
231 0 0
234 0 0
238 0 0
234 0 0
233 0 0
234 0 0
232 0 0
237 0 0
231 0 0
236 0 0
237 0 0
237 0 0
233 0 0
235 0 0
235 0 0
237 0 0
233 0 0
234 0 0
232 0 0
233 0 0
233 0 0
235 0 0
235 0 0
231 0 0
233 0 0
232 0 0
233 0 0
235 0 0
234 0 0
235 0 0
235 0 0
233 0 0
236 0 0
233 0 0
233 0 0
230 0 0
234 0 0
231 0 0
234 0 0
234 0 0
234 0 0
234 0 0
235 0 0
234 0 0
235 0 0
235 0 0
239 0 0
234 0 0
231 0 0
235 0 0
232 0 0
233 0 0
235 0 0
236 0 0
235 0 0
233 0 0
234 0 0
0 0 255
0 0 255
0 0 255
0 0 255
0 0 255
0 0 255
0 0 255
0 0 255
0 0 255
0 0 255
0 0 255
0 0 255
0 0 255
0 0 255
0 0 255
0 0 255
0 0 255
0 0 255
0 0 255
0 0 255
0 0 255
0 0 255
0 0 255
0 0 255
0 0 254
0 0 255
0 0 255
0 0 255
0 0 255
0 0 255
0 0 255
0 0 255
0 0 255
0 0 255
0 0 255
0 0 255
0 0 255
0 0 255
0 0 255
0 0 255
0 0 255
0 0 255
0 0 254
0 0 254
0 0 255
0 0 253
0 0 255
0 0 255
0 0 253
0 0 254
0 0 255
0 0 254
0 0 255
0 0 254
0 0 255
0 0 255
0 0 255
0 0 255
0 0 255
0 0 254
0 0 254
0 0 255
0 0 255
0 0 254
0 0 255
0 0 255
0 0 254
0 0 255
0 0 255
0 0 255
0 0 255
0 0 254
0 0 255
0 0 253
0 0 254
0 0 255
0 0 255
0 0 254
0 0 252
0 0 255
0 0 255
0 0 255
0 0 255
0 0 255
0 0 255
0 0 255
0 0 255
0 0 255
0 0 255
0 0 253
0 0 252
0 0 254
0 0 254
0 0 255
0 0 254
0 0 253
80 82 254
138 142 255
179 183 255
230 236 255
241 247 255
242 247 255
242 247 255
242 247 255
242 247 255
242 247 255
242 247 255
242 247 255
242 247 255
242 247 255
242 247 255
242 248 255
242 248 255
242 248 255
242 248 255
242 248 255
242 248 255
242 248 255
242 248 255
243 248 255
243 248 255
243 248 255
243 248 255
243 248 255
243 248 255
243 248 255
243 248 255
243 248 255
243 248 255
243 248 255
243 248 255
243 248 255
243 248 255
243 248 255
243 248 255
243 248 255
243 248 255
243 248 255
243 248 255
244 248 255
244 248 255
244 248 255
244 248 255
244 249 255
244 249 255
244 249 255
244 249 255
244 249 255
244 249 255
244 249 255
244 249 255
244 249 255
244 249 255
244 249 255
244 249 255
244 249 255
244 249 255
244 249 255
244 249 255
244 249 255
244 249 255
244 249 255
244 249 255
245 249 255
245 249 255
245 249 255
245 249 255
245 249 255
245 249 255
245 249 255
245 249 255
245 249 255
245 249 255
245 249 255
245 249 255
245 249 255
245 249 255
245 249 255
245 249 255
245 249 255
245 249 255
245 249 255
245 249 255
245 249 255
245 249 255
245 249 255
245 249 255
245 249 255
245 249 255
245 249 255
245 249 255
245 249 255
245 249 255
245 249 255
245 249 255
245 249 255
245 249 255
245 249 255
245 249 255
245 249 255
245 249 255
245 249 255
245 249 255
245 249 255
245 249 255
245 249 255
245 249 255
245 249 255
245 249 255
245 249 255
245 249 255
245 249 255
245 249 255
245 249 255
245 249 255
245 249 255
245 249 255
245 249 255
245 249 255
245 249 255
245 249 255
245 249 255
245 249 255
245 249 255
245 249 255
245 249 255
245 249 255
245 249 255
245 249 255
245 249 255
245 249 255
245 249 255
245 249 255
245 249 255
245 249 255
245 249 255
245 249 255
244 249 255
244 249 255
244 249 255
244 249 255
244 249 255
244 249 255
244 249 255
244 249 255
244 249 255
244 249 255
244 249 255
244 249 255
244 249 255
244 249 255
244 249 255
244 249 255
244 249 255
244 249 255
244 249 255
244 249 255
244 248 255
244 248 255
244 248 255
244 248 255
243 248 255
243 248 255
243 248 255
243 248 255
243 248 255
243 248 255
243 248 255
243 248 255
243 248 255
243 248 255
243 248 255
243 248 255
243 248 255
243 248 255
243 248 255
243 248 255
243 248 255
243 248 255
243 248 255
243 248 255
242 248 255
242 248 255
242 248 255
242 248 255
242 248 255
242 248 255
242 248 255
242 248 255
242 247 255
242 247 255
242 247 255
242 247 255
242 247 255
242 247 255
242 247 255
242 247 255
242 247 255
242 247 255
241 247 255
242 240 248
239 199 206
240 135 140
239 89 92
240 0 0
239 0 0
240 0 0
236 0 0
236 0 0
237 0 0
236 0 0
235 0 0
237 0 0
235 0 0
237 0 0
232 0 0
237 0 0
237 0 0
238 0 0
236 0 0
237 0 0
238 0 0
234 0 0
237 0 0
236 0 0
235 0 0
238 0 0
238 0 0
234 0 0
236 0 0
237 0 0
236 0 0
233 0 0
237 0 0
237 0 0
236 0 0
236 0 0
235 0 0
236 0 0
236 0 0
234 0 0
234 0 0
234 0 0
237 0 0
235 0 0
234 0 0
236 0 0
234 0 0
234 0 0
235 0 0
233 0 0
235 0 0
236 0 0
236 0 0
232 0 0
234 0 0
234 0 0
235 0 0
235 0 0
232 0 0
233 0 0
233 0 0
235 0 0
230 0 0
232 0 0
236 0 0
233 0 0
235 0 0
235 0 0
234 0 0
233 0 0
232 0 0
235 0 0
233 0 0
232 0 0
235 0 0
234 0 0
234 0 0
233 0 0
235 0 0
234 0 0
233 0 0
234 0 0
235 0 0
238 0 0
233 0 0
235 0 0
233 0 0
235 0 0
232 0 0
234 0 0
233 0 0
235 0 0
233 0 0
238 0 0
233 0 0
232 0 0
235 0 0
234 0 0
234 0 0
0 0 255
0 0 255
0 0 255
0 0 255
0 0 255
0 0 255
0 0 255
0 0 255
0 0 255
0 0 255
0 0 255
0 0 255
0 0 255
0 0 255
0 0 255
0 0 255
0 0 255
0 0 255
0 0 255
0 0 255
0 0 255
0 0 255
0 0 255
0 0 255
0 0 255
0 0 255
0 0 255
0 0 255
0 0 255
0 0 255
0 0 255
0 0 255
0 0 255
0 0 255
0 0 255
0 0 255
0 0 255
0 0 253
0 0 255
0 0 255
0 0 255
0 0 255
0 0 255
0 0 255
0 0 254
0 0 255
0 0 255
0 0 255
0 0 255
0 0 255
0 0 255
0 0 254
0 0 255
0 0 254
0 0 255
0 0 255
0 0 255
0 0 255
0 0 255
0 0 254
0 0 255
0 0 255
0 0 255
0 0 254
0 0 255
0 0 255
0 0 254
0 0 255
0 0 254
0 0 255
0 0 254
0 0 254
0 0 254
0 0 255
0 0 254
0 0 255
0 0 255
0 0 255
0 0 254
0 0 255
0 0 254
0 0 255
0 0 255
0 0 255
0 0 255
0 0 255
0 0 255
0 0 255
0 0 254
0 0 255
0 0 255
0 0 255
99 102 255
140 144 255
172 176 254
220 225 255
241 247 255
241 247 255
241 247 255
242 247 255
242 247 255
242 247 255
242 247 255
242 247 255
242 247 255
242 247 255
242 247 255
242 247 255
242 248 255
242 248 255
242 248 255
242 248 255
242 248 255
242 248 255
242 248 255
242 248 255
242 248 255
243 248 255
243 248 255
243 248 255
243 248 255
243 248 255
243 248 255
243 248 255
243 248 255
243 248 255
243 248 255
243 248 255
243 248 255
243 248 255
243 248 255
243 248 255
243 248 255
243 248 255
243 248 255
243 248 255
244 248 255
244 248 255
244 248 255
244 248 255
244 248 255
244 249 255
244 249 255
244 249 255
244 249 255
244 249 255
244 249 255
244 249 255
244 249 255
244 249 255
244 249 255
244 249 255
244 249 255
244 249 255
244 249 255
244 249 255
244 249 255
244 249 255
244 249 255
244 249 255
245 249 255
245 249 255
245 249 255
245 249 255
245 249 255
245 249 255
245 249 255
245 249 255
245 249 255
245 249 255
245 249 255
245 249 255
245 249 255
245 249 255
245 249 255
245 249 255
245 249 255
245 249 255
245 249 255
245 249 255
245 249 255
245 249 255
245 249 255
245 249 255
245 249 255
245 249 255
245 249 255
245 249 255
245 249 255
245 249 255
245 249 255
245 249 255
245 249 255
245 249 255
245 249 255
245 249 255
245 249 255
245 249 255
245 249 255
245 249 255
245 249 255
245 249 255
245 249 255
245 249 255
245 249 255
245 249 255
245 249 255
245 249 255
245 249 255
245 249 255
245 249 255
245 249 255
245 249 255
245 249 255
245 249 255
245 249 255
245 249 255
245 249 255
245 249 255
245 249 255
245 249 255
245 249 255
245 249 255
245 249 255
245 249 255
245 249 255
245 249 255
245 249 255
245 249 255
245 249 255
245 249 255
245 249 255
245 249 255
245 249 255
245 249 255
245 249 255
245 249 255
245 249 255
245 249 255
245 249 255
244 249 255
244 249 255
244 249 255
244 249 255
244 249 255
244 249 255
244 249 255
244 249 255
244 249 255
244 249 255
244 249 255
244 249 255
244 249 255
244 249 255
244 249 255
244 249 255
244 249 255
244 249 255
244 249 255
244 248 255
244 248 255
244 248 255
244 248 255
244 248 255
243 248 255
243 248 255
243 248 255
243 248 255
243 248 255
243 248 255
243 248 255
243 248 255
243 248 255
243 248 255
243 248 255
243 248 255
243 248 255
243 248 255
243 248 255
243 248 255
243 248 255
243 248 255
243 248 255
242 248 255
242 248 255
242 248 255
242 248 255
242 248 255
242 248 255
242 248 255
242 248 255
242 248 255
242 247 255
242 247 255
242 247 255
242 247 255
242 247 255
242 247 255
242 247 255
242 247 255
242 247 255
241 247 255
241 247 255
241 246 254
241 225 233
239 186 193
236 135 140
239 49 51
240 0 0
240 0 0
237 0 0
238 0 0
239 0 0
237 0 0
239 0 0
235 0 0
237 0 0
234 0 0
239 0 0
235 0 0
234 0 0
237 0 0
238 0 0
238 0 0
236 0 0
236 0 0
235 0 0
237 0 0
235 0 0
235 0 0
232 0 0
237 0 0
236 0 0
236 0 0
234 0 0
234 0 0
237 0 0
234 0 0
236 0 0
238 0 0
235 0 0
235 0 0
235 0 0
235 0 0
236 0 0
235 0 0
236 0 0
234 0 0
237 0 0
235 0 0
239 0 0
233 0 0
236 0 0
235 0 0
233 0 0
235 0 0
235 0 0
235 0 0
233 0 0
234 0 0
236 0 0
234 0 0
236 0 0
236 0 0
235 0 0
237 0 0
237 0 0
234 0 0
232 0 0
239 0 0
232 0 0
234 0 0
234 0 0
232 0 0
237 0 0
235 0 0
233 0 0
232 0 0
234 0 0
235 0 0
232 0 0
235 0 0
233 0 0
234 0 0
237 0 0
235 0 0
235 0 0
233 0 0
236 0 0
233 0 0
234 0 0
234 0 0
231 0 0
236 0 0
233 0 0
236 0 0
233 0 0
234 0 0
236 0 0
234 0 0
0 0 255
0 0 255
0 0 255
0 0 255
0 0 255
0 0 255
0 0 255
0 0 255
0 0 255
0 0 255
0 0 255
0 0 255
0 0 255
0 0 255
0 0 255
0 0 255
0 0 255
0 0 255
0 0 255
0 0 255
0 0 255
0 0 255
0 0 255
0 0 255
0 0 255
0 0 255
0 0 255
0 0 255
0 0 255
0 0 255
0 0 255
0 0 254
0 0 255
0 0 254
0 0 255
0 0 255
0 0 255
0 0 255
0 0 254
0 0 255
0 0 255
0 0 255
0 0 254
0 0 255
0 0 255
0 0 255
0 0 254
0 0 255
0 0 255
0 0 255
0 0 255
0 0 255
0 0 255
0 0 254
0 0 253
0 0 255
0 0 255
0 0 255
0 0 255
0 0 255
0 0 255
0 0 254
0 0 255
0 0 255
0 0 255
0 0 255
0 0 254
0 0 255
0 0 255
0 0 255
0 0 254
0 0 255
0 0 253
0 0 255
0 0 255
0 0 254
0 0 253
0 0 255
0 0 255
0 0 255
0 0 255
0 0 255
0 0 255
0 0 253
0 0 255
0 0 255
0 0 254
0 0 254
102 104 254
136 139 255
197 202 255
228 233 255
241 247 255
241 247 255
241 247 255
241 247 255
241 247 255
242 247 255
242 247 255
242 247 255
242 247 255
242 247 255
242 247 255
242 247 255
242 247 255
242 247 255
242 248 255
242 248 255
242 248 255
242 248 255
242 248 255
242 248 255
242 248 255
242 248 255
242 248 255
243 248 255
243 248 255
243 248 255
243 248 255
243 248 255
243 248 255
243 248 255
243 248 255
243 248 255
243 248 255
243 248 255
243 248 255
243 248 255
243 248 255
243 248 255
243 248 255
243 248 255
243 248 255
243 248 255
244 248 255
244 248 255
244 248 255
244 248 255
244 249 255
244 249 255
244 249 255
244 249 255
244 249 255
244 249 255
244 249 255
244 249 255
244 249 255
244 249 255
244 249 255
244 249 255
244 249 255
244 249 255
244 249 255
244 249 255
244 249 255
244 249 255
245 249 255
245 249 255
245 249 255
245 249 255
245 249 255
245 249 255
245 249 255
245 249 255
245 249 255
245 249 255
245 249 255
245 249 255
245 249 255
245 249 255
245 249 255
245 249 255
245 249 255
245 249 255
245 249 255
245 249 255
245 249 255
245 249 255
245 249 255
245 249 255
245 249 255
245 249 255
245 249 255
245 249 255
245 249 255
245 249 255
245 249 255
245 249 255
245 249 255
245 249 255
245 249 255
245 249 255
245 249 255
245 249 255
245 249 255
245 249 255
245 249 255
245 249 255
245 249 255
245 249 255
245 249 255
245 249 255
245 249 255
245 249 255
245 249 255
245 249 255
245 249 255
245 249 255
245 249 255
245 249 255
245 249 255
245 249 255
245 249 255
245 249 255
245 249 255
245 249 255
245 249 255
245 249 255
245 249 255
245 249 255
245 249 255
245 249 255
245 249 255
245 249 255
245 249 255
245 249 255
245 249 255
245 249 255
245 249 255
245 249 255
245 249 255
245 249 255
245 249 255
245 249 255
245 249 255
245 249 255
245 249 255
245 249 255
245 249 255
245 249 255
245 249 255
245 249 255
245 249 255
245 249 255
244 249 255
244 249 255
244 249 255
244 249 255
244 249 255
244 249 255
244 249 255
244 249 255
244 249 255
244 249 255
244 249 255
244 249 255
244 249 255
244 249 255
244 249 255
244 249 255
244 249 255
244 249 255
244 248 255
244 248 255
244 248 255
244 248 255
243 248 255
243 248 255
243 248 255
243 248 255
243 248 255
243 248 255
243 248 255
243 248 255
243 248 255
243 248 255
243 248 255
243 248 255
243 248 255
243 248 255
243 248 255
243 248 255
243 248 255
243 248 255
243 248 255
242 248 255
242 248 255
242 248 255
242 248 255
242 248 255
242 248 255
242 248 255
242 248 255
242 248 255
242 247 255
242 247 255
242 247 255
242 247 255
242 247 255
242 247 255
242 247 255
242 247 255
242 247 255
241 247 255
241 247 255
241 247 255
241 247 255
241 247 255
240 233 241
236 169 175
241 142 147
238 95 99
240 24 25
239 0 0
237 0 0
238 0 0
237 0 0
237 0 0
237 0 0
237 0 0
237 0 0
238 0 0
238 0 0
237 0 0
237 0 0
239 0 0
237 0 0
237 0 0
236 0 0
236 0 0
235 0 0
234 0 0
237 0 0
236 0 0
234 0 0
236 0 0
234 0 0
235 0 0
237 0 0
236 0 0
235 0 0
234 0 0
236 0 0
235 0 0
235 0 0
236 0 0
234 0 0
234 0 0
235 0 0
236 0 0
234 0 0
233 0 0
237 0 0
232 0 0
236 0 0
235 0 0
235 0 0
233 0 0
236 0 0
235 0 0
234 0 0
236 0 0
233 0 0
232 0 0
234 0 0
235 0 0
235 0 0
235 0 0
236 0 0
234 0 0
236 0 0
237 0 0
234 0 0
232 0 0
235 0 0
233 0 0
235 0 0
234 0 0
236 0 0
236 0 0
234 0 0
236 0 0
233 0 0
236 0 0
234 0 0
235 0 0
235 0 0
234 0 0
233 0 0
235 0 0
233 0 0
234 0 0
235 0 0
237 0 0
234 0 0
232 0 0
236 0 0
233 0 0
234 0 0
236 0 0
0 0 255
0 0 255
0 0 255
0 0 255
0 0 255
0 0 255
0 0 255
0 0 255
0 0 255
0 0 255
0 0 255
0 0 255
0 0 255
0 0 255
0 0 255
0 0 255
0 0 255
0 0 255
0 0 255
0 0 255
0 0 255
0 0 255
0 0 254
0 0 255
0 0 255
0 0 255
0 0 255
0 0 255
0 0 255
0 0 255
0 0 255
0 0 255
0 0 255
0 0 255
0 0 255
0 0 255
0 0 255
0 0 255
0 0 255
0 0 255
0 0 255
0 0 255
0 0 254
0 0 255
0 0 255
0 0 255
0 0 255
0 0 255
0 0 254
0 0 255
0 0 255
0 0 255
0 0 255
0 0 255
0 0 255
0 0 255
0 0 254
0 0 254
0 0 255
0 0 254
0 0 255
0 0 255
0 0 255
0 0 255
0 0 255
0 0 254
0 0 255
0 0 255
0 0 255
0 0 255
0 0 255
0 0 254
0 0 255
0 0 255
0 0 255
0 0 255
0 0 254
0 0 253
0 0 254
0 0 255
0 0 255
0 0 254
0 0 255
102 104 255
144 148 255
174 178 255
206 211 255
232 238 255
241 247 255
241 247 255
241 247 255
241 247 255
241 247 255
241 247 255
241 247 255
242 247 255
242 247 255
242 247 255
242 247 255
242 247 255
242 247 255
242 247 255
242 247 255
242 247 255
242 248 255
242 248 255
242 248 255
242 248 255
242 248 255
242 248 255
242 248 255
242 248 255
243 248 255
243 248 255
243 248 255
243 248 255
243 248 255
243 248 255
243 248 255
243 248 255
243 248 255
243 248 255
243 248 255
243 248 255
243 248 255
243 248 255
243 248 255
243 248 255
243 248 255
243 248 255
243 248 255
244 248 255
244 248 255
244 248 255
244 248 255
244 248 255
244 249 255
244 249 255
244 249 255
244 249 255
244 249 255
244 249 255
244 249 255
244 249 255
244 249 255
244 249 255
244 249 255
244 249 255
244 249 255
244 249 255
244 249 255
244 249 255
244 249 255
244 249 255
245 249 255
245 249 255
245 249 255
245 249 255
245 249 255
245 249 255
245 249 255
245 249 255
245 249 255
245 249 255
245 249 255
245 249 255
245 249 255
245 249 255
245 249 255
245 249 255
245 249 255
245 249 255
245 249 255
245 249 255
245 249 255
245 249 255
245 249 255
245 249 255
245 249 255
245 249 255
245 249 255
245 249 255
245 249 255
245 249 255
245 249 255
245 249 255
245 249 255
245 249 255
245 249 255
245 249 255
245 249 255
245 250 255
245 250 255
245 250 255
245 250 255
245 250 255
245 250 255
245 250 255
245 250 255
245 250 255
245 250 255
245 250 255
245 250 255
245 250 255
245 250 255
245 250 255
245 250 255
245 250 255
245 250 255
245 249 255
245 249 255
245 249 255
245 249 255
245 249 255
245 249 255
245 249 255
245 249 255
245 249 255
245 249 255
245 249 255
245 249 255
245 249 255
245 249 255
245 249 255
245 249 255
245 249 255
245 249 255
245 249 255
245 249 255
245 249 255
245 249 255
245 249 255
245 249 255
245 249 255
245 249 255
245 249 255
245 249 255
245 249 255
245 249 255
245 249 255
245 249 255
245 249 255
245 249 255
245 249 255
245 249 255
245 249 255
244 249 255
244 249 255
244 249 255
244 249 255
244 249 255
244 249 255
244 249 255
244 249 255
244 249 255
244 249 255
244 249 255
244 249 255
244 249 255
244 249 255
244 249 255
244 249 255
244 249 255
244 249 255
244 248 255
244 248 255
244 248 255
244 248 255
244 248 255
243 248 255
243 248 255
243 248 255
243 248 255
243 248 255
243 248 255
243 248 255
243 248 255
243 248 255
243 248 255
243 248 255
243 248 255
243 248 255
243 248 255
243 248 255
243 248 255
243 248 255
243 248 255
243 248 255
242 248 255
242 248 255
242 248 255
242 248 255
242 248 255
242 248 255
242 248 255
242 248 255
242 247 255
242 247 255
242 247 255
242 247 255
242 247 255
242 247 255
242 247 255
242 247 255
242 247 255
241 247 255
241 247 255
241 247 255
241 247 255
241 247 255
241 247 255
241 247 255
241 242 250
241 204 211
240 181 188
241 148 153
238 65 67
238 0 0
240 0 0
240 0 0
237 0 0
239 0 0
238 0 0
237 0 0
238 0 0
238 0 0
237 0 0
235 0 0
236 0 0
236 0 0
236 0 0
237 0 0
237 0 0
236 0 0
236 0 0
238 0 0
238 0 0
236 0 0
237 0 0
233 0 0
235 0 0
238 0 0
235 0 0
236 0 0
234 0 0
235 0 0
236 0 0
234 0 0
237 0 0
238 0 0
237 0 0
236 0 0
235 0 0
234 0 0
233 0 0
237 0 0
236 0 0
237 0 0
234 0 0
234 0 0
237 0 0
233 0 0
232 0 0
238 0 0
234 0 0
234 0 0
234 0 0
235 0 0
234 0 0
235 0 0
234 0 0
232 0 0
239 0 0
235 0 0
235 0 0
236 0 0
235 0 0
237 0 0
235 0 0
236 0 0
232 0 0
237 0 0
235 0 0
234 0 0
237 0 0
237 0 0
232 0 0
235 0 0
231 0 0
235 0 0
236 0 0
237 0 0
234 0 0
236 0 0
234 0 0
234 0 0
236 0 0
235 0 0
236 0 0
233 0 0
191 197 255
177 183 255
120 124 255
82 84 255
23 24 255
0 0 255
0 0 255
0 0 255
0 0 255
0 0 255
0 0 255
0 0 255
0 0 255
0 0 255
0 0 255
0 0 255
0 0 255
0 0 255
0 0 255
0 0 255
0 0 255
0 0 255
0 0 255
0 0 255
0 0 255
0 0 255
0 0 255
0 0 255
0 0 255
0 0 254
0 0 255
0 0 255
0 0 255
0 0 255
0 0 255
0 0 254
0 0 255
0 0 255
0 0 255
0 0 255
0 0 254
0 0 255
0 0 255
0 0 255
0 0 255
0 0 255
0 0 255
0 0 255
0 0 255
0 0 255
0 0 255
0 0 255
0 0 255
0 0 255
0 0 255
0 0 255
0 0 254
0 0 254
0 0 255
0 0 255
0 0 255
0 0 254
0 0 255
0 0 254
0 0 255
0 0 255
0 0 255
0 0 255
0 0 255
0 0 255
0 0 255
0 0 255
0 0 255
0 0 255
0 0 255
0 0 255
0 0 255
63 65 255
99 101 254
146 150 255
156 160 255
210 215 255
230 235 255
241 247 255
241 247 255
241 247 255
241 247 255
241 247 255
241 247 255
241 247 255
241 247 255
241 247 255
241 247 255
242 247 255
242 247 255
242 247 255
242 247 255
242 247 255
242 247 255
242 247 255
242 247 255
242 247 255
242 248 255
242 248 255
242 248 255
242 248 255
242 248 255
242 248 255
242 248 255
242 248 255
242 248 255
243 248 255
243 248 255
243 248 255
243 248 255
243 248 255
243 248 255
243 248 255
243 248 255
243 248 255
243 248 255
243 248 255
243 248 255
243 248 255
243 248 255
243 248 255
243 248 255
243 248 255
243 248 255
244 248 255
244 248 255
244 248 255
244 248 255
244 249 255
244 249 255
244 249 255
244 249 255
244 249 255
244 249 255
244 249 255
244 249 255
244 249 255
244 249 255
244 249 255
244 249 255
244 249 255
244 249 255
244 249 255
244 249 255
244 249 255
244 249 255
245 249 255
245 249 255
245 249 255
245 249 255
245 249 255
245 249 255
245 249 255
245 249 255
245 249 255
245 249 255
245 249 255
245 249 255
245 249 255
245 249 255
245 249 255
245 249 255
245 249 255
245 249 255
245 249 255
245 249 255
245 249 255
245 249 255
245 249 255
245 249 255
245 249 255
245 249 255
245 249 255
245 249 255
245 249 255
245 249 255
245 249 255
245 250 255
245 250 255
245 250 255
245 250 255
245 250 255
245 250 255
246 250 255
246 250 255
246 250 255
246 250 255
246 250 255
246 250 255
246 250 255
246 250 255
246 250 255
246 250 255
246 250 255
246 250 255
246 250 255
246 250 255
246 250 255
246 250 255
246 250 255
246 250 255
246 250 255
246 250 255
246 250 255
246 250 255
246 250 255
246 250 255
246 250 255
245 250 255
245 250 255
245 250 255
245 250 255
245 250 255
245 249 255
245 249 255
245 249 255
245 249 255
245 249 255
245 249 255
245 249 255
245 249 255
245 249 255
245 249 255
245 249 255
245 249 255
245 249 255
245 249 255
245 249 255
245 249 255
245 249 255
245 249 255
245 249 255
245 249 255
245 249 255
245 249 255
245 249 255
245 249 255
245 249 255
245 249 255
245 249 255
245 249 255
245 249 255
245 249 255
245 249 255
244 249 255
244 249 255
244 249 255
244 249 255
244 249 255
244 249 255
244 249 255
244 249 255
244 249 255
244 249 255
244 249 255
244 249 255
244 249 255
244 249 255
244 249 255
244 249 255
244 249 255
244 249 255
244 248 255
244 248 255
244 248 255
244 248 255
243 248 255
243 248 255
243 248 255
243 248 255
243 248 255
243 248 255
243 248 255
243 248 255
243 248 255
243 248 255
243 248 255
243 248 255
243 248 255
243 248 255
243 248 255
243 248 255
243 248 255
243 248 255
243 248 255
242 248 255
242 248 255
242 248 255
242 248 255
242 248 255
242 248 255
242 248 255
242 248 255
242 247 255
242 247 255
242 247 255
242 247 255
242 247 255
242 247 255
242 247 255
242 247 255
242 247 255
241 247 255
241 247 255
241 247 255
241 247 255
241 247 255
241 247 255
241 247 255
241 247 255
241 247 255
241 247 255
241 228 236
239 217 224
240 167 173
238 152 157
237 101 105
239 34 36
240 0 0
238 0 0
235 0 0
236 0 0
237 0 0
238 0 0
234 0 0
237 0 0
236 0 0
235 0 0
240 0 0
235 0 0
236 0 0
234 0 0
238 0 0
237 0 0
237 0 0
238 0 0
238 0 0
238 0 0
236 0 0
236 0 0
234 0 0
234 0 0
236 0 0
235 0 0
239 0 0
238 0 0
237 0 0
235 0 0
237 0 0
238 0 0
236 0 0
236 0 0
234 0 0
235 0 0
233 0 0
234 0 0
235 0 0
236 0 0
235 0 0
236 0 0
232 0 0
237 0 0
236 0 0
236 0 0
238 0 0
237 0 0
236 0 0
235 0 0
238 0 0
234 0 0
235 0 0
235 0 0
235 0 0
234 0 0
234 0 0
235 0 0
233 0 0
233 0 0
235 0 0
234 0 0
239 0 0
234 0 0
240 0 0
235 0 0
235 0 0
234 0 0
237 0 0
235 0 0
236 0 0
235 0 0
235 34 36
236 106 111
237 136 142
235 169 177
237 195 204
237 244 255
237 244 255
237 244 255
237 244 255
233 241 255
205 212 255
191 197 255
171 176 255
150 155 255
92 94 255
100 104 255
0 0 255
0 0 255
0 0 255
0 0 255
0 0 255
0 0 255
0 0 255
0 0 255
0 0 255
0 0 255
0 0 255
0 0 255
0 0 255
0 0 255
0 0 255
0 0 255
0 0 255
0 0 255
0 0 255
0 0 255
0 0 255
0 0 255
0 0 255
0 0 255
0 0 255
0 0 255
0 0 255
0 0 255
0 0 255
0 0 255
0 0 255
0 0 255
0 0 255
0 0 255
0 0 255
0 0 255
0 0 255
0 0 255
0 0 255
0 0 255
0 0 255
0 0 255
0 0 255
0 0 255
0 0 254
0 0 255
0 0 254
0 0 255
0 0 255
0 0 255
0 0 255
0 0 255
0 0 254
0 0 255
0 0 255
0 0 255
0 0 253
0 0 254
0 0 255
34 34 255
83 85 255
110 113 254
125 128 255
170 174 255
195 200 255
222 227 255
240 245 255
241 247 255
241 247 255
241 247 255
241 247 255
241 247 255
241 247 255
241 247 255
241 247 255
241 247 255
241 247 255
241 247 255
241 247 255
241 247 255
242 247 255
242 247 255
242 247 255
242 247 255
242 247 255
242 247 255
242 247 255
242 247 255
242 247 255
242 248 255
242 248 255
242 248 255
242 248 255
242 248 255
242 248 255
242 248 255
242 248 255
243 248 255
243 248 255
243 248 255
243 248 255
243 248 255
243 248 255
243 248 255
243 248 255
243 248 255
243 248 255
243 248 255
243 248 255
243 248 255
243 248 255
243 248 255
243 248 255
243 248 255
243 248 255
243 248 255
244 248 255
244 248 255
244 248 255
244 248 255
244 249 255
244 249 255
244 249 255
244 249 255
244 249 255
244 249 255
244 249 255
244 249 255
244 249 255
244 249 255
244 249 255
244 249 255
244 249 255
244 249 255
244 249 255
244 249 255
244 249 255
245 249 255
245 249 255
245 249 255
245 249 255
245 249 255
245 249 255
245 249 255
245 249 255
245 249 255
245 249 255
245 249 255
245 249 255
245 249 255
245 249 255
245 249 255
245 249 255
245 249 255
245 249 255
245 249 255
245 249 255
245 249 255
245 249 255
245 249 255
245 249 255
245 249 255
245 249 255
245 249 255
245 249 255
245 250 255
245 250 255
245 250 255
245 250 255
246 250 255
246 250 255
246 250 255
246 250 255
246 250 255
246 250 255
246 250 255
246 250 255
246 250 255
246 250 255
246 250 255
246 250 255
246 250 255
246 250 255
246 250 255
246 250 255
246 250 255
246 250 255
246 250 255
246 250 255
246 250 255
246 250 255
246 250 255
246 250 255
246 250 255
246 250 255
246 250 255
246 250 255
246 250 255
246 250 255
246 250 255
246 250 255
246 250 255
246 250 255
246 250 255
246 250 255
246 250 255
246 250 255
246 250 255
246 250 255
245 250 255
245 250 255
245 250 255
245 250 255
245 249 255
245 249 255
245 249 255
245 249 255
245 249 255
245 249 255
245 249 255
245 249 255
245 249 255
245 249 255
245 249 255
245 249 255
245 249 255
245 249 255
245 249 255
245 249 255
245 249 255
245 249 255
245 249 255
245 249 255
245 249 255
245 249 255
245 249 255
245 249 255
245 249 255
245 249 255
245 249 255
245 249 255
244 249 255
244 249 255
244 249 255
244 249 255
244 249 255
244 249 255
244 249 255
244 249 255
244 249 255
244 249 255
244 249 255
244 249 255
244 249 255
244 249 255
244 249 255
244 249 255
244 249 255
244 248 255
244 248 255
244 248 255
244 248 255
243 248 255
243 248 255
243 248 255
243 248 255
243 248 255
243 248 255
243 248 255
243 248 255
243 248 255
243 248 255
243 248 255
243 248 255
243 248 255
243 248 255
243 248 255
243 248 255
243 248 255
243 248 255
243 248 255
242 248 255
242 248 255
242 248 255
242 248 255
242 248 255
242 248 255
242 248 255
242 248 255
242 247 255
242 247 255
242 247 255
242 247 255
242 247 255
242 247 255
242 247 255
242 247 255
242 247 255
241 247 255
241 247 255
241 247 255
241 247 255
241 247 255
241 247 255
241 247 255
241 247 255
241 247 255
241 247 255
241 247 255
241 247 255
241 247 255
241 246 254
240 235 244
239 205 212
240 183 189
240 141 147
239 104 108
238 69 72
239 24 25
240 0 0
238 0 0
238 0 0
235 0 0
237 0 0
236 0 0
237 0 0
238 0 0
238 0 0
237 0 0
235 0 0
239 0 0
237 0 0
237 0 0
238 0 0
236 0 0
238 0 0
236 0 0
236 0 0
236 0 0
236 0 0
236 0 0
237 0 0
234 0 0
232 0 0
235 0 0
236 0 0
236 0 0
234 0 0
237 0 0
237 0 0
235 0 0
237 0 0
235 0 0
238 0 0
235 0 0
234 0 0
237 0 0
234 0 0
236 0 0
234 0 0
235 0 0
236 0 0
234 0 0
238 0 0
237 0 0
233 0 0
237 0 0
235 0 0
235 0 0
234 0 0
236 0 0
238 0 0
238 0 0
235 0 0
237 0 0
234 0 0
238 0 0
235 0 0
236 60 62
237 106 111
236 158 165
238 176 184
238 215 224
237 220 230
237 243 254
237 244 255
237 244 255
237 244 255
237 244 255
237 244 255
237 244 255
237 244 255
237 245 255
237 245 255
237 245 255
237 245 255
237 245 255
237 245 255
237 245 255
237 245 255
232 240 255
214 220 255
194 200 255
187 193 255
168 173 255
123 127 255
126 129 255
71 73 255
33 34 255
0 0 255
0 0 255
0 0 255
0 0 255
0 0 255
0 0 255
0 0 255
0 0 255
0 0 255
0 0 255
0 0 255
0 0 255
0 0 255
0 0 255
0 0 255
0 0 255
0 0 255
0 0 255
0 0 255
0 0 255
0 0 254
0 0 255
0 0 255
0 0 255
0 0 255
0 0 255
0 0 255
0 0 255
0 0 255
0 0 255
0 0 255
0 0 255
0 0 255
0 0 255
0 0 255
0 0 255
0 0 255
0 0 255
0 0 254
0 0 255
0 0 255
0 0 255
58 60 255
96 98 254
122 125 254
150 154 255
163 167 255
181 186 255
195 200 255
223 229 255
232 238 255
240 247 255
241 247 255
241 247 255
241 247 255
241 247 255
241 247 255
241 247 255
241 247 255
241 247 255
241 247 255
241 247 255
241 247 255
241 247 255
241 247 255
241 247 255
241 247 255
241 247 255
241 247 255
242 247 255
242 247 255
242 247 255
242 247 255
242 247 255
242 247 255
242 247 255
242 247 255
242 247 255
242 248 255
242 248 255
242 248 255
242 248 255
242 248 255
242 248 255
242 248 255
242 248 255
243 248 255
243 248 255
243 248 255
243 248 255
243 248 255
243 248 255
243 248 255
243 248 255
243 248 255
243 248 255
243 248 255
243 248 255
243 248 255
243 248 255
243 248 255
243 248 255
243 248 255
243 248 255
243 248 255
244 248 255
244 248 255
244 248 255
244 248 255
244 249 255
244 249 255
244 249 255
244 249 255
244 249 255
244 249 255
244 249 255
244 249 255
244 249 255
244 249 255
244 249 255
244 249 255
244 249 255
244 249 255
244 249 255
244 249 255
245 249 255
245 249 255
245 249 255
245 249 255
245 249 255
245 249 255
245 249 255
245 249 255
245 249 255
245 249 255
245 249 255
245 249 255
245 249 255
245 249 255
245 249 255
245 249 255
245 249 255
245 249 255
245 249 255
245 249 255
245 249 255
245 249 255
245 249 255
245 249 255
245 249 255
245 249 255
245 249 255
245 250 255
245 250 255
245 250 255
246 250 255
246 250 255
246 250 255
246 250 255
246 250 255
246 250 255
246 250 255
246 250 255
246 250 255
246 250 255
246 250 255
246 250 255
246 250 255
246 250 255
246 250 255
246 250 255
246 250 255
246 250 255
246 250 255
246 250 255
246 250 255
246 250 255
246 250 255
246 250 255
246 250 255
246 250 255
246 250 255
246 250 255
246 250 255
246 250 255
246 250 255
246 250 255
246 250 255
246 250 255
246 250 255
246 250 255
246 250 255
246 250 255
246 250 255
246 250 255
246 250 255
246 250 255
246 250 255
246 250 255
246 250 255
246 250 255
246 250 255
246 250 255
246 250 255
246 250 255
245 250 255
245 250 255
245 250 255
245 250 255
245 249 255
245 249 255
245 249 255
245 249 255
245 249 255
245 249 255
245 249 255
245 249 255
245 249 255
245 249 255
245 249 255
245 249 255
245 249 255
245 249 255
245 249 255
245 249 255
245 249 255
245 249 255
245 249 255
245 249 255
245 249 255
245 249 255
245 249 255
245 249 255
245 249 255
245 249 255
244 249 255
244 249 255
244 249 255
244 249 255
244 249 255
244 249 255
244 249 255
244 249 255
244 249 255
244 249 255
244 249 255
244 249 255
244 249 255
244 249 255
244 249 255
244 249 255
244 248 255
244 248 255
244 248 255
244 248 255
243 248 255
243 248 255
243 248 255
243 248 255
243 248 255
243 248 255
243 248 255
243 248 255
243 248 255
243 248 255
243 248 255
243 248 255
243 248 255
243 248 255
243 248 255
243 248 255
243 248 255
243 248 255
243 248 255
242 248 255
242 248 255
242 248 255
242 248 255
242 248 255
242 248 255
242 248 255
242 248 255
242 247 255
242 247 255
242 247 255
242 247 255
242 247 255
242 247 255
242 247 255
242 247 255
242 247 255
241 247 255
241 247 255
241 247 255
241 247 255
241 247 255
241 247 255
241 247 255
241 247 255
241 247 255
241 247 255
241 247 255
241 247 255
241 247 255
241 247 255
241 247 255
241 247 255
241 247 255
240 247 255
241 243 252
241 235 244
239 203 211
241 184 191
240 171 177
238 141 147
239 125 130
237 98 102
242 55 57
239 0 0
237 0 0
236 0 0
238 0 0
236 0 0
237 0 0
238 0 0
238 0 0
238 0 0
236 0 0
235 0 0
237 0 0
237 0 0
236 0 0
241 0 0
240 0 0
237 0 0
238 0 0
236 0 0
236 0 0
235 0 0
236 0 0
235 0 0
237 0 0
237 0 0
235 0 0
236 0 0
235 0 0
234 0 0
234 0 0
238 0 0
236 0 0
236 0 0
238 0 0
238 0 0
239 0 0
233 0 0
236 0 0
236 0 0
233 0 0
236 0 0
233 0 0
235 54 57
239 98 102
236 106 111
233 143 149
237 151 157
237 171 179
237 206 215
238 222 231
238 240 250
237 245 255
237 245 255
237 245 255
237 245 255
237 245 255
237 245 255
237 245 255
237 245 255
237 244 255
237 244 255
237 244 255
237 244 255
237 245 255
237 245 255
237 245 255
237 245 255
237 245 255
237 245 255
237 245 255
237 245 255
237 245 255
237 245 255
237 245 255
237 245 255
238 245 255
238 245 255
238 245 255
238 245 255
238 245 255
238 245 255
238 245 255
232 239 255
221 227 255
207 214 255
193 199 255
186 191 255
170 175 255
152 157 255
145 149 255
139 143 255
132 136 255
117 120 255
95 98 255
67 69 255
82 85 255
71 73 255
33 34 255
63 65 255
41 42 255
33 34 255
23 24 255
0 0 255
0 0 255
33 34 255
33 34 255
47 49 255
23 24 255
58 60 255
89 92 255
104 107 255
109 112 255
112 115 255
107 110 255
147 151 255
144 147 255
151 155 255
173 177 255
184 189 255
187 192 255
195 200 255
204 209 255
221 227 255
233 239 255
240 246 255
240 246 255
240 246 255
240 246 255
240 247 255
240 247 255
240 247 255
241 247 255
241 247 255
241 247 255
241 247 255
241 247 255
241 247 255
241 247 255
241 247 255
241 247 255
241 247 255
241 247 255
241 247 255
241 247 255
241 247 255
241 247 255
241 247 255
241 247 255
241 247 255
242 247 255
242 247 255
242 247 255
242 247 255
242 247 255
242 247 255
242 247 255
242 247 255
242 247 255
242 248 255
242 248 255
242 248 255
242 248 255
242 248 255
242 248 255
242 248 255
242 248 255
243 248 255
243 248 255
243 248 255
243 248 255
243 248 255
243 248 255
243 248 255
243 248 255
243 248 255
243 248 255
243 248 255
243 248 255
243 248 255
243 248 255
243 248 255
243 248 255
243 248 255
243 248 255
244 248 255
244 248 255
244 248 255
244 248 255
244 248 255
244 249 255
244 249 255
244 249 255
244 249 255
244 249 255
244 249 255
244 249 255
244 249 255
244 249 255
244 249 255
244 249 255
244 249 255
244 249 255
244 249 255
244 249 255
244 249 255
245 249 255
245 249 255
245 249 255
245 249 255
245 249 255
245 249 255
245 249 255
245 249 255
245 249 255
245 249 255
245 249 255
245 249 255
245 249 255
245 249 255
245 249 255
245 249 255
245 249 255
245 249 255
245 249 255
245 249 255
245 249 255
245 249 255
245 249 255
245 249 255
245 249 255
245 250 255
245 250 255
245 250 255
246 250 255
246 250 255
246 250 255
246 250 255
246 250 255
246 250 255
246 250 255
246 250 255
246 250 255
246 250 255
246 250 255
246 250 255
246 250 255
246 250 255
246 250 255
246 250 255
246 250 255
246 250 255
246 250 255
246 250 255
246 250 255
246 250 255
246 250 255
246 250 255
246 250 255
246 250 255
246 250 255
246 250 255
246 250 255
246 250 255
246 250 255
246 250 255
246 250 255
246 250 255
246 250 255
246 250 255
246 250 255
246 250 255
246 250 255
246 250 255
246 250 255
246 250 255
246 250 255
246 250 255
246 250 255
246 250 255
246 250 255
246 250 255
246 250 255
246 250 255
246 250 255
246 250 255
246 250 255
246 250 255
246 250 255
246 250 255
246 250 255
246 250 255
245 250 255
245 250 255
245 250 255
245 250 255
245 249 255
245 249 255
245 249 255
245 249 255
245 249 255
245 249 255
245 249 255
245 249 255
245 249 255
245 249 255
245 249 255
245 249 255
245 249 255
245 249 255
245 249 255
245 249 255
245 249 255
245 249 255
245 249 255
245 249 255
245 249 255
245 249 255
245 249 255
245 249 255
244 249 255
244 249 255
244 249 255
244 249 255
244 249 255
244 249 255
244 249 255
244 249 255
244 249 255
244 249 255
244 249 255
244 249 255
244 249 255
244 249 255
244 249 255
244 249 255
244 248 255
244 248 255
244 248 255
244 248 255
244 248 255
243 248 255
243 248 255
243 248 255
243 248 255
243 248 255
243 248 255
243 248 255
243 248 255
243 248 255
243 248 255
243 248 255
243 248 255
243 248 255
243 248 255
243 248 255
243 248 255
243 248 255
243 248 255
242 248 255
242 248 255
242 248 255
242 248 255
242 248 255
242 248 255
242 248 255
242 248 255
242 247 255
242 247 255
242 247 255
242 247 255
242 247 255
242 247 255
242 247 255
242 247 255
242 247 255
241 247 255
241 247 255
241 247 255
241 247 255
241 247 255
241 247 255
241 247 255
241 247 255
241 247 255
241 247 255
241 247 255
241 247 255
241 247 255
241 247 255
241 247 255
241 247 255
241 247 255
241 247 255
240 247 255
240 247 255
240 247 255
240 246 255
240 246 255
240 246 255
240 246 255
240 240 249
240 226 234
240 222 230
240 204 212
240 179 186
238 186 193
239 156 161
240 157 163
240 147 153
238 147 153
239 120 125
238 104 108
238 120 125
238 81 84
238 69 72
239 55 57
239 65 67
237 55 57
240 24 25
237 0 0
234 0 0
237 0 0
237 0 0
238 34 36
239 49 51
238 34 36
237 85 88
239 88 92
238 81 84
239 109 114
238 98 102
236 120 125
237 120 125
238 141 147
236 157 163
238 172 179
237 182 189
237 199 207
237 193 201
238 222 231
237 231 241
238 232 242
238 245 255
238 245 255
238 245 255
238 245 255
238 245 255
238 245 255
238 245 255
237 245 255
237 245 255
237 245 255
237 245 255
237 245 255
237 245 255
237 245 255
237 245 255
237 245 255
237 245 255
237 245 255
237 245 255
237 244 255
