P3
400 225
255
174 197 0
172 196 0
174 197 0
173 197 0
175 198 0
175 198 0
171 195 0
173 196 0
173 197 0
176 199 0
174 197 0
174 197 0
174 197 0
174 197 0
174 197 0
173 196 0
175 198 0
174 197 0
175 198 0
174 197 0
173 197 0
174 197 0
173 197 0
175 198 0
173 196 0
174 197 0
173 197 0
174 197 0
175 198 0
172 196 0
175 198 0
173 197 0
175 198 0
173 196 0
176 198 0
171 195 0
173 197 0
173 197 0
175 198 0
174 198 0
176 198 0
174 198 0
176 198 0
172 197 0
172 196 0
174 198 0
176 199 0
172 195 0
173 197 0
175 198 0
175 198 0
173 196 0
172 196 0
174 197 0
174 197 0
174 196 0
174 197 0
173 197 0
173 197 0
174 198 0
173 197 0
175 198 0
175 197 0
172 196 0
174 198 0
174 197 0
174 197 0
172 196 0
170 195 0
172 196 0
174 198 0
173 196 0
172 196 0
173 197 0
173 197 0
175 197 0
171 196 0
174 197 0
174 197 0
172 196 0
172 196 0
172 196 0
171 195 0
174 197 0
172 196 0
173 196 0
174 197 0
174 197 0
172 196 0
175 198 0
173 196 0
171 195 0
173 196 0
174 198 0
174 197 0
170 194 0
174 197 0
172 195 0
174 197 0
173 197 0
174 197 0
173 197 0
174 197 0
172 195 0
174 198 0
174 197 0
171 195 0
174 198 0
173 196 0
174 197 0
173 196 0
174 198 0
174 196 0
172 196 0
174 197 0
173 196 0
174 197 0
175 198 0
175 198 0
173 196 0
174 197 0
172 196 0
173 196 0
176 198 0
174 197 0
173 196 0
173 197 0
174 197 0
172 196 0
173 196 0
171 196 0
171 194 0
174 197 0
175 197 0
173 197 0
174 197 0
172 196 0
175 198 0
175 198 0
172 195 0
173 196 0
173 196 0
174 197 0
174 197 0
173 196 0
171 195 0
174 197 0
174 196 0
174 197 0
173 196 0
175 198 0
173 196 0
173 196 0
173 197 0
174 197 0
172 195 0
172 196 0
173 196 0
173 196 0
174 197 0
173 197 0
173 196 0
172 195 0
174 198 0
171 195 0
174 196 0
175 198 0
173 197 0
172 195 0
171 194 0
174 197 0
172 196 0
173 196 0
176 198 0
171 195 0
172 195 0
174 197 0
173 196 0
173 197 0
174 196 0
172 196 0
174 197 0
171 195 0
173 196 0
173 196 0
173 196 0
173 196 0
171 194 0
174 196 0
173 196 0
174 198 0
172 196 0
173 196 0
173 197 0
172 195 0
175 197 0
173 196 0
172 195 0
173 197 0
174 196 0
172 195 0
172 195 0
174 197 0
173 197 0
176 198 0
172 195 0
172 196 0
174 197 0
174 196 0
175 197 0
171 194 0
175 198 0
173 197 0
174 197 0
172 196 0
171 194 0
172 196 0
174 197 0
172 194 0
173 196 0
172 195 0
174 196 0
173 196 0
171 195 0
175 198 0
173 196 0
171 194 0
171 195 0
173 197 0
175 197 0
174 198 0
173 196 0
174 197 0
172 195 0
170 193 0
171 194 0
173 197 0
174 197 0
172 196 0
171 194 11
170 192 16
172 193 16
169 186 39
161 177 37
159 177 32
159 175 39
160 175 42
158 172 45
158 169 53
158 168 56
161 167 68
156 160 64
151 155 64
149 153 68
150 151 68
141 139 76
153 153 78
154 149 89
155 149 84
152 146 89
150 145 87
148 142 92
144 139 85
153 147 91
152 147 92
155 149 94
155 151 97
155 150 95
161 155 99
156 152 98
155 152 99
157 151 96
166 160 103
159 154 100
153 148 95
161 156 101
153 149 99
158 153 98
153 149 97
155 152 100
163 159 104
158 154 101
161 158 104
163 159 106
161 157 103
161 157 102
163 160 105
156 153 101
159 156 104
159 156 104
162 159 106
165 161 107
160 157 105
166 162 108
160 156 103
160 157 104
162 159 107
154 151 101
161 158 105
165 163 109
160 157 105
167 164 109
163 160 106
164 163 109
161 158 105
165 162 108
166 164 109
161 159 106
168 165 110
162 160 107
161 159 106
162 160 107
167 165 110
164 161 108
168 165 110
163 161 108
167 165 110
164 162 109
164 162 109
165 163 109
156 154 103
168 165 110
159 157 105
166 163 109
162 160 107
167 164 109
168 165 110
163 161 108
165 163 108
164 161 108
164 161 108
166 163 108
162 160 106
161 158 104
168 164 108
164 161 108
156 152 101
167 163 108
166 164 109
165 162 107
163 160 106
164 161 106
166 162 108
160 157 103
163 159 105
157 154 103
160 156 102
155 151 100
158 154 101
159 156 103
158 154 101
156 152 99
160 155 99
159 154 100
155 150 99
166 161 105
158 153 101
159 156 99
161 156 101
156 151 95
149 144 91
160 154 98
150 145 92
155 149 96
157 151 96
153 149 93
159 153 94
151 146 92
144 139 87
142 137 80
148 143 84
148 142 83
143 137 83
149 146 83
157 156 81
152 154 74
153 159 62
146 153 61
152 160 58
156 169 39
162 173 58
160 175 45
163 180 36
166 183 39
170 190 25
171 192 22
173 194 22
173 196 11
173 196 0
172 195 0
174 197 0
171 195 0
175 198 0
173 196 0
173 197 0
174 197 0
174 197 0
173 197 0
173 196 0
174 197 0
171 195 0
174 197 0
174 197 0
176 198 0
172 196 0
174 197 0
174 198 0
176 199 0
175 198 0
174 197 0
175 198 0
174 198 0
173 197 0
174 198 0
174 197 0
173 197 0
173 197 0
174 197 0
174 197 0
175 198 0
173 197 0
175 198 0
174 198 0
173 197 0
174 198 0
174 198 0
174 198 0
176 199 0
175 198 0
171 194 0
174 198 0
173 196 0
173 196 0
173 197 0
173 197 0
174 197 0
176 199 0
175 198 0
173 196 0
173 197 0
172 196 0
174 198 0
175 198 0
171 195 0
175 198 0
174 197 0
174 198 0
174 197 0
174 198 0
175 198 0
176 199 0
175 198 0
175 197 0
174 197 0
173 197 0
171 195 0
174 198 0
173 197 0
171 195 0
173 196 0
172 196 0
177 199 0
174 197 0
174 197 0
174 197 0
176 198 0
173 196 0
173 197 0
173 197 0
175 198 0
173 197 0
172 196 0
173 197 0
173 197 0
174 197 0
173 197 0
173 196 0
173 197 0
175 198 0
173 196 0
172 196 0
175 198 0
173 196 0
174 198 0
173 196 0
173 197 0
174 197 0
173 196 0
175 198 0
174 197 0
174 197 0
175 198 0
172 195 0
174 198 0
173 197 0
173 197 0
173 197 0
174 197 0
174 198 0
172 195 0
173 197 0
174 197 0
173 196 0
174 196 0
172 195 0
172 196 0
174 196 0
170 194 0
173 197 0
172 195 0
173 197 0
174 197 0
171 194 0
174 198 0
173 196 0
173 196 0
173 196 0
172 196 0
173 196 0
171 195 0
172 196 0
173 195 0
174 197 0
172 195 0
174 197 0
174 197 0
171 195 0
172 195 0
174 196 0
174 197 0
174 197 0
174 197 0
172 196 0
172 196 0
171 195 0
173 196 0
174 197 0
172 195 0
172 196 0
173 196 0
173 197 0
172 196 0
173 196 0
173 196 0
173 196 0
170 194 0
173 196 0
172 196 0
174 197 0
173 196 0
176 198 0
174 197 0
173 196 0
171 195 0
174 197 0
173 196 0
173 196 0
177 199 0
173 196 0
170 193 0
174 197 0
173 197 0
174 196 0
172 196 0
173 196 0
175 198 0
172 195 0
173 196 0
173 196 0
173 196 0
171 195 0
175 198 0
174 197 0
173 196 0
173 197 0
172 196 0
173 195 0
172 195 0
172 196 0
173 196 0
174 197 0
174 197 0
170 194 0
172 195 0
172 195 0
173 196 0
172 195 0
173 196 0
173 196 0
172 196 0
171 195 0
173 196 0
173 196 0
174 198 0
174 196 0
173 196 0
173 196 0
173 197 0
172 196 0
174 197 0
175 198 0
172 196 0
172 196 0
173 196 0
173 196 0
173 197 0
176 198 0
174 197 0
173 196 0
172 195 0
173 196 0
173 196 0
171 194 0
169 194 0
175 197 0
172 196 0
173 196 0
174 197 0
173 195 0
174 197 0
173 196 0
174 197 0
172 196 0
172 196 0
176 198 0
174 197 0
174 197 0
174 197 0
174 198 0
174 196 0
173 196 0
173 196 0
172 195 0
172 195 0
173 196 0
174 197 0
173 196 0
172 195 0
173 196 11
171 192 19
170 191 0
167 186 28
167 186 32
167 185 32
164 180 43
163 180 42
158 170 49
155 170 43
156 166 58
151 158 52
156 163 68
150 153 71
151 152 76
148 149 72
147 146 72
148 145 83
146 143 79
154 150 91
152 146 90
150 144 88
155 150 93
142 138 86
149 144 86
155 149 91
150 145 91
157 153 96
154 149 95
152 147 92
155 152 99
151 148 96
161 156 99
154 149 96
159 155 101
152 149 98
153 149 97
156 151 98
159 155 101
153 149 98
155 151 99
165 161 107
158 155 103
155 153 100
156 153 100
160 156 103
163 160 107
165 161 108
155 152 102
163 159 104
164 161 107
161 158 104
161 158 105
165 161 107
163 159 105
164 161 107
165 162 108
160 158 105
162 159 106
158 156 104
163 160 107
165 162 108
163 160 107
169 166 111
163 161 107
161 158 106
161 159 106
167 165 110
163 160 107
166 163 109
163 160 107
161 160 107
165 163 109
165 163 109
169 166 111
167 164 110
162 160 108
166 165 110
161 159 106
164 162 108
170 167 111
157 155 104
164 162 108
167 165 110
161 159 107
163 161 108
167 164 110
166 163 109
167 164 109
164 162 108
165 162 108
160 158 106
164 161 108
167 164 110
157 155 104
158 155 103
163 161 107
163 160 107
164 161 108
166 163 108
166 163 108
165 162 108
164 161 107
165 162 108
162 158 104
160 158 104
157 154 103
160 157 103
155 151 99
165 161 107
153 149 97
160 156 103
157 154 101
154 150 99
154 151 97
159 154 100
166 161 105
156 152 99
159 153 99
154 150 97
165 160 104
155 150 94
160 156 100
155 150 95
152 147 93
157 151 97
155 150 96
154 148 95
155 148 91
164 158 101
152 147 95
156 150 95
141 136 82
158 152 93
146 140 87
153 149 88
145 141 79
142 141 75
146 149 68
156 159 73
154 160 63
163 174 53
160 172 48
158 173 44
159 173 41
163 180 37
166 184 34
174 195 22
171 192 19
172 194 16
174 198 0
174 198 0
176 199 0
172 196 0
174 197 0
175 198 0
174 196 0
173 196 0
173 197 0
174 198 0
173 195 0
173 196 0
173 196 0
173 196 0
173 196 0
174 197 0
173 196 0
173 197 0
173 197 0
172 196 0
174 198 0
173 197 0
174 197 0
175 198 0
173 196 0
175 198 0
174 197 0
174 198 0
172 196 0
173 196 0
174 197 0
174 197 0
173 197 0
173 197 0
175 198 0
174 197 0
173 197 0
173 196 0
174 198 0
172 197 0
173 196 0
173 196 0
174 198 0
175 198 0
174 197 0
173 197 0
172 195 0
174 197 0
171 195 0
175 198 0
174 198 0
174 197 0
173 196 0
175 198 0
175 198 0
173 197 0
172 196 0
174 197 0
173 197 0
172 196 0
172 195 0
173 197 0
174 197 0
174 197 0
173 197 0
175 198 0
174 197 0
173 196 0
173 196 0
175 198 0
171 195 0
175 197 0
172 196 0
175 197 0
174 197 0
175 198 0
172 197 0
171 195 0
172 196 0
173 197 0
173 197 0
174 197 0
174 197 0
172 196 0
173 197 0
173 196 0
172 195 0
173 197 0
173 196 0
173 197 0
174 197 0
173 197 0
173 196 0
173 197 0
175 198 0
172 195 0
173 196 0
174 197 0
174 198 0
173 196 0
173 197 0
172 195 0
173 196 0
174 197 0
173 197 0
173 196 0
174 197 0
173 197 0
175 198 0
176 199 0
172 196 0
175 198 0
174 197 0
172 196 0
174 197 0
171 195 0
169 194 0
173 197 0
175 197 0
172 196 0
173 196 0
173 196 0
173 197 0
174 197 0
171 196 0
174 197 0
172 196 0
173 197 0
173 197 0
172 195 0
172 195 0
173 197 0
175 197 0
172 195 0
173 194 0
173 197 0
175 198 0
175 197 0
175 198 0
173 195 0
173 197 0
174 197 0
173 197 0
172 195 0
173 197 0
176 198 0
175 198 0
170 193 0
172 196 0
174 197 0
173 197 0
173 196 0
172 196 0
175 198 0
172 195 0
174 198 0
172 196 0
172 195 0
173 196 0
176 198 0
173 196 0
175 198 0
171 195 0
171 195 0
174 197 0
176 198 0
172 196 0
173 197 0
174 197 0
172 196 0
171 194 0
170 194 0
174 196 0
173 196 0
174 197 0
171 195 0
173 196 0
172 196 0
172 196 0
172 196 0
174 197 0
173 196 0
172 196 0
170 193 0
171 195 0
173 195 0
172 196 0
175 198 0
173 197 0
174 197 0
169 193 0
174 196 0
172 195 0
171 193 0
172 196 0
173 195 0
172 196 0
172 196 0
171 195 0
172 195 0
174 197 0
173 196 0
173 197 0
171 194 0
171 194 0
173 195 0
172 196 0
172 195 0
174 197 0
174 197 0
173 196 0
171 195 0
173 196 0
172 195 0
172 195 0
174 197 0
172 194 0
172 196 0
173 196 0
170 194 0
171 195 0
171 194 0
173 197 0
173 196 0
173 196 0
173 197 0
173 196 0
172 196 0
174 197 0
175 198 0
173 196 0
171 195 0
174 197 0
174 197 0
172 196 0
171 194 0
172 194 0
174 197 0
173 196 0
174 197 0
172 195 0
173 196 0
173 196 0
173 197 0
176 199 0
170 193 0
174 196 0
174 197 0
173 196 0
171 195 0
169 190 22
171 192 19
169 189 22
169 188 32
165 182 38
164 180 39
159 175 37
158 173 45
155 167 52
160 169 57
159 169 59
150 157 60
161 166 72
149 152 69
150 150 76
148 147 68
153 153 81
138 134 75
146 142 82
149 144 89
158 152 92
154 149 93
159 152 93
147 142 87
153 148 91
152 146 90
150 145 92
159 154 97
149 145 93
157 153 100
153 149 97
157 152 98
155 151 97
155 152 97
155 150 99
151 148 99
159 155 98
157 153 99
150 146 95
161 157 104
161 157 105
165 161 104
161 157 103
156 154 101
163 159 104
160 157 104
160 157 104
168 164 108
164 159 104
164 160 107
152 150 99
159 156 103
165 162 108
166 163 108
165 161 107
164 161 108
160 156 103
160 158 105
158 155 103
162 159 106
160 158 107
162 159 106
165 163 109
160 159 106
169 166 111
168 165 110
164 161 107
168 166 111
170 167 112
163 160 107
166 164 109
162 160 107
168 166 111
168 165 110
164 161 108
166 164 109
166 164 110
162 160 108
160 158 106
165 163 109
165 163 109
164 162 109
165 163 109
165 163 109
163 160 106
158 156 104
168 164 109
166 164 110
167 164 109
169 166 111
163 161 108
167 164 109
160 158 106
163 161 108
171 167 111
166 163 109
169 165 109
168 166 110
163 161 107
164 161 107
165 162 108
165 162 108
158 154 102
162 159 106
163 160 106
165 160 105
165 161 107
159 156 103
162 158 104
159 156 101
163 158 104
166 162 106
157 153 99
161 157 103
162 158 103
162 158 104
165 160 103
158 154 100
160 156 102
157 153 99
161 157 102
155 150 97
156 152 98
162 156 97
166 160 104
154 148 94
157 152 95
149 144 90
154 149 93
159 154 96
147 142 88
149 143 90
145 140 88
152 147 90
139 135 81
142 137 81
153 149 85
151 148 80
144 143 69
153 155 72
155 159 70
158 168 59
157 167 49
157 169 49
161 173 51
162 178 41
164 180 39
170 188 39
166 186 19
170 193 0
174 197 11
174 197 0
173 196 0
174 196 0
173 196 0
174 197 0
175 198 0
175 197 0
174 197 0
175 198 0
173 197 0
175 198 0
173 197 0
173 197 0
175 198 0
173 196 0
173 196 0
175 198 0
174 198 0
174 197 0
173 197 0
173 197 0
173 196 0
175 198 0
174 198 0
173 197 0
174 197 0
173 196 0
174 198 0
175 198 0
173 196 0
175 198 0
174 197 0
174 197 0
173 197 0
175 198 0
172 196 0
174 197 0
173 197 0
171 195 0
173 196 0
176 198 0
174 198 0
174 198 0
175 198 0
174 197 0
172 196 0
173 196 0
172 196 0
173 197 0
172 196 0
173 197 0
173 197 0
174 198 0
172 196 0
174 197 0
172 196 0
175 198 0
172 195 0
175 198 0
173 197 0
174 197 0
173 197 0
174 197 0
172 196 0
171 194 0
174 197 0
171 195 0
173 196 0
174 197 0
174 198 0
174 198 0
173 196 0
175 198 0
175 198 0
176 198 0
176 199 0
172 196 0
173 197 0
173 197 0
175 198 0
175 198 0
175 198 0
171 196 0
175 198 0
173 197 0
174 197 0
173 196 0
174 198 0
172 196 0
173 197 0
174 198 0
174 197 0
173 197 0
172 196 0
173 196 0
172 196 0
173 197 0
173 196 0
173 196 0
174 196 0
172 196 0
171 194 0
175 198 0
175 197 0
174 197 0
173 197 0
174 196 0
175 198 0
172 195 0
173 197 0
175 198 0
173 196 0
173 195 0
173 196 0
173 196 0
174 197 0
173 197 0
174 197 0
174 197 0
173 196 0
175 198 0
172 195 0
174 197 0
174 197 0
172 195 0
174 197 0
172 195 0
173 196 0
173 197 0
174 198 0
172 196 0
171 193 0
174 197 0
174 197 0
173 197 0
173 196 0
172 196 0
173 197 0
175 197 0
172 196 0
174 197 0
173 196 0
173 196 0
173 197 0
174 197 0
174 197 0
175 197 0
173 196 0
172 195 0
172 196 0
174 197 0
174 197 0
174 196 0
175 198 0
173 196 0
173 196 0
171 195 0
174 198 0
172 195 0
173 196 0
173 196 0
173 195 0
173 196 0
174 197 0
174 197 0
173 197 0
173 196 0
174 197 0
172 195 0
172 195 0
172 195 0
173 196 0
174 197 0
174 196 0
170 193 0
172 195 0
174 197 0
175 197 0
174 197 0
174 196 0
172 195 0
172 195 0
172 195 0
172 194 0
172 196 0
172 194 0
173 197 0
175 198 0
172 195 0
171 195 0
174 197 0
174 197 0
170 194 0
172 196 0
174 197 0
172 196 0
174 198 0
170 194 0
172 196 0
172 196 0
172 195 0
173 196 0
173 197 0
174 196 0
173 196 0
173 197 0
172 196 0
173 195 0
173 195 0
171 194 0
172 194 0
176 198 0
174 197 0
172 196 0
173 196 0
174 196 0
171 195 0
172 195 0
173 196 0
172 196 0
174 197 0
174 197 0
173 196 0
172 195 0
174 198 0
173 196 0
172 196 0
173 196 0
173 196 0
170 193 0
171 195 0
173 197 0
172 195 0
171 195 0
173 197 0
172 195 0
174 196 0
173 196 0
172 195 0
174 197 0
174 197 0
173 196 0
173 195 0
174 197 0
173 197 0
173 196 0
171 194 0
172 196 0
170 193 11
172 192 16
166 187 19
166 186 29
168 184 37
161 179 30
167 182 44
160 173 51
162 175 48
160 171 57
159 168 52
146 154 57
155 159 71
154 155 75
152 154 67
144 144 67
156 154 83
134 131 75
148 142 80
158 152 91
157 152 95
153 148 90
147 142 86
152 147 89
159 153 97
152 149 92
149 145 91
159 154 97
147 142 89
153 149 94
158 153 98
152 147 94
150 146 94
163 158 101
161 158 102
160 156 100
155 152 101
161 158 102
162 159 104
161 157 103
156 152 100
150 146 95
162 158 103
161 158 105
165 162 107
156 153 101
162 159 105
162 158 105
167 164 109
164 161 107
158 156 104
167 164 107
161 159 107
166 164 110
166 163 106
163 160 106
161 159 106
162 160 107
161 158 106
161 159 107
164 161 107
157 154 104
173 170 113
168 165 110
165 163 109
167 164 109
166 163 109
166 163 109
165 164 110
168 166 112
165 163 109
161 159 107
162 159 106
165 162 108
166 164 109
169 165 110
167 164 109
168 165 110
168 166 111
164 162 109
168 166 110
168 166 111
161 159 106
167 164 109
169 166 111
169 166 110
166 164 109
168 166 111
167 163 108
168 164 109
168 165 110
171 169 112
170 166 110
166 163 109
168 165 109
165 163 109
163 160 107
169 165 109
159 156 104
166 163 108
167 164 109
163 160 106
159 156 104
165 162 108
163 160 106
166 162 106
163 159 105
163 160 106
162 159 104
163 160 104
165 161 106
163 159 103
165 161 106
164 160 104
159 155 102
159 155 102
167 162 106
159 156 102
161 157 102
161 158 103
161 156 101
166 161 104
154 149 94
156 152 96
160 155 97
154 149 94
152 147 93
165 160 100
151 145 92
154 149 95
154 148 93
150 146 90
147 142 90
153 147 90
151 145 90
147 141 81
144 139 84
144 139 80
152 147 87
153 149 84
158 161 76
155 157 72
157 167 54
156 165 58
160 171 56
159 173 49
163 177 47
163 180 36
167 186 28
168 187 37
166 187 19
173 196 16
174 198 0
175 197 0
175 198 0
172 195 0
175 197 0
173 196 0
174 197 0
174 196 0
174 198 0
174 197 0
176 199 0
170 195 0
175 198 0
174 198 0
171 195 0
173 197 0
176 198 0
172 197 0
175 198 0
175 198 0
173 197 0
173 196 0
173 197 0
172 196 0
174 198 0
174 197 0
174 197 0
171 195 0
173 197 0
173 197 0
173 197 0
174 197 0
172 196 0
173 196 0
175 198 0
174 197 0
172 196 0
174 197 0
174 197 0
176 199 0
172 196 0
172 196 0
173 196 0
174 197 0
174 197 0
172 196 0
175 198 0
175 198 0
173 196 0
173 197 0
173 197 0
175 198 0
173 197 0
173 197 0
174 197 0
171 195 0
173 197 0
174 198 0
172 196 0
175 198 0
174 197 0
172 196 0
176 198 0
173 197 0
172 196 0
174 197 0
174 198 0
176 199 0
174 198 0
172 196 0
173 197 0
174 197 0
175 197 0
172 197 0
173 197 0
173 196 0
174 198 0
173 197 0
173 197 0
173 197 0
175 198 0
173 196 0
172 196 0
171 195 0
172 196 0
175 198 0
175 198 0
173 197 0
173 197 0
175 198 0
173 197 0
172 196 0
175 198 0
173 197 0
172 195 0
169 193 0
174 198 0
174 197 0
174 197 0
175 198 0
172 194 0
172 196 0
176 198 0
175 198 0
174 197 0
175 197 0
172 196 0
175 198 0
173 196 0
174 197 0
173 197 0
174 197 0
170 194 0
174 198 0
173 196 0
174 198 0
173 197 0
175 198 0
175 198 0
172 196 0
173 197 0
173 197 0
175 197 0
170 194 0
171 194 0
172 195 0
174 197 0
173 197 0
174 198 0
173 197 0
173 196 0
173 196 0
175 197 0
171 195 0
173 197 0
176 198 0
172 195 0
171 194 0
174 197 0
174 198 0
174 197 0
173 196 0
172 195 0
173 197 0
172 195 0
173 196 0
174 198 0
173 196 0
174 197 0
173 196 0
175 198 0
173 196 0
173 196 0
174 197 0
174 197 0
172 195 0
174 197 0
173 197 0
175 197 0
172 196 0
171 195 0
174 197 0
175 198 0
174 197 0
175 198 0
172 196 0
173 196 0
173 195 0
174 196 0
173 196 0
172 197 0
173 196 0
175 198 0
175 197 0
171 194 0
174 197 0
174 197 0
174 198 0
169 193 0
173 196 0
173 196 0
172 195 0
174 197 0
170 193 0
171 195 0
171 194 0
173 196 0
175 198 0
174 197 0
173 196 0
173 196 0
172 195 0
172 196 0
173 196 0
173 197 0
173 196 0
173 195 0
173 196 0
173 196 0
171 195 0
175 198 0
172 196 0
173 196 0
172 196 0
173 196 0
172 196 0
171 194 0
173 196 0
173 196 0
173 196 0
173 197 0
174 196 0
170 194 0
174 197 0
173 196 0
172 195 0
174 196 0
171 194 0
173 196 0
173 196 0
172 196 0
171 195 0
174 197 0
171 194 0
173 196 0
169 193 0
172 195 0
173 197 0
169 193 0
172 195 0
171 193 0
174 197 0
174 196 0
171 195 0
172 196 0
172 195 0
171 195 0
175 196 0
173 196 0
174 196 0
170 194 0
172 196 0
172 195 0
172 196 0
174 197 0
173 196 0
174 197 0
176 198 0
171 193 16
170 192 16
165 186 19
160 179 19
166 182 36
167 182 41
161 176 42
165 177 51
158 169 54
157 167 61
163 169 67
152 154 69
153 159 67
152 157 71
156 158 74
142 140 73
143 140 76
141 137 77
147 142 80
147 142 90
146 141 85
146 141 86
155 150 92
146 141 87
152 148 96
156 150 93
150 144 93
157 153 99
158 152 98
144 139 88
155 150 97
156 152 98
153 149 95
155 151 98
155 150 97
155 151 96
162 158 104
157 153 96
160 156 102
152 148 98
160 156 103
157 154 100
159 155 101
162 158 104
163 160 104
159 154 101
159 156 103
151 149 98
164 161 108
164 160 106
160 157 105
165 162 107
163 160 106
162 160 107
161 158 106
156 154 103
164 161 107
162 159 106
158 155 104
162 160 107
164 161 107
164 161 107
162 161 108
165 162 108
161 159 107
166 163 109
166 162 108
169 167 111
167 165 110
167 165 110
164 161 108
162 159 106
166 163 108
163 160 107
161 158 106
163 162 109
168 166 111
167 164 110
164 162 109
166 164 109
169 167 111
170 168 112
168 166 111
169 166 111
163 160 107
163 161 108
169 166 111
168 165 110
168 165 110
170 167 111
166 163 109
160 157 104
169 166 110
164 162 108
166 165 109
166 164 109
167 163 108
161 158 105
168 165 110
161 158 104
160 158 106
161 158 106
162 158 103
164 162 108
161 157 103
166 163 106
155 151 99
160 156 103
160 156 104
163 159 104
159 156 103
163 159 105
169 164 108
157 155 103
164 160 105
162 158 104
165 159 104
151 146 94
155 151 98
154 151 99
160 156 102
162 157 101
163 158 101
157 153 97
154 150 96
160 156 101
162 157 101
152 147 94
158 153 99
151 145 93
159 153 97
161 155 95
155 149 90
144 139 83
139 134 82
144 138 85
148 142 84
142 137 84
141 136 79
152 150 78
155 153 81
146 147 67
152 156 67
161 168 62
150 158 56
163 171 64
162 176 42
163 178 42
167 185 39
165 184 25
169 190 16
173 196 16
168 191 16
175 198 0
175 198 0
174 197 0
174 197 0
173 196 0
174 197 0
175 197 0
173 197 0
174 196 0
172 196 0
174 197 0
175 198 0
173 196 0
171 194 0
172 197 0
173 196 0
173 197 0
174 197 0
172 196 0
176 198 0
176 198 0
173 197 0
173 197 0
172 195 0
175 198 0
173 197 0
171 195 0
175 198 0
174 197 0
173 197 0
173 196 0
174 198 0
175 198 0
176 198 0
174 197 0
174 198 0
176 199 0
173 197 0
173 196 0
173 197 0
173 197 0
174 197 0
172 196 0
175 198 0
172 195 0
172 196 0
176 199 0
173 197 0
173 196 0
174 198 0
173 197 0
173 197 0
174 198 0
176 198 0
174 197 0
171 195 0
173 197 0
173 196 0
174 198 0
173 197 0
173 197 0
170 194 0
173 196 0
173 196 0
174 197 0
174 197 0
174 197 0
173 196 0
173 197 0
174 197 0
174 197 0
171 194 0
174 197 0
172 195 0
177 199 0
173 196 0
173 197 0
174 197 0
174 198 0
173 196 0
173 197 0
170 194 0
174 197 0
173 197 0
173 197 0
175 198 0
175 198 0
173 197 0
173 196 0
175 198 0
174 198 0
175 198 0
175 198 0
171 195 0
175 197 0
174 197 0
175 198 0
173 196 0
175 198 0
174 197 0
176 198 0
172 197 0
173 196 0
174 198 0
174 198 0
173 197 0
173 197 0
172 195 0
174 197 0
172 195 0
175 198 0
175 198 0
175 197 0
172 196 0
174 197 0
173 196 0
172 195 0
173 196 0
174 197 0
174 197 0
173 196 0
174 197 0
172 196 0
172 196 0
175 198 0
174 197 0
172 195 0
171 195 0
172 196 0
173 197 0
174 197 0
172 195 0
174 197 0
175 197 0
173 197 0
171 195 0
173 196 0
175 197 0
171 194 0
173 197 0
174 197 0
174 197 0
172 195 0
173 197 0
174 198 0
175 198 0
174 197 0
174 197 0
177 199 0
174 197 0
174 197 0
173 196 0
171 194 0
173 196 0
173 197 0
173 196 0
172 195 0
173 196 0
175 197 0
174 198 0
172 195 0
172 196 0
173 196 0
175 198 0
172 196 0
175 198 0
172 195 0
175 198 0
171 194 0
174 197 0
173 197 0
174 198 0
170 194 0
172 195 0
173 197 0
173 197 0
174 197 0
175 197 0
173 196 0
172 195 0
173 196 0
175 198 0
176 198 0
172 195 0
174 197 0
171 195 18
172 195 0
174 197 0
172 196 0
171 195 0
171 195 0
175 198 0
170 194 0
175 197 0
173 196 0
171 194 0
173 196 0
171 193 0
172 195 0
171 194 0
172 195 0
173 195 0
174 197 0
172 195 0
173 196 0
169 192 0
172 195 0
172 196 0
173 197 0
173 196 0
172 196 0
173 196 0
173 197 0
173 197 0
172 196 0
172 196 0
175 197 0
172 195 0
172 195 0
174 197 0
175 198 0
171 194 0
173 195 0
172 195 0
174 198 0
174 197 0
171 194 0
173 196 0
174 197 0
171 195 0
174 197 0
171 194 0
173 196 0
171 195 0
172 195 0
173 196 0
172 195 0
171 195 0
170 194 0
171 195 0
173 196 0
172 196 0
175 197 0
174 196 0
174 197 0
168 192 11
170 193 16
172 194 11
168 189 19
168 187 30
166 185 34
161 177 37
166 183 32
159 172 49
160 173 48
153 166 40
153 162 54
162 167 68
147 157 51
141 146 60
153 153 77
147 145 71
153 151 79
147 144 81
150 145 87
149 143 87
150 145 87
150 145 89
145 141 87
151 146 92
161 156 96
154 148 93
154 148 94
155 150 93
148 145 90
157 152 96
159 154 98
154 150 98
157 153 99
151 147 94
155 150 97
150 147 95
159 155 100
165 159 102
161 157 102
160 156 102
152 148 98
158 154 103
157 153 100
167 163 108
155 152 101
162 158 104
160 156 103
159 155 103
164 161 107
164 161 107
162 159 106
169 165 109
161 159 106
158 156 104
159 156 102
160 157 105
161 159 106
164 161 107
163 161 108
161 158 105
168 165 110
161 158 106
169 166 111
166 164 110
161 159 106
165 162 107
167 164 110
166 163 108
167 165 111
163 161 107
167 165 111
167 165 110
164 162 108
161 160 108
163 161 108
166 164 109
169 166 110
164 161 108
166 164 109
164 161 108
165 163 109
160 158 106
166 163 109
164 161 107
168 165 110
169 166 110
166 164 110
167 165 110
171 168 112
164 163 109
163 161 108
167 165 110
170 167 111
165 162 108
161 159 106
165 162 108
162 160 107
166 163 108
159 156 103
162 160 107
165 162 108
161 157 104
169 165 109
163 161 107
168 164 109
164 162 108
168 164 109
156 154 101
171 168 111
168 165 109
158 155 103
159 157 104
158 154 101
165 162 107
162 159 105
162 159 104
167 163 106
158 155 103
163 158 102
165 160 103
159 155 101
165 160 104
158 153 99
152 148 95
154 149 95
161 155 97
161 156 103
152 147 93
153 148 93
156 151 95
158 153 97
150 146 90
164 157 97
151 145 90
153 148 90
151 146 89
156 150 91
137 133 80
145 139 86
144 139 79
149 144 83
145 143 77
152 154 72
157 159 75
153 158 71
155 160 70
164 175 57
159 172 52
164 179 42
163 178 45
168 187 25
166 184 28
171 190 25
174 196 11
175 198 0
174 197 0
175 197 0
174 198 0
172 197 0
173 197 0
174 198 0
173 197 0
174 197 0
175 198 0
174 197 0
173 196 0
174 198 0
176 198 0
172 196 0
175 198 0
175 198 0
172 196 0
175 198 0
175 198 0
172 196 0
175 198 0
175 198 0
174 197 0
174 198 0
172 196 0
172 196 0
172 196 0
175 198 0
175 198 0
173 197 0
175 197 0
174 198 0
172 196 0
173 197 0
173 196 0
173 197 0
174 198 0
173 196 0
173 197 0
173 196 0
173 197 0
174 198 0
173 196 0
174 197 0
176 199 0
174 197 0
175 198 0
173 196 0
174 197 0
175 197 0
173 197 0
174 197 0
173 197 0
174 197 0
172 196 0
174 197 0
174 197 0
172 196 0
174 197 0
174 197 0
175 198 0
175 198 0
174 196 0
172 196 0
173 197 0
175 198 0
175 198 0
172 196 0
176 198 0
175 198 0
173 197 0
171 195 0
174 197 0
176 198 0
174 198 0
174 198 0
172 196 0
173 197 0
173 196 0
173 196 0
174 197 0
174 197 0
175 198 0
174 197 0
175 198 0
174 197 0
173 197 0
175 198 0
174 197 0
174 197 0
174 197 0
173 196 0
174 197 0
173 196 0
174 197 0
175 197 0
172 196 0
174 197 0
175 198 0
174 198 0
175 198 0
173 197 0
173 196 0
173 196 0
169 194 0
175 198 0
174 198 0
175 198 0
174 197 0
173 197 0
173 197 0
173 197 0
174 197 0
175 198 0
172 195 0
174 198 0
175 198 0
174 198 0
173 197 0
173 197 0
172 196 0
172 195 0
172 195 0
174 197 0
175 198 0
174 198 0
169 193 0
174 197 0
170 194 0
174 197 0
173 196 0
173 197 0
176 197 0
174 197 0
171 193 0
174 197 0
174 196 0
171 194 0
173 196 0
174 196 0
174 198 0
174 198 0
171 194 0
171 194 0
171 194 0
173 196 0
173 196 0
175 197 0
172 195 0
174 197 0
172 196 0
173 196 0
170 194 0
173 196 0
174 197 0
174 197 0
173 196 0
171 194 0
174 197 0
173 196 0
171 195 0
175 198 0
171 195 0
173 196 0
172 195 0
173 197 0
173 196 0
172 195 0
171 194 0
174 197 0
173 196 0
173 196 18
174 196 0
173 196 0
170 194 36
165 189 60
164 187 60
166 191 54
165 188 60
165 189 54
158 181 74
162 186 67
163 187 62
162 185 68
159 184 72
165 189 62
162 185 65
166 190 44
168 192 44
167 192 47
172 195 36
167 190 48
170 194 31
170 193 40
171 195 18
172 195 18
173 196 18
173 196 0
174 196 0
170 193 0
172 195 0
172 194 0
174 197 0
174 197 0
173 195 0
171 196 0
173 197 0
171 194 0
172 194 0
171 195 0
175 197 0
173 196 0
174 196 0
172 194 0
172 196 0
168 192 0
172 196 0
173 195 0
177 199 0
173 197 0
173 196 0
173 196 0
172 196 0
172 194 0
172 195 0
174 198 0
173 196 0
173 195 0
174 197 0
171 194 0
175 197 0
172 195 0
174 197 0
170 193 0
175 197 0
170 194 0
173 196 0
171 195 0
174 196 0
174 197 0
171 194 0
171 194 0
171 196 0
174 196 11
169 192 16
172 194 16
170 191 22
167 187 25
166 184 34
163 182 32
166 182 45
161 176 39
155 168 49
154 167 41
150 160 47
152 157 64
160 165 61
149 151 65
143 143 71
154 154 77
140 140 71
148 144 83
146 140 82
157 151 92
158 152 94
150 144 87
150 145 90
143 138 86
158 152 98
144 139 87
155 150 93
148 145 92
149 145 93
155 150 97
151 148 93
154 150 97
159 155 98
151 148 95
156 151 96
157 152 100
154 150 97
154 151 99
159 155 101
150 148 99
161 157 100
162 158 104
156 151 99
160 157 105
162 159 106
156 153 103
164 159 105
160 158 106
158 156 103
164 161 107
164 161 107
166 162 108
162 158 105
160 157 105
158 155 104
162 159 105
160 158 106
166 163 108
167 164 109
167 163 108
158 156 104
158 156 104
162 159 107
162 160 107
168 165 110
163 160 107
167 164 110
163 160 108
168 165 110
167 164 110
163 161 108
165 162 109
165 162 108
165 162 108
171 168 113
164 162 109
165 163 109
166 163 109
169 167 112
169 166 111
166 162 108
167 163 109
164 162 109
171 168 112
171 168 112
168 165 110
170 167 111
168 165 110
167 165 111
168 166 110
168 164 109
163 160 106
163 162 108
168 164 109
159 157 104
169 165 110
162 160 106
164 162 108
162 160 106
162 159 106
170 167 111
168 165 110
168 165 110
167 165 110
166 163 108
162 158 105
160 158 105
163 160 106
159 156 104
164 161 107
166 162 106
162 159 104
162 159 104
165 162 106
163 159 104
160 156 102
170 165 108
162 158 101
164 161 106
163 159 104
159 155 101
167 162 106
160 155 101
158 154 99
156 153 98
159 154 99
149 146 95
160 155 98
163 159 101
158 153 96
154 149 95
161 156 97
158 152 93
151 146 90
154 150 90
161 155 95
158 153 96
141 136 87
143 136 84
150 144 87
149 144 88
160 154 94
140 138 71
146 147 69
148 148 67
147 151 63
153 159 65
151 159 54
165 174 64
153 165 48
161 176 34
165 184 22
168 186 37
169 189 22
174 196 11
169 193 0
174 197 0
173 197 0
174 196 0
174 197 0
174 198 0
172 195 0
174 198 0
174 197 0
173 197 0
174 197 0
171 195 0
172 196 0
173 197 0
172 196 0
175 198 0
174 197 0
173 197 0
174 198 0
173 196 0
176 199 0
173 197 0
174 197 0
175 198 0
172 197 0
174 197 0
175 198 0
172 196 0
172 196 0
174 197 0
174 197 0
174 197 0
172 197 0
175 197 0
174 197 0
173 197 0
173 195 0
173 196 0
174 197 0
172 196 0
174 197 0
173 196 0
173 197 0
175 198 0
175 198 0
171 195 0
173 196 0
174 196 0
173 197 0
174 197 0
177 199 0
171 195 0
173 196 0
173 197 0
175 198 0
171 195 0
172 196 0
174 198 0
174 198 0
172 195 0
173 196 0
172 195 0
172 195 0
174 197 0
173 197 0
173 196 0
174 197 0
173 196 0
175 198 0
174 197 0
173 197 0
172 195 0
174 197 0
175 198 0
171 195 0
171 194 0
173 196 0
174 198 0
174 197 0
174 197 0
174 198 0
174 198 0
171 195 0
174 197 0
174 198 0
174 197 0
174 198 0
175 198 0
175 198 0
173 196 0
170 194 0
175 198 0
173 195 0
172 195 0
175 198 0
174 197 0
175 198 0
174 196 0
173 197 0
173 197 0
174 198 0
173 196 0
172 196 0
174 197 0
175 198 0
173 196 0
174 197 0
174 198 0
173 197 0
174 198 0
173 196 0
174 197 0
175 198 0
172 196 0
174 197 0
171 194 0
175 198 0
176 198 0
174 198 0
174 197 0
173 196 0
174 198 0
171 195 0
173 196 0
171 195 0
173 196 0
173 196 0
173 197 0
174 197 0
171 195 0
171 194 0
171 195 0
173 196 0
173 196 0
173 196 0
173 197 0
170 193 0
174 197 0
174 197 0
175 197 0
171 194 0
172 195 0
172 195 0
175 198 0
171 195 0
173 195 0
172 196 0
175 198 0
174 198 0
173 197 0
173 196 0
172 195 0
172 195 0
171 195 0
173 196 0
173 197 0
174 198 0
171 194 0
171 194 0
171 195 0
173 196 0
172 196 0
171 195 0
175 198 0
173 196 0
172 195 18
171 194 25
173 197 18
172 195 31
170 193 44
166 189 54
162 185 70
151 175 97
152 175 92
149 173 97
146 171 100
152 176 92
144 169 102
142 166 111
133 158 122
133 159 121
137 162 118
142 166 114
143 167 108
132 157 125
140 165 114
138 163 114
141 166 110
129 154 129
143 168 108
152 175 92
142 167 108
140 166 103
149 174 95
154 178 85
157 181 80
154 178 84
166 189 62
166 189 51
172 194 0
166 190 47
170 194 31
171 194 18
173 197 0
175 198 0
173 195 0
174 198 0
171 194 0
173 195 0
172 195 0
172 195 0
172 195 0
172 196 0
171 194 0
172 196 0
172 195 0
171 195 0
173 196 0
174 197 0
172 195 0
171 193 0
174 197 0
175 198 0
172 195 0
172 195 0
173 196 0
172 195 0
173 196 0
171 195 0
173 196 0
172 195 0
173 197 0
172 195 0
172 196 0
172 195 0
172 195 0
172 195 0
172 196 0
174 196 0
170 193 0
169 193 0
169 193 0
174 196 0
175 198 0
174 196 11
171 194 11
169 191 19
169 190 19
164 184 25
166 184 36
161 176 41
166 180 47
161 172 53
157 170 45
159 169 57
157 165 59
153 162 58
150 154 63
152 152 74
154 155 75
150 150 73
153 149 86
160 155 93
143 138 79
146 140 84
142 138 78
141 136 82
151 145 91
152 146 91
153 148 91
148 144 90
156 151 96
159 154 99
148 144 94
153 150 96
158 153 98
152 149 98
158 155 101
154 150 98
163 158 101
152 149 98
152 149 96
158 153 99
160 155 100
157 154 99
162 158 104
158 155 101
156 153 101
160 156 103
160 156 102
164 161 107
158 155 104
160 157 104
157 154 103
159 156 105
167 163 108
159 156 104
163 160 107
156 154 103
168 164 108
161 158 106
164 161 108
159 156 104
162 159 107
161 158 105
162 159 107
162 159 105
163 162 110
157 155 103
165 162 108
167 164 109
172 169 113
165 163 109
167 164 110
169 166 110
167 164 109
167 165 110
168 166 110
165 162 108
168 167 112
166 163 109
168 166 111
169 166 110
168 165 110
164 161 108
164 161 108
168 165 110
171 169 113
165 163 109
168 165 110
166 165 110
166 164 109
172 169 112
166 163 109
168 165 110
161 158 106
163 161 108
169 165 109
165 163 108
160 158 106
168 165 109
165 162 108
168 165 110
163 160 106
164 160 106
165 162 107
166 163 108
170 166 109
172 169 112
167 164 109
166 163 108
170 166 109
164 160 105
163 160 106
159 155 103
167 163 108
161 157 102
161 158 104
170 166 109
166 163 107
163 159 104
161 158 104
163 160 104
166 161 106
159 155 101
160 156 101
162 157 99
161 155 99
166 161 104
157 153 97
156 150 95
161 156 101
156 151 95
160 154 98
152 147 94
153 148 95
157 152 95
160 154 98
141 136 84
146 141 87
154 149 93
154 149 90
155 149 90
149 144 88
156 150 92
147 141 90
144 138 83
146 141 79
150 148 83
150 150 80
147 151 61
155 160 66
155 162 66
151 158 59
158 171 49
162 175 51
162 178 39
165 182 30
169 187 30
167 188 25
171 193 19
174 197 0
173 196 0
173 196 0
173 196 0
174 198 0
172 196 0
175 198 0
172 195 0
176 198 0
173 196 0
174 197 0
173 197 0
174 197 0
172 196 0
174 198 0
175 198 0
171 196 0
175 198 0
175 197 0
173 196 0
173 196 0
173 197 0
174 198 0
173 196 0
174 197 0
172 196 0
175 198 0
174 197 0
173 197 0
173 197 0
174 197 0
173 197 0
172 197 0
173 196 0
174 197 0
174 197 0
173 196 0
176 198 0
175 198 0
173 197 0
173 196 0
174 197 0
173 197 0
175 198 0
175 198 0
174 197 0
174 198 0
173 197 0
175 198 0
173 197 0
174 197 0
174 198 0
173 197 0
174 197 0
173 196 0
174 197 0
175 198 0
174 197 0
174 197 0
174 197 0
173 196 0
172 196 0
174 197 0
174 197 0
174 196 0
173 197 0
172 196 0
173 195 0
174 197 0
174 198 0
172 196 0
174 198 0
175 197 0
175 198 0
173 197 0
174 197 0
174 197 0
173 196 0
172 195 0
174 198 0
171 195 0
175 197 0
173 196 0
173 197 0
174 197 0
175 197 0
173 196 0
174 197 0
174 198 0
175 198 0
171 195 0
173 197 0
173 196 0
173 197 0
175 198 0
172 196 0
171 195 0
173 197 0
173 196 0
171 195 0
174 198 0
172 197 0
172 196 0
174 197 0
173 196 0
173 196 0
173 197 0
174 198 0
173 196 0
174 198 0
172 195 0
172 195 0
174 197 0
173 196 0
174 197 0
174 197 0
173 197 0
174 197 0
173 197 0
173 197 0
174 197 0
173 197 0
172 195 0
172 196 0
172 196 0
171 194 0
171 194 0
170 195 0
173 196 0
175 197 0
174 197 0
174 197 0
173 196 0
174 197 0
173 197 0
172 196 0
174 197 0
173 196 0
173 196 0
175 197 0
173 197 0
170 194 0
172 195 0
170 194 0
173 197 0
174 197 0
173 196 0
172 195 0
171 196 0
172 195 0
171 195 0
172 196 0
174 197 0
174 198 0
173 197 0
174 197 0
172 196 0
172 195 0
171 195 0
172 196 0
171 194 25
174 197 25
171 193 36
170 193 40
163 187 62
162 184 72
159 182 78
147 172 97
141 166 111
143 168 108
135 160 122
126 152 129
122 149 135
112 140 147
106 135 152
101 130 157
105 133 152
99 128 158
89 120 165
94 124 162
83 115 170
91 121 164
84 115 169
82 114 167
86 117 166
96 125 161
78 111 172
97 126 160
93 123 163
94 124 159
100 128 156
112 139 146
118 144 139
112 139 145
130 156 126
113 140 144
134 159 120
145 169 102
151 174 99
153 178 90
152 177 86
155 179 84
161 186 70
166 189 47
169 193 36
170 194 25
172 195 18
173 196 0
173 197 0
174 197 0
168 191 0
173 196 0
171 194 0
171 195 0
174 197 0
172 196 0
173 195 0
174 197 0
173 196 0
174 197 0
173 196 0
173 197 0
173 196 0
173 196 0
173 196 0
173 196 0
174 196 0
173 196 0
174 198 0
173 196 0
173 195 0
173 197 0
173 195 0
174 197 0
170 193 0
174 197 0
170 193 0
173 196 0
173 195 0
172 194 0
170 192 0
172 195 0
172 195 0
172 195 11
174 195 19
171 194 11
169 189 19
166 186 28
165 183 38
163 177 46
160 175 47
156 166 53
159 170 49
156 164 59
149 153 67
149 153 63
141 145 62
148 149 71
147 147 70
149 149 71
145 142 80
141 136 78
145 140 83
150 144 89
138 133 79
155 150 93
152 148 89
151 146 87
156 150 94
145 142 89
153 148 94
154 148 95
155 150 95
158 152 96
149 145 95
143 140 91
151 147 91
143 140 92
161 157 102
156 152 98
157 152 99
153 150 100
155 151 98
164 161 108
159 155 102
161 158 104
159 156 103
159 156 103
153 150 100
162 159 104
159 156 104
156 154 102
167 164 109
168 165 109
155 152 102
158 156 104
162 159 105
162 160 107
162 159 106
165 162 108
164 161 108
164 161 108
163 160 106
162 160 107
165 162 108
163 160 107
161 158 106
167 164 110
168 164 109
163 161 108
169 166 111
165 162 108
162 160 107
168 165 110
164 161 108
169 166 110
163 161 108
167 165 110
163 161 107
166 163 109
167 164 110
166 164 109
166 164 109
169 166 110
166 163 109
168 165 110
169 166 110
162 159 106
169 165 109
169 167 112
169 166 110
172 169 112
168 165 110
166 164 109
170 167 110
169 167 111
170 167 111
167 164 109
170 168 112
169 166 110
170 167 112
168 165 110
162 160 106
164 161 107
166 164 109
165 161 106
166 163 108
169 166 109
168 164 108
163 160 106
165 162 107
167 164 109
163 160 105
170 166 109
165 162 106
157 153 100
165 162 107
163 160 101
170 166 109
163 159 103
164 161 107
170 165 108
166 162 106
163 159 104
159 155 101
160 156 100
165 160 102
165 160 103
161 156 101
152 148 96
162 156 101
151 148 95
160 156 99
156 151 93
162 157 99
158 153 98
154 150 96
159 154 94
155 150 93
157 151 95
155 148 92
155 148 91
148 142 87
149 144 86
149 145 87
152 145 90
141 135 79
137 132 75
143 141 75
149 152 70
147 150 69
146 150 61
158 165 61
153 163 54
157 167 52
164 180 39
168 187 34
169 190 30
172 191 28
172 193 19
173 195 16
173 197 0
174 198 0
174 198 0
174 197 0
174 197 0
172 196 0
172 195 0
173 196 0
174 197 0
175 198 0
173 197 0
174 197 0
176 199 0
174 198 0
174 197 0
176 199 0
173 197 0
174 197 0
175 198 0
173 197 0
174 198 0
174 197 0
174 197 0
173 197 0
174 198 0
174 197 0
172 196 0
173 197 0
174 198 0
175 198 0
172 195 0
174 198 0
175 198 0
174 197 0
173 197 0
172 196 0
173 197 0
173 197 0
174 198 0
173 196 0
174 198 0
174 197 0
171 194 0
173 196 0
176 199 0
173 196 0
173 197 0
173 197 0
174 198 0
174 197 0
172 195 0
173 197 0
173 197 0
173 197 0
174 197 0
173 197 0
174 197 0
173 197 0
175 198 0
172 196 0
172 197 0
171 195 0
175 198 0
172 197 0
174 197 0
173 197 0
174 198 0
170 194 0
174 197 0
174 197 0
174 197 0
173 196 0
174 197 0
174 198 0
173 197 0
173 196 0
172 196 0
172 195 0
172 195 0
173 196 0
172 196 0
172 196 0
172 195 0
170 196 0
174 197 0
173 196 0
174 198 0
176 198 0
174 197 0
174 197 0
172 195 0
175 198 0
175 197 0
172 195 0
172 196 0
172 196 0
173 196 0
173 197 0
173 196 0
173 196 0
173 196 0
174 197 0
174 197 0
173 197 0
173 197 0
173 196 0
173 197 0
174 197 0
170 194 0
171 194 0
173 196 0
174 196 0
172 195 0
174 197 0
173 196 0
174 197 0
173 196 0
171 194 0
175 198 0
172 195 0
174 197 0
172 195 0
173 197 0
171 195 0
173 196 0
174 196 0
172 196 0
174 198 0
171 194 0
171 195 0
172 194 0
173 196 0
174 196 0
173 196 0
174 197 0
170 193 0
172 196 0
171 194 0
172 196 0
172 196 0
171 194 0
174 197 0
169 193 0
175 198 0
173 197 0
171 194 0
172 196 0
173 196 0
170 193 0
172 195 0
174 197 0
173 196 0
171 194 0
173 196 0
174 197 0
175 197 0
172 195 25
171 194 31
168 192 44
155 179 88
156 180 84
148 173 97
141 166 110
138 162 113
124 150 134
115 142 144
110 138 149
100 129 156
88 119 166
80 112 171
68 103 176
69 104 177
64 100 179
61 99 180
62 99 181
64 100 180
62 99 181
62 99 181
61 99 180
62 99 181
62 99 180
61 99 180
62 99 181
61 98 179
62 99 180
62 99 180
62 99 181
62 99 179
62 99 180
61 99 181
64 100 180
66 102 178
68 103 176
69 104 176
76 110 173
86 117 167
95 124 159
106 134 152
109 136 149
124 150 130
136 161 118
137 162 116
152 177 90
148 173 100
161 185 72
161 184 63
166 190 51
170 194 18
173 196 18
172 196 0
173 196 0
172 195 0
173 196 0
174 197 0
170 194 0
172 194 0
172 196 0
171 195 0
173 196 0
174 198 0
173 196 0
174 197 0
173 195 0
172 196 0
172 195 0
173 196 0
170 195 0
172 195 0
170 194 0
170 193 0
173 196 0
172 195 0
172 194 0
172 195 0
173 196 0
171 194 0
172 196 0
172 195 0
173 196 0
172 195 0
171 195 0
172 193 0
171 194 0
173 194 25
170 189 28
167 184 30
165 183 34
162 181 28
160 175 34
161 175 45
154 164 58
160 170 56
145 155 49
151 157 58
150 156 61
152 155 73
153 153 74
140 139 73
148 144 80
142 137 80
140 135 81
146 141 87
141 136 80
161 156 96
142 137 85
141 137 88
151 147 92
145 141 90
145 140 86
159 154 98
149 145 94
152 148 93
150 147 96
154 150 95
153 150 99
153 150 97
157 153 99
153 149 97
163 159 104
151 148 96
160 156 103
157 154 102
154 151 99
152 149 96
156 154 104
155 153 102
159 156 103
156 153 101
159 155 104
160 156 104
153 151 101
158 155 103
160 158 107
158 156 105
163 159 106
162 158 105
157 154 102
166 164 109
163 160 106
162 160 107
161 159 106
167 164 110
165 163 109
163 160 108
163 160 107
166 163 109
165 162 109
168 164 109
168 166 111
166 163 108
168 164 109
168 166 111
170 168 112
169 166 111
169 165 110
168 166 110
161 158 106
167 165 110
168 165 110
167 165 110
170 167 112
169 166 111
169 166 111
173 170 113
171 167 111
169 167 112
167 165 110
169 166 110
163 160 106
173 170 113
164 162 108
169 166 110
167 165 110
171 167 111
169 166 110
169 166 110
168 165 110
165 162 107
168 165 110
166 164 109
166 164 109
168 165 109
168 165 110
165 162 108
170 166 109
169 166 110
169 165 109
162 159 104
165 161 107
166 163 108
162 159 106
168 164 108
166 163 108
167 163 108
166 162 106
163 158 104
163 159 104
166 162 106
165 161 105
164 160 103
168 164 106
165 161 106
161 156 100
164 160 103
163 159 103
164 158 102
160 156 102
164 159 102
165 160 103
156 152 99
163 158 101
165 160 101
158 152 97
166 160 102
162 157 100
148 143 89
154 150 90
159 154 95
147 143 85
157 151 90
151 146 88
158 153 92
146 140 82
150 144 87
148 142 81
154 148 87
147 143 83
158 153 87
150 148 73
147 149 67
148 151 62
156 163 64
158 168 58
160 174 42
161 175 48
164 179 45
166 183 37
164 182 30
169 190 28
172 192 25
173 195 0
172 196 0
174 197 0
174 197 0
176 198 0
175 198 0
172 196 0
171 195 0
172 196 0
172 195 0
172 196 0
173 197 0
173 196 0
173 197 0
176 199 0
174 198 0
174 197 0
173 197 0
172 197 0
175 198 0
173 197 0
173 197 0
173 196 0
172 196 0
174 197 0
175 198 0
173 197 0
173 197 0
173 197 0
174 197 0
174 197 0
175 197 0
175 198 0
173 197 0
174 197 0
174 198 0
176 199 0
174 198 0
173 197 0
172 196 0
174 197 0
175 198 0
175 198 0
175 198 0
174 198 0
174 197 0
173 197 0
175 198 0
174 197 0
174 197 0
174 197 0
173 197 0
174 197 0
174 197 0
173 197 0
174 197 0
172 194 0
173 197 0
173 197 0
175 198 0
173 196 0
174 198 0
171 194 0
173 196 0
172 195 0
174 197 0
173 197 0
172 196 0
172 196 0
172 195 0
173 196 0
173 196 0
173 196 0
174 197 0
173 196 0
175 197 0
171 195 0
173 196 0
172 195 0
173 196 0
174 197 0
174 197 0
174 197 0
170 193 0
172 195 0
172 195 0
173 197 0
176 198 0
174 197 0
172 195 0
174 197 0
173 197 0
175 197 0
172 195 0
173 196 0
175 198 0
173 197 0
174 197 0
174 198 0
172 195 0
172 195 0
173 197 0
173 197 0
174 197 0
173 196 0
173 196 0
174 197 0
174 197 0
174 197 0
172 196 0
173 197 0
174 197 0
174 197 0
173 197 0
174 197 0
176 198 0
172 195 0
172 195 0
173 195 0
174 197 0
175 198 0
174 198 0
174 196 0
173 197 0
175 198 0
172 195 0
173 195 0
170 194 0
174 197 0
172 195 0
174 197 0
176 198 0
173 196 0
173 196 0
172 196 0
173 197 0
173 196 0
172 196 0
173 196 0
172 196 0
173 197 0
173 196 0
172 196 0
171 195 0
174 197 0
172 196 0
173 196 0
175 197 0
173 197 0
175 198 0
174 196 0
174 196 0
174 197 18
173 196 25
169 192 47
163 187 62
158 183 76
154 178 86
138 163 115
119 145 142
115 142 142
103 132 154
101 129 158
79 111 171
66 102 176
68 103 178
63 100 179
62 99 181
62 99 181
61 99 180
62 99 181
61 99 181
61 99 181
61 99 181
61 99 180
61 99 180
62 99 181
61 99 181
61 98 180
61 98 181
61 98 180
61 99 181
62 99 181
61 98 181
62 99 181
62 99 181
61 99 181
62 99 181
61 98 179
62 99 181
62 99 179
61 99 181
61 99 181
61 99 181
61 98 180
61 98 179
62 99 180
62 99 181
66 102 178
87 117 166
77 110 171
91 121 163
96 126 159
117 144 141
131 157 125
129 155 121
145 170 101
154 178 87
158 181 80
162 184 60
173 195 25
171 194 18
173 195 0
171 194 0
173 196 0
173 196 0
175 197 0
173 197 0
172 195 0
175 198 0
174 197 0
174 197 0
172 197 0
173 196 0
173 196 0
172 196 0
174 196 0
175 198 0
173 195 0
171 194 0
171 194 0
173 197 0
173 196 0
173 197 0
174 197 0
174 197 0
175 197 0
175 197 0
171 194 0
173 196 0
173 197 0
171 194 11
171 192 16
170 190 16
165 185 21
167 186 32
162 179 37
169 183 48
165 182 41
159 174 42
150 161 46
143 151 55
156 162 61
153 158 64
155 157 75
156 159 72
132 133 65
140 138 76
147 142 83
147 142 84
145 141 79
143 137 80
146 141 82
141 136 85
152 147 90
144 138 86
152 146 94
146 143 89
153 149 96
151 146 94
155 151 95
155 150 98
161 155 99
155 151 98
151 147 97
156 152 98
152 148 97
149 147 95
160 157 103
153 150 99
155 151 98
166 161 105
164 160 105
152 149 98
158 154 102
161 158 105
155 152 102
159 157 105
151 150 101
159 155 103
163 158 104
161 158 104
165 161 106
165 162 108
164 161 107
166 162 108
158 155 104
161 159 106
167 165 111
163 160 107
164 162 108
167 164 110
167 163 108
165 162 108
163 161 108
166 163 109
165 162 109
166 163 109
166 162 107
167 164 109
168 165 110
165 162 108
169 166 111
167 164 110
162 159 106
170 167 112
168 166 111
167 163 109
164 162 109
166 164 110
169 166 110
167 165 110
169 166 111
169 166 111
172 169 112
168 166 110
169 166 110
170 166 110
169 166 111
169 167 111
170 166 110
172 169 112
171 168 112
162 160 106
163 160 107
171 167 111
169 167 111
170 168 112
167 164 109
167 164 109
169 166 110
172 169 112
168 167 112
167 164 109
168 165 109
168 164 108
168 165 109
165 162 108
160 157 104
164 161 106
166 162 107
167 163 108
165 162 107
166 163 108
164 161 105
167 163 107
161 156 102
170 166 110
164 160 103
158 155 101
161 158 103
157 153 100
160 155 97
159 155 99
166 161 104
159 154 99
161 156 103
164 160 104
163 159 103
162 157 101
160 155 97
153 147 92
163 158 100
164 159 99
154 149 96
162 156 101
157 151 95
152 148 93
153 149 93
153 147 89
158 152 91
153 146 89
147 141 85
156 150 88
144 139 80
140 134 77
141 136 82
149 144 80
151 148 77
149 150 72
152 158 61
152 158 65
157 163 64
160 170 57
156 168 44
164 175 53
166 182 36
166 184 36
169 189 28
171 192 19
173 195 11
173 197 11
173 196 0
172 196 0
173 196 0
175 198 0
175 198 0
173 196 0
173 196 0
175 198 0
175 198 0
175 198 0
174 197 0
174 196 0
173 196 0
173 196 0
176 199 0
175 198 0
173 196 0
175 198 0
174 197 0
175 198 0
174 198 0
173 196 0
172 196 0
175 198 0
172 196 0
173 196 0
174 197 0
176 198 0
175 198 0
174 198 0
174 198 0
174 198 0
172 196 0
175 198 0
170 193 0
171 195 0
171 195 0
172 197 0
173 196 0
172 196 0
174 197 0
174 198 0
174 197 0
173 196 0
174 197 0
174 198 0
174 197 0
173 196 0
172 196 0
173 197 0
173 196 0
174 197 0
176 198 0
173 197 0
172 196 0
176 199 0
173 197 0
174 197 0
173 196 0
172 196 0
173 196 0
174 197 0
172 195 0
173 197 0
170 194 0
176 198 0
174 197 0
175 198 0
174 197 0
172 195 0
173 196 0
172 196 0
172 195 0
172 195 0
173 196 0
174 198 0
174 198 0
174 197 0
174 197 0
173 196 0
173 197 0
172 197 0
172 196 0
173 196 0
174 197 0
172 195 0
174 197 0
172 196 0
172 196 0
173 197 0
171 194 0
173 197 0
174 197 0
173 196 0
172 195 0
175 198 0
173 197 0
172 195 0
171 195 0
170 193 0
172 196 0
171 194 0
174 197 0
172 196 0
174 197 0
172 196 0
173 197 0
175 198 0
174 197 0
171 195 0
175 198 0
173 196 0
171 194 0
173 197 0
174 198 0
174 197 0
172 195 0
171 196 0
170 194 0
174 197 0
176 198 0
173 196 0
171 194 0
173 197 0
172 196 0
174 197 0
173 195 0
171 195 0
172 196 0
173 196 0
173 197 0
174 197 0
174 198 0
174 196 0
171 195 0
174 197 0
172 196 0
174 197 0
175 198 0
172 195 0
172 195 0
173 196 0
173 197 0
174 196 0
173 196 0
174 197 0
172 196 0
171 195 0
171 194 25
171 194 31
163 187 62
156 181 80
143 168 108
128 154 130
128 154 129
112 140 145
91 121 164
79 112 171
70 105 176
63 100 180
62 99 181
62 99 181
62 99 181
62 99 181
62 99 180
62 99 181
62 99 181
61 98 180
62 99 181
61 99 181
62 99 181
61 99 181
61 99 181
61 99 181
61 99 181
61 99 181
62 99 181
61 99 181
62 99 181
61 98 181
61 98 180
62 99 181
61 98 181
61 99 181
61 99 181
61 99 181
61 99 181
62 99 181
62 99 181
61 98 180
62 99 181
61 99 181
61 98 181
62 99 181
61 98 180
62 99 180
62 99 181
61 98 179
62 98 176
62 99 181
64 100 179
68 103 177
88 119 164
98 126 152
113 140 143
129 155 129
141 166 110
139 164 114
148 171 101
160 182 72
161 184 63
170 193 36
172 195 0
174 197 0
172 194 0
174 196 0
173 196 0
172 195 0
172 195 0
172 195 0
172 193 0
172 195 0
173 196 0
173 196 0
171 194 0
171 195 0
170 194 0
172 194 0
172 195 0
171 194 0
174 196 0
171 194 0
173 196 0
170 192 0
172 194 0
173 196 0
172 195 0
172 195 0
169 192 0
168 189 16
171 192 19
166 185 22
168 186 30
167 185 32
159 176 32
155 170 28
161 172 53
154 168 44
154 165 53
159 169 56
153 160 56
149 156 59
158 159 73
149 150 72
139 140 70
143 139 80
146 141 84
150 144 87
142 138 83
149 144 89
151 146 87
147 143 89
145 141 87
154 149 94
154 148 93
158 153 95
139 136 84
154 150 96
149 145 95
144 141 91
153 149 95
154 150 99
156 152 96
142 140 93
149 145 94
158 154 100
153 149 95
154 151 100
158 155 102
157 153 102
161 158 105
161 158 106
156 153 101
153 150 99
161 159 105
160 157 106
158 156 103
155 151 101
162 159 106
156 154 104
157 154 103
164 162 108
164 161 108
165 163 108
166 163 109
159 156 105
155 153 104
162 159 106
158 157 106
165 163 110
165 163 109
165 162 108
165 163 109
163 160 107
167 164 110
166 164 109
166 162 108
165 163 108
162 160 107
165 162 109
167 164 109
169 166 111
172 168 112
168 165 110
170 167 111
169 166 110
166 164 110
161 160 108
170 167 111
170 167 111
168 166 110
164 161 107
169 166 110
169 166 111
166 164 109
169 166 110
169 167 111
169 167 112
169 167 112
168 164 109
169 166 111
169 166 110
169 166 110
169 167 111
166 163 108
163 160 106
167 164 109
168 166 110
164 161 108
169 166 109
165 162 108
165 163 109
169 166 109
169 166 110
172 168 111
164 161 107
166 162 108
168 164 109
167 163 107
167 164 107
165 161 106
169 165 107
170 166 109
169 164 107
166 162 106
163 160 104
158 154 99
159 155 99
162 159 103
168 163 104
154 151 99
162 158 104
166 161 103
162 158 104
166 161 104
161 157 101
158 154 100
162 158 100
165 160 103
158 153 97
164 160 101
161 156 101
154 150 98
159 153 97
157 152 94
165 159 102
156 151 94
158 151 95
160 153 93
156 150 91
157 151 91
151 145 89
144 138 79
155 150 90
143 138 79
143 138 82
148 145 81
151 149 77
152 150 79
149 154 67
157 163 66
153 164 48
157 169 48
162 176 41
168 183 45
165 183 32
166 185 25
168 189 25
173 195 11
174 197 0
172 195 0
174 197 0
173 196 0
173 196 0
172 195 0
173 197 0
175 198 0
173 197 0
171 195 0
174 197 0
172 196 0
174 197 0
174 197 0
174 197 0
172 195 0
172 196 0
176 198 0
172 196 0
174 198 0
174 198 0
175 198 0
176 198 0
174 197 0
174 197 0
173 196 0
173 197 0
173 197 0
174 197 0
171 195 0
174 197 0
170 194 0
173 196 0
172 196 0
173 197 0
172 195 0
174 197 0
171 195 0
174 198 0
173 196 0
174 197 0
175 198 0
174 198 0
173 197 0
174 197 0
175 198 0
173 196 0
174 197 0
174 197 0
176 199 0
173 197 0
175 198 0
174 197 0
173 196 0
173 197 0
174 197 0
173 197 0
172 196 0
174 197 0
174 198 0
174 197 0
171 195 0
174 197 0
170 194 0
172 196 0
173 197 0
171 195 0
173 196 0
172 196 0
171 194 0
173 197 0
173 196 0
172 196 0
173 197 0
171 194 0
173 197 0
173 196 0
172 196 0
174 198 0
173 197 0
173 197 0
173 197 0
173 197 0
174 197 0
173 196 0
174 197 0
174 197 0
173 196 0
174 197 0
171 195 0
175 197 0
175 198 0
173 196 0
175 198 0
172 196 0
172 195 0
174 197 0
171 194 0
172 196 0
172 196 0
173 197 0
174 197 0
173 196 0
174 197 0
171 195 0
174 198 0
173 197 0
174 197 0
174 197 0
173 197 0
173 196 0
173 196 0
170 194 0
173 197 0
171 194 0
174 197 0
173 197 0
173 196 0
169 193 0
174 197 0
170 194 0
174 197 0
173 197 0
172 196 0
171 195 0
174 197 0
173 196 0
173 196 0
172 195 0
171 194 0
174 197 0
174 197 0
174 198 0
174 197 0
173 196 0
173 196 0
175 198 0
173 197 0
171 194 0
172 195 0
175 197 0
173 197 0
173 196 0
174 197 0
171 195 0
172 195 0
173 196 18
171 194 31
166 189 44
158 182 76
141 165 113
136 161 118
111 139 147
109 136 150
91 121 162
80 113 170
64 100 178
61 99 181
62 99 181
61 99 181
62 99 179
62 99 181
62 99 181
62 99 181
62 99 181
62 99 181
61 98 181
62 99 181
62 99 181
62 99 181
62 99 181
62 99 181
62 99 181
62 99 181
62 99 181
62 99 181
62 99 181
62 99 181
61 99 181
62 99 181
61 99 180
62 99 181
61 99 181
62 99 181
61 98 181
61 99 181
62 99 181
61 98 180
61 99 181
62 99 181
61 99 181
62 99 181
61 99 181
61 99 181
61 99 181
62 99 181
62 99 180
61 99 181
62 99 181
62 99 179
61 98 180
62 99 180
61 98 179
62 99 181
61 98 180
66 101 176
68 103 178
80 112 170
101 129 153
124 150 134
125 151 131
143 166 108
157 181 79
154 179 83
166 189 51
166 191 40
171 194 25
171 195 0
171 194 0
170 192 0
170 193 0
171 195 0
172 195 0
172 195 0
173 196 0
174 196 0
172 195 0
173 196 0
170 193 0
172 195 0
173 196 0
174 197 0
172 194 0
173 195 0
172 194 0
170 193 0
171 194 0
173 196 0
171 194 0
172 193 16
168 189 11
173 193 30
166 186 22
158 177 33
160 176 30
161 176 37
164 174 57
159 172 49
156 168 42
159 169 52
154 159 65
150 154 62
154 158 72
148 149 74
142 143 63
146 143 79
145 141 80
150 143 86
139 134 75
153 149 87
141 136 81
156 150 94
141 136 85
142 138 84
143 139 89
156 151 94
150 146 95
151 146 94
148 144 88
154 150 98
158 153 97
143 139 89
154 150 97
156 151 97
156 152 101
158 153 100
150 148 100
152 149 98
155 152 101
147 144 96
159 155 100
158 155 102
151 148 99
158 156 104
159 155 103
155 151 101
163 159 106
155 152 102
156 153 101
163 159 104
164 161 108
164 161 106
161 158 105
163 161 108
153 150 101
157 154 103
159 156 104
165 161 108
159 156 104
158 157 106
161 159 106
169 166 111
160 158 105
166 164 110
165 162 109
162 160 108
171 168 112
169 166 110
163 161 108
166 164 110
164 163 109
171 167 111
170 167 111
165 162 108
171 168 112
167 164 110
169 166 111
169 165 109
169 166 110
170 168 112
166 163 109
171 168 112
171 167 111
169 166 111
169 165 110
170 167 111
171 167 111
169 166 110
168 165 110
169 165 110
169 166 110
167 165 110
171 167 110
168 165 109
168 165 110
172 168 110
171 168 112
171 168 112
169 165 109
169 165 110
169 166 110
165 161 106
172 168 110
161 158 104
166 163 108
168 164 107
166 162 106
168 165 109
171 167 110
172 168 111
163 159 104
166 162 105
163 159 103
161 158 103
165 162 106
165 160 104
161 158 104
169 164 108
159 155 101
166 162 104
168 163 106
162 158 102
164 159 101
166 160 104
165 162 103
166 162 103
166 162 104
159 153 97
167 162 103
162 157 101
164 159 100
166 161 105
170 165 102
166 160 102
163 158 99
159 154 95
154 149 90
154 149 92
154 148 90
155 149 93
156 150 92
155 149 86
147 141 85
155 148 87
144 138 81
153 147 84
149 143 84
155 151 86
156 152 84
157 159 76
158 159 75
152 160 58
153 163 53
163 172 58
163 177 42
171 184 54
159 177 32
162 179 36
172 193 34
172 192 22
174 197 0
175 197 0
174 197 0
172 196 0
175 198 0
173 197 0
174 197 0
175 198 0
174 197 0
174 198 0
173 197 0
173 197 0
174 197 0
174 197 0
173 196 0
171 194 0
175 198 0
174 198 0
175 198 0
172 196 0
173 197 0
174 198 0
174 198 0
174 197 0
174 197 0
175 198 0
175 198 0
171 195 0
173 197 0
174 198 0
172 196 0
173 197 0
171 195 0
173 197 0
173 197 0
175 198 0
174 197 0
175 198 0
173 197 0
174 197 0
173 197 0
175 198 0
174 197 0
173 196 0
174 198 0
174 197 0
174 197 0
173 197 0
174 198 0
170 195 0
173 197 0
172 196 0
174 197 0
171 194 0
172 196 0
172 195 0
176 198 0
174 198 0
175 197 0
175 198 0
170 195 0
175 198 0
172 195 0
172 196 0
174 198 0
173 197 0
175 198 0
174 197 0
174 197 0
174 198 0
174 197 0
172 195 0
175 198 0
174 197 0
174 197 0
173 196 0
173 197 0
174 197 0
171 194 0
171 195 0
174 197 0
173 197 0
175 198 0
171 194 0
171 195 0
172 195 0
174 196 0
172 195 0
174 197 0
172 196 0
173 196 0
174 197 0
176 199 0
174 197 0
174 197 0
173 197 0
172 196 0
172 196 0
174 197 0
174 198 0
171 194 0
174 197 0
174 197 0
174 197 0
172 194 0
174 197 0
173 196 0
174 198 0
173 197 0
170 193 0
172 195 0
173 197 0
172 196 0
171 194 0
174 198 0
173 196 0
172 196 0
174 197 0
173 196 0
174 197 0
174 197 0
172 195 0
172 196 0
172 195 0
170 193 0
172 195 0
172 196 0
173 196 0
173 196 0
172 195 0
174 197 0
172 195 0
173 197 0
171 193 0
175 198 0
173 196 0
174 197 0
173 196 0
173 196 0
173 196 0
172 196 0
173 196 0
174 197 0
171 195 0
171 195 25
166 189 51
166 189 57
156 179 88
133 158 122
126 152 131
107 135 151
94 123 159
79 112 171
66 101 177
62 99 180
61 99 180
61 99 179
61 99 180
62 99 181
61 98 181
62 99 181
61 99 181
61 98 181
62 99 181
61 99 181
62 99 181
61 99 181
61 98 181
61 99 181
61 98 180
62 99 181
62 99 181
61 99 181
62 99 181
61 99 181
62 99 181
61 99 181
61 99 181
61 98 181
62 99 181
61 99 181
61 99 181
61 98 181
61 99 181
61 98 181
61 99 181
61 98 181
61 99 181
62 99 180
61 99 181
61 98 179
62 99 180
61 99 181
61 98 180
61 98 180
62 99 180
62 99 179
62 99 181
61 99 180
62 99 181
61 98 180
61 99 180
61 99 181
62 99 181
62 99 180
61 98 179
62 99 181
62 98 178
66 101 178
70 104 175
91 121 162
105 133 150
127 152 129
133 159 117
140 165 112
149 172 97
161 184 61
169 193 32
169 191 25
173 196 0
170 192 0
172 195 0
172 195 0
171 194 0
174 197 0
174 197 0
170 193 0
171 194 0
173 196 0
172 196 0
173 196 0
173 197 0
172 196 0
171 195 0
171 195 0
173 196 0
172 196 0
171 194 0
174 197 0
171 192 22
167 187 19
168 188 22
164 182 36
166 184 22
161 176 39
168 182 42
150 161 44
156 169 45
157 166 55
149 157 53
152 159 60
150 155 63
156 157 71
149 148 72
156 156 82
139 136 74
143 138 78
147 142 87
143 139 82
149 145 92
149 143 86
135 132 81
145 141 83
142 139 84
151 147 92
145 141 89
137 134 87
147 144 93
148 144 92
155 150 97
153 149 94
153 148 96
155 151 99
147 143 90
161 157 99
148 145 97
154 151 99
153 150 97
161 157 103
145 142 96
148 145 94
152 149 98
160 156 103
159 156 103
147 145 98
158 154 103
157 154 103
160 157 105
156 153 102
159 157 105
159 156 105
158 156 104
159 156 104
155 153 104
162 159 106
161 159 107
162 159 107
167 164 110
161 158 105
167 164 110
166 163 109
168 165 111
169 165 110
166 163 110
162 161 108
165 163 109
166 164 110
167 164 110
170 167 111
159 157 105
165 163 109
175 170 112
170 167 111
171 168 112
169 166 110
171 168 111
170 167 111
170 167 112
166 163 109
174 170 112
169 165 110
173 169 112
170 167 111
169 166 110
171 167 110
167 164 109
161 159 105
167 165 109
172 168 112
169 165 110
168 165 109
169 166 110
170 166 109
173 170 113
167 164 109
174 170 113
167 165 110
169 166 110
168 165 110
170 167 110
167 163 106
174 170 113
171 168 111
169 166 110
166 163 108
162 159 105
169 166 110
166 163 106
170 166 109
160 157 102
168 165 108
167 163 108
170 166 108
170 166 109
169 166 108
166 162 106
162 158 104
166 161 103
166 161 106
166 162 105
164 159 103
168 163 104
167 162 102
163 158 100
159 154 97
163 159 103
165 160 102
164 159 104
162 158 101
161 155 99
154 150 94
160 155 99
157 152 96
154 149 95
161 156 97
154 148 93
157 152 95
153 148 88
159 153 95
157 151 93
159 153 93
157 151 93
156 150 94
157 151 92
146 141 79
142 136 80
137 131 77
140 136 70
151 149 80
147 148 70
141 146 56
153 160 58
156 163 64
153 160 58
156 169 48
158 170 49
159 176 32
161 179 36
170 191 16
170 191 16
174 196 25
172 196 0
172 196 0
173 197 0
175 198 0
172 195 0
173 196 0
173 197 0
176 198 0
174 197 0
174 197 0
173 197 0
172 196 0
173 196 0
174 197 0
174 197 0
174 197 0
175 198 0
171 195 0
173 196 0
175 198 0
174 197 0
172 196 0
174 197 0
172 196 0
173 196 0
172 195 0
176 198 0
174 198 0
175 198 0
174 197 0
176 198 0
174 197 0
172 196 0
171 196 0
174 197 0
173 196 0
174 197 0
176 199 0
174 197 0
173 196 0
173 197 0
175 198 0
174 197 0
175 198 0
173 197 0
173 197 0
174 197 0
174 197 0
172 195 0
173 197 0
174 197 0
173 197 0
174 197 0
174 197 0
174 198 0
175 198 0
174 197 0
174 197 0
173 197 0
176 198 0
175 198 0
172 196 0
174 197 0
174 197 0
174 198 0
174 197 0
173 196 0
171 195 0
171 195 0
172 195 0
172 196 0
174 198 0
173 197 0
172 196 0
175 198 0
172 195 0
175 198 0
172 196 0
173 196 0
172 195 0
173 196 0
172 196 0
172 195 0
173 197 0
174 197 0
172 195 0
173 196 0
173 196 0
174 197 0
174 197 0
173 197 0
171 195 0
174 197 0
169 193 0
171 195 0
173 196 0
173 197 0
174 197 0
172 195 0
171 195 0
173 197 0
173 196 0
172 196 0
173 196 0
171 194 0
173 195 0
173 196 0
174 197 0
172 195 0
171 195 0
174 198 0
173 196 0
174 197 0
171 195 0
173 196 0
173 197 0
172 196 0
173 197 0
170 194 0
173 196 0
173 196 0
173 196 0
173 196 0
171 194 0
173 196 0
173 197 0
173 196 0
173 196 0
171 195 0
172 196 0
174 197 0
171 194 0
173 197 0
172 195 0
175 198 0
173 196 0
173 196 0
174 197 0
174 197 0
174 196 0
173 197 0
173 197 0
166 190 44
157 181 78
139 163 111
135 161 118
117 144 143
103 131 152
73 107 176
64 101 179
63 100 180
62 99 180
62 99 181
62 99 181
62 99 181
62 99 181
62 99 181
61 99 181
62 99 181
61 99 181
62 99 181
61 99 180
62 99 181
62 99 181
61 98 181
61 98 181
62 99 181
61 99 181
62 99 181
61 99 181
61 99 181
61 99 181
61 99 181
61 99 181
62 99 181
61 98 181
61 99 181
61 99 181
61 99 181
61 98 181
62 99 181
62 99 181
62 99 181
61 99 181
62 99 181
61 99 181
61 99 181
62 99 181
61 99 181
61 98 181
61 98 181
61 98 181
62 99 181
61 98 181
62 99 180
61 99 180
61 99 179
61 99 180
62 99 181
61 98 180
62 99 181
61 98 180
61 99 181
61 99 180
61 98 179
61 98 178
61 98 179
62 99 181
61 98 179
62 99 177
62 98 178
79 112 171
92 121 159
111 138 148
123 149 132
143 168 108
151 175 92
162 186 62
166 189 54
172 194 25
170 193 0
171 194 0
169 192 0
169 191 0
173 197 0
170 194 0
171 194 0
173 196 0
173 196 0
171 194 0
171 194 0
171 194 0
172 194 0
172 195 0
173 195 0
171 196 0
172 196 0
174 197 0
169 191 0
168 189 16
167 187 25
169 188 25
167 186 32
158 174 36
159 172 45
163 175 49
162 173 53
147 154 51
148 156 54
154 159 68
141 146 59
156 154 78
138 139 71
140 138 75
140 136 75
144 140 86
147 142 82
143 139 84
142 137 89
150 145 92
135 131 80
147 142 89
153 148 95
154 149 94
154 149 94
146 142 91
159 154 98
138 135 85
155 150 97
154 150 98
150 147 99
154 149 97
148 145 96
148 145 96
157 153 101
154 150 99
154 150 99
160 156 104
151 148 99
152 149 99
157 154 101
155 154 103
156 152 100
156 153 103
153 150 100
159 157 104
158 156 104
154 152 102
162 158 106
155 153 102
157 154 104
162 159 106
161 159 107
163 159 106
160 157 104
158 156 105
162 160 108
167 164 110
161 159 107
169 165 110
162 160 106
168 165 109
164 161 108
165 162 108
167 164 109
170 166 109
168 166 111
170 167 112
168 165 111
170 167 112
168 166 111
167 164 109
166 164 109
165 163 109
171 167 111
167 165 111
167 164 109
173 169 112
170 167 111
173 169 112
169 166 110
171 167 111
171 168 112
170 167 110
171 167 110
170 167 109
171 168 111
166 164 108
169 166 110
172 169 113
173 170 112
169 166 110
171 168 111
173 169 112
170 168 110
173 169 112
169 165 109
169 165 109
169 166 110
170 166 110
170 166 108
171 167 109
169 165 109
169 165 108
170 166 110
168 164 108
170 167 110
164 161 106
172 168 109
165 162 106
171 166 108
169 165 108
165 162 106
161 157 102
169 165 106
165 162 104
164 160 104
164 160 103
166 161 104
168 163 105
162 157 100
161 157 101
170 166 106
159 154 97
155 152 98
155 151 97
164 159 99
160 155 95
162 157 100
161 156 98
156 151 96
164 159 97
158 153 94
159 153 95
154 148 90
165 159 98
147 142 90
153 149 92
160 155 96
162 155 95
157 151 93
161 154 93
157 151 91
158 151 87
150 144 84
158 151 90
148 142 80
148 143 80
148 146 76
146 146 69
150 153 69
151 154 65
157 167 58
159 168 58
163 173 58
169 182 49
168 185 39
168 185 36
167 187 19
173 194 22
171 194 0
173 197 0
172 196 0
173 197 0
173 196 0
174 197 0
171 195 0
173 196 0
172 195 0
172 195 0
172 196 0
175 198 0
174 197 0
172 196 0
174 198 0
174 197 0
175 197 0
174 197 0
172 196 0
173 197 0
173 197 0
172 195 0
175 198 0
173 197 0
173 197 0
173 196 0
175 198 0
174 198 0
173 196 0
174 197 0
173 196 0
174 197 0
171 195 0
173 197 0
172 196 0
174 197 0
174 197 0
175 198 0
174 197 0
173 197 0
176 199 0
169 193 0
173 196 0
172 196 0
175 198 0
174 197 0
174 197 0
175 198 0
174 198 0
174 198 0
175 197 0
174 197 0
174 198 0
171 195 0
174 197 0
172 195 0
173 197 0
173 197 0
173 196 0
172 196 0
173 196 0
174 197 0
173 197 0
174 198 0
173 196 0
171 194 0
172 196 0
170 193 0
174 197 0
173 197 0
173 196 0
172 196 0
174 197 0
175 198 0
173 196 0
174 197 0
173 197 0
174 197 0
174 197 0
174 197 0
172 195 0
172 195 0
174 197 0
171 194 0
174 197 0
173 197 0
174 198 0
170 194 0
171 195 0
173 196 0
173 197 0
173 197 0
172 195 0
172 195 0
176 198 0
174 198 0
172 196 0
173 196 0
172 196 0
171 195 0
173 196 0
172 195 0
173 196 0
175 198 0
169 193 0
171 195 0
172 195 0
174 197 0
173 196 0
173 197 0
173 196 0
173 196 0
173 195 0
172 195 0
173 197 0
174 197 0
171 194 0
173 196 0
173 196 0
172 197 0
173 196 0
172 195 0
173 197 0
173 196 0
174 197 0
175 198 0
172 196 0
174 198 0
173 196 0
172 195 0
173 196 0
170 194 0
170 193 0
174 195 0
171 195 0
174 196 0
170 194 0
169 191 0
171 194 0
170 193 25
163 186 60
162 185 65
140 165 110
129 155 130
111 138 144
80 112 170
62 99 179
62 99 180
62 99 180
62 99 181
62 99 180
62 99 180
62 99 181
62 99 181
62 99 181
62 99 180
62 99 180
62 99 181
62 99 181
62 99 181
62 99 181
61 98 181
62 99 181
62 99 181
61 99 181
61 98 181
62 99 181
61 98 181
62 99 181
61 98 181
61 99 181
62 99 181
61 99 181
62 99 181
61 99 181
61 98 181
61 99 181
61 99 181
61 98 181
61 98 181
61 99 181
61 99 181
61 98 180
62 99 181
61 99 181
61 99 181
61 98 181
61 99 181
62 99 181
61 99 181
62 99 181
61 98 180
62 99 181
61 99 181
61 99 181
61 98 180
62 99 181
61 99 181
61 98 181
61 98 179
62 99 181
62 99 181
61 99 181
62 99 181
61 98 179
61 99 181
61 98 179
61 97 178
62 99 180
60 98 179
61 98 179
61 98 178
61 98 177
66 101 175
82 113 168
105 133 151
112 139 142
132 156 121
146 170 100
159 182 73
167 190 44
170 194 31
172 196 0
172 195 0
172 195 0
174 196 0
172 195 0
172 195 0
171 194 0
171 194 0
170 193 0
173 196 0
174 197 0
172 194 0
173 195 0
172 195 0
173 195 0
173 194 11
169 192 0
167 187 30
164 183 22
156 174 28
160 175 36
159 173 42
152 163 47
153 168 30
156 166 56
148 154 56
154 161 63
151 155 65
148 150 67
147 148 69
139 137 76
148 145 80
147 142 79
150 144 86
150 144 87
152 147 88
143 138 82
136 131 76
151 145 85
148 144 87
148 144 90
153 149 95
151 146 93
149 145 94
143 140 94
147 144 96
146 143 92
146 143 93
147 144 95
152 148 98
154 150 99
149 145 92
155 151 99
153 149 98
151 148 99
154 152 101
150 148 98
149 147 100
158 154 102
156 153 101
161 157 105
152 149 101
155 152 102
160 157 105
152 150 100
153 151 101
161 158 105
164 160 107
160 157 105
160 158 105
151 149 100
161 158 105
160 158 105
166 163 109
154 152 102
159 157 105
161 158 106
165 163 109
169 166 110
165 162 108
167 164 109
165 162 109
163 160 107
168 165 110
169 165 110
170 167 111
166 164 109
168 165 110
168 165 109
163 161 108
172 169 112
169 167 110
168 166 110
171 168 113
170 166 110
167 164 108
169 166 111
169 165 110
172 168 111
168 165 109
171 167 111
168 165 110
168 165 110
170 167 111
171 168 111
171 168 112
169 165 109
174 170 112
170 166 110
172 169 112
167 164 108
172 168 110
171 167 110
168 166 110
169 166 110
167 164 109
167 163 108
164 160 104
167 164 109
170 167 110
171 167 111
171 168 110
171 167 110
167 165 109
170 167 110
166 163 108
168 164 108
165 161 106
167 164 106
168 164 107
168 164 108
167 163 106
165 160 103
169 164 108
171 167 106
170 166 107
169 164 106
164 159 104
165 160 103
168 162 103
157 153 98
160 155 99
162 158 101
162 157 99
168 163 104
160 155 95
166 160 102
162 157 99
154 150 93
161 156 100
154 150 92
158 152 93
159 154 95
151 147 95
157 152 95
156 152 95
156 149 92
158 152 91
164 158 93
148 143 90
152 146 90
156 150 86
157 152 87
152 146 84
148 141 81
135 130 76
154 150 82
144 144 68
151 153 68
153 158 61
157 164 57
160 170 52
151 161 47
157 170 41
162 179 37
165 183 37
169 190 22
169 191 11
172 194 11
173 196 11
174 196 0
174 197 0
172 196 0
172 195 0
172 197 0
174 197 0
174 197 0
173 197 0
175 198 0
171 194 0
172 196 0
172 196 0
175 198 0
174 196 0
170 194 0
174 197 0
173 197 0
174 197 0
173 197 0
175 198 0
173 197 0
173 196 0
174 197 0
171 195 0
173 196 0
175 198 0
174 197 0
174 198 0
174 197 0
171 195 0
174 197 0
174 197 0
173 197 0
174 196 0
172 195 0
172 196 0
172 195 0
173 197 0
173 197 0
175 198 0
173 196 0
176 198 0
172 196 0
174 197 0
175 198 0
174 198 0
172 196 0
174 196 0
172 196 0
172 195 0
172 196 0
172 195 0
173 197 0
171 194 0
174 197 0
175 198 0
173 196 0
175 198 0
175 198 0
173 196 0
172 196 0
173 197 0
174 197 0
172 195 0
174 197 0
175 197 0
172 195 0
174 198 0
169 194 0
174 197 0
172 196 0
173 197 0
174 197 0
174 198 0
173 196 0
174 197 0
174 198 0
172 196 0
173 197 0
174 196 0
172 195 0
173 197 0
174 197 0
174 197 0
173 197 0
173 197 0
171 194 0
173 196 0
173 196 0
173 196 0
174 197 0
175 198 0
173 196 0
174 197 0
174 197 0
170 194 0
173 196 0
172 195 0
173 197 0
173 197 0
174 197 0
173 197 0
172 196 0
175 198 0
169 192 0
173 196 0
173 197 0
172 196 0
172 195 0
174 197 0
173 197 0
173 197 0
174 197 0
169 193 0
171 196 0
174 197 0
171 194 0
175 198 0
171 195 0
175 198 0
171 195 0
174 197 0
173 197 0
169 192 0
173 196 0
170 194 0
171 195 0
172 196 0
171 194 0
173 196 0
174 197 0
173 197 0
173 196 0
173 197 0
175 198 0
171 195 18
169 191 47
153 177 88
144 168 107
123 150 134
94 124 160
83 114 167
62 99 180
62 99 179
61 99 178
62 99 180
61 98 180
61 99 181
61 99 180
62 99 179
61 99 180
62 99 180
62 99 179
61 99 181
61 99 181
61 99 181
61 99 181
61 99 181
62 99 181
61 98 181
61 99 181
61 99 181
62 99 181
62 99 181
61 99 181
61 99 181
61 99 181
61 98 181
61 98 181
62 99 181
62 99 181
61 99 181
61 99 181
62 99 181
62 99 181
61 99 181
62 99 181
61 98 181
61 99 181
62 99 181
61 99 181
62 99 181
61 99 181
61 98 181
62 99 181
61 98 181
61 99 181
62 99 180
61 99 181
62 99 181
62 99 180
61 98 180
61 99 181
61 98 180
62 99 181
61 98 179
61 99 181
61 99 181
61 99 181
61 98 179
61 98 179
62 99 180
62 99 181
61 98 178
62 99 181
62 99 180
62 99 181
61 98 179
62 99 180
61 97 176
61 98 177
62 99 179
62 98 178
65 100 175
78 110 167
107 135 152
126 151 127
132 157 121
147 171 94
158 181 73
167 190 51
170 192 31
172 195 0
171 194 0
171 194 0
174 197 0
170 192 0
174 196 0
171 195 0
171 194 0
172 195 0
173 194 0
172 196 0
173 196 0
173 195 0
172 194 16
170 192 0
168 187 28
170 189 22
161 175 41
162 180 34
158 174 37
150 161 41
158 169 56
148 158 48
155 165 51
153 156 67
153 159 58
150 150 72
137 138 66
145 143 77
139 137 79
142 137 77
147 141 83
143 139 83
144 139 84
147 143 91
149 145 87
139 135 84
149 145 93
141 138 88
144 140 90
138 135 88
143 140 88
150 146 94
141 138 89
152 148 97
154 149 96
143 140 92
153 150 98
146 144 95
151 148 97
153 149 99
160 157 104
150 147 97
152 150 100
155 152 99
151 149 99
156 153 102
156 152 101
157 154 101
155 151 102
153 151 102
167 163 108
159 155 103
164 160 106
156 153 103
159 157 105
163 160 108
159 156 105
162 159 108
161 158 106
161 159 106
153 151 102
160 158 107
164 162 108
167 163 108
164 161 107
164 162 109
163 160 106
165 161 107
168 165 110
172 168 112
173 169 113
163 161 107
169 166 111
166 163 109
169 166 111
163 161 108
164 161 107
168 166 111
169 166 110
170 167 111
169 166 111
168 166 111
166 163 109
168 165 109
169 166 111
172 168 112
168 166 111
169 168 113
169 166 110
174 170 111
164 161 107
174 170 113
173 169 112
170 167 110
170 166 110
171 167 111
169 166 110
170 167 110
167 164 109
167 164 109
169 166 109
168 165 110
170 167 110
170 166 109
170 166 109
169 166 110
165 161 106
167 164 108
170 166 110
171 166 109
166 162 107
167 163 106
166 163 106
170 167 110
162 159 104
169 165 108
167 163 106
169 164 104
166 162 103
169 164 104
169 165 108
175 170 110
168 163 106
164 159 101
165 160 103
166 162 106
166 162 104
164 159 102
159 154 98
157 151 96
167 162 106
167 163 104
172 165 105
157 153 97
164 158 99
158 154 97
159 154 95
160 156 99
161 156 97
155 149 90
161 156 95
164 158 97
150 145 87
157 150 91
156 149 90
156 151 88
149 143 85
148 142 86
156 150 92
160 153 90
148 143 87
147 141 84
140 134 77
144 143 79
141 141 75
155 152 80
151 156 67
147 150 60
161 170 57
155 163 56
159 171 47
163 179 37
167 184 34
165 183 32
169 188 28
171 194 11
174 196 0
173 196 11
174 198 0
174 197 0
173 197 0
173 197 0
173 196 0
174 197 0
174 197 0
174 198 0
173 197 0
174 197 0
174 197 0
173 197 0
175 198 0
174 197 0
173 197 0
175 198 0
173 197 0
175 197 0
171 196 0
175 197 0
173 197 0
171 195 0
174 197 0
174 197 0
173 196 0
175 198 0
174 197 0
174 197 0
173 196 0
171 194 0
174 197 0
172 195 0
175 198 0
173 196 0
174 197 0
173 197 0
175 198 0
174 198 0
173 196 0
172 196 0
172 196 0
174 197 0
174 198 0
173 196 0
172 196 0
174 198 0
174 197 0
172 195 0
172 195 0
174 198 0
172 195 0
173 197 0
174 198 0
174 197 0
172 195 0
175 198 0
171 194 0
174 197 0
172 196 0
172 197 0
174 197 0
172 195 0
174 198 0
173 197 0
174 197 0
174 196 0
174 197 0
173 197 0
175 198 0
171 194 0
174 197 0
174 196 0
170 194 0
172 196 0
175 197 0
173 196 0
173 196 0
173 196 0
173 197 0
172 196 0
172 196 0
174 197 0
173 197 0
174 197 0
171 194 0
172 196 0
172 195 0
172 196 0
173 197 0
174 198 0
169 193 0
174 197 0
174 197 0
171 194 0
171 195 0
172 196 0
174 197 0
173 197 0
172 195 0
173 197 0
171 194 0
173 196 0
174 196 0
173 197 0
173 196 0
173 197 0
172 195 0
172 196 0
172 196 0
171 194 0
174 197 0
171 195 0
172 196 0
172 195 0
172 196 0
173 197 0
174 196 0
175 198 0
173 195 0
175 197 0
174 197 0
170 195 0
173 196 0
173 196 0
174 197 0
172 195 0
173 197 0
173 196 0
171 193 0
173 197 0
171 194 0
173 196 18
168 192 31
166 189 60
153 177 88
142 168 95
118 145 137
105 132 150
75 109 169
63 100 179
62 99 180
62 99 178
62 99 180
63 100 181
62 99 180
62 99 181
62 99 181
61 99 178
62 99 181
62 99 181
62 99 180
62 99 180
62 99 181
62 99 181
62 99 180
62 99 181
62 99 181
62 99 181
61 99 180
61 99 180
61 99 181
61 98 181
61 99 181
62 99 181
62 99 181
61 99 181
62 99 181
61 98 181
61 98 181
61 98 181
61 99 181
62 99 181
61 99 181
62 99 181
61 98 181
62 99 181
61 98 181
62 99 181
61 99 181
62 99 181
61 98 181
61 99 181
61 98 181
61 99 181
61 98 181
62 99 181
61 99 181
61 99 181
61 99 181
62 99 180
62 99 181
61 99 181
61 99 181
62 99 181
62 99 181
61 98 181
61 98 180
61 98 180
61 98 180
62 99 181
62 99 180
62 99 181
62 99 180
62 99 180
62 99 180
62 99 180
62 99 181
61 98 179
62 99 181
61 98 179
62 99 180
62 99 180
62 98 177
62 99 178
61 97 174
73 107 173
89 119 161
117 143 138
128 152 124
152 176 94
154 178 79
166 189 47
171 193 18
170 194 0
173 197 0
172 196 0
171 195 0
171 193 0
169 193 0
174 196 0
172 195 0
173 195 0
173 196 11
170 192 11
167 188 19
164 186 11
170 189 30
164 182 28
165 182 40
160 178 26
160 173 38
155 168 42
161 170 60
150 159 54
151 157 62
150 154 66
139 137 73
145 146 72
143 141 73
142 140 79
152 147 86
141 136 80
130 127 74
149 143 87
141 138 87
134 131 80
144 140 88
146 142 89
139 136 83
152 147 93
153 148 96
144 141 92
151 147 95
154 150 96
146 142 93
146 142 94
148 144 94
149 146 97
150 147 97
150 147 97
148 145 96
152 149 99
148 145 97
151 149 99
156 153 101
155 152 101
146 144 99
148 145 96
148 147 100
151 149 100
161 158 106
155 153 102
164 162 109
160 157 105
154 152 102
160 157 106
161 157 104
165 162 109
162 159 104
161 159 107
155 154 103
164 162 109
156 153 103
159 157 105
162 159 106
161 159 106
161 158 106
168 165 109
163 161 108
168 164 109
168 165 110
168 165 110
162 160 107
168 165 110
168 165 110
169 165 110
172 167 111
170 167 110
168 165 109
168 166 111
168 165 110
169 166 111
168 165 109
171 168 111
170 167 111
170 167 110
173 170 113
173 170 113
171 167 110
171 168 113
171 168 112
169 166 110
170 166 110
171 168 111
173 169 111
168 165 110
170 167 110
173 169 112
171 168 111
173 169 112
171 167 110
172 168 111
169 166 110
171 169 112
173 170 112
170 165 108
171 168 112
172 168 110
168 165 107
170 166 109
170 167 110
172 169 111
170 166 108
163 161 106
172 167 110
168 164 106
167 164 106
168 165 108
173 167 109
169 165 107
165 161 105
163 160 103
169 165 107
162 159 101
165 160 102
166 162 104
162 158 102
167 161 103
163 160 101
169 164 108
161 156 99
167 163 104
172 166 106
161 156 99
165 160 101
166 160 101
160 156 97
155 150 95
162 158 100
167 161 103
167 162 101
155 150 93
160 153 95
160 154 95
151 147 87
160 154 93
158 152 95
156 150 91
146 140 85
155 150 91
165 158 96
152 147 88
149 143 85
147 141 81
147 141 78
149 142 86
152 151 75
153 150 81
152 153 74
143 148 54
150 157 51
153 160 60
156 167 52
153 167 36
163 180 41
172 190 32
173 191 36
167 188 16
171 194 11
174 197 0
172 195 0
174 197 0
175 198 0
175 198 0
174 197 0
173 197 0
175 198 0
174 198 0
171 195 0
176 199 0
174 197 0
174 197 0
173 196 0
174 198 0
175 198 0
173 196 0
172 196 0
174 197 0
171 194 0
172 197 0
172 196 0
172 196 0
172 196 0
172 196 0
167 191 0
174 197 0
172 195 0
174 198 0
173 196 0
173 196 0
172 196 0
170 194 0
175 198 0
173 197 0
175 198 0
174 197 0
174 197 0
173 196 0
175 198 0
175 198 0
173 197 0
173 196 0
171 195 0
172 195 0
174 197 0
173 196 0
173 197 0
174 197 0
173 197 0
172 195 0
174 197 0
172 196 0
171 195 0
173 197 0
172 196 0
169 193 0
174 197 0
173 196 0
172 196 0
174 197 0
174 197 0
170 194 0
173 196 0
172 196 0
174 197 0
172 195 0
173 196 0
173 196 0
172 195 0
173 196 0
173 196 0
174 197 0
174 197 0
172 196 0
173 196 0
171 195 0
175 198 0
174 197 0
175 198 0
172 196 0
172 196 0
173 196 0
171 194 0
173 197 0
174 197 0
176 198 0
173 197 0
171 196 0
172 196 0
174 197 0
174 197 0
170 194 0
172 195 0
171 195 0
169 194 0
175 197 0
172 196 0
171 195 0
170 194 0
172 195 0
174 196 0
175 198 0
172 196 0
175 197 0
172 196 0
174 197 0
172 195 0
173 196 0
171 194 0
170 194 0
173 196 0
172 196 0
174 197 0
173 196 0
171 195 0
172 195 0
173 196 0
172 195 0
173 196 0
171 195 0
172 196 0
173 196 0
172 196 0
174 196 0
173 196 0
175 198 0
174 197 0
173 197 0
173 197 0
172 196 0
171 194 0
165 189 44
160 183 67
141 166 108
125 150 130
95 125 160
80 113 170
64 100 179
62 99 178
62 99 178
62 99 180
61 99 178
62 99 180
63 99 179
62 99 181
62 99 181
61 99 179
62 99 181
62 99 179
62 100 181
61 99 179
62 99 181
62 99 181
61 99 181
62 99 181
62 99 181
61 98 181
62 99 181
62 99 181
62 99 181
61 99 181
61 98 181
62 99 181
61 99 181
61 99 181
62 99 181
61 99 181
61 99 181
61 99 181
62 99 181
61 98 181
61 99 181
61 98 181
61 99 181
62 99 181
61 98 181
61 99 181
62 99 181
61 99 181
61 99 181
61 99 181
62 99 181
61 99 181
61 98 181
61 99 181
61 99 181
61 98 181
61 98 181
62 99 181
61 98 181
62 99 181
61 98 181
62 99 181
61 98 181
61 99 181
61 99 180
62 99 181
62 99 181
61 99 181
62 99 181
62 99 180
61 98 177
62 99 180
61 98 181
61 98 180
61 99 181
62 99 178
61 98 179
61 98 178
61 98 178
61 97 176
62 98 178
61 99 181
61 97 177
61 98 177
62 99 177
65 100 173
84 115 164
98 126 148
122 147 132
132 157 117
145 169 91
164 188 57
170 194 36
171 193 25
173 197 0
173 196 0
172 195 0
173 196 0
170 193 0
169 192 0
172 195 0
172 194 11
169 191 11
167 188 16
166 186 22
165 185 19
162 181 26
166 182 36
157 171 44
156 165 48
156 168 47
144 151 47
147 155 53
147 152 62
144 147 64
138 139 61
141 142 67
142 142 71
142 138 78
136 131 78
133 128 75
147 142 86
149 142 86
144 141 84
148 143 86
149 145 91
150 145 91
150 145 91
143 139 85
144 141 90
144 141 89
139 137 92
147 144 93
148 145 96
146 143 94
148 145 90
142 140 92
151 148 96
154 150 96
146 143 95
143 141 93
145 142 93
147 144 98
150 148 99
154 150 101
159 156 105
153 151 102
155 153 103
152 150 101
164 160 107
153 150 101
153 151 101
155 153 103
159 156 105
157 155 105
158 155 104
165 161 107
156 154 104
160 158 106
164 161 108
162 159 106
162 159 107
158 156 105
165 162 108
167 164 109
160 158 106
160 158 106
165 162 108
167 164 110
168 164 110
169 166 110
167 164 110
167 164 110
168 165 111
169 166 111
169 166 110
169 166 110
172 169 111
166 163 109
170 167 111
170 167 111
168 164 110
169 165 110
168 166 111
169 166 110
167 164 108
172 168 112
173 169 112
169 166 110
173 169 111
173 170 112
173 169 112
171 168 112
170 167 110
171 168 111
171 168 110
172 168 110
170 167 110
170 167 110
172 168 111
167 164 108
174 169 110
173 169 112
168 164 106
171 167 110
171 167 110
171 167 110
169 166 109
173 168 110
169 165 108
170 166 109
171 167 110
170 168 111
167 163 104
175 170 112
166 162 106
166 161 106
164 160 103
168 163 107
171 167 110
165 161 105
173 168 108
164 160 101
165 160 104
170 166 108
169 165 108
169 164 103
162 158 99
166 161 103
166 162 103
160 155 101
171 166 103
167 161 102
163 157 99
166 161 101
175 168 108
156 153 95
165 159 97
158 152 95
158 153 92
163 157 99
166 160 99
161 154 92
150 145 89
147 141 87
157 152 95
148 143 82
153 147 91
152 147 84
150 144 84
154 148 90
158 151 90
139 134 82
142 136 81
138 133 73
140 137 75
150 149 78
140 142 63
146 150 60
152 158 58
153 163 49
164 176 54
164 179 42
161 173 48
173 190 36
171 189 34
170 193 16
170 192 11
175 198 0
173 196 0
174 197 0
173 197 0
175 198 0
174 198 0
175 198 0
173 197 0
173 196 0
172 196 0
174 197 0
175 198 0
173 197 0
172 196 0
174 197 0
175 198 0
172 196 0
174 197 0
173 197 0
173 197 0
174 197 0
172 195 0
174 197 0
177 199 0
175 198 0
173 197 0
172 196 0
175 197 0
172 196 0
173 197 0
171 195 0
174 197 0
173 196 0
174 197 0
173 197 0
172 196 0
172 196 0
173 197 0
174 198 0
173 197 0
171 195 0
175 197 0
175 197 0
174 198 0
172 195 0
172 196 0
174 197 0
173 197 0
171 195 0
174 197 0
172 195 0
173 197 0
173 197 0
171 195 0
170 195 0
173 195 0
173 196 0
173 196 0
173 197 0
171 195 0
174 197 0
175 198 0
171 194 0
173 197 0
171 195 0
173 197 0
172 195 0
172 195 0
172 195 0
175 198 0
173 196 0
171 193 0
175 198 0
173 197 0
175 198 0
174 197 0
171 196 0
174 197 0
173 197 0
171 194 0
170 194 0
172 195 0
173 197 0
173 197 0
170 194 0
174 197 0
173 195 0
173 196 0
172 196 0
172 196 0
171 195 0
175 197 0
171 194 0
173 196 0
171 195 0
173 196 0
173 196 0
172 196 0
174 197 0
173 196 0
175 197 0
174 197 0
174 198 0
169 192 0
173 197 0
172 195 0
174 197 0
173 197 0
174 197 0
173 196 0
173 197 0
171 195 0
176 198 0
171 195 0
174 197 0
174 197 0
174 197 0
172 195 0
172 195 0
173 197 0
173 195 0
171 195 0
171 194 0
173 196 0
174 197 0
173 196 0
171 195 0
172 195 0
172 195 0
171 194 0
172 195 25
163 186 70
148 173 97
125 151 129
111 138 148
76 109 173
64 100 174
62 99 178
62 99 178
62 99 181
62 99 180
62 99 181
61 99 181
62 99 180
62 99 181
61 99 181
62 99 181
62 99 180
61 99 180
61 99 181
62 99 181
61 98 180
62 99 181
62 99 181
62 99 181
62 99 181
62 99 181
62 99 181
61 99 181
61 99 181
62 99 181
61 99 181
61 99 181
61 99 181
61 99 181
62 99 181
61 99 181
61 99 181
61 98 181
61 98 181
61 98 181
61 98 181
61 98 181
62 99 181
62 99 181
61 98 181
61 98 181
61 99 181
62 99 181
61 99 181
61 99 181
61 99 181
61 98 181
61 98 181
61 99 181
62 99 181
62 99 181
61 99 181
62 99 181
62 99 181
62 99 181
62 99 181
62 99 181
61 99 181
62 99 181
61 98 181
62 99 181
61 98 180
61 98 179
61 99 180
62 99 180
62 99 181
62 99 181
62 99 181
61 98 178
62 99 180
61 99 181
61 99 179
61 99 180
62 99 180
62 99 178
61 98 179
62 98 177
62 99 177
62 99 180
62 99 180
61 97 174
62 98 177
62 98 175
62 99 180
73 107 172
98 126 153
119 145 139
145 169 99
154 176 89
167 191 45
170 193 25
172 194 0
171 194 0
172 194 0
171 193 0
171 194 0
172 196 0
174 195 16
170 192 19
169 189 22
169 190 16
167 186 24
161 179 30
153 168 33
156 169 49
154 165 49
151 160 56
157 164 56
151 154 65
142 144 62
153 155 70
141 145 64
138 138 66
152 150 76
135 133 73
132 128 75
139 134 80
141 137 85
138 135 83
152 147 89
141 138 86
142 137 80
133 129 83
152 147 93
148 144 91
140 137 85
143 140 91
154 150 95
145 142 88
144 141 94
144 142 93
147 145 93
144 143 95
149 146 96
150 147 96
156 153 99
154 151 99
145 140 91
153 150 100
148 147 99
160 158 105
146 143 97
156 153 103
165 161 107
155 152 103
153 151 102
160 158 106
155 152 102
156 153 102
160 158 106
159 156 105
147 146 99
162 160 108
157 155 105
161 159 108
164 162 108
167 163 108
164 161 108
158 154 102
163 160 108
160 158 107
162 159 107
165 161 108
169 166 111
169 165 110
164 162 109
165 162 108
160 158 106
167 164 109
162 160 108
168 165 111
165 164 109
167 163 108
168 166 110
173 169 111
171 168 112
171 168 110
169 166 110
165 163 109
167 164 110
168 165 110
168 165 109
171 168 111
169 166 110
175 170 112
172 168 108
175 170 113
175 171 112
173 169 112
172 168 111
172 168 111
173 170 112
170 166 109
168 165 109
171 168 112
174 170 112
173 168 111
164 161 106
168 164 109
177 171 112
173 169 111
165 162 107
170 167 110
170 166 109
166 163 107
174 170 113
172 168 110
174 169 111
167 163 108
168 165 108
169 166 108
170 165 109
167 163 104
170 166 106
160 155 100
172 168 109
172 168 108
168 164 104
168 165 108
163 159 103
162 158 103
167 162 102
164 160 103
166 162 103
167 163 106
165 160 101
166 160 99
161 156 100
165 160 103
160 155 95
161 155 99
157 151 93
163 158 99
163 158 98
153 148 88
169 162 103
163 157 96
163 157 99
159 153 93
154 149 91
167 161 100
162 156 97
157 150 93
156 150 88
157 152 93
159 153 91
159 153 94
142 137 81
154 147 87
147 141 86
135 130 75
152 147 80
140 135 71
156 155 77
151 152 66
150 156 54
155 164 51
152 166 42
159 170 47
164 179 47
160 178 32
163 181 28
169 189 25
169 192 16
173 196 0
174 197 0
174 197 0
172 196 0
175 198 0
176 198 0
171 195 0
175 198 0
174 197 0
174 197 0
175 198 0
171 195 0
174 196 0
175 198 0
175 198 0
174 197 0
174 198 0
174 197 0
175 197 0
171 194 0
172 195 0
174 197 0
174 197 0
174 197 0
174 198 0
175 198 0
172 195 0
171 196 0
173 197 0
173 197 0
175 197 0
175 198 0
172 195 0
174 198 0
174 197 0
172 196 0
174 197 0
176 198 0
173 196 0
174 198 0
174 198 0
172 195 0
170 193 0
174 197 0
174 198 0
171 195 0
174 197 0
173 196 0
172 195 0
174 197 0
171 195 0
174 197 0
172 196 0
171 195 0
172 195 0
171 194 0
172 194 0
174 198 0
174 197 0
174 197 0
170 194 0
174 197 0
172 195 0
174 198 0
174 197 0
172 196 0
172 196 0
173 197 0
172 195 0
172 197 0
173 196 0
172 196 0
172 195 0
172 195 0
172 195 0
174 197 0
174 197 0
174 196 0
173 196 0
172 195 0
173 196 0
173 196 0
173 197 0
172 195 0
174 198 0
173 197 0
171 193 0
170 194 0
172 195 0
174 197 0
172 196 0
174 196 0
172 195 0
173 197 0
171 194 0
172 196 0
170 195 0
172 196 0
174 197 0
175 198 0
171 195 0
170 194 0
172 196 0
172 196 0
173 197 0
171 195 0
174 197 0
171 195 0
173 196 0
172 195 0
172 195 0
174 197 0
171 195 0
173 196 0
172 196 0
174 198 0
172 194 0
173 196 0
172 195 0
171 194 0
173 196 0
172 196 0
172 195 0
173 196 0
173 197 0
174 197 0
170 194 0
171 194 0
173 196 18
166 190 47
153 177 88
131 157 124
105 134 150
78 110 166
66 102 176
62 99 178
62 99 179
62 99 176
62 99 180
62 99 180
62 99 179
62 99 180
62 99 181
61 99 181
62 99 181
61 99 180
62 99 181
61 99 179
62 99 180
62 99 181
62 99 180
62 99 180
62 99 181
62 99 180
62 99 181
62 99 181
61 99 181
62 99 181
62 99 181
62 99 181
62 99 181
61 99 181
62 99 181
62 99 181
61 99 181
62 99 181
61 99 181
61 99 181
61 99 181
61 99 181
62 99 181
61 98 181
61 99 181
61 98 181
60 98 181
61 99 181
62 99 181
62 99 181
61 98 181
61 99 181
61 99 181
62 99 181
61 98 181
62 99 181
62 99 181
61 99 181
61 99 181
62 99 181
61 99 181
62 99 181
61 99 181
61 99 181
61 99 181
61 99 181
62 99 181
61 99 181
62 99 181
61 99 181
62 99 181
62 99 181
61 99 180
62 99 181
61 99 181
62 99 181
62 99 180
62 99 180
61 99 181
62 99 179
62 99 179
62 99 180
61 99 179
62 99 181
62 99 180
61 98 180
62 99 180
62 99 178
62 98 175
62 98 177
61 98 178
61 98 175
62 98 176
61 97 175
81 112 162
117 144 134
125 150 127
143 167 105
157 180 68
173 196 25
167 190 31
171 195 0
174 195 0
171 194 0
172 195 0
171 193 11
168 188 19
169 188 19
169 187 30
165 183 36
164 180 28
163 178 37
158 173 40
158 170 52
156 165 49
156 164 60
146 152 59
151 155 66
143 148 60
139 140 67
147 144 75
142 139 75
141 138 75
146 140 85
143 138 79
142 136 81
145 141 84
136 132 78
140 136 86
143 140 86
146 142 89
147 143 91
139 136 86
155 151 95
140 138 89
150 147 94
144 142 92
141 138 91
137 134 86
155 151 99
148 146 96
148 145 97
151 148 97
147 144 95
157 154 102
149 146 97
149 146 97
153 150 99
152 149 99
152 149 102
160 157 104
150 148 100
151 149 100
153 151 102
157 153 102
150 148 101
156 154 104
162 159 106
157 155 106
154 152 104
160 157 106
158 155 104
161 159 108
163 160 107
169 165 109
158 156 105
164 161 108
161 158 106
162 159 107
163 160 108
164 160 107
166 163 108
170 166 110
166 163 108
166 163 107
163 160 107
168 165 110
166 163 109
163 160 106
165 162 109
169 166 110
167 164 110
169 166 111
171 167 110
168 165 110
171 168 111
170 166 110
172 168 112
170 167 110
172 168 111
171 167 109
175 171 112
169 166 110
175 171 112
173 169 111
172 168 110
176 171 113
172 168 111
169 167 111
168 165 109
175 171 113
173 169 111
173 169 111
174 169 111
170 166 110
173 169 111
170 166 107
169 166 109
171 167 110
175 171 112
171 166 109
171 167 108
174 170 112
168 164 108
168 163 107
171 167 109
173 168 110
175 171 110
170 166 107
171 167 109
166 162 103
167 164 104
170 166 109
170 166 109
171 166 108
171 166 107
167 163 106
175 170 110
169 165 105
169 164 106
167 162 102
159 155 99
164 159 103
165 160 102
165 161 103
168 163 104
157 152 95
165 160 101
167 162 102
167 161 102
164 158 98
165 161 100
163 157 96
164 159 95
155 150 90
159 153 93
161 154 95
163 156 91
164 158 96
151 146 84
158 153 93
160 153 90
155 148 85
156 150 88
155 149 84
149 143 85
147 141 79
146 141 76
151 144 82
145 139 79
142 139 69
151 149 75
151 153 72
150 153 65
151 161 51
157 167 52
153 167 41
164 179 36
162 177 41
162 177 39
168 190 16
170 191 22
173 194 22
173 196 11
173 196 0
174 197 0
175 198 0
172 195 0
174 197 0
175 198 0
175 198 0
172 196 0
172 196 0
171 195 0
175 197 0
174 197 0
173 196 0
171 195 0
172 194 0
172 195 0
174 198 0
175 198 0
172 196 0
172 195 0
175 198 0
174 197 0
173 196 0
174 197 0
171 195 0
173 197 0
173 196 0
173 197 0
173 197 0
174 198 0
174 197 0
172 196 0
171 194 0
175 198 0
174 197 0
173 196 0
170 195 0
174 198 0
172 194 0
174 197 0
172 196 0
174 197 0
173 197 0
175 198 0
172 195 0
173 197 0
174 197 0
172 196 0
174 197 0
172 196 0
173 196 0
174 196 0
171 195 0
173 196 0
173 197 0
174 197 0
173 197 0
173 196 0
173 196 0
173 197 0
175 198 0
174 197 0
173 197 0
173 196 0
172 195 0
170 193 0
172 196 0
172 195 0
173 197 0
175 198 0
173 196 0
175 198 0
173 195 0
172 196 0
173 197 0
170 194 0
175 198 0
175 198 0
171 196 0
172 196 0
170 194 0
173 197 0
174 197 0
175 198 0
173 197 0
172 196 0
175 198 0
172 195 0
174 197 0
173 197 0
174 197 0
172 195 0
172 196 0
174 197 0
170 194 0
171 195 0
172 196 0
173 196 0
174 197 0
172 195 0
176 198 0
174 197 0
174 197 0
172 195 0
173 196 0
174 197 0
173 196 0
172 195 0
172 196 0
170 194 0
172 195 0
172 195 0
171 195 0
174 197 0
172 195 0
173 196 0
173 196 0
172 196 0
172 195 0
174 196 0
173 196 0
172 196 0
173 196 0
172 195 0
174 196 0
168 192 31
163 185 70
145 171 103
121 147 137
102 131 150
67 102 177
63 100 180
62 99 180
62 99 180
62 99 178
62 99 178
62 99 180
62 99 179
62 99 178
62 99 180
61 99 178
62 99 181
61 99 180
62 99 180
62 99 180
62 100 181
61 99 181
61 99 181
62 99 181
61 98 180
62 99 181
62 99 181
62 99 181
61 98 180
62 99 181
61 99 181
61 98 181
62 99 181
62 99 181
61 98 181
61 98 181
61 99 181
62 99 181
61 99 181
61 98 181
62 99 181
61 98 181
61 99 181
61 99 181
61 99 181
61 99 181
61 99 181
61 99 181
61 99 181
61 99 181
61 99 181
62 99 181
61 99 181
62 99 181
61 99 181
61 99 181
62 99 181
61 98 181
61 99 181
62 99 181
61 99 181
61 99 181
62 99 181
61 99 181
62 99 181
61 99 181
62 99 180
61 99 181
61 98 180
61 99 181
61 99 181
61 98 181
61 99 180
61 98 180
62 99 181
61 98 180
62 99 181
62 99 180
62 99 179
62 99 180
61 98 181
62 99 180
61 98 180
61 99 180
61 98 178
62 99 180
62 99 179
62 99 179
61 98 179
61 98 177
61 98 175
61 97 174
61 98 176
61 97 174
60 97 176
62 98 174
64 99 175
82 114 163
124 149 130
131 155 123
147 172 97
161 185 60
170 193 32
170 194 0
173 196 0
172 196 0
169 190 19
165 186 19
168 188 30
166 186 19
166 180 44
163 181 34
161 174 46
149 160 46
150 162 37
152 160 54
155 161 67
150 157 59
138 140 59
130 133 58
137 136 70
148 145 76
127 125 64
137 133 76
144 139 83
147 141 82
139 136 84
139 134 83
134 130 84
142 138 87
140 136 87
139 136 87
134 131 83
140 136 87
138 135 89
141 138 91
138 135 87
141 137 89
138 136 88
145 143 92
149 146 98
150 146 95
143 141 93
139 137 92
140 138 89
152 150 99
141 140 97
149 148 99
151 149 99
157 153 102
148 146 98
161 157 105
145 144 98
152 151 103
151 149 99
156 153 104
156 154 104
159 156 104
164 161 108
164 161 107
159 157 106
158 155 104
158 155 104
158 155 105
152 150 102
165 161 107
161 157 105
157 155 104
165 162 108
163 160 108
162 159 108
161 159 107
169 166 111
159 156 105
160 157 106
172 169 111
162 159 105
172 168 111
167 164 110
168 165 110
165 162 108
169 166 109
165 163 109
166 163 108
167 165 110
167 164 110
173 168 111
172 168 111
164 161 106
171 167 111
169 166 110
172 169 112
169 165 110
175 170 111
172 168 110
172 168 110
171 167 110
172 169 112
173 168 111
175 171 111
174 170 112
171 168 111
170 166 107
169 166 108
171 168 111
170 166 108
172 168 110
169 166 109
166 162 104
173 169 112
174 170 112
172 168 109
170 166 108
172 168 111
170 165 106
169 165 107
168 164 106
168 164 108
164 162 105
170 165 109
170 165 106
173 168 109
172 167 106
172 166 108
172 168 108
168 164 105
167 162 103
168 163 103
175 170 109
164 159 102
168 164 105
168 163 102
158 154 99
166 161 103
161 156 97
167 162 104
163 157 97
162 157 99
166 160 101
159 154 97
164 159 97
159 154 95
172 165 104
169 163 104
159 153 93
160 155 96
168 162 102
160 154 92
150 147 91
154 149 90
152 147 89
153 148 87
155 150 90
159 153 90
151 146 83
153 147 88
157 150 87
150 144 84
150 144 84
144 138 82
153 147 84
146 141 75
146 145 74
154 153 71
154 161 56
151 157 59
148 154 56
155 168 39
162 176 45
162 178 30
168 188 16
172 190 28
168 189 16
176 197 0
174 196 11
173 196 0
173 196 0
174 196 0
174 197 0
174 198 0
173 197 0
173 197 0
172 196 0
173 197 0
173 197 0
172 196 0
173 197 0
173 196 0
171 195 0
172 196 0
173 196 0
172 195 0
174 197 0
173 197 0
172 196 0
174 197 0
174 197 0
172 195 0
171 195 0
173 197 0
173 196 0
173 196 0
172 196 0
174 197 0
173 196 0
175 198 0
174 197 0
174 197 0
173 196 0
173 196 0
172 196 0
174 197 0
174 197 0
174 197 0
173 197 0
174 197 0
170 193 0
173 197 0
173 196 0
172 195 0
175 198 0
171 196 0
173 196 0
173 197 0
173 196 0
171 195 0
173 197 0
172 196 0
172 196 0
173 196 0
173 196 0
175 198 0
172 196 0
175 198 0
173 196 0
174 197 0
173 197 0
174 197 0
172 195 0
169 193 0
174 197 0
172 195 0
174 198 0
172 195 0
173 197 0
174 197 0
173 197 0
172 196 0
174 197 0
174 197 0
172 195 0
172 196 0
173 196 0
173 197 0
171 194 0
172 196 0
172 196 0
171 195 0
173 197 0
172 196 0
172 196 0
174 197 0
173 196 0
173 196 0
175 198 0
172 196 0
170 193 0
173 196 0
173 196 0
174 197 0
171 194 0
171 195 0
172 195 0
171 195 0
174 198 0
169 193 0
172 196 0
171 194 0
172 196 0
173 197 0
175 198 0
171 194 0
173 196 0
173 195 0
173 196 0
173 196 0
174 197 0
172 196 0
169 193 0
172 196 0
173 197 0
173 197 0
171 195 0
172 196 0
172 196 0
172 195 0
171 194 0
171 194 0
171 194 31
165 189 51
152 176 88
138 162 115
112 139 141
73 107 169
62 99 178
61 99 178
62 99 176
62 99 177
63 99 179
62 99 179
62 99 179
62 99 180
62 99 178
62 99 179
62 99 179
62 99 179
61 98 181
62 99 181
62 99 181
61 99 181
61 99 181
61 98 181
62 99 181
62 99 181
62 99 181
61 98 181
63 100 181
62 99 180
62 99 181
62 99 181
61 99 181
61 98 181
61 99 181
62 99 181
62 99 181
62 99 180
62 99 181
61 99 181
61 99 181
61 99 181
62 99 181
61 99 181
61 99 181
62 99 181
61 99 181
61 98 181
61 98 181
62 99 181
61 98 181
61 99 181
61 99 181
62 99 181
62 99 181
62 99 181
61 99 181
62 99 181
61 99 181
61 99 181
61 99 181
61 98 181
61 99 181
61 99 181
62 99 181
61 99 181
62 99 181
62 99 180
62 99 181
62 99 181
61 99 181
61 99 181
61 99 180
61 99 180
61 99 181
62 99 181
62 99 181
62 99 181
62 99 181
61 99 181
61 99 180
61 98 178
62 99 181
61 98 179
61 98 177
62 99 181
62 99 179
62 99 178
61 98 176
62 98 178
62 99 178
61 98 178
61 98 176
62 99 181
62 98 178
62 99 180
61 97 176
61 98 175
61 98 176
61 96 172
72 106 167
96 125 154
121 146 125
145 169 100
156 179 73
168 191 40
168 190 25
170 192 11
168 190 0
169 189 19
166 185 25
164 181 30
158 174 22
155 173 30
161 175 42
150 162 47
148 155 51
154 161 62
151 157 58
147 152 61
140 142 62
145 144 75
139 138 64
139 135 70
134 130 74
135 131 75
141 136 80
142 137 80
142 138 85
139 135 80
137 134 83
146 142 87
145 142 89
152 147 92
136 133 86
134 131 87
138 135 89
145 142 92
145 143 95
151 146 96
147 144 94
143 142 95
143 141 92
143 140 94
146 144 95
151 147 97
141 140 94
144 142 95
152 149 99
153 150 100
155 152 101
144 142 97
151 149 101
144 142 95
155 152 101
153 150 101
151 149 100
153 151 102
153 151 101
152 151 101
151 150 102
149 148 101
154 152 103
159 156 105
159 156 105
156 154 102
151 150 102
161 159 108
158 156 104
165 162 108
163 160 106
165 162 108
165 162 108
166 163 108
165 163 109
158 157 106
162 160 108
165 163 109
169 165 109
165 163 109
165 161 105
166 163 108
167 163 108
172 168 111
166 163 108
167 164 110
172 169 112
169 166 110
167 164 109
171 167 111
170 167 111
169 166 110
167 164 107
171 167 110
171 167 111
169 165 107
175 170 112
173 168 109
169 166 108
174 170 113
174 170 112
175 171 113
174 170 112
173 169 110
170 167 109
173 169 112
172 169 110
176 172 113
170 167 110
171 167 109
175 171 112
170 166 106
174 169 112
177 171 113
176 172 113
172 167 108
171 168 108
172 168 109
169 165 106
173 169 109
168 164 106
171 167 108
171 167 109
175 170 110
171 167 109
173 167 108
171 167 106
161 157 102
161 158 101
167 162 104
170 165 107
171 166 106
167 162 103
162 158 102
168 163 106
164 159 101
168 163 106
167 162 100
163 158 97
167 161 101
162 158 100
157 151 93
159 155 97
155 150 94
166 160 101
158 153 94
165 159 95
167 161 102
162 157 95
169 162 99
164 157 95
152 147 92
158 152 91
162 157 93
152 145 86
146 141 84
155 149 86
150 144 80
151 145 84
141 136 80
154 148 85
161 153 88
146 141 80
140 136 71
148 145 77
144 145 72
148 151 65
155 160 57
157 166 57
156 166 54
151 164 41
164 179 48
160 179 25
170 188 30
169 190 22
172 194 16
173 197 0
173 197 0
173 196 0
173 197 0
175 198 0
173 196 0
171 195 0
173 197 0
172 196 0
175 197 0
172 196 0
174 197 0
173 197 0
172 196 0
174 197 0
174 198 0
173 197 0
169 193 0
174 197 0
171 194 0
175 197 0
173 196 0
175 198 0
173 196 0
172 196 0
174 196 0
171 195 0
174 197 0
174 197 0
173 196 0
176 198 0
173 196 0
174 197 0
172 196 0
172 195 0
174 197 0
172 196 0
172 196 0
174 197 0
172 195 0
171 195 0
173 196 0
171 195 0
173 196 0
172 196 0
174 197 0
174 197 0
172 196 0
173 197 0
172 196 0
170 194 0
171 195 0
174 197 0
172 196 0
173 197 0
173 196 0
174 196 0
173 196 0
174 197 0
174 197 0
171 193 0
170 193 0
172 195 0
174 197 0
172 196 0
173 197 0
175 198 0
174 197 0
171 195 0
172 196 0
172 196 0
172 196 0
175 197 0
173 196 0
172 196 0
174 197 0
173 196 0
172 195 0
173 196 0
172 195 0
173 196 0
174 197 0
173 196 0
169 194 0
171 195 0
173 197 0
174 196 0
173 196 0
173 195 0
172 195 0
174 197 0
170 193 0
174 198 0
173 197 0
171 195 0
170 193 0
173 197 0
172 196 0
171 194 0
173 196 0
170 194 0
174 196 0
174 198 0
173 197 0
173 197 0
173 196 0
173 197 0
175 198 0
173 196 0
171 195 0
173 197 0
174 197 0
173 196 0
173 197 0
169 193 0
173 195 0
171 195 0
172 195 0
172 195 0
173 195 0
173 197 0
174 197 0
174 198 0
172 195 31
162 186 65
142 166 102
124 150 131
87 118 164
68 103 175
63 100 179
62 98 176
62 99 181
62 99 180
62 99 181
62 99 181
61 98 178
62 99 181
62 99 181
61 98 180
62 99 179
61 99 179
62 99 181
62 99 181
62 99 181
62 99 181
62 99 180
62 99 181
61 98 179
62 99 180
61 99 181
62 99 181
61 98 181
62 99 181
62 99 181
62 99 181
61 99 181
62 99 181
62 99 181
62 99 181
61 98 181
61 99 181
61 99 180
61 99 181
61 99 181
61 98 181
62 99 181
61 98 181
62 99 181
61 99 181
61 99 181
62 99 181
62 99 181
61 98 181
62 99 181
61 99 181
62 99 181
62 99 181
61 99 181
62 99 181
61 99 181
61 98 181
61 98 181
61 99 181
61 98 181
62 99 181
61 99 181
61 98 181
62 99 181
61 99 181
62 99 181
62 99 181
62 99 181
62 99 181
61 98 180
61 98 180
62 99 181
62 99 181
62 99 181
62 99 181
62 99 181
61 98 180
61 99 181
61 99 180
62 99 181
62 99 181
61 98 178
62 99 179
62 99 180
62 99 179
62 99 180
62 99 180
62 99 181
62 99 178
61 99 181
61 98 178
62 98 176
62 98 175
62 99 180
61 98 178
61 97 176
62 99 179
62 98 176
61 98 177
62 98 175
62 98 172
65 99 169
88 118 160
113 138 138
132 156 118
152 176 81
165 187 53
170 194 24
169 190 24
171 191 0
164 183 28
165 182 28
164 179 42
164 183 31
156 167 48
159 174 40
155 164 60
154 161 59
149 155 59
143 146 61
151 153 67
139 139 69
139 138 70
138 135 72
138 133 79
145 139 81
142 137 86
159 153 90
135 130 81
133 130 81
139 134 83
140 137 89
146 142 91
138 134 84
144 141 93
138 135 85
139 136 91
143 140 90
143 140 91
132 130 84
142 140 91
149 146 98
138 136 90
152 148 98
143 142 95
146 144 97
152 148 99
144 141 94
150 148 97
143 141 93
154 151 101
156 153 102
139 138 95
153 150 100
149 147 98
150 148 100
154 151 101
150 148 101
153 151 103
153 151 102
162 158 106
155 154 104
146 144 97
154 152 103
165 162 108
162 159 106
157 154 105
159 156 104
158 157 106
166 162 107
156 154 104
162 160 107
160 158 107
165 162 108
164 162 108
157 154 104
166 163 109
164 162 108
162 159 106
167 163 108
163 160 108
169 166 110
166 163 109
168 166 110
171 167 111
169 166 111
171 167 111
170 167 111
171 168 111
171 167 110
170 166 110
170 166 110
172 168 110
170 166 110
172 169 112
169 166 109
169 166 110
173 168 111
172 169 110
174 170 110
174 170 112
171 167 110
175 170 109
175 171 112
173 170 111
174 169 110
174 170 111
172 168 109
171 167 108
175 171 111
169 165 109
172 168 110
171 166 107
171 167 109
170 166 108
173 168 110
174 169 110
171 167 108
172 168 110
170 166 108
174 168 109
174 169 109
169 165 108
168 164 103
176 171 112
171 166 107
172 168 108
166 162 104
166 161 103
165 161 104
169 164 101
166 162 104
165 159 101
161 156 99
169 163 101
167 163 104
168 163 103
164 159 100
164 160 101
157 152 97
159 154 93
166 161 99
160 156 97
161 155 94
167 161 102
167 161 101
160 154 92
162 156 95
159 154 91
161 155 94
160 154 92
153 147 87
150 145 86
154 149 88
154 148 88
155 150 89
155 149 86
150 143 82
152 145 84
158 151 90
145 139 80
153 148 85
155 148 86
143 139 73
149 144 79
145 145 65
143 144 62
147 152 58
158 164 59
155 164 52
159 171 45
160 172 49
162 181 25
168 185 32
169 189 28
169 190 11
175 196 11
175 198 0
175 198 0
172 196 0
174 197 0
174 197 0
174 197 0
175 197 0
174 197 0
172 196 0
172 196 0
173 197 0
173 197 0
174 197 0
175 198 0
174 197 0
172 196 0
172 195 0
174 197 0
172 196 0
174 197 0
175 198 0
175 197 0
173 196 0
172 196 0
173 197 0
172 196 0
173 197 0
171 195 0
172 196 0
174 197 0
175 198 0
174 198 0
173 196 0
172 195 0
175 198 0
173 196 0
172 196 0
175 197 0
175 198 0
174 198 0
174 197 0
174 197 0
171 195 0
170 194 0
174 197 0
168 193 0
172 196 0
172 195 0
170 194 0
175 198 0
173 197 0
173 197 0
173 197 0
174 196 0
173 197 0
174 197 0
172 195 0
170 194 0
175 198 0
173 196 0
173 196 0
173 196 0
173 196 0
174 198 0
174 197 0
172 195 0
173 197 0
173 196 0
173 197 0
172 195 0
171 194 0
171 195 0
173 196 0
174 196 0
174 197 0
174 197 0
173 196 0
171 195 0
172 195 0
172 195 0
173 196 0
171 194 0
173 197 0
171 195 0
175 198 0
172 196 0
172 195 0
173 195 0
173 196 0
173 196 0
172 195 0
172 195 0
172 195 0
173 197 0
173 196 0
174 197 0
170 194 0
174 198 0
172 195 0
173 197 0
174 196 0
173 196 0
173 197 0
172 196 0
172 195 0
172 196 0
174 197 0
173 197 0
173 197 0
172 196 0
174 197 0
171 195 0
173 197 0
171 194 0
173 196 0
172 195 0
172 196 0
171 193 0
173 196 0
173 196 0
172 195 25
172 195 36
151 176 88
128 153 122
101 129 148
73 107 170
63 100 179
61 99 177
63 100 179
63 99 177
62 99 179
62 99 180
62 99 177
62 99 178
61 99 179
62 99 180
62 99 180
62 99 179
62 99 180
61 99 181
62 99 180
62 99 180
62 99 181
62 99 181
62 99 181
62 99 181
62 99 181
62 99 181
62 99 181
61 98 181
61 99 181
62 100 181
62 99 180
62 99 181
62 99 181
62 99 181
62 99 181
61 99 181
62 99 181
61 99 180
61 99 181
61 99 181
62 99 181
61 99 181
62 99 181
62 99 181
62 99 181
61 98 181
62 99 181
61 99 181
61 99 181
62 99 181
61 98 181
61 99 181
61 98 181
61 99 181
62 99 181
62 99 181
62 99 181
61 99 181
62 99 181
62 99 181
62 99 181
62 99 181
61 99 181
61 99 181
61 99 181
62 99 181
61 98 181
61 99 181
62 99 181
61 98 181
61 99 181
62 99 181
62 99 181
62 99 181
61 98 179
62 99 181
61 98 181
62 99 179
61 99 180
62 99 181
61 98 179
61 98 181
62 99 181
61 99 180
61 98 180
61 98 178
62 98 177
62 99 180
61 99 180
61 98 179
62 99 180
61 98 178
62 99 181
61 98 179
61 98 176
62 99 179
60 97 175
61 98 178
61 98 177
62 98 177
62 99 180
62 99 177
61 98 177
61 96 173
72 105 164
109 136 148
115 142 139
144 168 97
159 182 70
163 184 37
164 181 41
157 177 28
165 183 28
159 175 31
157 173 31
156 168 44
147 156 51
156 165 56
148 152 62
131 137 53
152 157 61
141 141 66
143 141 72
140 136 72
145 140 77
141 138 82
139 134 79
142 138 79
144 140 85
147 141 84
142 139 86
139 134 80
133 130 83
148 143 89
142 138 87
128 127 79
138 135 89
141 138 92
147 145 95
129 127 83
145 142 94
138 135 90
146 143 94
145 143 93
142 138 93
140 138 92
145 143 94
134 133 90
138 137 94
150 147 98
144 143 97
144 142 96
148 146 97
153 151 100
152 149 100
140 140 95
147 145 100
155 153 104
145 144 97
140 139 95
155 153 102
143 142 96
157 154 104
156 152 102
157 155 105
158 155 102
164 160 107
157 154 103
158 155 103
161 159 108
165 161 108
160 158 106
168 165 109
164 160 106
167 162 107
161 159 107
159 157 105
166 163 109
165 162 108
169 165 110
167 163 108
168 165 109
168 165 108
163 160 107
173 169 113
162 159 105
171 168 111
169 166 109
172 169 112
172 168 111
170 166 111
171 167 111
174 170 113
171 168 112
173 169 111
174 170 112
169 166 110
173 169 110
173 168 110
174 169 109
176 172 113
173 169 111
170 167 107
175 171 112
173 168 109
175 171 113
173 169 110
172 168 110
173 169 110
169 165 108
174 170 111
175 170 110
173 169 109
175 170 110
172 169 109
174 170 111
168 164 108
170 167 110
167 163 106
172 168 110
175 170 110
167 163 104
169 166 107
173 169 109
170 166 108
171 167 109
168 164 106
166 163 106
172 167 106
169 164 106
167 164 107
170 164 108
171 167 108
164 159 101
173 167 109
166 161 99
161 156 101
166 161 101
170 165 104
166 162 103
166 161 97
161 156 97
166 160 101
162 156 98
165 159 99
160 155 94
160 156 100
163 156 97
163 157 95
167 162 99
157 152 93
167 160 101
160 155 97
162 157 89
154 149 87
152 146 89
155 148 90
159 152 92
148 144 82
148 142 80
158 151 89
152 146 86
151 144 80
143 137 73
142 137 78
136 132 66
149 145 75
150 150 70
150 154 66
153 159 54
154 160 60
154 164 44
165 181 37
159 174 41
169 188 30
168 188 28
169 189 19
167 190 11
174 196 0
174 196 0
174 197 0
174 197 0
174 198 0
172 196 0
174 197 0
174 197 0
174 198 0
173 197 0
171 194 0
174 198 0
174 196 0
174 197 0
174 197 0
175 198 0
176 199 0
173 197 0
174 197 0
173 196 0
172 196 0
172 196 0
173 196 0
173 197 0
174 198 0
175 198 0
175 197 0
172 196 0
173 196 0
172 196 0
173 197 0
175 198 0
174 198 0
172 195 0
175 198 0
172 195 0
175 198 0
171 194 0
172 195 0
173 197 0
173 197 0
174 198 0
172 195 0
171 195 0
173 196 0
172 195 0
172 196 0
172 195 0
173 195 0
174 197 0
173 197 0
173 197 0
171 195 0
174 197 0
174 197 0
174 197 0
171 195 0
173 196 0
173 196 0
173 195 0
174 197 0
173 197 0
174 198 0
172 196 0
174 197 0
174 197 0
174 198 0
175 198 0
172 196 0
172 196 0
174 198 0
173 196 0
173 196 0
173 195 0
171 194 0
175 198 0
174 197 0
172 196 0
173 196 0
174 197 0
174 197 0
173 197 0
170 193 0
172 195 0
174 197 0
173 196 0
174 197 0
173 197 0
170 194 0
175 198 0
174 197 0
174 196 0
173 197 0
173 196 0
171 195 0
174 196 0
173 196 0
172 195 0
172 196 0
172 196 0
171 194 0
173 196 0
172 196 0
172 195 0
172 195 0
173 197 0
172 196 0
173 196 0
169 193 0
173 196 0
173 197 0
173 196 0
173 196 0
170 194 0
172 196 0
172 195 0
173 196 0
174 197 0
171 194 0
169 193 0
162 185 57
147 171 95
118 144 135
90 120 161
64 100 178
62 99 181
63 100 180
63 99 177
62 99 177
62 99 177
62 99 179
62 99 178
62 99 181
62 99 178
61 99 177
62 99 179
62 99 178
62 99 180
62 99 181
61 98 180
61 99 179
62 99 179
61 98 180
62 99 181
62 99 180
62 99 180
62 99 181
61 99 181
62 99 181
62 99 181
61 99 181
61 99 181
62 99 181
62 99 181
62 99 181
62 99 181
61 99 181
61 99 181
62 99 181
61 98 181
62 99 181
62 99 181
62 99 181
62 99 181
61 98 180
62 99 181
61 99 181
61 98 181
61 99 181
61 98 181
62 99 181
62 99 181
61 99 181
62 99 181
62 99 181
61 99 181
61 98 181
61 99 181
61 99 181
62 99 181
61 99 181
62 99 181
61 98 181
62 99 181
62 99 181
61 99 181
62 99 181
61 99 181
62 99 181
61 98 181
62 99 181
61 99 181
62 99 181
61 99 181
62 99 181
61 98 179
61 98 181
61 99 181
61 98 178
61 98 180
61 98 178
61 98 176
62 99 181
62 99 178
62 99 181
62 99 181
62 99 180
61 98 179
62 99 179
61 98 178
61 98 178
62 99 180
61 98 176
62 99 180
61 98 175
61 99 180
62 99 180
62 99 180
61 98 176
62 99 179
61 98 176
61 98 178
61 98 178
60 96 173
62 98 176
61 98 176
62 99 177
61 98 174
92 121 155
109 136 143
138 160 101
157 178 75
161 182 45
165 184 29
168 184 37
159 175 39
159 173 43
158 171 38
154 162 54
151 161 47
153 161 59
142 147 52
134 137 58
145 145 69
127 126 66
146 144 76
138 135 77
142 137 82
143 138 81
145 141 82
133 130 76
132 129 77
135 131 82
119 118 76
130 128 80
138 135 85
128 127 81
144 140 88
136 133 88
130 128 83
143 140 89
142 141 94
150 146 95
142 140 93
129 129 88
144 142 92
143 141 94
139 138 94
146 143 96
143 141 95
144 141 93
145 143 96
151 149 100
149 147 99
150 147 99
154 151 101
147 146 98
149 148 101
148 147 102
141 140 97
154 153 104
151 150 101
151 149 100
151 150 102
155 153 102
158 155 104
155 153 104
157 156 106
158 156 105
162 160 107
156 154 104
160 157 105
162 159 107
156 155 104
163 161 107
163 160 108
167 164 110
167 164 110
167 164 109
159 156 103
167 163 108
165 161 107
163 161 106
166 164 109
171 166 108
169 165 108
168 165 109
165 163 108
173 168 111
172 168 110
168 165 111
169 165 109
168 165 110
173 169 112
174 169 111
173 169 110
175 171 113
173 169 111
171 167 110
169 166 110
175 171 113
174 169 110
176 172 113
171 167 110
175 170 112
173 170 112
172 168 109
175 170 110
170 167 108
176 172 111
171 167 108
174 170 109
173 170 112
172 168 110
173 169 109
172 168 107
173 169 108
170 166 108
173 169 110
171 168 109
173 168 109
169 166 109
173 169 110
172 168 106
170 167 108
171 167 107
168 163 103
172 168 109
171 166 108
173 168 109
175 170 109
172 166 106
169 164 105
171 166 106
169 165 106
167 164 101
167 162 101
167 162 101
169 163 100
170 164 106
159 153 97
169 164 103
173 167 106
163 159 99
164 158 99
161 157 97
162 156 99
159 153 92
169 163 103
168 162 102
158 152 93
159 153 92
158 152 89
157 152 89
157 151 93
161 156 95
165 159 95
159 153 90
157 152 91
155 150 86
158 151 92
155 150 89
152 145 84
144 139 76
150 144 83
148 142 73
153 147 80
158 153 77
151 148 74
135 134 64
153 158 62
152 158 52
156 165 54
155 164 54
155 168 42
164 180 32
167 185 32
166 186 22
171 193 19
170 192 11
173 196 0
173 196 0
173 196 0
171 195 0
174 197 0
173 196 0
172 196 0
174 198 0
173 196 0
175 198 0
174 198 0
173 196 0
175 198 0
172 196 0
174 196 0
174 197 0
172 195 0
174 198 0
174 197 0
171 194 0
174 197 0
176 198 0
172 195 0
172 196 0
172 196 0
174 197 0
174 197 0
175 198 0
175 197 0
173 196 0
174 197 0
172 196 0
174 197 0
174 198 0
173 196 0
170 195 0
173 196 0
175 198 0
174 197 0
171 195 0
172 195 0
173 196 0
173 197 0
172 196 0
172 196 0
172 195 0
175 198 0
174 197 0
173 196 0
176 198 0
173 196 0
174 197 0
174 198 0
174 197 0
174 197 0
173 196 0
173 196 0
173 196 0
173 195 0
173 196 0
172 195 0
174 198 0
172 195 0
173 196 0
171 195 0
172 196 0
174 197 0
173 196 0
171 195 0
172 196 0
173 197 0
174 198 0
174 196 0
173 196 0
172 196 0
173 196 0
172 195 0
172 196 0
173 196 0
171 195 0
173 197 0
175 198 0
172 196 0
173 196 0
174 197 0
171 194 0
175 198 0
171 195 0
175 198 0
174 197 0
172 195 0
174 197 0
174 198 0
170 193 0
172 195 0
171 194 0
168 191 0
171 194 0
173 197 0
174 197 0
171 195 0
172 195 0
173 195 0
172 195 0
170 194 0
173 196 0
170 194 0
171 195 0
173 196 0
172 195 0
172 195 0
173 196 0
172 195 0
171 194 0
172 195 0
174 197 0
172 195 0
171 194 0
167 191 40
157 181 80
139 164 100
128 153 122
76 109 168
61 98 173
62 99 177
61 98 178
62 99 176
62 99 175
62 99 176
62 99 181
62 99 180
62 99 177
62 99 179
62 99 181
61 99 180
62 99 180
61 99 180
61 98 180
62 99 178
62 99 180
61 99 181
62 99 181
62 99 181
62 99 179
62 99 181
62 99 181
62 99 181
62 99 180
62 99 181
61 99 180
61 99 181
61 99 181
62 99 181
62 99 181
61 99 181
62 99 181
61 99 180
62 99 181
62 99 181
61 99 181
62 99 181
61 99 181
61 99 181
62 99 181
62 99 181
61 99 181
62 99 181
61 99 181
61 99 181
62 99 181
61 98 181
61 99 181
62 99 181
62 99 181
62 99 181
62 99 181
61 99 181
61 99 181
62 99 181
61 98 181
62 99 181
61 99 181
62 99 181
61 98 181
61 98 181
62 99 181
62 99 181
61 99 181
61 99 181
62 99 181
61 99 181
61 99 180
61 98 180
61 99 181
61 98 180
62 99 181
61 98 180
62 99 180
61 99 181
62 99 180
62 99 179
62 99 180
62 99 181
61 99 181
61 99 179
62 99 181
62 99 181
61 98 179
61 99 181
62 99 179
61 99 180
62 99 180
62 99 179
62 99 180
62 99 180
62 99 178
62 99 179
61 98 178
61 98 177
61 98 176
61 98 177
62 98 177
62 99 176
62 98 176
61 98 176
62 98 173
61 98 176
61 98 176
66 101 174
71 105 173
106 132 146
125 147 112
142 164 89
152 172 63
165 180 46
156 172 32
157 170 42
147 159 39
151 159 53
148 158 51
143 150 56
141 146 58
138 139 61
133 133 61
134 134 65
138 134 74
135 130 76
139 135 81
136 131 78
132 128 74
144 140 84
146 143 89
138 134 80
150 146 91
138 135 84
136 134 88
133 130 79
137 134 87
121 120 77
146 142 92
136 133 88
138 136 90
132 130 87
142 139 92
128 128 87
131 130 87
142 139 94
147 145 97
149 148 97
139 137 93
138 136 93
150 147 99
147 145 96
144 142 95
132 132 92
151 149 100
145 142 96
154 151 102
151 149 101
150 148 100
151 150 102
154 152 102
154 152 103
151 149 100
156 153 103
152 150 102
157 154 103
151 149 100
164 160 106
157 155 103
156 154 105
159 157 106
165 162 108
158 156 105
166 162 107
162 159 106
163 161 108
170 166 110
157 155 104
167 163 108
168 165 109
163 159 106
164 161 104
167 165 109
167 165 109
166 162 107
160 157 106
170 167 108
169 166 109
173 168 111
173 168 111
167 164 108
172 168 111
173 169 112
171 167 109
174 170 110
171 167 109
172 168 111
174 169 110
172 168 109
173 169 110
175 170 112
171 167 109
171 168 108
175 171 112
170 166 108
171 167 109
172 168 110
171 168 109
172 167 106
170 167 110
171 167 108
174 170 110
173 168 109
173 170 111
172 168 109
176 171 113
173 168 110
172 167 109
172 168 108
176 170 109
172 168 109
172 168 109
171 167 106
167 163 103
171 166 106
166 161 101
174 169 108
166 161 102
168 163 105
170 166 107
165 160 103
170 165 107
165 161 104
170 165 104
167 162 100
164 160 100
165 160 98
164 158 98
158 153 97
170 165 103
167 162 102
163 159 95
164 158 101
163 157 99
168 162 101
161 156 98
164 158 99
168 163 101
166 160 99
165 159 95
163 158 95
162 156 93
156 151 93
165 159 97
161 155 87
164 158 95
155 150 90
155 149 88
165 158 94
157 152 90
157 151 89
144 139 82
152 146 80
149 143 79
154 148 84
142 136 79
142 137 72
144 141 71
152 151 68
146 148 62
142 144 60
163 170 61
157 166 48
161 173 48
163 180 34
159 176 36
167 186 25
172 192 22
171 193 0
174 197 16
173 196 0
172 195 0
172 196 0
173 197 0
173 196 0
173 197 0
173 197 0
175 198 0
174 198 0
176 199 0
176 198 0
173 197 0
173 196 0
175 198 0
171 195 0
172 195 0
174 197 0
173 196 0
170 194 0
170 194 0
175 198 0
173 196 0
171 195 0
173 197 0
173 197 0
170 194 0
174 197 0
172 197 0
172 195 0
172 196 0
173 196 0
174 198 0
174 197 0
174 198 0
174 197 0
171 195 0
174 197 0
172 196 0
170 194 0
173 197 0
173 196 0
173 196 0
173 196 0
171 195 0
172 195 0
173 197 0
169 193 0
175 198 0
174 197 0
172 196 0
172 196 0
174 197 0
173 196 0
172 196 0
172 195 0
171 195 0
173 197 0
175 198 0
173 196 0
174 197 0
173 197 0
170 194 0
173 196 0
170 193 0
171 194 0
174 197 0
172 196 0
172 196 0
173 197 0
170 194 0
173 197 0
172 196 0
172 195 0
171 194 0
173 196 0
174 197 0
173 196 0
173 197 0
171 195 0
174 197 0
172 195 0
172 195 0
173 196 0
174 197 0
172 195 0
172 195 0
172 196 0
172 196 0
175 198 0
172 195 0
174 196 0
172 195 0
173 196 0
173 196 0
172 195 0
173 197 0
171 194 0
173 197 0
173 196 0
174 198 0
174 197 0
172 195 0
174 197 0
172 196 0
169 192 0
173 196 0
170 193 0
173 195 0
173 195 0
171 195 0
171 195 0
174 197 0
171 195 0
172 195 0
170 194 0
167 190 0
165 188 51
147 171 94
133 159 118
102 130 152
72 106 173
62 99 176
62 99 177
62 99 176
62 99 178
62 99 173
62 99 177
62 99 181
62 99 179
61 98 179
62 99 179
62 99 180
62 99 179
62 99 179
62 99 180
61 98 178
62 99 181
62 99 181
61 99 181
61 99 179
61 99 180
61 98 179
62 99 180
61 99 180
62 99 180
62 99 181
62 99 181
62 99 181
61 99 181
62 99 180
62 99 181
62 99 181
62 99 180
61 99 181
62 99 181
62 99 180
61 99 181
61 99 181
61 99 181
62 99 181
62 99 181
62 99 181
62 99 181
61 99 181
61 99 181
61 98 181
61 99 181
62 99 181
61 99 181
61 99 181
62 99 181
61 99 181
61 99 181
62 99 181
61 99 181
62 99 181
62 99 181
62 99 181
61 98 181
62 99 181
62 99 181
62 99 181
61 99 180
61 99 181
62 99 181
61 99 181
62 99 181
61 99 181
61 99 181
61 98 181
62 99 180
62 99 181
62 99 181
62 99 181
61 98 181
61 99 181
62 99 181
62 99 180
62 99 181
62 99 179
61 99 181
62 99 180
62 99 180
61 99 180
62 99 179
61 98 180
61 98 179
62 99 180
61 98 176
61 98 179
62 99 180
62 99 179
61 98 180
62 99 180
62 99 178
61 98 178
61 98 177
62 99 179
62 98 176
62 98 176
62 99 177
62 98 178
61 98 177
62 98 178
61 98 178
60 96 170
62 99 178
61 97 174
61 97 174
77 109 164
100 127 151
115 136 125
133 149 92
147 163 66
155 170 41
156 169 47
162 176 44
155 165 50
146 155 48
149 156 58
137 144 56
145 147 61
139 138 71
140 138 73
144 139 77
139 134 73
141 136 80
145 140 82
125 123 71
125 122 78
123 122 74
132 129 80
133 130 83
140 136 85
135 132 80
121 119 80
134 133 86
142 139 88
130 129 87
141 138 90
123 123 81
133 130 86
147 144 93
129 128 83
132 131 89
140 138 92
142 140 94
140 139 94
139 138 91
136 135 95
143 142 96
139 138 94
146 145 95
147 145 99
141 141 95
145 142 97
156 153 103
147 145 99
147 145 98
154 153 104
154 152 103
153 150 101
155 154 104
151 149 101
161 158 106
155 153 104
158 156 105
149 148 101
161 159 105
157 154 103
160 157 104
157 155 103
160 157 104
158 156 103
161 157 104
159 157 107
158 157 104
167 163 109
165 161 106
164 161 105
166 163 108
163 161 109
167 163 108
167 164 110
172 168 111
167 164 105
171 167 112
170 166 110
165 162 107
168 165 109
170 167 109
172 168 109
171 168 109
173 169 111
170 167 109
170 165 109
172 169 110
172 168 110
169 167 110
172 167 108
173 168 109
170 167 110
173 169 110
177 171 111
175 170 110
176 171 111
175 170 112
173 169 110
175 170 110
169 165 108
171 167 109
172 168 108
173 169 109
171 167 107
174 170 112
170 166 109
170 166 108
170 166 108
170 166 107
171 167 108
174 170 109
176 171 110
174 168 107
173 168 108
171 166 106
174 169 109
174 169 105
175 169 108
170 166 106
172 167 109
167 162 104
168 164 104
169 164 104
169 164 103
167 162 100
172 166 101
167 162 99
170 164 103
164 160 102
162 158 98
166 161 101
162 157 95
164 159 100
171 165 104
162 157 100
162 157 97
166 161 99
173 167 104
163 157 96
164 158 95
160 155 95
168 161 98
162 156 94
164 158 96
157 151 90
163 157 88
151 145 86
151 146 86
155 149 84
159 153 89
157 151 85
152 146 86
142 137 75
158 152 84
137 132 74
140 134 74
152 147 79
148 143 78
160 158 75
146 147 66
144 150 54
153 161 53
161 171 54
158 169 52
163 176 45
161 179 28
164 182 32
167 188 16
170 191 25
170 193 0
174 197 0
173 197 0
175 198 0
171 195 0
173 196 0
174 198 0
175 198 0
176 199 0
173 197 0
175 198 0
171 195 0
173 196 0
173 196 0
174 197 0
174 197 0
172 196 0
172 196 0
173 197 0
173 196 0
173 196 0
175 198 0
174 197 0
175 198 0
174 197 0
172 196 0
171 194 0
174 198 0
173 197 0
169 193 0
174 197 0
173 196 0
173 197 0
172 195 0
174 197 0
175 197 0
172 195 0
174 197 0
173 197 0
173 197 0
174 197 0
171 195 0
172 195 0
175 197 0
173 196 0
172 196 0
172 196 0
174 197 0
174 198 0
174 197 0
173 197 0
174 197 0
172 195 0
174 197 0
173 196 0
173 197 0
171 195 0
173 197 0
173 196 0
171 194 0
173 197 0
171 194 0
173 197 0
171 194 0
174 197 0
172 195 0
174 197 0
173 196 0
173 197 0
173 197 0
173 196 0
172 196 0
172 196 0
172 196 0
175 198 0
174 197 0
173 196 0
169 194 0
170 194 0
173 196 0
173 197 0
172 195 0
172 196 0
172 195 0
173 196 0
172 196 0
174 197 0
174 197 0
170 193 0
172 195 0
171 195 0
171 195 0
173 196 0
174 196 0
173 197 0
175 198 0
172 195 0
169 193 0
173 196 0
171 195 0
171 194 0
173 196 0
172 196 0
173 196 0
173 196 0
171 194 0
171 194 0
174 197 0
169 193 0
173 196 0
171 195 0
171 194 0
174 197 0
172 195 0
173 197 0
174 197 0
162 186 60
158 182 74
131 157 122
90 120 156
65 101 172
62 99 176
62 99 180
62 99 180
62 99 178
62 99 178
62 99 177
62 99 181
62 99 179
62 99 179
62 99 179
62 99 177
62 99 175
62 99 180
62 99 180
61 98 179
62 99 180
62 99 181
61 99 181
61 99 181
62 99 180
62 99 181
62 99 181
62 99 181
62 99 180
62 99 180
62 99 181
61 99 181
62 99 181
62 99 181
62 99 181
62 99 180
61 99 180
61 99 181
62 99 180
61 99 181
61 99 181
62 99 181
61 99 181
62 99 181
62 99 181
61 99 181
61 99 181
62 99 181
62 99 181
61 99 181
61 99 181
62 99 181
61 99 181
62 99 181
61 99 181
61 98 181
62 99 181
61 98 181
61 99 181
62 99 181
61 99 181
61 98 181
61 98 180
61 99 181
62 99 181
61 99 181
61 99 181
61 98 181
61 99 181
61 99 181
61 99 181
62 99 181
62 99 181
62 99 181
62 99 179
61 99 181
61 99 178
63 100 181
62 99 180
61 99 181
62 99 181
62 99 181
62 99 181
62 99 181
62 99 180
61 98 180
62 99 181
62 99 181
62 99 178
62 99 181
62 99 180
62 99 178
61 99 180
62 99 180
62 99 181
62 99 178
62 99 178
61 98 178
61 98 179
62 99 180
61 98 179
62 99 179
62 99 178
62 99 178
61 98 178
62 99 181
62 98 178
62 98 176
62 99 180
61 98 177
62 99 177
61 97 174
62 99 179
61 97 175
61 96 171
66 100 170
87 114 150
116 137 129
127 144 110
139 157 91
146 159 69
158 172 51
144 152 48
148 157 52
143 149 56
141 147 60
141 140 71
146 146 72
121 118 62
135 132 70
135 133 76
134 130 74
127 126 74
135 132 79
134 131 81
127 124 82
134 131 78
138 134 80
134 133 82
139 136 89
136 133 84
135 132 84
128 127 79
139 136 87
141 138 89
132 131 88
138 136 91
137 135 90
146 144 95
134 133 88
133 131 89
127 126 84
137 137 93
148 146 98
149 147 100
142 140 95
141 140 96
151 149 99
141 141 97
149 147 99
145 144 98
153 151 102
137 137 95
143 142 95
139 137 92
156 153 101
156 153 102
152 150 101
157 155 104
146 145 101
156 154 105
155 153 104
155 153 101
155 153 103
161 159 107
161 158 105
159 156 104
151 149 100
158 157 104
162 159 106
161 158 105
152 151 101
159 157 106
165 162 109
165 162 108
165 161 107
162 160 106
170 167 108
164 161 109
167 164 109
166 163 108
168 164 109
168 164 108
171 167 110
173 169 109
167 164 108
170 167 109
172 168 110
174 169 111
172 169 110
171 167 109
168 164 108
169 165 109
173 169 109
173 169 110
172 169 111
178 172 112
172 167 109
173 168 108
174 170 110
174 170 110
177 172 113
174 170 110
176 171 112
176 171 112
169 165 104
175 170 109
175 170 109
173 169 109
175 171 110
174 169 110
173 168 108
169 165 106
170 167 109
170 165 106
171 167 106
172 167 107
175 170 109
168 164 104
173 167 107
174 169 108
168 163 104
170 166 108
172 167 106
169 164 104
170 164 105
171 165 106
169 163 99
167 163 103
163 158 100
172 167 106
168 163 100
169 164 102
171 164 101
157 153 95
163 158 94
167 162 97
169 163 103
169 163 103
164 158 98
159 155 92
160 155 96
167 160 98
160 155 95
162 156 95
154 148 87
164 160 98
160 155 96
162 156 93
161 156 95
161 155 90
160 155 90
145 140 81
152 146 85
152 147 85
147 142 84
147 141 80
148 142 77
142 137 75
147 141 80
141 136 74
147 141 73
135 135 69
138 136 70
141 142 64
155 157 68
149 158 52
148 156 51
151 160 51
162 178 36
164 182 32
165 181 39
166 188 19
170 191 11
172 194 16
175 196 0
174 197 0
173 197 0
173 197 0
174 198 0
172 195 0
174 197 0
173 197 0
173 196 0
173 196 0
174 197 0
174 197 0
176 199 0
173 197 0
172 195 0
175 198 0
174 197 0
173 196 0
174 197 0
173 197 0
175 198 0
172 196 0
174 197 0
174 197 0
174 198 0
171 195 0
172 195 0
174 197 0
171 194 0
173 197 0
175 198 0
171 195 0
173 197 0
175 198 0
170 194 0
174 196 0
174 197 0
173 197 0
174 196 0
173 196 0
173 197 0
173 197 0
172 196 0
174 197 0
171 195 0
174 198 0
174 197 0
172 195 0
171 194 0
173 196 0
172 195 0
173 196 0
175 198 0
173 196 0
174 198 0
173 197 0
172 195 0
171 195 0
172 195 0
173 197 0
172 196 0
171 195 0
172 195 0
173 196 0
173 197 0
173 196 0
173 197 0
171 195 0
172 196 0
173 197 0
173 196 0
171 193 0
174 197 0
172 196 0
174 197 0
175 198 0
173 196 0
174 197 0
171 194 0
171 195 0
169 193 0
173 195 0
173 196 0
173 196 0
173 197 0
174 197 0
172 196 0
169 192 0
171 195 0
173 196 0
173 197 0
173 196 0
172 196 0
173 196 0
169 193 0
172 195 0
170 194 0
171 194 0
177 199 0
174 197 0
169 193 0
173 196 0
172 196 0
172 195 0
171 194 0
172 195 0
173 197 0
171 195 0
174 197 0
174 197 0
175 198 0
173 196 0
170 192 0
172 196 18
166 189 44
154 179 78
128 154 128
89 119 163
62 99 178
62 99 175
62 99 178
62 99 174
62 99 178
62 99 175
63 100 179
62 99 178
61 98 177
62 99 178
61 98 179
62 99 178
62 99 178
62 99 181
61 98 179
62 99 179
62 99 180
62 99 180
62 99 179
63 99 179
62 99 181
62 99 180
62 99 181
62 99 181
61 99 180
62 99 181
62 99 181
62 99 181
62 99 180
62 99 181
61 98 181
61 98 180
62 99 181
62 99 181
62 99 180
61 99 181
62 99 181
62 99 181
61 99 181
61 99 181
62 99 181
61 99 181
62 99 181
62 99 181
62 99 181
62 99 181
62 99 181
61 98 180
62 99 181
62 99 181
61 98 181
61 99 181
61 98 181
62 99 181
62 99 181
62 99 181
62 99 181
62 99 180
62 99 181
61 99 181
62 99 181
62 99 181
62 99 181
61 98 181
61 99 181
61 99 181
62 99 181
61 98 181
61 99 181
62 99 181
62 99 180
61 99 181
62 99 180
62 99 181
62 99 181
61 99 181
62 99 181
62 99 179
61 99 180
62 99 181
62 99 181
62 99 179
62 99 181
61 98 180
62 99 181
62 99 181
62 99 180
62 99 180
61 99 180
62 99 179
62 99 180
62 99 177
62 99 179
61 99 178
62 99 180
62 99 181
62 99 180
62 99 180
61 98 176
62 99 179
61 98 179
62 99 179
62 98 177
62 99 180
62 99 178
62 99 179
61 97 175
62 99 176
61 98 176
61 97 175
62 98 173
60 96 173
61 96 169
61 97 173
83 110 159
92 116 149
133 147 108
140 154 85
148 157 71
147 154 57
145 150 58
142 148 54
144 149 63
140 140 71
145 145 69
142 139 75
126 123 73
146 141 87
145 141 86
125 122 75
132 128 75
130 128 78
132 128 79
135 132 83
133 130 82
124 122 77
131 127 75
136 133 83
140 137 89
125 125 81
130 129 82
125 124 85
133 132 88
130 130 85
122 121 83
131 129 86
133 132 90
134 132 88
144 143 94
135 134 91
139 138 95
138 137 92
139 138 93
137 135 92
152 149 100
147 145 99
144 142 97
148 146 99
139 138 95
145 144 99
147 145 100
140 140 96
144 142 97
152 151 103
147 146 100
149 147 99
161 158 105
155 153 104
156 154 103
153 151 101
157 155 103
151 149 103
144 143 98
165 161 106
163 160 107
162 159 105
161 158 106
156 153 102
158 156 105
164 160 108
165 162 106
161 159 106
166 163 109
162 160 105
168 164 108
165 162 106
164 162 109
167 164 109
168 166 108
165 162 107
167 164 108
170 167 111
166 163 107
171 167 110
170 166 110
171 167 107
174 169 111
172 168 109
173 169 109
172 168 110
174 170 109
174 169 110
173 168 110
176 171 111
175 170 112
173 168 110
175 170 110
172 168 110
176 171 110
170 165 107
171 167 106
171 167 108
173 169 110
173 169 111
176 171 110
171 167 109
176 170 109
173 168 108
171 167 108
175 170 110
173 168 108
173 169 108
175 171 111
169 165 104
166 162 103
171 167 106
168 164 104
168 163 103
171 165 106
176 171 108
170 166 104
171 165 104
176 170 107
172 167 108
174 168 107
173 167 106
170 165 104
168 162 102
166 161 104
164 159 99
172 166 101
166 162 103
157 150 91
167 161 97
161 157 97
163 158 95
169 163 101
166 160 96
160 155 91
168 162 100
158 153 93
159 154 93
169 162 99
165 158 98
161 155 94
152 148 90
154 147 84
164 158 90
153 148 87
158 151 93
155 149 87
158 152 89
156 149 81
157 152 89
144 138 71
154 147 88
145 139 79
153 146 83
142 138 78
151 148 77
155 151 75
151 151 72
148 150 64
159 167 57
160 168 57
151 159 56
165 177 53
161 174 47
169 186 34
163 181 28
166 185 25
167 189 0
173 196 0
173 197 0
174 197 0
173 197 0
176 198 0
171 196 0
170 194 0
173 196 0
172 195 0
172 195 0
176 198 0
172 196 0
175 198 0
175 198 0
172 195 0
174 197 0
173 197 0
174 197 0
171 194 0
174 197 0
172 196 0
174 197 0
173 197 0
173 197 0
174 197 0
172 197 0
172 196 0
172 196 0
172 196 0
174 197 0
173 197 0
174 197 0
171 195 0
172 195 0
173 197 0
174 198 0
173 196 0
172 196 0
172 196 0
175 197 0
173 197 0
172 195 0
174 197 0
172 196 0
174 197 0
173 196 0
172 195 0
174 198 0
173 196 0
172 195 0
173 197 0
174 197 0
173 196 0
173 197 0
173 197 0
174 196 0
173 196 0
174 197 0
174 197 0
174 197 0
172 195 0
173 197 0
173 195 0
171 195 0
173 196 0
174 197 0
173 196 0
175 198 0
172 195 0
171 194 0
174 197 0
172 195 0
171 195 0
173 196 0
175 198 0
171 194 0
174 196 0
175 198 0
174 197 0
171 194 0
172 195 0
172 195 0
173 196 0
176 198 0
173 197 0
172 196 0
173 197 0
172 195 0
173 196 0
170 193 0
169 192 0
169 193 0
172 195 0
172 196 0
169 193 0
174 196 0
174 196 0
172 194 0
174 196 0
170 193 0
173 195 0
169 192 0
170 194 0
170 194 0
175 198 0
173 197 0
171 194 0
171 194 0
172 196 0
173 196 0
170 194 0
171 194 0
171 195 0
159 183 60
145 169 103
113 139 137
82 114 159
62 99 175
62 99 175
61 98 172
62 99 176
62 99 176
62 99 177
62 99 178
63 100 180
63 100 181
62 99 177
61 98 178
62 99 178
62 99 178
62 99 179
62 99 178
62 99 178
61 99 179
61 98 177
62 99 180
62 99 179
63 100 180
61 99 180
62 99 181
62 99 179
62 99 181
61 99 181
62 99 181
62 99 180
62 99 181
62 99 181
62 99 180
61 99 181
62 99 181
62 99 181
61 98 180
62 99 181
62 99 181
61 99 180
62 99 181
62 99 181
61 99 181
62 99 180
62 99 181
62 99 181
61 98 181
61 99 181
62 99 181
61 99 181
62 99 181
61 99 181
62 99 181
62 99 181
62 99 181
61 99 181
61 99 181
62 99 181
62 99 181
62 99 180
61 99 181
61 99 181
61 99 181
61 99 181
61 99 181
62 99 181
61 99 181
62 99 181
62 99 181
61 99 181
62 99 181
61 99 181
62 99 181
61 99 180
61 99 180
62 99 181
62 99 181
62 99 181
61 98 181
62 99 181
61 98 178
62 99 181
62 99 180
62 99 180
62 99 180
62 99 180
62 99 180
61 98 180
62 99 181
61 99 179
62 99 181
62 99 179
62 99 181
61 99 180
61 98 178
62 99 179
62 99 180
61 99 180
62 99 179
61 98 178
62 99 178
62 99 179
61 98 176
62 99 178
62 99 177
62 99 178
62 99 180
62 99 175
61 97 174
62 98 174
62 98 175
61 98 175
61 98 175
61 98 175
61 97 170
61 98 175
61 98 172
63 98 171
79 106 157
101 125 149
114 127 117
135 144 90
138 148 64
146 152 62
145 147 63
135 139 60
137 138 62
138 139 65
136 133 72
128 125 74
141 137 82
123 120 71
137 133 78
136 131 76
135 132 77
113 112 69
131 129 81
135 132 83
136 134 84
145 141 88
132 129 85
127 126 79
130 128 85
134 134 91
138 135 88
136 133 90
132 131 88
143 140 93
139 138 92
124 122 85
137 136 92
137 135 90
135 134 91
137 136 93
130 129 88
147 145 97
138 137 92
151 148 99
141 140 97
150 148 98
147 146 99
152 149 100
136 135 93
150 148 100
148 146 100
151 150 101
142 142 98
150 148 100
151 148 99
146 146 100
149 148 101
143 142 98
158 156 105
155 152 102
159 156 104
151 150 102
158 156 104
158 155 102
156 154 103
159 157 104
161 158 104
167 164 109
167 164 108
161 159 105
167 163 108
161 158 106
167 163 107
167 164 109
167 164 108
169 165 108
170 168 111
165 162 108
167 164 108
169 165 105
172 168 109
171 167 106
168 165 108
168 164 108
169 165 108
167 164 109
175 170 110
173 169 110
172 168 109
170 166 106
175 171 110
174 169 110
173 169 111
174 169 110
168 164 106
174 170 107
173 169 108
172 168 109
174 169 108
176 171 110
173 168 108
174 169 109
173 170 110
175 170 108
176 170 108
173 168 108
170 167 108
173 168 106
173 167 104
176 171 110
169 164 103
173 168 108
172 168 106
173 167 106
175 169 106
170 166 107
170 166 104
168 163 103
171 166 105
167 163 103
171 166 106
172 165 101
170 165 103
171 166 105
164 159 99
170 164 102
167 161 100
167 162 97
168 163 103
174 167 104
167 161 101
166 160 100
168 162 101
161 156 97
163 158 99
163 157 95
164 158 97
162 156 96
163 158 93
163 158 99
155 150 90
166 160 98
165 158 93
164 158 93
165 158 98
154 148 87
158 153 88
166 159 95
157 152 89
148 143 79
161 154 90
157 150 90
148 143 80
152 145 80
154 148 81
145 139 78
157 151 80
147 142 74
151 145 79
151 147 77
150 147 75
154 156 63
145 150 52
154 160 54
151 161 41
159 174 42
163 177 44
161 175 41
165 184 19
172 193 19
173 194 16
174 197 11
174 197 0
175 198 0
172 196 0
175 198 0
173 196 0
173 197 0
176 198 0
175 198 0
174 198 0
175 198 0
174 197 0
175 198 0
174 197 0
174 197 0
173 196 0
172 195 0
170 194 0
175 198 0
172 196 0
174 198 0
173 196 0
173 197 0
173 196 0
173 196 0
174 197 0
174 197 0
173 196 0
170 194 0
171 195 0
174 197 0
170 194 0
171 195 0
172 195 0
174 197 0
171 195 0
174 197 0
172 196 0
175 197 0
174 198 0
171 196 0
173 197 0
174 197 0
173 196 0
172 195 0
172 196 0
173 195 0
173 196 0
172 195 0
174 197 0
174 197 0
173 196 0
171 194 0
172 195 0
172 196 0
170 194 0
174 197 0
170 194 0
174 197 0
172 195 0
173 195 0
174 197 0
173 196 0
171 195 0
173 196 0
173 197 0
175 198 0
173 196 0
174 197 0
171 195 0
172 195 0
172 195 0
173 197 0
174 198 0
172 195 0
171 194 0
172 195 0
172 195 0
170 193 0
173 197 0
173 196 0
172 196 0
172 196 0
172 196 0
173 196 0
172 196 0
172 196 0
171 194 0
171 195 0
174 197 0
172 195 0
173 197 0
172 195 0
173 196 0
172 196 0
171 193 0
173 195 0
173 196 0
168 192 0
171 194 0
174 197 0
175 198 0
172 196 0
175 198 0
170 194 0
172 194 0
174 197 0
174 197 0
171 195 0
173 196 0
174 197 0
173 196 0
162 186 60
142 166 99
114 141 142
81 113 162
64 101 177
63 99 176
61 98 173
62 99 178
61 98 175
62 99 177
61 98 178
62 99 177
62 99 177
62 99 180
61 98 176
62 99 178
62 99 179
62 99 178
62 99 180
62 99 181
62 99 179
61 99 181
62 99 179
62 99 178
62 99 181
62 99 179
62 99 180
62 99 180
62 99 181
62 99 180
62 99 181
61 99 180
61 99 179
62 99 181
62 99 180
62 99 181
62 99 181
62 99 181
62 99 181
62 99 181
62 99 181
61 99 181
62 99 181
62 99 181
62 99 181
62 99 181
62 99 181
61 99 180
61 99 181
61 99 181
61 99 181
62 99 181
61 99 181
62 99 181
61 99 181
61 99 181
62 99 181
62 99 181
62 99 181
62 99 181
61 99 181
62 99 181
62 99 179
61 99 181
62 99 181
62 99 181
62 99 181
62 99 181
61 99 181
61 99 181
62 99 181
62 99 181
62 99 180
62 99 181
62 99 181
61 99 181
62 99 181
61 98 180
62 99 181
62 99 181
61 98 181
62 99 181
62 99 181
62 99 179
62 99 181
62 99 180
61 98 178
62 99 179
61 99 179
61 98 181
62 99 181
62 99 179
62 99 179
62 99 180
62 99 179
62 99 181
62 99 178
62 98 175
62 99 181
62 99 179
62 99 176
61 98 179
62 99 178
62 99 180
61 98 174
62 99 179
62 99 181
62 99 178
61 98 177
62 99 176
62 99 178
62 99 177
62 99 179
62 99 178
61 97 171
61 97 173
62 98 177
61 98 176
61 96 173
61 97 175
61 97 173
62 98 175
69 102 172
93 114 155
106 122 122
130 138 93
135 144 70
135 142 58
140 145 59
137 138 64
137 136 67
134 130 70
133 129 77
132 129 73
134 130 80
129 126 76
126 124 74
129 127 79
146 142 89
134 131 81
122 121 78
142 139 90
136 134 89
134 132 87
138 135 87
132 129 85
126 124 80
125 123 80
130 129 85
124 124 83
141 139 93
138 136 92
140 138 92
130 129 86
135 134 92
137 135 89
138 137 93
132 131 88
137 136 94
151 148 98
135 135 93
135 135 92
145 144 98
140 139 95
150 148 101
156 154 104
148 146 99
137 137 94
145 143 96
147 145 97
151 149 99
146 144 98
151 150 101
157 156 105
158 156 105
150 148 100
153 151 103
155 153 102
159 157 106
163 160 108
144 142 96
158 156 105
169 164 107
155 153 101
164 160 105
162 159 103
163 160 108
166 163 105
166 162 106
167 163 109
170 166 108
167 164 107
165 162 106
169 165 109
167 165 110
168 164 109
168 164 107
170 167 109
171 167 110
168 165 110
169 166 106
172 168 108
170 167 109
169 166 110
173 169 109
172 168 108
174 170 110
173 168 109
174 169 108
174 169 108
177 172 113
176 171 111
176 171 110
175 170 112
175 171 112
174 170 110
174 170 110
175 170 109
169 165 105
175 170 109
175 169 109
175 170 110
175 170 110
169 165 104
174 169 109
174 169 109
174 169 108
173 168 103
173 169 108
173 168 106
169 164 106
175 170 108
176 169 106
170 165 104
176 170 107
171 166 104
166 161 104
171 166 104
169 163 104
174 169 104
174 169 108
165 161 102
169 163 100
168 163 102
170 164 103
167 162 103
166 160 99
169 163 98
170 165 101
164 159 97
168 163 102
163 158 93
164 158 96
172 165 102
166 161 95
168 162 94
162 157 93
163 158 93
161 156 96
162 157 92
164 159 95
162 156 94
159 154 95
163 157 93
164 157 90
152 146 84
155 149 87
148 142 84
153 147 83
148 143 81
151 144 88
145 140 74
157 151 86
154 148 81
150 143 75
153 147 80
154 149 78
152 152 66
138 140 57
148 155 59
157 168 48
156 164 58
157 171 36
164 181 34
163 179 37
169 190 19
170 191 11
164 185 0
173 196 0
174 197 0
171 195 0
173 196 0
174 197 0
173 196 0
172 196 0
173 196 0
172 195 0
171 194 0
173 197 0
173 197 0
173 197 0
170 194 0
172 195 0
173 197 0
175 198 0
172 195 0
173 196 0
174 197 0
172 196 0
172 196 0
174 197 0
174 197 0
174 197 0
170 193 0
171 196 0
173 197 0
172 196 0
174 198 0
173 196 0
172 195 0
173 196 0
172 195 0
172 196 0
175 197 0
172 196 0
173 197 0
172 195 0
173 197 0
171 195 0
175 198 0
172 195 0
174 197 0
172 195 0
172 196 0
173 196 0
172 195 0
172 196 0
173 197 0
171 194 0
173 197 0
173 196 0
173 196 0
173 197 0
172 196 0
170 194 0
174 197 0
171 195 0
173 196 0
169 193 0
174 197 0
173 197 0
171 195 0
171 194 0
173 196 0
175 197 0
175 198 0
173 196 0
175 198 0
173 197 0
171 195 0
174 197 0
172 195 0
169 192 0
170 193 0
173 197 0
174 197 0
173 196 0
173 197 0
172 196 0
174 197 0
172 195 0
175 197 0
173 196 0
172 195 0
172 196 0
171 194 0
172 196 0
170 194 0
171 196 0
172 196 0
173 196 0
173 197 0
172 196 0
173 196 0
169 194 0
173 196 0
175 198 0
173 196 0
170 193 0
173 195 0
170 193 0
173 195 0
172 195 0
171 194 0
171 194 0
171 194 0
170 195 0
172 195 0
172 196 0
167 191 47
139 164 108
116 143 142
70 104 170
62 99 173
62 99 176
63 100 179
62 99 175
62 99 177
62 99 178
62 99 177
63 99 178
61 98 176
62 99 178
61 98 176
62 99 177
62 99 176
62 99 179
61 98 177
62 99 180
62 99 177
62 99 181
62 99 176
62 99 180
62 99 180
62 99 180
61 99 180
62 99 181
62 99 181
62 99 179
61 98 180
62 99 179
62 99 178
62 99 181
61 99 181
61 99 181
62 99 180
61 99 180
62 99 181
61 99 180
62 99 181
61 98 181
61 99 180
62 99 181
61 99 181
61 99 181
62 99 181
61 99 181
62 99 180
62 99 180
62 99 180
61 99 180
62 99 180
61 99 181
62 99 181
62 99 181
61 98 181
62 99 181
62 99 181
61 99 181
61 99 181
61 99 181
62 99 181
62 99 181
62 99 181
62 99 181
61 99 181
61 99 181
62 99 181
61 99 179
62 99 181
62 99 181
62 99 181
61 99 181
62 99 181
62 99 180
61 99 181
61 99 181
62 99 181
62 99 181
62 99 181
62 99 181
62 99 181
62 99 180
62 99 181
62 99 181
62 99 180
62 99 181
62 99 181
61 99 180
61 99 178
62 99 180
61 98 180
61 98 180
61 99 179
61 98 180
61 99 180
62 99 180
62 99 180
62 99 179
62 99 176
62 99 177
62 99 180
62 99 180
62 99 177
62 98 177
62 99 180
62 99 174
62 99 175
62 99 178
62 99 181
63 99 177
61 98 175
62 99 177
61 98 173
61 98 174
61 98 174
61 97 174
62 98 174
61 97 172
62 98 176
61 97 172
61 98 173
61 98 176
63 96 165
99 118 148
121 132 123
133 138 91
142 147 63
139 138 66
139 136 62
126 125 63
131 129 76
121 118 64
131 127 77
126 122 69
123 120 73
128 126 79
131 128 82
121 119 74
125 124 80
132 130 87
128 126 80
130 126 80
139 136 86
127 126 83
127 126 85
133 131 88
121 121 83
128 127 86
129 127 85
130 129 88
120 120 80
136 135 91
132 131 90
122 124 89
140 139 92
130 129 89
127 128 89
141 140 95
132 132 91
138 137 96
137 137 94
145 143 97
134 134 93
147 146 99
139 138 96
140 140 98
152 149 100
154 151 102
156 153 104
146 145 99
150 149 102
156 153 101
148 146 99
143 143 98
157 155 107
159 156 104
151 149 100
158 156 104
160 158 104
154 152 101
162 159 106
156 154 101
160 157 104
162 159 105
156 155 103
166 163 108
160 157 105
161 159 105
158 156 104
161 158 106
169 165 109
168 165 108
170 166 108
170 167 110
173 168 108
167 164 105
170 166 109
171 167 110
172 168 108
170 166 108
172 168 108
169 165 108
173 168 108
175 170 112
172 169 111
173 169 110
169 165 107
171 166 108
172 168 107
174 169 109
169 166 107
173 169 108
174 169 111
173 168 106
175 171 108
176 171 110
176 170 110
173 169 106
174 168 106
176 171 108
176 171 109
174 169 108
177 171 108
176 171 109
175 170 108
174 169 108
175 169 108
173 167 105
172 167 106
174 169 106
171 166 104
174 169 107
173 167 105
168 164 103
171 167 101
168 163 102
175 169 105
173 168 106
171 165 105
170 165 102
173 167 105
168 163 101
172 166 104
171 165 104
166 162 100
167 161 99
167 162 101
157 152 95
168 163 103
164 159 97
164 157 99
163 158 99
163 157 95
163 158 95
160 154 93
158 153 92
163 158 95
160 154 92
161 155 95
160 154 90
162 156 92
161 155 87
164 157 93
156 150 86
157 151 87
151 146 80
150 145 81
158 152 90
152 146 86
153 146 86
154 147 84
138 133 68
146 141 72
145 139 77
141 136 77
143 141 66
133 135 49
138 137 61
147 151 59
155 159 60
155 166 42
154 162 54
162 176 37
162 178 32
163 182 28
169 189 22
167 187 16
173 195 11
172 196 0
172 195 0
173 197 0
174 197 0
174 197 0
173 196 0
172 195 0
174 198 0
173 197 0
173 197 0
172 196 0
171 195 0
173 197 0
172 195 0
170 193 0
172 195 0
173 197 0
171 196 0
173 196 0
172 196 0
173 197 0
176 199 0
174 197 0
170 194 0
172 196 0
172 196 0
173 196 0
171 195 0
174 197 0
172 196 0
172 196 0
174 197 0
173 197 0
174 198 0
172 195 0
174 197 0
171 195 0
171 195 0
173 196 0
171 195 0
171 196 0
173 197 0
174 197 0
174 198 0
168 193 0
175 198 0
173 197 0
173 196 0
173 196 0
173 196 0
174 197 0
173 196 0
174 197 0
174 197 0
173 196 0
173 196 0
172 196 0
172 196 0
173 196 0
172 195 0
171 195 0
172 195 0
173 197 0
172 195 0
173 197 0
170 194 0
172 196 0
172 195 0
172 195 0
174 197 0
174 197 0
171 195 0
170 194 0
169 193 0
173 196 0
174 197 0
171 194 0
171 196 0
174 197 0
173 196 0
173 196 0
173 197 0
172 195 0
173 196 0
171 195 0
172 196 0
172 196 0
172 195 0
171 194 0
172 195 0
173 197 0
173 196 0
173 196 0
173 196 0
168 191 0
172 195 0
173 195 0
172 195 0
170 194 0
170 194 0
175 197 0
173 196 0
171 194 0
171 194 0
172 195 0
170 194 0
172 196 0
172 196 0
169 192 18
162 185 65
136 161 113
119 145 131
75 107 165
63 99 176
62 99 176
62 99 174
62 99 176
62 99 176
62 99 177
62 99 177
63 99 179
62 99 179
61 99 177
62 99 180
62 99 176
62 99 179
62 99 181
62 99 176
62 99 179
62 99 179
62 99 180
62 99 178
62 99 180
62 99 181
62 99 181
63 100 180
62 99 179
62 99 180
63 100 181
62 99 181
62 99 180
62 99 179
61 98 178
62 99 181
62 99 181
62 99 181
61 99 179
61 99 181
62 99 181
62 99 180
62 99 181
62 99 181
62 99 181
62 99 181
62 99 181
62 99 181
61 99 181
62 99 181
62 99 181
62 99 181
62 99 180
61 99 181
62 99 181
62 99 181
61 99 179
62 99 181
61 99 181
61 99 181
62 99 180
62 99 180
62 99 180
61 99 181
61 99 181
61 99 180
61 99 181
61 99 181
62 99 180
61 99 180
62 99 181
62 99 181
62 99 181
62 99 181
61 99 181
62 99 181
62 99 181
62 99 181
62 99 181
62 99 180
62 99 181
61 99 180
62 99 181
62 99 181
62 99 180
61 99 180
62 99 180
61 98 179
61 99 180
62 99 180
62 99 180
62 99 181
62 99 181
62 99 180
61 99 181
62 99 180
61 99 180
62 99 180
62 99 179
61 98 179
62 99 181
62 99 181
61 98 175
62 99 178
62 99 178
62 99 176
62 99 180
62 99 177
62 98 178
62 99 177
62 98 176
62 99 177
61 98 178
63 99 177
61 98 174
61 98 176
61 97 173
61 97 176
61 98 174
61 98 175
62 98 176
62 98 176
61 97 173
61 97 170
60 96 170
61 98 173
61 96 170
64 97 162
88 106 146
107 118 126
110 117 99
132 133 70
130 128 64
127 123 65
129 126 71
128 125 68
126 123 73
119 116 72
123 119 72
129 127 80
126 124 73
120 118 76
125 122 80
127 124 77
132 130 86
129 128 82
128 126 80
121 120 81
122 121 80
117 116 78
130 129 88
134 133 86
138 136 93
123 123 82
133 132 90
132 131 90
135 134 91
129 128 87
136 135 93
138 137 93
131 131 92
132 131 90
132 132 93
142 141 97
124 125 87
140 139 95
141 142 100
145 144 100
148 147 99
144 142 95
144 144 101
148 147 99
142 142 98
140 140 97
145 143 96
152 149 99
156 153 104
150 148 100
152 150 98
156 154 101
158 155 103
158 156 104
158 155 105
148 148 101
163 160 105
161 158 104
163 160 105
168 164 107
159 157 104
168 163 108
162 159 106
160 157 103
167 164 109
169 165 106
164 161 106
167 164 106
167 163 106
169 165 106
165 161 105
165 163 107
168 164 109
170 166 108
172 168 110
170 167 110
170 166 108
173 168 109
172 167 109
176 171 111
175 170 110
170 166 106
172 168 109
174 170 105
174 170 109
175 170 110
177 172 110
175 170 108
174 169 107
175 170 108
176 170 109
173 169 108
174 169 107
173 169 108
176 170 108
172 167 107
174 169 106
172 167 106
176 171 107
172 167 106
176 171 109
172 169 110
174 169 107
172 167 105
173 167 106
171 166 104
173 168 106
172 167 106
170 165 103
174 169 107
170 165 103
172 167 104
172 166 104
169 162 104
170 164 101
171 166 104
170 164 104
171 165 103
173 167 103
168 162 98
163 158 97
166 160 101
166 161 99
160 154 95
164 158 95
163 158 93
165 160 97
163 157 97
161 154 93
164 157 93
166 159 94
163 156 94
158 152 86
166 160 95
160 154 92
150 145 84
162 155 89
164 158 96
160 154 90
159 153 89
164 157 93
158 152 92
155 149 86
155 149 84
145 140 76
147 141 79
154 148 80
149 144 80
145 138 78
145 140 75
137 131 74
149 144 78
145 143 67
140 141 58
148 150 61
143 151 48
154 163 48
163 175 42
161 177 41
158 175 36
164 181 28
170 188 32
171 191 22
174 196 0
172 196 0
172 196 0
174 198 0
174 197 0
172 195 0
174 197 0
174 197 0
174 197 0
173 196 0
172 196 0
172 196 0
174 197 0
173 196 0
169 193 0
174 197 0
172 196 0
173 196 0
174 196 0
171 194 0
174 197 0
171 195 0
171 195 0
173 196 0
175 197 0
173 196 0
173 196 0
173 197 0
176 198 0
174 198 0
172 195 0
174 197 0
171 195 0
174 198 0
171 195 0
173 197 0
173 197 0
172 194 0
172 196 0
172 195 0
173 197 0
172 195 0
173 196 0
174 197 0
173 196 0
173 196 0
174 197 0
171 195 0
171 195 0
173 196 0
174 198 0
173 197 0
171 195 0
174 197 0
172 195 0
175 198 0
172 196 0
172 195 0
173 195 0
172 195 0
173 197 0
171 194 0
171 193 0
175 198 0
173 196 0
172 195 0
173 196 0
172 195 0
173 196 0
172 196 0
174 197 0
172 196 0
172 196 0
170 194 0
172 195 0
170 194 0
171 195 0
173 196 0
173 196 0
174 198 0
171 193 0
174 196 0
173 196 0
173 196 0
172 196 0
171 195 0
170 194 0
173 197 0
173 196 0
171 194 0
172 195 0
170 193 0
169 193 0
170 193 0
171 194 0
172 195 0
169 192 0
169 192 0
172 195 0
171 194 0
172 195 0
171 194 0
173 196 0
170 193 0
173 197 0
169 192 0
173 196 0
170 193 0
172 196 0
158 182 67
143 168 103
117 144 135
75 109 165
62 99 175
62 99 178
62 99 178
62 99 176
62 99 175
61 98 175
62 99 178
62 99 178
63 99 176
62 99 176
62 99 179
62 99 175
61 98 177
62 99 179
61 98 176
62 99 178
62 99 179
63 99 179
62 99 177
62 99 181
62 99 181
62 99 180
62 99 180
62 99 181
62 99 181
62 99 179
62 99 181
61 99 179
62 99 180
62 99 180
61 98 181
62 99 181
61 99 181
62 99 180
62 99 180
61 99 180
62 99 181
62 99 180
62 99 181
62 99 181
61 99 180
62 99 180
61 99 181
62 99 180
61 99 180
62 99 181
62 99 181
61 99 181
62 99 181
62 99 181
62 99 181
61 99 181
62 99 181
62 99 181
62 99 181
62 99 181
62 99 180
62 99 181
62 99 181
61 98 181
61 99 180
62 99 181
62 99 181
61 99 180
62 99 181
62 99 181
62 99 180
61 99 181
62 99 180
62 99 181
62 99 180
62 99 181
61 99 180
61 99 181
62 99 180
61 99 180
62 99 180
62 99 181
62 99 181
61 99 180
61 99 180
62 99 178
62 99 181
62 99 180
62 99 180
61 99 181
62 99 181
62 99 179
61 99 180
62 99 180
62 99 180
62 99 180
63 100 180
62 99 179
62 99 180
62 99 178
62 99 179
62 99 177
62 99 180
61 98 176
61 99 179
62 99 179
62 99 175
62 99 179
62 99 178
62 99 179
62 99 174
62 99 178
62 99 177
61 98 177
62 99 177
62 98 176
61 97 172
61 98 176
61 98 174
62 99 179
61 96 169
61 98 173
61 97 173
61 97 172
61 96 170
61 98 175
62 97 170
62 97 170
77 104 168
83 102 145
111 123 134
127 130 96
136 135 90
123 121 64
125 123 64
137 134 78
127 124 69
136 132 79
127 124 79
124 122 72
125 123 80
128 125 81
126 123 79
140 136 85
125 123 80
122 119 79
122 121 81
124 123 82
130 128 86
123 122 83
127 126 85
126 124 83
114 114 78
129 128 84
124 124 88
130 130 90
132 131 90
137 135 89
132 132 92
132 132 92
128 128 88
129 129 88
140 139 95
131 131 90
130 130 91
136 136 96
138 137 96
142 141 96
155 152 102
136 135 94
147 146 99
143 142 98
153 152 103
151 149 102
144 143 99
150 148 97
149 148 100
158 155 103
155 154 104
153 151 102
156 154 102
155 153 104
154 152 102
164 161 107
156 155 103
156 153 102
158 156 103
160 156 103
165 162 107
161 158 105
161 159 106
166 163 106
163 159 104
168 164 106
161 158 104
165 161 104
165 161 105
166 163 108
168 164 107
169 165 108
173 167 105
168 163 105
173 169 109
173 169 109
171 167 109
173 169 109
170 166 109
173 168 108
173 168 107
172 168 107
173 168 108
174 169 104
173 169 107
176 171 108
173 169 110
174 169 108
173 169 110
175 170 107
176 171 107
171 165 104
177 171 110
171 167 105
177 171 109
177 171 108
174 169 110
170 166 101
172 166 104
172 168 108
173 167 106
175 171 108
173 168 105
173 167 106
176 170 108
175 169 104
178 171 106
171 165 103
173 168 106
173 168 106
172 166 102
174 168 105
173 168 107
165 161 98
172 167 103
174 168 101
170 165 98
165 160 100
171 165 100
168 163 99
165 161 100
165 159 97
171 165 103
169 162 97
167 161 99
163 158 95
161 156 93
163 158 96
158 153 90
164 158 93
163 158 93
164 159 93
162 156 93
157 152 90
166 160 95
158 152 90
159 153 90
160 154 90
158 153 88
151 145 82
156 150 86
166 159 97
156 151 84
153 147 84
156 149 84
155 149 87
152 147 82
147 141 83
151 144 80
158 151 85
150 143 79
138 133 65
144 144 59
142 140 58
153 155 62
154 162 57
161 167 60
153 163 45
162 178 36
164 179 37
165 182 34
168 189 19
168 188 19
173 196 11
171 194 0
175 198 0
174 198 0
174 197 0
173 196 0
173 196 0
172 196 0
175 198 0
174 197 0
175 197 0
173 197 0
172 195 0
174 198 0
172 197 0
173 197 0
173 197 0
174 197 0
170 193 0
173 197 0
172 196 0
175 198 0
173 197 0
173 196 0
174 198 0
172 196 0
172 196 0
171 195 0
174 198 0
174 197 0
171 196 0
172 194 0
171 195 0
172 196 0
171 195 0
172 194 0
175 198 0
175 198 0
171 196 0
175 197 0
173 196 0
173 196 0
172 195 0
172 195 0
171 194 0
170 195 0
172 196 0
172 196 0
172 196 0
170 194 0
171 195 0
174 198 0
174 197 0
171 195 0
173 195 0
171 194 0
171 195 0
174 197 0
172 196 0
172 196 0
173 197 0
174 196 0
171 194 0
175 197 0
174 197 0
170 193 0
174 197 0
173 195 0
175 198 0
173 197 0
171 194 0
170 193 0
174 198 0
172 196 0
175 198 0
172 196 0
172 196 0
171 194 0
171 195 0
169 192 0
171 193 0
168 192 0
172 195 0
173 197 0
173 196 0
173 196 0
171 195 0
171 194 0
173 196 0
171 194 0
172 195 0
169 193 0
171 194 0
169 192 0
173 196 0
177 199 0
173 196 0
170 194 0
172 196 0
171 194 0
175 197 0
171 194 0
174 197 0
172 195 0
175 197 0
171 194 0
172 196 0
171 193 0
167 190 51
141 166 103
120 146 135
69 104 170
62 99 173
62 99 177
62 99 180
62 99 175
62 99 179
61 98 173
62 99 174
62 99 176
62 99 175
61 98 176
61 98 174
62 99 176
62 99 177
62 99 180
62 99 178
62 99 175
62 99 179
62 99 179
62 99 181
62 99 178
62 99 181
62 99 177
62 99 180
62 99 181
62 99 179
61 99 181
62 99 181
63 100 181
62 99 180
62 99 181
62 99 180
62 99 181
62 99 180
62 99 181
63 100 181
63 100 181
62 99 181
62 99 180
62 99 181
61 99 181
62 99 181
62 99 181
62 99 181
61 99 180
61 98 181
62 99 180
61 99 181
61 99 181
61 99 181
61 98 181
62 99 181
62 99 181
62 99 181
62 99 181
61 98 180
61 98 178
63 100 181
62 99 181
61 98 181
62 99 181
61 99 181
61 99 179
62 99 180
61 99 180
61 99 180
62 99 181
62 99 181
62 99 180
62 99 181
61 99 181
62 99 181
62 99 181
61 98 179
62 99 181
62 99 181
62 99 181
62 99 181
61 98 180
61 99 181
62 99 181
61 99 180
62 99 181
62 99 179
62 99 179
62 99 181
62 99 180
62 99 180
62 99 180
62 99 181
62 99 179
62 99 179
61 98 180
61 99 180
63 99 180
62 99 180
62 99 179
62 99 179
62 99 177
61 99 179
62 99 179
62 99 178
62 99 177
62 99 177
62 99 178
61 98 178
62 99 178
62 99 179
62 99 179
61 98 178
61 98 179
61 98 179
62 99 175
61 98 172
62 99 180
61 98 174
61 97 172
62 99 176
61 97 174
61 97 172
61 98 176
61 97 173
61 97 172
60 96 170
62 99 176
60 95 167
62 98 174
64 96 161
81 102 144
101 112 125
121 123 99
138 135 74
123 120 67
130 125 78
130 127 74
129 125 72
117 115 70
129 126 75
123 123 80
121 120 72
116 116 70
121 121 77
127 125 78
138 135 88
114 114 77
120 120 80
121 120 79
117 117 81
129 128 86
122 122 83
105 107 75
131 130 88
128 128 89
136 134 92
119 119 82
138 137 94
130 131 92
133 132 91
126 127 90
130 130 90
134 134 93
131 132 92
132 131 90
136 135 93
141 140 95
138 137 94
148 147 100
134 134 93
153 151 101
147 146 100
152 150 99
144 144 100
144 143 97
154 151 102
147 146 99
153 152 102
150 149 101
149 147 101
151 150 100
151 150 100
159 156 103
164 160 107
158 156 105
153 151 100
162 159 104
163 160 107
156 154 101
158 156 104
161 159 103
165 162 106
160 158 104
158 155 101
168 164 107
167 164 108
167 163 105
167 163 105
164 161 106
166 163 106
169 164 106
167 164 105
170 166 105
166 163 102
167 163 108
173 169 110
174 170 111
175 170 109
174 169 109
172 168 107
176 170 107
173 169 109
174 169 106
174 170 111
176 171 110
174 169 107
173 168 108
172 167 106
176 170 108
176 169 108
174 169 108
172 168 103
173 168 106
174 170 108
176 171 107
170 165 102
173 168 104
172 167 107
173 168 106
171 167 105
175 170 104
172 167 106
174 168 104
171 167 103
168 163 100
173 168 106
174 169 108
174 168 104
173 168 103
171 165 100
169 164 103
170 165 101
169 164 101
168 162 101
169 164 101
169 162 97
169 163 103
168 163 101
171 164 99
164 159 96
164 159 97
167 162 101
165 159 97
166 160 97
163 157 94
168 162 98
162 155 93
153 148 88
164 158 96
157 152 89
169 164 95
160 155 89
159 154 93
166 160 97
158 153 88
160 155 92
158 153 87
160 151 90
158 152 85
164 156 91
154 147 86
162 156 90
147 142 80
161 155 92
140 135 70
155 148 79
155 149 82
141 136 66
146 140 74
148 144 74
156 153 75
152 155 61
149 154 56
153 159 58
154 162 57
160 168 52
160 175 42
166 182 42
165 184 32
166 186 16
171 190 22
171 193 11
174 197 0
174 197 0
173 196 0
172 196 0
174 198 0
172 196 0
169 193 0
174 198 0
172 196 0
171 194 0
174 197 0
173 197 0
172 196 0
172 195 0
174 197 0
174 197 0
170 194 0
171 195 0
173 196 0
174 198 0
171 195 0
173 196 0
171 195 0
173 196 0
170 194 0
172 196 0
174 198 0
172 196 0
171 195 0
172 196 0
172 196 0
170 194 0
172 195 0
175 198 0
173 196 0
174 197 0
173 196 0
174 197 0
173 196 0
172 195 0
172 196 0
170 193 0
173 196 0
176 198 0
174 198 0
174 198 0
171 196 0
172 196 0
174 197 0
172 195 0
174 197 0
174 198 0
174 197 0
173 196 0
172 195 0
173 195 0
170 194 0
175 198 0
173 196 0
175 198 0
171 195 0
174 197 0
172 195 0
174 197 0
172 196 0
172 195 0
172 195 0
172 195 0
174 197 0
172 195 0
175 198 0
173 196 0
171 195 0
172 196 0
171 194 0
171 195 0
175 197 0
173 196 0
174 197 0
173 197 0
174 197 0
171 195 0
171 193 0
175 198 0
172 195 0
173 196 0
173 197 0
173 197 0
172 196 0
171 194 0
173 196 0
172 196 0
170 193 0
172 195 0
174 198 0
174 197 0
172 196 0
170 194 0
173 195 0
172 195 0
172 196 0
171 194 0
170 193 0
175 197 0
172 196 0
173 196 0
166 189 40
151 174 84
112 138 136
76 109 168
62 99 175
62 99 175
62 99 175
62 99 174
62 99 175
63 99 174
63 100 177
62 99 174
62 99 179
62 99 177
62 99 177
62 99 180
62 99 177
63 100 180
62 99 177
61 99 176
62 99 179
62 99 180
62 99 180
62 99 180
63 100 181
62 99 180
61 99 178
62 99 181
62 99 179
62 99 177
61 98 177
63 99 178
62 99 181
61 99 179
62 99 181
61 99 180
62 99 179
62 99 181
62 99 180
61 99 179
62 99 181
62 99 180
62 99 181
61 99 180
62 99 181
61 98 180
61 99 181
61 98 180
62 99 178
62 99 181
62 99 181
62 99 181
62 99 181
62 99 181
62 99 180
62 99 181
62 99 180
62 99 181
61 99 181
62 99 181
63 100 181
62 99 181
62 99 181
62 99 181
61 99 179
61 99 181
61 99 179
62 99 181
61 99 181
62 99 181
62 99 180
62 99 181
61 99 180
62 99 181
62 99 179
62 99 179
62 99 180
62 99 181
61 99 180
62 99 181
62 99 180
61 98 179
62 99 181
62 99 179
62 99 179
62 99 180
62 99 181
62 99 179
61 98 178
62 99 180
62 99 179
61 99 178
62 99 180
62 99 179
62 99 181
62 99 178
62 99 178
62 99 181
62 99 181
61 98 179
62 99 180
61 98 179
62 99 181
62 99 177
62 99 178
62 99 175
63 100 180
62 99 179
62 99 180
61 98 175
62 99 178
61 98 175
62 99 175
62 99 179
62 99 178
61 98 174
62 99 178
62 99 176
62 99 175
62 98 173
62 99 177
62 99 175
62 98 176
62 99 176
61 98 175
61 97 171
62 98 173
61 97 170
63 99 176
61 96 165
61 97 169
60 95 166
60 95 167
99 112 135
113 118 114
118 122 104
126 124 86
109 107 64
122 119 75
128 124 75
113 111 66
106 106 68
120 118 73
128 126 77
113 113 73
120 120 74
142 139 90
127 124 79
127 126 83
106 107 76
125 124 83
119 119 79
120 120 83
130 129 88
116 117 82
124 123 84
122 122 84
125 125 86
116 118 86
123 123 84
125 125 87
132 131 90
129 129 87
130 129 89
137 136 92
121 122 85
140 139 95
132 132 91
143 140 95
141 140 95
140 140 98
151 148 98
137 137 95
135 135 93
151 149 101
140 139 95
139 138 95
146 145 98
143 142 97
151 149 98
154 151 101
159 155 101
154 152 102
154 153 103
157 154 101
163 160 106
156 154 104
156 154 102
151 150 99
155 152 99
162 159 105
160 157 104
162 159 101
164 160 104
166 162 107
162 159 103
164 160 104
172 168 108
168 164 105
168 165 107
168 164 107
169 165 106
167 164 104
168 164 108
171 167 108
174 169 109
164 161 105
174 169 108
173 169 106
173 169 108
173 169 107
171 167 107
177 171 107
171 167 107
172 168 109
174 169 106
175 171 110
175 171 108
175 171 109
174 170 108
173 168 107
176 171 110
176 170 108
171 166 105
174 170 108
173 167 105
173 168 105
175 170 109
173 168 107
174 169 108
172 167 103
174 168 106
174 169 107
173 167 106
174 168 103
173 166 103
170 164 100
172 167 103
172 167 106
171 166 103
169 164 101
175 169 107
173 168 106
176 170 107
170 165 104
175 169 106
169 164 97
172 166 101
166 161 99
171 165 98
168 163 99
172 166 102
171 164 100
172 166 101
165 160 99
166 159 94
167 161 97
162 157 95
163 156 90
166 160 96
162 156 92
161 156 94
167 162 93
161 155 91
156 150 90
165 159 92
161 154 90
153 147 87
157 152 86
162 156 90
156 149 87
156 150 90
158 152 86
154 148 86
150 144 80
159 152 87
157 151 85
157 151 82
148 142 81
146 139 75
145 140 75
144 139 74
141 139 64
155 157 69
153 156 63
153 161 57
152 160 51
155 167 37
165 180 37
160 174 39
166 184 28
167 187 19
168 189 19
170 192 16
173 196 0
173 197 0
171 194 0
171 195 0
173 197 0
174 198 0
176 199 0
173 197 0
171 195 0
172 195 0
176 198 0
175 198 0
169 194 0
175 198 0
173 197 0
174 197 0
175 198 0
174 197 0
174 197 0
173 196 0
175 198 0
175 197 0
170 193 0
175 198 0
173 197 0
171 195 0
173 196 0
174 198 0
173 197 0
172 195 0
170 193 0
172 196 0
175 198 0
174 197 0
173 196 0
174 198 0
172 195 0
174 197 0
173 196 0
173 195 0
172 196 0
172 195 0
174 197 0
175 198 0
171 195 0
167 192 0
172 195 0
173 196 0
173 197 0
171 194 0
173 197 0
174 198 0
174 197 0
174 197 0
170 193 0
171 195 0
174 197 0
173 196 0
172 196 0
173 196 0
173 196 0
172 196 0
174 198 0
171 195 0
172 196 0
174 198 0
173 197 0
175 198 0
171 195 0
172 196 0
173 196 0
173 195 0
174 197 0
173 195 0
172 195 0
172 195 0
171 195 0
173 196 0
172 196 0
173 197 0
172 196 0
172 195 0
175 197 0
171 195 0
173 196 0
171 194 0
173 196 0
172 196 0
173 196 0
172 195 0
168 192 0
171 195 0
170 193 0
172 196 0
173 197 0
172 195 0
170 193 0
172 195 0
170 194 0
168 191 0
170 193 0
169 192 0
171 194 0
175 198 0
171 195 0
166 190 54
157 181 74
115 142 135
71 105 164
62 99 176
62 98 170
62 99 176
62 99 178
62 99 169
62 99 174
62 99 174
62 99 177
63 99 178
62 99 175
63 99 177
63 100 178
62 99 177
62 98 175
61 99 177
62 99 181
62 99 176
62 99 178
62 99 180
63 99 178
62 99 181
62 99 179
62 99 178
62 99 180
61 98 178
62 99 179
62 99 181
62 99 181
62 99 180
61 98 178
62 99 180
61 99 179
62 99 181
61 99 180
62 99 180
62 99 180
62 99 180
62 99 180
61 99 180
62 99 181
61 99 181
61 99 181
61 98 180
62 99 181
62 99 181
62 99 180
62 99 180
62 99 180
62 99 181
62 99 181
62 99 179
62 99 179
62 99 177
61 99 181
62 99 181
61 99 180
61 99 181
61 99 180
62 99 180
62 99 181
62 99 180
63 100 179
62 99 181
62 99 181
61 99 180
61 98 181
61 98 180
61 98 181
62 99 179
61 98 180
62 99 180
61 99 181
61 99 179
61 99 181
61 99 181
62 99 180
62 99 179
62 99 180
62 99 179
61 99 179
62 99 180
62 99 181
61 98 180
61 99 180
62 99 181
62 99 180
62 99 181
62 99 179
61 98 180
62 99 180
61 98 177
62 99 181
62 99 179
62 99 180
61 99 178
62 99 181
62 99 178
62 99 180
62 99 180
61 99 178
62 99 178
61 98 178
62 99 177
61 98 176
62 99 180
62 99 179
62 99 178
61 99 179
62 99 177
62 99 179
61 98 178
61 97 171
62 99 180
62 99 177
61 97 175
61 97 175
61 98 174
61 98 172
61 98 176
61 97 172
61 98 171
62 98 172
61 97 174
61 97 169
60 96 173
62 98 170
61 97 168
61 96 168
61 96 171
61 97 173
66 97 163
86 104 141
96 109 128
123 125 112
115 113 75
117 115 66
117 116 74
125 122 72
118 117 74
113 111 71
128 127 83
122 120 68
115 115 74
122 120 78
119 119 78
127 125 78
122 122 82
118 118 80
125 124 84
106 108 74
126 126 85
122 123 84
136 134 89
117 118 81
126 125 86
125 126 88
109 111 80
125 125 86
127 126 87
133 133 91
137 136 93
137 136 92
141 140 96
124 125 90
139 138 94
121 122 84
134 134 92
133 133 91
142 141 95
140 139 94
140 140 95
147 145 97
142 142 97
153 151 101
138 137 94
156 153 102
153 151 100
145 144 98
143 142 96
159 156 104
150 148 98
154 153 102
158 156 105
161 158 102
161 157 103
156 153 101
151 149 100
159 156 100
167 162 105
163 160 105
160 157 101
164 160 108
166 163 106
167 164 108
164 160 103
169 165 107
169 166 107
167 163 108
161 159 102
161 158 105
165 162 105
173 169 109
169 166 106
173 168 107
173 168 106
170 165 106
173 168 110
174 170 109
176 170 107
171 167 108
172 168 107
174 170 109
175 170 108
175 169 107
173 168 106
171 167 107
173 168 108
175 170 105
173 167 104
172 167 105
175 169 107
173 168 104
172 166 102
170 166 105
179 172 108
173 168 106
172 167 106
173 168 104
176 170 103
175 169 108
175 169 106
173 168 106
175 169 106
172 167 104
171 165 101
172 167 105
175 169 106
172 166 104
169 163 100
170 165 104
173 168 104
171 166 103
168 163 101
168 162 103
168 163 103
171 165 99
169 163 97
174 168 106
164 158 95
169 163 101
167 161 100
164 160 99
164 158 97
158 152 84
159 153 90
168 162 97
165 158 95
165 159 95
167 161 93
160 154 91
167 160 95
162 156 93
160 153 93
158 152 89
168 162 98
154 149 87
154 149 85
162 155 85
152 146 79
159 152 84
158 150 84
152 146 83
154 148 79
158 151 86
154 148 83
148 142 74
152 145 80
133 128 64
137 133 63
140 137 67
142 141 67
146 151 49
151 153 62
146 155 44
151 161 47
156 169 42
160 176 30
166 184 28
169 189 22
170 191 19
174 195 0
173 196 0
170 194 0
174 198 0
173 196 0
172 196 0
171 195 0
173 197 0
173 196 0
172 195 0
172 196 0
175 198 0
175 198 0
173 197 0
172 196 0
174 197 0
173 197 0
172 196 0
171 194 0
172 195 0
171 194 0
171 195 0
172 196 0
174 198 0
173 196 0
173 197 0
174 197 0
174 197 0
170 194 0
171 194 0
174 197 0
172 196 0
174 197 0
172 196 0
173 196 0
175 198 0
172 196 0
174 197 0
172 195 0
174 197 0
172 196 0
173 197 0
174 197 0
173 196 0
172 195 0
173 196 0
173 196 0
172 196 0
172 196 0
172 196 0
173 196 0
172 195 0
172 195 0
173 196 0
174 198 0
172 196 0
170 194 0
171 195 0
173 197 0
175 198 0
173 196 0
173 195 0
174 197 0
169 193 0
172 196 0
173 196 0
173 196 0
174 197 0
172 195 0
173 196 0
170 195 0
175 198 0
172 194 0
172 195 0
174 197 0
172 196 0
172 196 0
173 196 0
174 197 0
171 195 0
173 196 0
172 195 0
171 194 0
173 197 0
174 196 0
172 194 0
170 193 0
174 197 0
172 195 0
173 196 0
170 194 0
173 197 0
173 197 0
173 196 0
170 194 0
171 194 0
173 196 0
172 194 0
170 194 0
174 197 0
172 195 0
173 196 0
172 195 0
171 194 0
173 197 0
169 191 36
150 174 90
124 150 125
84 115 158
62 98 169
62 99 175
62 98 169
62 99 177
62 99 176
62 99 175
63 99 177
61 98 175
62 99 177
61 98 174
62 99 177
62 99 176
62 99 176
62 99 178
62 99 176
62 99 180
62 99 179
62 99 179
61 98 177
62 99 178
62 99 179
63 100 180
62 99 178
62 99 178
62 99 179
62 99 178
62 99 177
62 99 181
61 98 177
61 98 177
62 99 181
62 99 179
62 99 181
62 99 179
62 99 180
62 99 180
62 99 180
62 99 180
62 99 180
61 98 181
61 99 181
62 99 181
62 99 181
61 98 179
62 99 181
62 99 181
62 99 181
62 99 180
62 99 180
62 99 180
62 99 181
61 98 180
62 99 181
62 99 181
62 99 181
62 99 180
62 99 181
61 99 179
62 99 181
62 99 181
62 99 181
63 100 181
61 99 181
61 98 180
62 99 181
61 99 180
62 99 179
62 99 180
62 99 181
62 99 181
62 99 180
62 99 181
62 99 181
61 98 177
61 99 179
62 99 180
62 99 179
62 99 181
62 99 177
62 99 180
62 99 179
62 99 180
62 99 180
61 99 180
62 99 181
62 99 180
62 99 177
61 99 180
62 99 180
62 99 178
62 99 181
62 99 177
62 99 180
61 99 180
62 99 180
62 99 179
62 99 180
62 99 181
63 99 178
62 99 181
62 98 175
62 99 180
62 99 181
62 99 180
61 99 178
62 99 178
61 99 180
62 99 175
62 98 177
62 99 179
62 99 175
62 99 176
62 98 175
62 99 178
63 99 177
61 98 175
62 99 178
61 98 174
61 98 178
62 99 176
61 98 174
62 99 176
61 97 171
61 98 177
61 97 174
61 97 172
60 96 169
61 97 170
61 97 172
61 97 168
62 98 173
60 95 162
69 99 163
94 110 144
110 118 124
118 120 105
121 120 73
110 108 68
125 123 76
125 123 74
120 119 74
118 115 64
122 120 79
117 116 75
120 119 78
101 102 64
113 111 73
121 120 79
112 112 74
119 119 81
124 124 84
117 117 82
110 111 77
125 125 85
116 117 81
116 117 81
129 129 89
128 128 87
127 127 89
121 121 85
131 130 89
124 125 88
131 131 91
132 132 93
136 136 93
140 138 93
138 137 94
129 130 91
145 144 97
130 132 94
146 144 96
142 140 94
146 145 98
140 140 95
150 148 99
149 147 97
148 146 96
140 141 98
154 151 100
154 152 101
153 151 100
154 152 101
154 152 103
144 143 98
149 147 100
151 149 99
157 154 104
161 157 102
162 159 106
161 158 102
161 157 103
164 161 105
161 158 103
161 157 102
168 164 107
164 161 103
166 162 105
168 164 103
170 165 105
167 163 103
163 161 106
169 165 106
172 167 106
167 164 106
173 168 106
167 164 106
171 166 105
174 169 108
173 168 108
170 166 108
173 169 108
172 169 108
179 172 108
172 167 106
172 167 105
174 169 105
175 170 107
172 168 106
176 170 106
175 170 105
175 170 107
175 170 108
176 170 107
173 168 105
174 169 108
175 170 105
173 168 106
174 168 106
175 170 105
177 171 107
176 169 106
173 168 105
176 171 106
171 165 101
176 169 103
172 166 105
173 167 104
178 171 107
167 162 101
163 159 97
172 166 102
172 165 100
172 166 101
171 165 100
169 164 99
169 164 100
166 159 96
168 162 96
170 165 101
172 165 103
165 161 96
173 168 103
170 164 99
166 160 95
167 160 93
172 165 101
162 156 93
163 158 95
165 158 93
167 160 94
165 160 93
162 156 96
160 154 87
161 155 90
164 158 90
160 154 91
149 144 78
160 154 91
150 145 84
160 153 90
161 153 83
152 147 81
151 145 80
154 148 80
151 144 82
157 152 86
148 142 77
145 139 78
148 142 79
144 138 75
154 149 74
148 148 63
144 146 63
142 149 49
148 156 49
156 166 48
163 173 48
166 183 28
165 182 36
172 191 22
167 185 22
173 194 11
173 196 0
174 197 0
175 198 0
170 194 0
173 196 0
173 196 0
172 196 0
172 196 0
175 198 0
174 197 0
175 198 0
173 196 0
174 197 0
174 197 0
170 194 0
173 197 0
173 196 0
172 196 0
172 196 0
172 196 0
174 198 0
174 196 0
171 195 0
174 197 0
174 196 0
173 196 0
172 195 0
173 197 0
172 196 0
174 197 0
172 195 0
174 197 0
169 193 0
172 195 0
173 196 0
173 195 0
171 195 0
173 197 0
175 198 0
171 195 0
173 196 0
170 194 0
172 195 0
174 197 0
173 197 0
173 196 0
174 197 0
173 197 0
172 195 0
171 194 0
170 193 0
174 197 0
173 196 0
174 197 0
171 194 0
171 195 0
171 195 0
174 198 0
170 193 0
171 194 0
172 195 0
172 195 0
173 197 0
172 195 0
173 196 0
174 198 0
173 196 0
175 198 0
174 197 0
169 192 0
173 196 0
174 197 0
174 197 0
172 195 0
171 194 0
172 195 0
175 198 0
170 194 0
171 194 0
170 194 0
173 196 0
169 193 0
173 197 0
173 196 0
172 195 0
173 197 0
171 195 0
174 197 0
173 196 0
173 196 0
174 197 0
172 195 0
174 196 0
173 197 0
172 195 0
171 194 0
170 194 0
171 195 0
173 196 0
171 194 0
172 195 0
172 195 0
172 196 0
168 190 31
153 177 86
131 156 115
90 120 153
61 98 174
62 99 171
62 99 175
61 98 171
62 98 172
62 99 177
62 99 175
62 99 172
62 99 180
62 99 175
63 99 173
62 99 179
62 99 178
62 99 178
62 99 176
62 99 181
62 99 181
62 99 177
62 99 178
62 99 178
62 99 178
62 99 179
62 99 179
62 99 181
61 99 179
62 99 179
62 99 178
62 99 180
62 99 180
61 99 180
62 99 179
62 99 179
62 99 178
62 99 181
62 99 180
62 99 180
62 99 179
62 99 179
61 99 181
62 99 181
62 99 180
62 99 181
62 99 180
62 99 181
62 99 179
61 99 181
62 99 181
62 99 180
62 99 181
63 100 181
62 99 180
62 99 181
61 98 180
62 99 180
62 99 181
62 99 180
61 99 179
61 99 181
62 99 179
61 99 180
62 99 180
62 99 180
62 99 181
62 99 180
61 99 181
62 99 180
62 99 181
61 99 180
61 98 178
62 99 181
62 99 181
62 99 180
62 99 181
62 99 180
62 99 181
62 99 181
62 99 180
62 99 180
61 99 180
62 99 179
62 99 180
62 99 181
62 99 181
62 99 181
62 99 179
62 99 180
61 98 177
62 99 177
62 99 181
62 99 181
61 98 177
62 99 177
62 99 181
62 98 178
62 99 179
62 99 179
61 99 180
62 99 180
62 99 178
61 98 178
62 99 181
62 99 178
62 99 177
61 98 178
63 99 178
63 99 178
62 99 179
62 99 179
62 99 177
62 99 179
62 99 178
62 99 180
61 98 176
62 98 175
62 99 178
62 98 173
62 99 176
62 99 178
61 97 170
62 99 178
62 98 173
62 99 175
62 98 170
62 98 173
62 98 174
61 97 173
62 98 174
63 99 175
62 98 171
61 97 164
60 97 170
62 98 174
61 97 169
61 98 176
68 96 155
95 110 141
99 107 120
122 121 87
122 120 76
116 115 68
111 110 71
111 110 70
113 112 73
115 113 70
120 119 75
115 115 76
111 112 77
118 116 76
107 107 70
114 113 75
111 112 78
112 113 76
123 123 84
115 116 78
118 118 82
122 123 86
115 116 81
126 126 86
116 118 83
125 126 89
133 133 91
127 128 89
113 115 82
132 131 91
124 124 85
130 130 90
143 142 96
127 127 88
140 139 94
137 136 92
139 138 93
147 146 98
138 138 95
135 135 92
151 148 98
142 140 95
144 143 97
143 142 96
145 144 97
154 152 101
152 151 101
151 149 98
152 150 101
150 147 97
153 151 100
152 149 98
155 152 101
154 153 100
159 157 103
158 155 102
161 158 102
161 158 100
159 156 100
164 160 104
160 157 104
161 158 102
157 155 99
164 160 103
167 163 104
171 167 107
168 164 108
177 171 108
173 167 106
172 168 109
165 162 103
169 165 104
172 167 103
170 166 106
171 167 103
170 165 106
172 167 110
173 169 106
172 167 107
172 167 106
172 168 108
178 171 107
173 169 107
178 172 110
174 168 106
175 170 110
172 167 103
175 169 103
175 170 104
176 170 108
174 168 105
173 168 104
168 164 101
175 170 107
173 168 105
173 168 103
171 165 100
173 168 106
172 167 103
175 169 104
175 170 108
172 166 101
172 166 101
175 170 105
173 167 103
171 165 103
165 160 98
172 167 103
173 167 103
175 169 103
169 164 96
167 161 98
172 166 100
169 163 99
170 164 98
171 165 101
169 163 95
167 162 98
166 160 96
170 163 99
168 162 95
164 157 93
157 152 91
166 160 95
169 162 97
165 160 90
163 157 89
165 158 93
160 154 90
159 154 86
166 159 97
162 155 90
160 155 89
163 156 93
157 150 90
152 147 82
157 152 87
154 148 85
152 147 83
153 146 85
152 146 79
154 147 87
147 141 79
150 144 80
153 147 79
143 137 68
149 142 76
146 145 66
146 144 57
153 154 66
152 156 59
152 160 53
151 160 49
152 163 45
160 176 30
162 182 19
165 185 22
167 187 22
172 194 0
173 196 0
175 198 0
172 195 0
174 197 0
175 198 0
172 196 0
173 196 0
174 196 0
175 197 0
172 196 0
174 197 0
175 197 0
171 195 0
174 197 0
173 196 0
172 196 0
173 196 0
172 195 0
173 196 0
173 196 0
171 195 0
173 196 0
172 196 0
174 197 0
173 197 0
173 196 0
173 196 0
171 195 0
169 193 0
172 196 0
174 197 0
173 197 0
172 196 0
173 195 0
172 195 0
175 197 0
173 197 0
173 195 0
173 196 0
171 194 0
173 197 0
170 194 0
176 198 0
173 197 0
173 196 0
171 195 0
171 194 0
173 197 0
173 195 0
172 196 0
171 194 0
172 195 0
172 196 0
173 196 0
173 197 0
173 196 0
171 195 0
171 194 0
172 195 0
173 197 0
174 198 0
172 195 0
174 197 0
169 192 0
173 197 0
170 194 0
167 191 0
172 196 0
172 195 0
173 196 0
171 195 0
172 195 0
173 197 0
172 195 0
171 194 0
173 196 0
174 197 0
171 194 0
174 197 0
173 196 0
174 198 0
172 196 0
171 194 0
173 197 0
172 195 0
172 196 0
170 193 0
172 195 0
171 194 0
173 196 0
173 196 0
171 194 0
174 196 0
171 194 0
172 195 0
170 194 0
171 195 0
173 195 0
172 196 0
173 195 0
173 196 0
172 195 0
170 194 18
159 183 65
134 159 115
99 127 150
68 103 167
63 99 174
63 100 178
62 99 176
63 99 175
62 99 175
62 99 172
62 99 177
63 99 178
62 99 175
63 99 175
62 99 177
62 99 179
61 98 175
62 98 172
63 99 176
62 99 177
63 100 180
62 99 179
62 99 178
62 99 181
62 99 179
62 99 179
62 99 179
62 99 181
61 98 179
62 99 177
62 99 181
62 99 180
61 99 179
62 99 180
62 99 179
62 99 179
61 99 180
62 99 181
62 99 181
62 99 181
62 100 181
62 99 181
62 99 179
62 99 179
61 99 179
62 99 180
61 99 181
62 99 181
62 99 181
62 99 179
63 100 181
62 99 179
62 99 181
61 99 179
62 99 181
61 99 180
62 99 180
62 99 181
62 99 181
61 99 180
61 99 180
61 99 180
62 99 181
62 99 180
61 99 181
61 99 181
62 99 181
62 99 181
62 99 180
62 99 180
61 99 180
62 99 181
62 99 181
62 99 179
62 99 180
62 99 180
62 99 181
62 99 180
62 99 180
61 99 180
62 99 179
62 99 177
62 99 180
62 99 179
62 99 181
62 99 180
62 99 181
62 99 179
61 99 179
62 99 180
62 99 179
61 98 180
61 99 181
61 99 178
62 99 180
62 99 181
62 99 180
62 99 181
62 99 179
62 99 178
62 99 179
61 99 177
62 99 177
62 99 180
62 99 180
62 99 178
62 99 179
63 99 176
62 99 180
62 99 180
62 99 176
61 98 178
62 99 180
62 99 179
62 99 179
62 99 179
63 100 180
63 99 177
61 98 174
62 99 178
61 98 176
62 99 177
62 98 172
62 99 179
63 99 178
61 97 171
61 97 172
62 98 175
61 97 174
62 99 175
61 98 170
61 98 173
61 98 173
60 95 166
61 97 173
61 97 168
60 95 167
60 95 165
60 95 166
74 101 155
91 106 132
93 101 99
108 112 87
109 108 69
123 121 76
105 106 70
110 110 70
117 116 76
112 113 73
109 109 71
104 105 72
109 110 74
118 117 80
104 106 74
111 113 79
123 123 82
128 127 88
119 118 81
113 114 80
111 113 80
123 122 83
120 120 82
112 113 81
117 118 84
123 123 83
124 125 88
127 127 86
130 130 91
127 128 89
121 122 87
123 123 86
131 131 88
130 130 89
130 131 92
132 133 92
131 130 87
135 135 92
135 134 89
138 137 94
150 148 99
154 151 99
146 144 97
136 136 95
149 146 97
153 150 97
153 151 100
153 151 99
157 154 101
155 152 99
159 155 102
159 156 103
152 151 99
151 150 99
163 160 104
158 155 104
163 160 102
163 160 104
158 155 100
169 165 107
165 161 104
167 164 104
167 164 105
162 159 103
169 165 106
172 167 108
170 166 105
169 165 105
165 161 102
166 163 105
174 169 108
172 167 107
170 165 107
168 164 105
169 165 106
173 169 107
173 168 106
174 169 107
172 168 105
177 172 110
173 169 105
173 168 105
177 171 106
176 170 105
172 167 103
174 169 103
174 169 107
173 167 105
174 169 103
170 166 104
172 166 101
175 169 106
176 171 107
175 169 99
176 170 106
174 168 105
175 169 106
174 169 105
175 169 104
169 163 97
171 166 101
174 168 104
173 167 101
170 164 97
176 169 103
169 164 98
176 169 105
173 168 104
171 166 100
173 168 103
170 164 101
173 168 101
170 164 97
169 163 100
169 163 97
174 168 103
160 155 88
169 163 95
166 160 93
165 160 91
163 157 93
167 161 97
163 157 88
166 160 93
161 155 90
171 164 97
164 158 94
158 152 87
166 159 96
160 154 88
154 149 81
160 153 84
162 155 84
161 155 87
156 150 87
157 151 87
153 147 81
147 141 77
150 144 80
155 148 80
149 143 75
160 153 85
151 145 79
143 137 76
133 128 65
143 139 64
146 141 72
146 146 68
148 149 63
144 148 52
153 160 52
152 162 48
148 161 36
158 172 45
162 177 32
167 186 22
168 188 16
170 193 0
174 197 0
173 196 0
175 198 0
170 194 0
174 197 0
172 196 0
173 196 0
174 197 0
172 196 0
175 198 0
173 196 0
173 197 0
174 196 0
173 197 0
174 197 0
174 197 0
172 196 0
173 197 0
171 195 0
175 198 0
173 197 0
174 198 0
175 198 0
172 196 0
173 196 0
172 196 0
173 196 0
174 198 0
173 196 0
173 197 0
171 195 0
173 196 0
173 197 0
174 197 0
173 196 0
175 198 0
169 194 0
174 197 0
174 197 0
172 195 0
171 194 0
170 194 0
172 195 0
171 195 0
172 195 0
175 198 0
172 195 0
173 197 0
174 197 0
172 196 0
172 196 0
173 196 0
172 196 0
172 195 0
171 195 0
171 195 0
170 193 0
172 195 0
171 194 0
173 196 0
171 194 0
173 196 0
174 198 0
172 195 0
172 195 0
172 195 0
172 195 0
174 197 0
173 196 0
173 196 0
172 196 0
172 196 0
172 195 0
173 197 0
172 196 0
173 196 0
170 194 0
173 195 0
169 193 0
171 193 0
172 195 0
169 193 0
169 192 0
170 194 0
170 194 0
169 193 0
169 192 0
172 196 0
172 194 0
172 195 0
173 196 0
171 195 0
170 194 0
169 193 0
172 195 0
171 195 0
171 195 0
172 195 0
171 195 0
171 195 0
172 194 0
169 193 0
150 174 72
140 165 97
99 127 145
62 99 171
62 99 172
62 99 173
62 99 171
62 98 171
62 99 174
61 98 174
62 99 176
62 99 176
62 99 176
62 99 175
62 99 175
62 99 178
62 99 177
62 99 180
62 99 177
61 99 180
62 99 180
63 99 177
62 99 178
62 99 179
62 99 178
62 99 176
62 99 176
62 99 178
62 99 181
63 100 180
62 99 177
62 99 179
61 98 178
62 99 180
62 99 181
62 99 179
62 99 179
61 99 180
62 99 178
62 99 180
62 99 178
62 99 179
62 99 178
62 99 180
62 99 179
62 99 181
62 99 181
62 99 180
62 99 179
62 99 180
62 99 179
62 99 181
62 99 181
62 99 179
62 99 180
62 99 180
61 99 179
62 99 181
62 99 181
61 99 179
62 99 180
62 99 181
62 99 181
62 99 180
62 99 181
62 99 180
62 99 180
62 99 181
62 99 179
62 99 180
62 99 180
62 99 181
62 99 181
62 99 180
62 99 181
61 99 181
62 99 181
62 99 181
61 99 181
62 99 181
61 99 180
62 99 180
62 99 179
62 99 180
61 99 179
62 99 180
62 99 180
62 99 181
62 99 177
62 99 181
62 99 179
61 99 177
62 99 179
62 99 177
61 98 180
62 99 178
62 99 179
62 99 181
62 99 181
62 99 177
62 99 175
62 99 180
62 99 180
62 99 178
61 98 177
61 98 178
62 99 175
62 99 179
61 99 178
62 99 176
62 99 179
61 98 177
62 99 177
63 99 179
62 99 177
62 99 176
61 98 177
62 99 176
62 99 179
62 99 179
62 99 176
62 99 178
61 98 176
62 98 175
62 99 176
62 99 177
62 99 175
62 98 174
62 99 177
62 99 175
61 97 169
61 98 175
62 98 174
61 98 176
60 96 169
61 97 170
61 98 172
61 96 163
61 97 171
61 97 169
61 96 167
81 103 152
91 103 124
98 105 108
115 114 79
120 119 77
120 117 72
118 116 73
103 102 65
113 112 72
102 103 66
109 109 72
113 113 75
113 112 73
111 111 74
118 117 76
102 102 71
103 104 69
112 113 79
112 113 78
105 108 76
112 114 79
101 103 72
118 119 84
118 120 85
109 112 81
120 121 85
113 115 81
126 127 88
120 121 83
125 126 88
128 129 91
120 120 84
138 136 92
126 128 90
134 134 93
130 132 93
141 141 96
130 131 90
134 133 91
143 142 95
150 147 97
139 139 94
144 141 94
154 152 101
159 155 102
154 151 100
149 148 95
148 146 95
156 153 100
156 153 99
154 152 101
156 153 101
154 151 98
162 159 102
163 160 104
163 159 103
165 162 102
163 159 103
161 159 105
166 162 104
162 159 103
166 162 104
161 158 102
167 162 106
171 167 107
168 164 104
170 166 107
167 162 104
168 165 107
173 168 108
175 170 108
169 165 107
174 169 105
173 168 109
170 165 100
174 168 106
172 168 104
175 169 107
172 168 108
172 167 103
171 166 100
174 169 103
174 169 105
174 169 106
174 169 103
176 170 106
174 169 107
174 169 104
174 169 105
175 169 101
172 167 103
175 169 103
171 166 102
174 169 108
170 165 101
173 168 104
175 169 103
174 168 103
174 168 105
175 168 103
172 165 99
173 167 101
171 165 100
174 167 100
173 167 103
168 162 101
172 166 103
173 168 101
169 163 99
167 161 96
167 161 96
171 166 102
166 160 92
167 161 99
167 161 96
170 165 97
163 157 92
166 160 92
166 160 97
167 161 97
166 160 94
168 162 96
168 161 93
168 161 95
161 155 89
163 157 93
170 164 96
166 159 93
158 152 92
154 149 87
158 152 87
155 148 84
164 158 90
161 154 85
160 155 88
154 147 85
154 148 84
155 148 84
154 148 82
146 140 78
150 143 78
152 145 76
142 136 67
146 141 75
145 140 68
144 138 69
145 143 68
146 148 53
149 153 56
146 153 54
155 164 51
149 160 42
159 174 36
169 185 37
167 186 28
171 191 22
169 189 16
173 197 0
173 196 0
174 197 0
171 194 0
173 197 0
172 195 0
173 196 0
173 197 0
173 197 0
174 197 0
173 196 0
175 197 0
174 197 0
172 196 0
172 195 0
171 195 0
173 197 0
174 197 0
174 197 0
174 197 0
174 197 0
174 197 0
173 197 0
174 197 0
169 192 0
171 195 0
173 195 0
174 197 0
175 198 0
173 197 0
169 193 0
173 197 0
172 195 0
172 196 0
171 194 0
174 197 0
172 196 0
173 196 0
172 195 0
169 193 0
171 196 0
172 195 0
172 195 0
172 195 0
170 194 0
173 197 0
171 194 0
171 193 0
171 195 0
175 198 0
171 194 0
173 196 0
173 196 0
172 196 0
171 195 0
170 193 0
173 196 0
173 196 0
172 195 0
171 195 0
172 195 0
170 194 0
171 195 0
175 197 0
171 194 0
171 194 0
173 197 0
172 195 0
171 195 0
172 197 0
172 195 0
173 196 0
172 196 0
172 196 0
172 195 0
171 195 0
169 193 0
173 197 0
175 197 0
172 196 0
170 193 0
171 195 0
172 195 0
169 192 0
172 196 0
171 195 0
172 195 0
173 196 0
173 197 0
174 197 0
173 195 0
172 195 0
170 194 0
172 195 0
171 193 0
170 194 0
173 195 0
168 191 0
171 194 0
173 197 0
170 193 0
167 190 47
148 171 90
104 131 141
74 108 163
62 99 175
62 99 171
63 99 171
63 99 173
62 99 177
64 100 178
61 98 175
62 99 173
62 99 174
62 99 176
62 99 177
62 99 178
62 99 178
62 99 179
62 99 179
63 99 176
62 99 175
63 100 180
62 99 176
61 98 179
62 99 177
62 99 180
61 99 176
62 99 178
62 99 181
62 99 179
62 99 180
62 99 181
62 99 176
62 99 178
63 100 180
61 99 179
62 99 180
62 99 180
63 100 180
62 99 179
62 99 180
62 99 181
62 99 179
62 99 180
62 99 177
62 99 180
61 98 177
62 99 179
62 99 181
62 99 180
62 99 179
62 99 181
62 99 181
61 99 181
62 99 181
62 99 181
62 99 181
62 99 179
62 99 181
61 99 180
62 99 181
62 99 181
62 99 180
62 99 179
62 99 181
62 99 181
62 99 181
62 99 179
62 99 181
62 99 181
62 99 181
62 99 180
61 99 179
62 99 180
62 99 180
62 99 180
62 99 181
62 99 178
62 99 180
62 99 179
62 99 180
62 99 179
62 99 180
62 99 180
62 99 181
62 99 179
62 99 178
61 98 177
62 99 179
62 99 181
62 99 178
61 99 179
62 99 180
63 100 181
62 99 177
62 99 177
62 99 178
61 99 180
62 99 178
62 99 176
62 99 180
61 98 178
61 98 175
61 99 181
62 99 179
62 99 181
62 99 180
62 99 178
62 99 175
62 99 179
62 99 179
62 99 180
61 98 175
62 99 177
61 98 176
62 99 176
62 99 176
62 98 176
62 99 178
62 99 175
61 98 174
61 98 175
62 98 175
63 99 176
61 98 175
62 98 170
62 99 172
61 97 176
61 97 168
62 98 172
61 98 176
61 97 171
62 98 171
60 96 167
61 96 167
61 97 170
62 98 169
61 96 167
61 96 163
60 96 170
61 96 165
61 97 171
67 96 154
78 100 141
98 109 126
113 116 99
107 107 68
113 111 72
117 116 74
115 113 73
113 112 77
100 100 66
107 107 71
109 109 72
118 118 80
111 111 74
112 112 75
112 114 79
107 108 74
113 114 80
113 113 80
115 116 78
102 105 75
112 114 81
130 129 88
122 123 86
124 126 87
125 125 88
125 125 87
118 119 84
131 130 90
131 130 88
132 132 91
129 129 90
134 133 90
133 133 89
126 127 87
138 138 96
132 133 93
140 139 94
139 138 95
140 139 95
142 141 95
142 141 94
144 142 94
148 147 96
143 141 93
144 142 95
151 149 98
148 147 97
152 150 99
161 158 101
152 150 98
158 155 100
158 155 102
164 159 102
164 160 104
158 155 101
166 162 101
162 159 102
163 160 103
164 160 100
163 160 102
166 161 101
172 166 105
170 165 102
166 162 102
167 163 105
170 165 105
169 165 105
169 165 105
169 164 104
169 165 102
166 162 104
170 165 104
173 168 104
172 168 105
172 167 106
172 167 105
172 167 103
172 168 107
171 167 100
175 169 106
174 168 103
171 167 101
175 169 105
173 168 103
173 169 106
174 169 106
173 168 104
173 168 101
176 170 106
172 167 98
172 167 102
174 169 105
173 168 104
172 166 102
176 170 109
173 168 106
173 168 106
172 167 103
170 166 99
175 168 104
172 166 101
169 164 99
174 168 99
174 168 101
166 159 94
171 166 98
171 165 98
172 165 102
171 165 99
170 163 98
172 165 101
167 161 93
174 167 101
163 157 93
168 162 94
166 160 95
165 160 95
164 159 96
163 156 93
159 154 90
170 164 95
159 153 86
171 164 97
164 158 87
167 161 93
161 155 90
156 150 89
157 151 87
159 152 90
166 161 91
161 155 89
151 146 80
154 149 84
151 145 77
156 149 84
153 148 81
153 147 80
146 140 73
152 146 75
151 145 74
142 135 72
143 137 70
148 142 76
127 123 57
141 136 66
145 143 63
138 138 63
154 157 60
152 162 47
157 163 56
160 171 49
155 172 22
168 183 47
170 190 19
167 185 28
168 189 19
173 197 0
170 194 0
172 196 0
175 198 0
172 196 0
174 197 0
172 196 0
174 197 0
172 195 0
172 195 0
173 197 0
175 198 0
172 196 0
172 196 0
172 196 0
172 196 0
174 197 0
173 196 0
172 196 0
174 196 0
169 192 0
176 199 0
171 194 0
172 195 0
172 196 0
172 195 0
172 197 0
173 196 0
172 195 0
175 198 0
172 195 0
174 197 0
175 198 0
170 193 0
172 196 0
172 196 0
170 193 0
171 196 0
173 196 0
172 196 0
171 195 0
172 196 0
173 196 0
173 197 0
169 192 0
173 197 0
173 197 0
172 196 0
174 197 0
172 195 0
174 197 0
173 196 0
172 195 0
171 194 0
171 195 0
174 197 0
172 196 0
170 194 0
172 195 0
173 196 0
174 196 0
171 195 0
172 195 0
171 194 0
173 196 0
174 197 0
173 196 0
169 193 0
173 196 0
172 195 0
171 194 0
175 198 0
172 196 0
173 196 0
173 196 0
170 193 0
171 195 0
173 197 0
171 194 0
170 193 0
173 196 0
174 196 0
170 194 0
170 194 0
170 193 0
172 196 0
173 195 0
169 192 0
172 196 0
172 195 0
172 195 0
170 193 0
169 193 0
173 195 0
171 194 0
171 194 0
169 192 0
172 195 0
173 197 0
173 196 0
171 194 36
149 173 90
116 143 136
80 112 157
62 98 168
63 99 175
63 99 172
62 99 175
61 98 169
61 98 175
63 99 178
63 99 177
62 99 178
63 99 176
62 99 176
62 99 175
62 99 181
62 99 173
62 99 177
62 99 178
61 98 174
62 99 173
63 100 179
62 99 177
62 99 177
61 99 178
62 99 178
62 99 178
62 99 181
62 99 179
62 99 179
62 99 181
62 99 178
62 99 180
62 99 177
62 99 179
62 99 178
62 99 179
62 99 178
62 99 180
62 99 177
62 99 179
62 99 181
62 99 181
61 99 181
62 99 179
61 99 179
62 99 181
62 99 181
61 98 178
62 99 181
61 98 178
61 99 181
62 99 180
62 99 179
62 99 181
62 99 180
62 99 181
62 99 180
61 99 179
61 98 179
63 100 181
62 99 180
62 99 181
62 99 180
61 99 180
63 100 181
62 99 179
62 99 179
61 98 180
61 99 179
62 99 180
62 99 181
63 100 181
62 99 180
62 99 181
61 98 180
62 99 180
62 99 181
61 99 181
62 99 180
62 99 181
62 99 180
61 98 176
61 99 179
61 98 178
62 99 179
62 99 180
62 99 181
62 99 179
61 99 181
61 99 180
61 98 179
62 99 180
62 99 178
62 99 178
62 99 180
62 99 180
62 99 179
61 98 179
62 99 177
62 99 179
62 99 180
61 98 176
61 99 180
62 99 179
62 99 179
63 100 181
62 99 179
62 99 178
62 99 180
61 99 179
62 99 176
62 99 179
62 99 176
62 99 179
62 99 176
62 99 179
62 99 176
61 98 177
61 98 173
62 98 174
62 99 177
62 98 174
62 99 178
61 98 176
62 98 175
62 98 174
62 98 175
62 98 171
62 98 173
62 98 171
62 99 171
61 97 173
62 99 176
61 98 173
61 97 170
61 97 169
62 99 171
60 96 167
61 97 174
62 97 169
60 95 166
60 95 165
65 98 165
77 98 138
98 108 122
95 100 94
104 106 77
116 114 72
111 110 70
116 114 73
115 114 76
115 114 76
101 102 68
107 107 75
95 96 67
103 105 73
115 115 80
98 101 74
121 120 82
105 107 75
111 111 79
113 114 81
108 109 76
117 117 82
109 112 81
114 115 79
116 119 83
121 121 86
128 128 90
128 128 89
122 122 83
120 121 85
129 129 88
133 133 90
136 135 91
134 135 92
132 132 90
131 132 90
137 136 90
141 139 95
142 140 93
151 149 102
143 141 94
142 141 95
137 136 92
147 145 96
146 145 98
147 146 94
149 147 96
153 152 99
145 143 92
154 151 98
155 152 102
157 154 99
156 154 100
163 160 105
161 159 103
160 157 97
154 152 98
165 161 103
163 160 102
163 160 103
161 158 103
161 158 102
163 159 102
170 166 104
175 170 108
166 162 104
168 164 103
171 168 104
167 164 105
172 168 107
169 165 103
169 165 104
169 164 104
175 169 106
168 165 102
170 165 103
171 166 103
172 167 102
177 171 105
174 168 107
175 170 102
177 171 104
174 169 106
177 170 105
176 170 103
171 167 103
173 168 101
179 172 106
174 168 103
173 168 104
173 167 103
174 169 101
173 167 105
177 171 106
170 165 100
173 167 98
170 165 98
175 170 106
172 167 104
173 167 103
173 167 103
173 167 102
173 167 101
170 165 97
171 165 98
168 163 97
167 162 98
172 167 104
170 165 97
171 164 99
171 165 102
171 165 102
168 162 93
167 161 96
163 157 95
171 165 96
169 161 94
171 165 97
163 157 92
167 160 93
166 160 93
164 158 92
164 157 89
160 154 88
165 157 93
161 156 87
165 159 91
162 157 93
164 158 89
162 154 90
149 145 77
150 144 80
157 150 84
159 152 85
154 149 81
150 144 81
150 145 73
156 149 85
148 142 75
146 141 75
152 145 82
137 132 68
144 138 71
142 136 71
137 131 70
145 143 66
147 148 62
153 157 57
145 155 48
142 154 30
153 164 44
163 175 48
156 173 30
165 184 25
167 187 16
169 189 11
172 196 0
174 197 0
171 195 0
172 197 0
173 196 0
172 196 0
171 195 0
172 196 0
173 196 0
172 195 0
174 198 0
172 196 0
173 196 0
172 195 0
172 196 0
173 197 0
172 196 0
173 196 0
170 194 0
173 196 0
171 194 0
172 196 0
173 196 0
171 194 0
174 198 0
173 197 0
174 197 0
173 197 0
172 196 0
174 197 0
172 195 0
173 196 0
173 196 0
170 193 0
173 197 0
172 196 0
173 196 0
170 193 0
174 196 0
172 196 0
172 196 0
173 196 0
170 193 0
171 195 0
172 195 0
171 194 0
174 197 0
172 196 0
173 197 0
173 197 0
173 196 0
173 196 0
172 195 0
173 196 0
172 195 0
171 194 0
170 193 0
171 195 0
173 196 0
171 194 0
171 195 0
172 196 0
172 196 0
174 197 0
171 194 0
171 195 0
172 195 0
171 194 0
171 195 0
172 196 0
172 194 0
169 192 0
172 195 0
172 195 0
172 196 0
171 194 0
173 196 0
173 197 0
170 194 0
171 195 0
170 193 0
170 193 0
174 197 0
171 195 0
170 194 0
172 195 0
173 196 0
171 194 0
171 194 0
171 194 0
172 195 0
172 194 0
170 193 0
169 193 0
168 191 0
172 194 0
170 193 0
171 193 0
169 194 0
171 194 0
156 180 76
115 142 133
80 113 167
62 99 176
62 98 173
62 98 169
62 99 172
62 99 176
61 98 168
62 99 175
62 99 177
62 99 173
62 99 174
62 99 176
63 100 176
63 100 177
62 99 177
63 100 180
62 99 178
62 99 179
62 99 179
62 99 179
62 99 178
62 99 179
62 99 178
61 98 177
62 99 180
62 99 181
62 99 180
62 99 177
63 100 180
62 99 180
61 99 180
62 99 178
62 99 180
63 100 180
61 99 180
62 99 180
62 99 179
61 99 181
63 100 181
62 99 179
62 99 179
62 99 180
62 99 181
62 99 181
62 99 180
61 99 181
62 99 180
63 100 180
62 99 180
62 99 178
62 99 179
62 100 181
62 99 180
62 99 180
61 99 180
62 99 181
61 99 180
62 99 181
61 98 178
62 99 181
62 99 181
62 99 180
62 99 180
62 99 178
61 98 178
62 99 180
62 99 181
62 99 181
62 99 181
62 99 180
61 99 180
62 99 181
62 99 177
62 99 179
62 99 181
62 99 180
62 99 181
62 99 180
61 98 179
62 99 180
62 99 178
62 99 180
62 99 181
62 99 180
61 98 178
61 99 179
62 99 180
62 99 180
61 99 180
61 98 176
62 99 179
62 99 181
62 99 180
61 98 179
62 99 178
62 99 178
62 99 178
62 99 178
62 99 180
62 99 181
62 99 180
61 98 177
62 99 180
62 99 176
62 99 178
62 99 181
62 99 175
61 99 178
62 99 177
62 98 175
62 99 177
62 99 180
61 98 176
62 99 179
62 99 178
62 99 180
62 99 180
62 99 177
62 99 176
61 98 172
62 99 178
62 99 177
62 99 180
62 99 175
62 99 178
62 98 174
62 99 174
63 100 177
61 98 170
62 98 174
61 97 172
62 98 176
61 97 169
61 98 172
62 98 171
61 97 172
62 98 170
62 97 167
61 97 171
61 97 168
61 97 171
62 98 172
61 95 167
69 96 149
92 107 130
91 101 115
102 103 79
109 108 67
121 118 75
104 103 66
110 109 70
100 100 66
102 104 70
101 101 67
113 113 77
96 99 70
101 102 72
111 112 79
110 110 76
103 105 75
111 111 77
110 112 77
110 111 80
113 114 82
111 112 78
113 115 81
114 115 82
123 124 87
123 123 85
124 124 85
115 117 81
126 126 87
130 130 89
115 117 85
132 131 86
127 128 85
127 127 88
129 129 91
145 143 98
137 136 92
139 138 92
135 134 89
145 144 96
138 138 95
147 145 93
143 142 95
148 146 95
145 144 96
152 150 98
158 155 102
160 156 100
158 154 101
156 152 98
157 153 99
151 149 97
153 151 98
156 152 97
159 156 102
165 162 104
157 155 97
163 160 104
161 158 100
163 159 99
167 163 99
165 161 104
166 162 101
169 164 103
173 168 105
171 166 108
168 163 101
166 161 99
170 165 105
176 170 107
169 164 100
172 167 104
171 166 106
174 169 103
175 169 102
174 169 108
173 169 105
169 164 100
175 170 101
174 168 105
173 169 106
174 169 105
171 167 103
174 168 106
174 169 106
172 166 100
177 171 106
174 169 102
176 170 106
176 170 103
173 168 101
173 168 103
174 169 103
175 169 105
173 167 99
176 169 99
176 168 101
173 167 103
173 167 99
172 166 99
171 166 95
171 165 101
173 167 100
173 167 100
168 163 97
167 162 96
170 164 98
173 167 99
172 166 102
170 163 98
171 166 99
173 167 101
166 161 96
164 157 90
168 162 93
169 163 93
166 160 92
170 164 101
162 157 90
163 157 90
158 153 86
160 153 84
166 160 97
159 153 85
169 163 93
158 153 84
160 155 87
161 155 90
159 153 87
150 144 81
158 151 86
158 152 80
159 153 86
153 147 80
161 155 83
162 155 88
152 146 82
150 143 77
156 148 84
148 143 74
142 136 71
144 138 67
138 133 67
140 135 65
144 144 61
148 150 63
153 157 58
161 168 56
154 165 44
157 167 44
156 172 25
160 174 30
161 179 30
167 184 25
170 191 11
172 196 0
173 197 0
173 195 0
173 196 0
173 197 0
175 198 0
172 196 0
175 198 0
170 194 0
175 198 0
173 197 0
173 195 0
173 197 0
172 195 0
174 197 0
173 197 0
172 196 0
174 197 0
172 195 0
173 197 0
173 195 0
174 197 0
171 195 0
172 196 0
172 195 0
176 198 0
171 193 0
174 197 0
174 197 0
174 197 0
173 196 0
172 196 0
174 197 0
173 196 0
172 195 0
173 196 0
171 194 0
173 196 0
169 193 0
172 196 0
170 193 0
174 196 0
172 195 0
173 195 0
171 195 0
172 195 0
168 192 0
172 194 0
175 198 0
171 195 0
174 197 0
168 192 0
172 196 0
171 194 0
172 196 0
172 196 0
172 195 0
173 197 0
175 198 0
173 196 0
172 196 0
170 194 0
171 194 0
172 196 0
170 193 0
173 197 0
172 195 0
171 195 0
170 194 0
172 195 0
169 193 0
170 193 0
172 196 0
174 198 0
171 194 0
172 196 0
173 196 0
175 198 0
171 194 0
171 195 0
173 195 0
170 193 0
171 194 0
172 195 0
173 197 0
169 192 0
170 192 0
172 195 0
172 196 0
173 195 0
170 194 0
171 194 0
171 194 0
170 194 0
169 192 0
172 195 0
169 192 0
169 192 0
166 190 0
162 186 62
140 165 99
97 126 141
63 99 167
62 99 174
62 99 174
63 99 175
62 99 173
61 98 170
62 99 176
62 99 176
62 99 171
62 99 176
62 99 177
62 99 175
62 99 178
62 99 175
62 99 174
62 99 177
62 99 174
62 99 178
62 99 177
62 99 175
62 99 178
62 99 177
62 99 179
61 98 179
61 98 173
62 99 178
62 99 176
62 99 180
62 99 176
62 99 177
62 99 180
62 99 178
61 99 177
62 99 179
63 100 178
62 99 179
62 99 181
62 99 180
62 99 179
62 99 181
62 99 178
62 99 178
63 100 181
62 99 181
62 99 177
62 99 179
62 99 180
62 99 179
62 99 177
62 99 179
61 99 178
61 99 181
61 98 180
61 98 178
62 99 181
62 99 180
62 99 180
62 99 179
61 99 180
62 99 179
62 99 179
62 99 181
62 99 181
62 99 179
63 100 181
61 99 180
62 99 178
61 98 178
61 99 181
61 99 180
61 99 178
61 98 177
63 100 179
61 98 177
62 99 180
62 99 181
61 99 181
62 99 180
62 99 180
61 98 175
61 98 177
63 99 180
61 99 177
61 98 177
62 99 179
62 99 179
62 100 181
62 99 180
62 99 180
62 99 179
63 100 181
62 99 178
62 99 178
62 99 181
62 99 179
61 99 180
61 99 178
61 99 179
62 99 178
62 99 177
62 99 179
61 99 177
62 99 179
62 99 175
62 99 181
62 98 175
62 99 177
62 99 179
62 99 178
62 99 177
62 99 177
61 98 178
62 99 178
62 99 180
62 99 177
63 99 178
62 99 174
61 98 172
62 99 177
62 99 178
62 99 178
62 98 174
62 98 172
63 99 177
61 98 171
62 98 172
62 99 176
61 98 174
62 98 173
61 98 174
60 96 169
62 98 174
62 98 172
61 98 175
62 99 175
62 98 172
61 98 172
61 97 168
60 96 168
61 96 171
61 96 164
62 97 166
62 97 170
58 92 161
69 94 141
92 105 129
87 97 114
106 107 82
98 99 66
101 101 65
101 101 64
102 103 68
112 112 77
100 101 70
104 103 73
118 116 78
99 102 71
90 93 65
96 98 70
111 112 76
106 108 77
107 108 76
99 103 74
110 112 80
116 117 81
122 122 84
115 116 82
121 121 85
121 121 81
125 125 86
121 123 85
104 107 77
123 124 87
124 125 85
124 124 85
131 131 90
130 129 87
140 138 91
134 133 87
134 134 90
141 140 92
142 141 94
135 135 90
142 141 90
140 140 95
151 149 96
148 146 97
151 149 98
138 138 91
147 145 95
147 145 95
153 150 98
153 151 99
151 149 97
160 156 98
160 157 102
163 159 102
163 159 103
159 156 97
161 157 99
157 153 97
158 156 101
160 157 99
172 168 106
158 155 96
167 162 99
166 163 104
170 165 104
169 164 103
168 164 104
168 164 104
168 164 108
171 166 104
172 167 103
174 169 106
171 167 108
174 168 103
172 166 104
173 168 104
172 168 104
176 170 103
172 167 105
173 168 103
174 169 103
173 167 100
175 169 104
173 169 103
171 166 102
172 167 103
171 167 103
173 168 102
174 168 102
174 169 101
175 169 102
176 170 106
174 168 103
173 166 99
171 166 99
174 168 103
175 169 101
175 168 104
172 166 101
174 167 101
170 165 102
171 165 100
170 165 99
173 166 100
172 165 101
171 164 92
168 162 97
167 161 97
169 163 97
169 163 94
167 161 94
171 164 101
166 161 90
164 157 93
167 160 90
167 160 95
168 161 92
170 163 94
166 160 96
162 156 88
163 156 89
160 155 88
159 153 85
159 154 87
158 152 87
168 161 95
161 155 90
156 150 82
154 148 86
163 155 91
155 149 82
163 157 87
157 151 81
143 138 73
152 146 78
160 153 87
149 145 76
146 140 73
140 135 67
147 142 73
138 132 69
142 135 70
144 138 74
147 145 65
137 137 61
139 139 56
144 149 45
158 165 58
155 166 39
163 174 42
163 176 45
163 179 32
166 185 22
171 191 22
168 189 11
173 196 0
173 196 0
175 198 0
171 194 0
172 196 0
174 197 0
175 198 0
173 196 0
171 194 0
172 196 0
174 198 0
171 195 0
174 197 0
172 195 0
174 198 0
172 195 0
173 196 0
175 198 0
176 198 0
173 197 0
172 196 0
171 195 0
173 196 0
172 195 0
172 196 0
173 196 0
172 195 0
172 195 0
173 196 0
175 197 0
172 196 0
172 196 0
173 196 0
168 192 0
173 197 0
172 196 0
173 196 0
175 198 0
172 195 0
174 197 0
173 196 0
173 196 0
172 196 0
174 197 0
174 196 0
171 195 0
174 197 0
174 197 0
174 197 0
173 196 0
170 194 0
171 195 0
174 197 0
172 196 0
173 196 0
174 197 0
173 197 0
172 195 0
173 196 0
172 195 0
172 195 0
174 196 0
172 195 0
170 194 0
171 195 0
173 196 0
171 194 0
172 195 0
173 196 0
174 196 0
173 197 0
172 195 0
172 194 0
171 194 0
170 193 0
174 198 0
172 195 0
172 194 0
169 192 0
170 194 0
172 196 0
172 195 0
172 196 0
172 196 0
170 193 0
170 193 0
173 196 0
171 195 0
173 196 0
173 196 0
172 196 0
172 195 0
170 193 0
167 191 0
172 194 0
169 191 0
167 189 0
169 192 0
168 191 36
140 165 100
105 133 133
75 108 162
63 99 172
63 99 173
62 99 169
63 100 174
63 100 177
62 99 172
62 98 172
61 98 176
62 98 169
62 99 178
62 99 173
62 99 176
62 99 176
61 98 173
61 98 177
62 99 175
62 99 177
61 98 175
62 99 177
62 99 179
62 99 180
62 99 176
61 98 176
63 100 181
62 99 179
63 100 181
62 99 179
62 99 180
62 99 179
62 99 178
61 99 179
61 99 178
61 99 180
62 99 176
62 99 180
62 99 178
62 99 179
62 99 179
62 99 180
62 99 178
62 99 181
62 99 181
62 99 179
62 99 181
61 99 179
62 99 179
61 99 179
62 99 179
62 99 179
63 100 179
62 99 181
62 99 180
62 99 181
62 99 179
62 99 180
62 99 181
62 99 180
62 99 180
62 99 180
62 99 179
62 99 180
62 99 181
62 99 180
62 99 179
62 99 179
62 99 179
62 99 179
61 99 180
61 99 181
61 99 180
62 99 180
62 99 181
62 99 179
62 99 178
62 99 179
61 98 179
62 99 181
61 98 178
62 99 179
62 99 181
62 99 178
61 98 179
61 99 179
62 99 179
62 99 178
62 99 179
62 99 179
61 98 176
62 99 175
62 99 179
62 99 176
61 98 175
63 100 179
62 99 180
62 99 179
62 99 178
62 99 175
62 99 178
62 99 178
62 99 178
62 99 176
62 99 180
62 99 176
62 99 178
63 99 177
62 99 176
62 99 178
62 99 177
61 99 178
61 98 177
62 99 177
62 99 177
62 99 177
62 99 176
62 99 178
62 99 178
62 98 174
62 99 178
62 99 180
61 98 173
62 99 177
62 98 174
62 99 178
63 100 180
61 98 172
62 99 175
63 99 174
62 99 175
61 98 171
62 98 171
62 98 170
61 97 171
61 97 167
62 98 171
61 97 170
62 99 174
61 97 172
62 98 172
61 97 172
62 98 171
61 96 165
60 94 159
61 97 169
61 96 167
61 95 163
66 94 148
82 96 120
95 99 87
93 94 69
119 117 77
104 105 68
91 93 60
98 97 65
95 97 65
98 100 71
94 95 67
92 94 68
95 97 68
107 108 75
113 114 80
119 120 83
95 99 73
109 111 80
108 110 78
115 116 81
101 106 79
118 119 82
117 118 83
109 112 79
112 114 79
127 127 86
116 118 84
130 130 88
128 126 86
127 128 87
137 137 91
126 127 87
135 134 90
142 141 95
138 137 94
127 128 88
135 135 93
145 144 95
139 139 92
143 141 92
141 139 93
154 150 97
147 147 99
153 150 97
160 157 103
149 148 98
157 153 97
155 153 98
157 154 97
160 157 102
157 154 96
156 153 97
162 158 100
161 158 102
160 158 102
158 155 99
160 157 99
165 160 103
167 162 103
167 163 104
163 159 102
166 162 103
172 167 105
167 162 97
172 166 103
169 163 101
168 163 101
165 161 98
173 167 103
170 165 100
174 168 105
173 168 104
169 165 99
172 167 105
170 166 105
175 169 104
172 166 103
170 165 100
175 169 101
173 168 100
170 165 104
177 170 101
170 165 97
176 170 104
177 170 106
175 170 104
172 167 101
174 167 100
175 169 99
173 167 97
171 165 100
173 167 99
174 169 104
178 171 107
171 166 101
172 166 98
172 166 101
170 164 98
168 163 95
172 166 98
176 169 104
169 162 95
175 169 104
174 167 97
170 164 97
173 166 102
170 164 97
166 160 95
165 160 90
170 163 98
169 163 93
168 161 93
170 163 97
164 158 88
165 160 93
169 162 95
163 158 90
169 163 97
160 154 87
162 157 90
162 156 90
165 158 90
157 152 84
157 150 81
161 155 88
160 154 91
155 149 83
154 148 82
157 151 81
159 153 83
158 153 86
148 143 74
158 152 87
153 147 78
150 144 74
148 142 75
158 153 80
149 143 74
141 135 71
147 141 75
143 138 70
150 146 69
149 146 70
143 142 57
143 148 49
152 158 53
161 171 48
153 164 47
163 177 34
168 182 41
161 178 34
167 185 16
171 193 0
174 198 0
173 197 0
173 197 0
172 196 0
171 194 0
174 197 0
174 197 0
174 197 0
173 197 0
173 196 0
171 195 0
173 197 0
173 196 0
174 196 0
172 195 0
173 197 0
173 196 0
171 194 0
175 198 0
172 196 0
171 195 0
172 196 0
173 196 0
174 197 0
172 195 0
173 196 0
172 196 0
175 198 0
173 197 0
167 190 0
170 193 0
173 197 0
174 197 0
172 196 0
173 196 0
171 195 0
172 196 0
173 196 0
171 195 0
168 192 0
175 197 0
174 198 0
172 196 0
172 196 0
171 195 0
173 196 0
172 195 0
174 197 0
174 197 0
174 197 0
171 194 0
168 192 0
172 195 0
170 193 0
172 196 0
173 197 0
172 196 0
172 196 0
172 196 0
172 194 0
170 193 0
175 198 0
171 196 0
172 194 0
172 195 0
172 195 0
173 196 0
174 197 0
174 197 0
171 194 0
170 194 0
169 192 0
171 194 0
173 195 0
171 193 0
173 196 0
174 197 0
170 194 0
169 192 0
172 194 0
172 194 0
174 198 0
172 195 0
172 195 0
171 194 0
171 195 0
174 197 0
169 193 0
170 193 0
171 194 0
175 197 0
173 197 0
170 193 0
172 195 0
173 197 0
171 194 0
171 193 0
171 193 0
155 180 67
138 162 113
81 112 156
63 99 170
62 98 170
63 100 173
62 99 172
61 98 167
62 99 172
61 98 172
63 99 179
62 99 173
63 100 178
62 99 174
62 98 173
63 100 176
61 98 170
62 99 176
62 99 175
62 99 173
63 99 176
61 98 174
62 99 178
62 99 176
62 99 180
62 99 177
62 99 176
62 99 179
62 99 177
62 99 178
62 98 174
62 99 179
63 100 181
62 99 180
62 99 178
62 99 180
62 99 178
62 99 179
62 99 180
62 99 180
62 99 179
63 100 179
62 99 178
61 98 177
61 99 179
62 99 180
62 99 176
62 99 180
62 99 177
61 98 180
61 99 181
62 99 181
62 99 181
62 99 179
62 99 180
62 99 179
62 99 178
62 99 179
61 98 177
62 99 181
62 99 181
62 99 177
62 99 180
62 99 179
62 99 179
61 98 178
62 99 181
61 98 177
62 99 180
61 99 177
62 99 180
62 99 179
62 99 179
62 99 180
62 99 178
62 99 179
62 99 179
62 99 180
62 99 179
62 99 179
61 99 180
62 99 178
61 99 179
62 99 181
62 99 181
62 99 179
62 99 179
62 99 180
62 99 179
62 99 178
62 99 177
61 98 176
62 99 179
63 100 178
61 98 179
62 99 177
63 100 179
62 99 180
62 99 175
62 99 176
63 100 180
62 99 176
62 99 179
62 99 178
62 99 178
62 99 177
62 99 179
62 99 178
62 99 180
62 98 175
62 99 178
62 99 174
62 99 177
62 99 177
63 100 179
62 99 178
61 98 176
62 99 176
62 99 174
62 99 178
62 99 176
62 99 178
62 99 177
62 98 174
62 98 173
62 98 174
61 98 174
62 99 174
61 98 172
62 98 174
62 98 173
61 98 171
62 99 174
62 98 172
62 98 173
63 100 174
62 98 171
62 99 175
62 98 173
61 97 170
61 98 172
62 98 172
61 97 167
60 96 167
62 98 172
60 95 169
61 96 162
61 96 163
61 97 172
72 100 157
79 100 143
97 105 111
83 88 77
93 94 66
105 105 70
94 95 66
103 102 66
96 99 69
87 90 66
86 90 64
76 81 60
110 111 79
97 98 69
105 107 74
99 102 73
106 109 76
98 101 72
101 104 74
109 110 78
89 93 66
96 100 75
112 114 80
114 115 82
128 127 87
109 111 82
119 120 83
112 113 78
126 126 87
131 131 89
139 138 94
135 134 90
135 134 88
129 129 88
130 131 89
132 132 89
139 138 92
137 136 88
143 143 97
135 134 86
135 135 92
140 139 93
136 137 92
149 147 98
138 138 88
147 146 97
153 151 96
156 154 100
159 156 99
153 150 97
157 154 99
166 162 105
165 160 99
159 155 93
164 160 100
161 157 101
171 166 100
158 155 99
157 154 97
166 161 103
156 154 96
170 165 103
168 163 100
165 161 102
170 165 97
169 165 103
164 160 100
172 167 101
174 168 103
170 166 103
172 166 102
172 166 102
173 168 99
172 166 102
171 167 104
169 164 98
174 168 103
174 168 103
172 167 102
171 166 101
168 163 95
174 168 103
172 166 99
175 169 98
171 166 97
172 167 97
177 170 101
176 169 104
173 167 102
173 167 98
176 170 106
171 166 103
175 169 102
173 167 102
170 165 97
173 166 99
171 166 97
172 165 94
172 166 99
172 166 103
174 168 98
175 169 97
172 165 96
170 164 97
169 162 93
176 168 103
170 164 98
169 162 92
174 167 97
170 164 95
174 167 101
171 164 97
168 161 94
164 157 90
167 162 94
168 162 90
162 156 92
159 153 84
165 159 88
156 151 79
156 152 83
161 155 84
160 153 84
164 158 92
173 165 95
158 152 82
149 143 77
159 153 87
159 153 86
153 147 81
150 145 75
157 151 83
153 148 79
157 150 83
151 145 81
152 146 74
155 150 75
153 146 75
153 146 80
149 143 80
156 151 76
148 144 67
152 150 63
150 151 66
149 149 61
153 159 49
150 160 39
151 162 41
157 168 41
160 177 25
167 186 22
165 184 25
171 193 16
170 194 0
171 194 0
174 196 0
172 195 0
174 197 0
172 195 0
173 196 0
173 196 0
173 196 0
173 197 0
172 196 0
172 196 0
172 195 0
171 194 0
173 197 0
172 196 0
175 198 0
171 194 0
171 195 0
171 195 0
173 196 0
173 197 0
171 195 0
174 197 0
173 196 0
173 196 0
173 196 0
173 197 0
174 197 0
172 195 0
173 196 0
174 198 0
171 195 0
172 195 0
173 196 0
174 196 0
171 195 0
176 199 0
171 195 0
170 194 0
169 192 0
172 195 0
174 197 0
172 196 0
171 194 0
169 194 0
171 193 0
172 195 0
173 197 0
170 194 0
171 194 0
169 193 0
175 198 0
174 198 0
172 194 0
173 196 0
173 197 0
169 193 0
172 196 0
171 194 0
173 196 0
170 193 0
174 197 0
172 195 0
172 195 0
173 196 0
171 195 0
172 194 0
168 191 0
174 197 0
171 194 0
172 195 0
173 196 0
171 194 0
174 197 0
173 196 0
171 194 0
169 192 0
172 195 0
173 196 0
174 196 0
170 194 0
168 192 0
168 191 0
171 194 0
170 194 0
169 193 0
171 194 0
172 195 0
168 191 0
171 195 0
168 191 0
171 194 0
172 195 0
170 194 0
173 195 0
174 197 0
160 184 60
135 160 105
98 127 150
64 100 168
62 98 167
63 99 169
62 98 169
62 98 168
63 99 173
62 99 173
62 99 172
62 98 169
62 98 170
62 99 177
62 99 177
62 99 173
62 99 176
62 99 175
62 99 176
62 99 175
62 99 174
62 99 175
62 99 177
63 100 181
62 99 179
62 99 174
61 98 176
62 99 177
62 99 180
62 100 181
62 99 178
62 99 177
61 98 175
62 99 178
62 99 177
62 99 180
62 99 175
61 98 177
62 99 179
62 99 178
62 99 176
62 99 181
62 99 180
61 98 179
62 99 180
62 99 179
62 99 179
62 99 180
62 99 180
61 98 179
61 99 178
62 99 177
62 99 178
62 99 181
61 99 180
62 99 180
62 99 179
62 99 179
62 99 181
62 99 178
62 99 178
62 99 177
62 99 179
63 100 180
61 99 181
63 100 179
61 99 180
62 99 178
62 99 181
62 99 179
62 99 178
62 99 180
62 99 181
62 99 179
61 99 180
62 99 179
61 99 180
62 99 180
62 99 177
61 99 179
62 99 179
62 99 181
62 99 179
62 99 179
62 99 180
62 99 181
62 99 179
62 99 179
62 99 179
62 99 179
62 99 179
62 99 179
62 99 175
62 99 175
62 99 177
62 99 179
63 100 180
62 99 178
62 99 178
62 99 179
62 99 178
62 99 178
62 99 177
62 99 178
61 98 175
62 99 178
61 99 178
62 99 176
62 99 176
62 99 176
62 99 178
62 99 178
62 98 175
62 99 175
62 99 179
62 99 175
62 99 179
62 99 180
62 99 179
61 99 177
62 99 176
62 99 174
62 98 175
63 99 177
62 98 177
61 98 175
63 99 172
62 98 170
62 99 176
62 99 174
62 98 172
62 98 173
63 100 174
62 98 172
61 97 170
62 98 176
62 99 176
62 99 176
63 99 175
62 99 173
62 98 173
62 98 173
62 98 172
61 97 168
60 96 166
61 97 169
62 98 171
61 96 163
61 97 165
61 96 169
60 95 164
61 91 147
88 101 123
88 99 115
101 103 83
83 85 56
92 94 60
89 90 62
95 96 65
91 92 63
83 85 60
92 93 64
99 101 71
99 100 68
96 98 70
113 114 80
107 108 75
101 104 71
87 91 69
105 107 76
109 111 79
102 104 73
104 106 74
102 106 77
114 116 83
114 116 82
116 117 83
122 124 87
124 125 85
130 130 88
123 124 86
131 131 90
123 124 84
127 126 86
143 141 90
137 137 95
135 135 89
150 148 96
138 138 91
146 144 89
139 138 92
144 142 90
145 143 91
153 150 95
152 149 95
146 144 94
152 149 97
146 144 91
159 156 100
145 144 89
154 152 99
159 157 100
155 153 98
158 154 96
153 150 93
160 155 98
162 158 98
163 159 100
166 161 103
171 165 103
163 160 101
169 164 104
165 160 100
166 162 100
164 160 98
168 163 98
166 161 98
168 163 103
174 168 104
169 164 97
168 163 101
170 165 102
169 164 100
171 165 101
168 164 98
173 168 102
173 167 103
168 164 100
173 167 101
170 165 94
176 169 102
171 165 95
174 169 101
171 165 99
174 166 99
173 168 103
172 167 98
174 168 100
170 165 99
173 167 100
171 166 97
173 167 100
173 167 101
172 166 101
175 168 100
170 164 95
169 163 97
171 166 95
170 165 95
172 165 97
169 163 101
172 166 97
173 167 101
171 165 96
170 164 99
172 166 99
167 161 97
171 165 99
174 167 99
166 162 90
168 161 93
166 160 93
170 164 94
169 162 92
165 159 88
168 162 89
165 159 87
164 157 87
164 158 90
167 161 95
158 153 84
169 162 89
161 154 85
156 151 84
156 151 79
164 157 89
157 151 82
155 148 84
159 154 81
147 142 74
154 148 87
157 151 82
145 139 72
145 140 74
155 148 79
159 151 82
148 142 75
149 143 75
146 140 74
143 136 69
147 142 69
144 139 68
140 138 58
151 153 62
152 155 57
153 157 53
160 170 42
155 171 28
166 184 28
164 181 22
168 188 16
167 186 19
170 191 19
174 197 0
172 196 0
175 198 0
174 198 0
175 198 0
171 195 0
171 194 0
175 198 0
172 195 0
173 196 0
171 194 0
173 196 0
173 196 0
173 196 0
171 195 0
168 191 0
170 194 0
169 192 0
172 195 0
173 196 0
173 197 0
173 196 0
170 193 0
173 196 0
174 197 0
173 197 0
172 196 0
174 197 0
172 196 0
173 196 0
171 194 0
173 196 0
174 197 0
172 195 0
170 194 0
172 195 0
172 196 0
171 195 0
173 196 0
173 197 0
170 194 0
172 195 0
172 195 0
172 195 0
173 197 0
173 196 0
172 195 0
173 197 0
173 197 0
172 195 0
171 195 0
174 198 0
173 196 0
170 193 0
172 196 0
173 196 0
171 195 0
173 197 0
170 194 0
171 194 0
171 194 0
172 196 0
171 195 0
170 193 0
171 194 0
175 198 0
171 194 0
174 197 0
173 196 0
167 190 0
171 195 0
168 191 0
171 194 0
171 194 0
170 193 0
172 195 0
172 195 0
169 193 0
172 195 0
169 192 0
166 189 0
172 196 0
173 197 0
170 194 0
171 193 0
171 195 0
170 193 0
171 195 0
174 197 0
174 196 0
173 197 0
170 194 0
169 192 0
171 192 0
172 195 0
170 193 0
168 191 25
149 174 84
114 141 139
67 102 170
62 99 169
62 99 173
62 99 172
62 98 168
63 99 176
62 99 171
63 99 171
62 99 173
62 99 170
61 98 171
63 100 177
62 99 174
63 100 177
62 99 175
62 99 176
63 100 179
61 98 171
62 99 177
62 99 179
63 99 178
62 99 175
62 99 174
62 99 177
62 99 177
61 98 177
62 99 179
62 99 176
62 99 179
62 99 178
62 99 178
62 99 179
62 99 180
62 99 179
62 99 179
62 99 180
62 99 180
62 99 181
62 99 178
62 99 180
62 99 181
62 99 179
61 99 181
62 99 179
63 99 180
61 98 178
62 99 181
62 99 177
62 99 180
62 99 180
62 99 179
62 99 180
63 100 180
62 99 181
62 99 179
61 99 180
62 99 179
62 99 177
62 99 180
62 99 179
62 99 179
62 99 179
62 99 178
62 99 178
62 99 180
62 99 180
62 99 180
61 98 179
62 99 181
62 99 180
62 99 180
62 99 180
62 99 180
61 99 177
62 99 181
62 99 178
62 99 176
61 99 179
62 99 181
62 99 179
62 99 177
62 99 177
62 99 180
62 99 180
61 99 179
63 100 180
61 99 179
62 99 178
62 99 181
62 99 175
62 99 179
62 99 180
63 100 178
62 99 180
62 99 177
63 100 179
62 99 176
62 99 179
61 99 178
62 99 179
62 99 178
63 99 178
62 99 178
61 98 177
62 99 176
62 99 176
62 99 178
62 99 178
62 99 177
63 100 178
62 99 177
61 98 175
62 99 179
62 99 177
61 98 173
61 98 174
62 99 179
62 99 179
62 99 174
62 99 176
62 99 176
62 99 180
62 99 180
62 99 176
62 98 175
62 99 177
62 99 171
62 99 174
62 99 173
62 99 173
62 98 174
62 98 174
62 99 172
61 97 168
62 99 172
62 98 165
61 98 170
62 98 173
62 98 170
62 98 171
62 98 170
61 96 164
62 98 167
61 97 171
61 97 163
61 97 169
60 95 165
60 95 165
61 96 163
65 96 157
70 97 151
86 98 113
84 91 85
85 89 69
101 102 67
93 93 64
99 101 71
81 84 58
78 82 61
93 96 67
88 91 65
100 102 74
94 96 67
90 93 68
102 104 73
100 103 72
108 109 77
102 105 75
93 96 70
107 110 78
110 112 80
110 112 79
116 118 84
108 111 77
122 121 83
121 121 80
131 130 86
112 115 81
120 122 87
131 131 86
127 127 84
133 133 87
130 129 86
131 131 89
133 132 86
132 131 85
138 137 89
140 139 91
141 140 92
135 135 89
142 141 93
131 130 87
149 147 90
148 146 94
155 151 96
150 147 95
153 151 98
154 151 99
155 153 96
154 151 95
157 154 97
162 158 97
159 156 98
157 154 95
159 155 96
158 155 95
165 161 99
165 161 96
161 157 96
166 162 100
163 160 102
167 163 102
167 163 100
167 163 98
164 159 96
170 166 106
170 165 100
169 165 106
172 166 102
170 166 103
175 169 105
175 169 103
174 169 103
174 168 104
172 166 100
173 168 99
173 168 101
167 161 95
174 168 99
175 169 101
174 168 99
173 168 101
172 168 100
177 171 105
174 168 103
172 165 99
170 165 99
172 166 99
176 170 100
174 168 100
173 166 99
174 167 99
171 166 100
171 165 97
172 167 100
173 167 95
169 163 97
172 166 100
174 168 100
169 163 96
169 163 96
171 165 96
170 162 94
169 163 95
173 166 93
171 165 96
170 163 97
171 164 95
168 163 89
168 162 95
169 162 90
164 158 86
168 161 92
159 153 88
161 155 91
167 160 87
163 157 89
168 160 93
166 160 95
156 150 80
152 147 80
154 147 83
152 146 79
157 150 80
156 151 83
156 149 83
155 147 80
156 150 81
154 148 78
151 145 74
151 145 78
158 153 79
147 143 68
155 147 79
148 143 70
139 134 68
147 142 69
148 142 72
141 135 67
142 141 61
150 151 64
143 144 56
149 152 58
152 160 49
149 159 37
159 171 45
162 175 36
170 187 34
165 184 28
167 187 19
171 193 0
173 197 0
172 196 0
173 197 0
172 194 0
171 195 0
174 197 0
172 196 0
174 197 0
173 197 0
171 195 0
173 197 0
173 196 0
173 197 0
172 195 0
171 195 0
172 195 0
174 197 0
175 198 0
171 194 0
174 197 0
173 196 0
173 197 0
175 198 0
173 196 0
172 196 0
172 195 0
173 196 0
170 193 0
171 195 0
172 196 0
172 196 0
173 196 0
174 197 0
173 196 0
175 198 0
173 196 0
171 195 0
173 197 0
173 196 0
168 191 0
171 195 0
172 195 0
172 195 0
173 196 0
173 196 0
170 193 0
170 194 0
172 195 0
170 193 0
172 196 0
170 193 0
171 195 0
171 194 0
172 196 0
171 195 0
173 196 0
171 195 0
171 194 0
169 192 0
171 194 0
173 196 0
172 195 0
172 195 0
174 197 0
172 195 0
169 192 0
172 196 0
174 198 0
172 195 0
171 195 0
170 194 0
169 192 0
171 195 0
172 196 0
173 195 0
170 194 0
172 195 0
172 195 0
168 192 0
168 190 0
172 196 0
169 193 0
172 195 0
168 192 0
169 192 0
171 193 0
170 193 0
174 197 0
172 196 0
171 193 0
172 196 0
169 192 0
169 193 0
172 194 0
173 196 0
171 195 18
158 180 78
135 160 118
79 111 157
63 99 172
62 99 172
63 99 174
62 99 168
62 99 177
63 99 174
63 99 173
62 99 171
62 99 172
62 99 176
62 99 176
62 99 172
62 99 175
61 98 169
62 98 167
61 98 170
61 98 172
63 99 176
63 99 178
62 99 177
62 99 174
62 99 176
62 99 174
62 99 177
62 99 179
62 98 178
63 100 181
62 99 178
63 100 177
62 99 178
62 99 179
62 99 176
62 99 178
62 99 179
62 98 173
62 99 180
62 99 177
62 99 177
62 99 179
62 99 179
62 99 178
62 99 180
62 99 178
63 100 181
63 100 180
62 99 178
62 99 177
62 99 179
63 99 179
62 99 181
62 99 180
62 99 179
62 99 180
63 99 179
62 99 176
61 99 179
62 99 179
62 99 181
62 99 181
62 99 180
62 99 181
62 99 181
62 99 178
62 99 180
62 99 179
62 99 181
62 98 175
61 98 177
62 99 181
61 98 174
61 98 179
62 99 180
62 99 176
62 99 180
61 98 177
62 99 179
62 99 180
62 99 179
62 99 178
62 99 180
62 99 178
61 99 179
62 99 178
62 99 180
62 99 178
62 99 179
62 99 181
62 99 178
62 99 180
61 98 178
62 99 176
62 99 175
61 98 176
62 99 180
62 99 177
62 99 179
62 99 178
63 99 178
62 99 177
62 99 176
62 99 178
62 99 179
63 99 177
62 99 178
62 99 175
62 99 179
62 99 177
61 99 178
62 99 179
62 99 179
62 99 179
62 99 178
62 99 176
62 99 180
63 100 180
63 100 175
63 99 177
62 99 174
63 99 176
62 99 175
62 99 176
62 99 174
61 98 173
62 98 176
61 98 171
62 98 176
62 99 176
62 99 174
62 99 170
61 97 170
62 99 174
61 98 171
62 99 175
61 97 171
62 98 171
62 99 174
60 96 167
62 98 171
62 99 175
62 98 170
62 99 172
60 96 166
62 98 175
63 99 172
61 97 168
61 97 167
60 93 159
61 96 165
61 95 166
61 96 162
70 98 158
79 97 133
89 98 107
95 97 73
90 92 60
80 83 60
97 98 65
88 89 63
91 93 65
81 84 60
89 91 65
104 105 73
90 93 70
90 95 69
94 97 68
91 95 72
99 102 73
93 95 65
110 111 78
107 109 77
103 105 75
113 115 81
107 108 73
118 118 79
115 116 78
120 121 83
117 119 84
117 119 80
108 111 79
133 132 88
131 130 81
130 130 87
134 133 90
139 138 91
134 134 88
139 138 92
137 136 90
135 134 89
141 140 91
148 146 94
136 136 87
143 142 91
149 147 94
152 149 92
147 145 94
149 147 94
146 144 93
158 155 97
160 156 95
156 152 96
154 151 95
159 156 96
155 152 94
155 152 95
151 149 92
158 154 95
162 159 97
162 159 103
168 163 97
167 162 99
167 162 97
170 164 100
168 163 95
164 159 96
168 163 102
167 163 102
167 162 95
175 168 104
168 163 98
168 163 100
175 169 104
171 166 99
169 164 97
173 167 101
172 166 99
172 167 100
171 166 102
171 165 95
170 165 96
176 169 107
176 169 100
173 168 102
174 168 97
171 166 99
172 166 99
174 167 97
173 167 101
176 170 101
172 166 95
172 167 97
177 170 104
167 162 93
169 163 93
173 166 97
173 168 99
169 163 97
169 163 96
174 168 101
173 166 97
172 164 95
165 159 90
171 165 98
172 165 98
172 165 93
171 165 93
169 163 94
171 165 98
167 161 91
168 161 95
171 164 97
169 163 89
168 161 94
166 159 93
164 157 91
170 163 93
165 160 87
166 161 90
161 155 84
162 155 85
166 159 84
157 152 84
166 158 91
159 155 84
166 159 89
154 148 85
152 146 71
154 149 78
153 147 79
159 153 82
151 144 78
151 145 77
149 142 75
154 148 76
145 139 64
140 134 72
151 145 75
153 147 75
135 130 60
141 135 70
146 143 64
136 136 60
144 146 48
154 161 52
151 157 51
152 162 45
163 175 42
160 174 41
162 179 30
161 180 19
166 186 22
168 188 19
174 197 0
176 198 0
172 195 0
174 197 0
173 197 0
173 196 0
173 196 0
174 198 0
172 196 0
172 196 0
173 196 0
173 197 0
167 190 0
173 196 0
175 198 0
172 196 0
169 192 0
173 196 0
173 196 0
172 196 0
175 198 0
174 197 0
174 197 0
172 196 0
172 196 0
173 196 0
174 197 0
173 196 0
172 196 0
173 197 0
172 195 0
173 196 0
173 196 0
172 195 0
173 196 0
171 195 0
173 196 0
172 195 0
170 193 0
172 196 0
172 195 0
171 195 0
173 196 0
174 197 0
173 196 0
172 195 0
170 194 0
174 197 0
172 195 0
169 193 0
174 197 0
173 196 0
173 197 0
175 198 0
174 197 0
173 196 0
169 194 0
171 194 0
175 198 0
172 195 0
170 193 0
169 191 0
169 194 0
172 196 0
172 195 0
173 195 0
173 197 0
173 196 0
174 197 0
171 195 0
172 196 0
169 192 0
166 189 0
168 190 0
173 197 0
172 195 0
171 194 0
170 193 0
167 190 0
170 193 0
171 195 0
172 196 0
172 196 0
170 194 0
171 194 0
169 193 0
170 194 0
173 196 0
172 195 0
173 196 0
170 193 0
170 193 0
174 197 0
170 193 0
169 192 0
165 188 47
139 163 94
105 133 140
65 100 165
62 98 162
62 99 172
62 98 170
62 99 175
62 99 171
62 99 171
61 98 171
62 98 170
62 99 171
61 98 169
62 99 174
63 99 175
62 99 175
62 99 177
62 99 175
62 99 174
61 98 173
62 99 178
61 98 172
62 99 179
62 99 175
62 98 172
61 98 177
62 99 180
62 99 177
62 99 179
61 98 175
62 99 177
62 99 176
63 100 181
62 99 175
62 99 179
62 99 177
63 100 180
62 99 178
62 99 179
61 98 175
61 99 178
62 99 175
62 99 177
62 99 176
62 99 179
62 99 180
63 99 176
62 99 179
62 99 180
62 99 178
62 99 180
63 100 179
62 99 181
61 98 177
62 99 180
62 99 180
62 99 179
61 98 179
62 99 179
62 99 178
62 99 178
62 99 178
63 100 179
63 99 178
62 99 177
62 99 181
62 99 179
62 99 179
62 99 180
62 99 179
62 99 181
62 99 179
62 99 180
62 99 181
62 99 177
62 99 178
61 98 178
62 99 180
63 99 180
62 99 181
62 99 180
62 99 179
62 99 176
62 99 179
62 99 181
62 99 178
63 99 177
62 99 178
62 99 176
62 99 176
62 99 178
61 99 178
61 98 174
62 99 180
62 99 180
63 100 179
62 99 175
62 99 179
63 99 173
61 98 173
62 99 180
62 99 179
62 99 175
62 99 175
63 99 176
62 99 180
61 99 178
62 99 174
62 99 178
63 99 179
62 98 176
62 99 177
62 99 180
62 99 178
63 100 179
62 99 174
62 98 174
62 99 178
61 98 165
62 99 176
62 99 175
63 99 178
62 99 173
62 99 177
62 99 174
61 98 175
62 99 174
61 98 171
62 99 173
62 98 172
62 99 176
62 99 177
61 98 176
62 98 171
62 98 172
61 98 171
63 99 172
61 98 171
62 99 171
62 98 169
62 98 173
61 97 171
61 97 166
61 97 172
63 99 171
63 99 175
61 97 171
62 98 172
61 97 168
61 97 171
61 97 167
62 98 169
60 94 159
58 91 153
70 98 154
74 92 122
77 90 104
79 84 73
93 93 64
89 91 65
97 99 63
98 99 67
89 89 60
91 92 63
78 83 61
82 86 63
92 95 68
82 87 63
104 106 76
95 97 69
108 109 78
101 104 73
112 113 76
91 95 68
107 110 79
104 107 76
108 110 76
118 121 85
121 122 83
115 116 78
127 127 84
130 130 86
130 130 88
122 123 85
137 135 90
134 133 88
130 130 86
139 138 92
134 133 92
133 133 85
135 135 85
133 133 87
137 136 90
136 136 88
144 143 92
143 141 90
145 144 94
156 153 97
150 147 91
140 139 91
161 156 99
150 147 91
160 155 95
152 150 94
153 150 95
152 150 96
161 156 97
160 156 99
162 158 97
163 159 98
166 161 95
161 157 96
168 163 102
164 160 93
168 163 100
168 163 102
162 159 99
169 164 100
170 165 100
171 166 98
171 166 98
165 161 95
171 165 100
174 168 98
176 170 106
173 168 103
173 167 98
172 167 100
172 167 103
166 162 99
173 168 103
172 167 100
168 163 94
174 168 102
174 168 104
175 168 100
169 165 100
172 166 96
171 166 99
170 165 98
174 167 99
174 168 97
175 168 98
173 168 101
176 169 97
173 166 97
174 167 96
171 165 93
173 166 97
171 165 95
167 161 97
168 162 92
174 167 99
174 167 95
170 163 97
167 161 90
166 160 88
168 163 95
167 161 95
167 161 93
171 165 95
170 164 98
169 162 98
170 163 92
166 160 90
168 161 88
168 162 91
166 160 93
163 155 84
162 156 84
156 150 82
165 159 90
163 157 90
157 150 80
160 153 87
161 154 84
160 153 86
160 153 78
155 148 81
160 154 84
162 155 90
157 151 75
161 154 84
149 143 77
147 142 67
161 153 85
154 147 83
150 144 69
144 139 69
138 133 65
146 140 72
141 136 67
142 139 68
144 143 60
144 148 54
150 154 61
156 163 54
156 165 44
158 171 36
161 177 34
159 175 36
165 183 25
161 180 11
167 188 11
173 196 0
174 197 0
172 195 0
174 197 0
172 196 0
173 197 0
174 198 0
172 196 0
172 196 0
172 195 0
172 195 0
168 193 0
173 197 0
172 196 0
173 196 0
172 196 0
170 194 0
171 195 0
171 194 0
174 197 0
172 196 0
172 196 0
174 197 0
174 197 0
173 196 0
175 197 0
173 196 0
173 196 0
172 195 0
171 194 0
171 195 0
172 195 0
170 193 0
169 193 0
171 195 0
170 194 0
172 196 0
171 196 0
172 194 0
172 195 0
173 197 0
173 196 0
172 196 0
173 196 0
171 195 0
172 196 0
174 197 0
173 197 0
168 192 0
171 194 0
174 197 0
172 195 0
174 197 0
171 194 0
171 194 0
172 195 0
172 195 0
172 196 0
169 193 0
172 196 0
172 195 0
174 197 0
170 194 0
171 195 0
170 194 0
172 195 0
171 195 0
171 194 0
170 194 0
174 197 0
173 196 0
172 195 0
171 195 0
172 195 0
170 194 0
172 196 0
172 196 0
171 195 0
171 195 0
167 191 0
171 194 0
171 194 0
171 194 0
170 194 0
172 195 0
172 196 0
172 194 0
169 193 0
172 195 0
170 194 0
171 194 0
172 196 0
173 195 0
171 195 0
167 190 18
156 181 76
121 148 124
67 102 164
62 99 168
61 97 162
62 99 169
62 98 168
62 99 171
62 99 167
62 99 168
62 98 171
61 98 166
62 99 175
62 99 174
62 99 177
62 99 171
62 99 177
62 99 177
62 99 175
62 99 176
62 99 172
62 99 174
62 99 178
62 99 175
62 99 175
62 98 175
62 99 176
62 99 177
61 99 177
62 99 177
62 99 179
62 99 178
63 100 178
62 99 175
62 99 177
62 99 179
63 100 179
63 100 178
62 99 176
62 99 179
62 99 178
62 99 176
62 99 179
63 100 180
62 99 180
62 99 177
62 99 178
62 99 175
62 99 179
62 99 176
62 99 179
61 98 180
62 99 176
63 100 179
61 99 177
62 99 179
62 99 181
62 99 180
62 99 179
62 99 180
62 99 180
62 99 181
62 99 179
63 100 179
62 99 179
61 99 180
61 98 177
61 98 178
62 99 179
62 99 177
62 99 178
63 100 181
62 99 181
62 99 179
61 98 176
61 99 178
62 99 177
62 99 178
62 99 177
62 99 178
61 98 177
63 100 179
62 99 178
63 99 179
62 99 180
61 99 178
62 99 176
62 99 180
62 99 178
62 99 179
62 99 179
62 99 178
62 99 180
62 99 178
62 99 180
62 99 178
62 99 179
61 98 175
62 99 177
62 99 179
61 98 177
62 99 178
63 100 181
62 99 180
62 99 175
62 99 175
62 99 178
62 98 174
62 99 179
61 98 175
62 99 178
62 99 176
62 99 176
62 99 173
62 99 178
62 99 177
62 99 173
62 99 170
62 98 173
62 99 171
61 98 173
62 99 174
62 99 173
63 99 176
62 99 175
61 99 177
62 99 177
62 99 175
62 98 176
63 99 174
62 98 172
61 98 175
63 99 176
62 99 174
62 98 175
62 98 175
62 99 176
61 97 168
62 98 171
62 99 173
63 100 177
62 98 173
61 98 171
61 97 166
61 97 168
62 97 165
61 97 168
62 98 172
62 97 170
61 96 166
62 97 168
61 97 163
61 96 168
60 95 160
61 95 162
58 91 151
60 86 136
71 88 117
69 78 76
89 92 63
82 85 62
76 80 55
84 87 61
92 95 65
83 86 61
88 91 65
78 82 59
94 97 70
91 96 71
108 109 77
95 97 68
101 104 73
103 104 72
109 111 78
100 102 72
101 104 74
110 112 78
106 109 79
106 108 73
131 131 88
120 121 82
116 116 76
122 124 85
124 123 80
114 115 77
119 121 82
127 127 84
138 137 88
139 138 89
133 133 88
138 137 87
140 139 88
136 135 88
144 142 92
148 145 94
141 139 88
139 138 89
144 143 94
151 149 91
158 155 97
153 150 94
158 154 95
150 148 93
156 153 98
160 157 98
161 157 96
157 153 92
158 155 96
162 158 95
161 157 96
161 157 99
156 152 95
166 162 99
165 161 97
164 160 99
168 163 98
166 161 97
167 163 101
172 166 99
164 159 98
166 161 99
168 163 99
169 164 101
169 165 99
168 163 97
168 163 97
174 168 100
172 167 99
171 165 98
170 165 98
170 166 102
172 167 100
174 168 103
171 166 100
173 167 95
172 166 99
175 169 103
172 167 97
171 166 100
171 166 98
174 167 101
173 168 100
173 166 94
175 168 103
172 166 94
170 164 97
169 164 95
174 167 98
172 166 98
164 159 87
173 166 95
172 165 94
172 165 95
168 163 94
169 163 98
168 163 90
169 163 95
172 166 98
169 163 90
168 162 94
170 163 95
164 157 91
167 161 89
168 161 95
158 152 84
164 158 93
167 161 90
165 159 90
162 156 84
166 160 90
170 164 87
159 153 83
162 156 86
160 153 84
167 159 86
163 157 82
157 151 79
154 148 83
159 153 86
149 144 75
147 142 73
158 151 79
153 147 75
156 149 82
151 145 79
148 142 69
149 144 75
144 138 71
146 140 74
151 145 74
145 139 74
150 144 71
148 143 70
139 136 60
145 142 61
138 139 56
149 158 47
147 154 47
149 156 51
155 165 45
164 180 22
159 177 22
168 188 16
166 186 16
172 193 19
172 195 0
174 198 0
172 195 0
173 197 0
172 195 0
171 195 0
173 196 0
173 196 0
169 192 0
170 193 0
172 195 0
173 197 0
172 196 0
172 196 0
172 196 0
174 197 0
175 197 0
172 195 0
171 195 0
170 194 0
173 196 0
172 196 0
172 195 0
172 195 0
173 197 0
173 197 0
173 197 0
173 196 0
173 197 0
173 197 0
170 194 0
173 197 0
172 196 0
172 194 0
173 197 0
167 190 0
172 195 0
171 195 0
171 195 0
173 196 0
172 196 0
171 194 0
173 196 0
172 196 0
173 197 0
173 196 0
169 193 0
174 197 0
173 197 0
173 195 0
173 196 0
173 196 0
169 192 0
171 195 0
171 194 0
174 197 0
169 192 0
168 191 0
169 193 0
171 194 0
170 194 0
173 196 0
172 196 0
170 194 0
173 196 0
168 192 0
173 196 0
172 195 0
170 193 0
170 194 0
175 198 0
172 195 0
170 194 0
169 193 0
172 195 0
172 195 0
173 196 0
174 197 0
170 193 0
171 194 0
171 195 0
175 198 0
172 196 0
171 194 0
173 196 0
170 193 0
170 194 0
172 196 0
169 193 0
167 191 0
171 194 0
169 192 0
170 193 0
171 195 18
165 188 51
138 163 99
94 123 143
62 99 171
61 98 166
63 99 173
62 99 174
61 98 166
62 99 171
62 99 169
62 98 172
62 98 168
62 98 171
63 99 179
62 99 173
62 99 177
62 99 173
62 98 174
62 99 174
62 99 174
62 99 179
62 99 175
62 99 175
62 99 177
62 99 172
62 99 177
62 99 176
63 99 178
62 99 178
61 98 177
62 99 177
62 99 177
62 99 179
62 99 180
62 99 177
62 99 179
62 99 175
62 99 180
62 99 178
61 98 175
62 99 176
62 99 178
61 98 175
62 99 180
62 99 177
62 99 180
62 99 181
62 99 179
62 99 177
62 99 180
62 99 178
62 99 177
61 98 175
62 99 181
62 99 179
61 98 176
62 99 181
62 99 179
62 99 179
63 100 180
62 99 179
62 99 178
62 99 179
62 99 177
62 99 180
62 99 176
63 100 180
62 99 179
62 99 179
62 99 179
62 99 178
62 99 180
62 99 179
62 99 180
62 99 180
62 99 180
62 99 180
62 99 179
62 99 176
62 99 179
62 99 177
62 99 176
62 99 178
62 99 179
62 99 179
62 99 180
62 99 181
62 99 176
62 99 180
62 99 177
62 99 178
62 99 181
62 99 179
62 99 179
62 98 174
62 99 177
62 99 176
62 99 175
63 100 178
61 98 176
62 99 173
62 99 179
63 99 177
62 99 176
62 99 178
61 98 177
62 99 178
62 99 177
63 100 179
62 99 180
62 99 177
62 99 175
63 100 181
62 99 176
62 99 177
62 99 178
61 99 179
62 99 177
62 99 178
62 99 175
62 99 177
61 98 174
62 99 177
62 99 175
62 99 175
62 99 175
62 99 173
63 100 177
62 99 178
61 98 176
61 98 173
62 99 172
62 99 177
62 98 171
63 99 172
62 99 175
61 98 175
62 99 175
61 98 169
62 98 172
62 99 176
63 100 178
62 99 171
62 98 172
62 98 169
61 97 166
63 99 174
61 97 166
61 98 170
62 98 168
61 97 170
61 97 169
62 98 168
61 97 163
61 97 164
60 95 158
59 93 154
63 92 151
63 86 125
77 88 102
62 70 68
66 70 54
73 77 54
89 91 61
80 82 56
82 85 60
90 92 64
89 91 62
80 86 64
95 96 68
83 87 60
96 99 72
85 89 66
89 92 63
94 98 71
100 103 72
100 104 75
101 104 72
120 120 81
106 109 76
114 115 81
131 131 87
106 108 77
123 124 80
127 127 82
120 120 82
120 122 79
114 115 78
130 131 86
118 119 75
128 127 81
130 130 83
142 140 93
127 128 86
131 131 84
134 134 91
141 140 89
140 139 87
151 148 92
149 147 91
147 145 92
155 151 94
155 152 93
162 157 98
158 154 95
158 154 97
155 152 93
158 154 92
160 156 97
157 154 94
155 152 94
162 158 94
163 158 97
164 160 96
160 157 95
160 155 95
166 161 99
170 164 98
164 160 99
173 166 97
171 165 100
170 165 98
170 166 99
166 161 92
167 162 94
162 158 95
172 167 96
173 166 97
169 164 97
173 167 98
174 167 99
166 162 90
171 166 95
172 166 95
174 168 96
169 164 95
174 168 98
175 169 103
173 166 100
169 163 96
176 169 98
171 164 95
167 162 93
171 166 95
170 164 95
171 165 93
174 168 100
170 164 95
170 164 95
171 166 99
170 165 96
173 165 97
167 161 93
171 164 96
169 162 93
168 161 93
169 162 95
173 166 95
175 168 95
171 164 93
169 162 94
165 159 90
163 157 87
172 164 91
164 159 84
169 163 94
170 164 95
160 154 84
159 153 80
164 158 85
165 158 88
163 157 87
158 152 84
162 155 85
160 153 80
160 154 80
159 153 80
154 148 86
155 149 77
157 150 83
154 148 80
154 148 80
161 155 85
151 146 77
139 133 71
158 152 76
151 145 74
147 140 72
148 143 66
141 135 64
153 146 79
147 141 70
141 135 65
137 133 54
143 142 65
155 151 67
146 151 52
150 152 57
151 161 45
146 158 37
152 165 34
163 178 39
161 178 32
165 183 28
166 185 22
169 189 11
172 195 0
169 193 0
172 195 0
172 196 0
171 194 0
173 196 0
169 193 0
173 197 0
172 196 0
171 195 0
172 195 0
172 195 0
174 197 0
171 195 0
172 195 0
172 195 0
170 193 0
173 196 0
173 196 0
171 195 0
170 193 0
172 196 0
175 198 0
173 197 0
169 192 0
172 195 0
173 196 0
171 194 0
173 196 0
175 198 0
170 194 0
173 196 0
170 193 0
173 197 0
171 195 0
170 193 0
171 195 0
173 196 0
172 195 0
171 195 0
173 195 0
170 194 0
174 197 0
172 195 0
170 192 0
170 194 0
172 196 0
173 197 0
173 196 0
170 193 0
173 195 0
171 195 0
170 194 0
172 195 0
175 198 0
174 197 0
170 193 0
171 195 0
172 195 0
173 196 0
173 196 0
169 192 0
173 197 0
173 196 0
173 196 0
173 195 0
170 194 0
173 197 0
170 193 0
173 197 0
169 193 0
168 192 0
170 193 0
170 193 0
171 195 0
172 195 0
168 190 0
172 195 0
168 191 0
173 196 0
173 196 0
171 195 0
169 193 0
169 192 0
171 195 0
170 193 0
171 194 0
172 195 0
173 195 0
171 194 0
169 192 0
173 196 0
170 194 0
165 188 36
159 183 62
123 149 120
69 104 168
62 99 168
62 98 171
62 99 171
62 99 166
62 99 170
62 99 174
62 99 172
62 99 173
62 98 169
62 99 170
62 99 174
62 99 175
62 99 171
62 99 172
62 99 173
62 99 175
62 98 173
62 99 178
62 99 174
62 99 175
62 99 173
62 99 177
62 99 177
62 99 178
62 98 175
62 99 173
62 99 177
62 99 178
62 99 175
62 99 177
62 99 177
63 100 177
62 99 177
62 99 179
62 99 177
61 99 177
63 99 176
62 99 177
63 99 179
62 99 179
62 99 175
62 99 178
62 99 175
62 99 178
62 99 180
62 99 179
61 98 176
62 99 180
61 98 179
62 99 177
62 99 179
62 99 178
62 99 178
62 99 179
62 99 177
62 99 179
62 99 180
61 99 178
62 99 179
62 99 178
62 99 179
61 99 178
62 99 180
62 99 180
62 99 179
62 99 179
63 100 179
62 99 178
62 99 178
62 99 178
62 99 179
62 99 178
62 99 176
61 99 180
61 98 174
62 99 179
62 99 179
62 100 181
62 99 180
62 99 175
62 99 177
61 98 175
62 99 178
63 100 180
62 99 177
62 99 178
62 99 179
61 99 179
62 99 177
63 100 177
62 98 174
62 99 178
62 99 178
62 99 178
63 100 179
62 98 173
62 99 176
61 98 178
62 98 173
62 99 177
62 99 175
61 98 172
62 99 179
61 98 178
62 99 177
62 99 177
62 99 179
63 100 177
62 99 179
62 99 179
62 99 173
62 99 176
62 98 171
62 99 176
62 99 178
62 99 173
63 99 176
62 99 175
62 99 176
62 99 178
62 99 175
62 98 173
63 99 178
62 99 176
62 99 176
61 98 173
62 99 175
62 99 176
62 99 173
63 99 174
61 98 167
62 99 176
62 98 173
62 98 174
62 99 174
62 99 177
62 98 170
62 98 171
63 99 171
60 97 167
61 97 168
62 98 173
62 99 172
61 97 168
60 95 163
60 96 168
61 96 163
61 97 168
60 95 162
60 95 162
61 96 166
61 96 163
61 97 171
58 91 151
61 92 149
72 94 135
64 82 107
71 81 87
79 82 66
87 89 63
87 89 61
67 72 54
81 85 61
90 94 67
65 71 54
84 89 66
77 82 61
89 93 66
85 88 63
97 99 68
108 109 74
77 83 61
83 87 62
106 109 77
104 107 75
106 110 75
115 117 82
112 113 77
109 110 76
112 114 77
121 123 82
117 118 80
129 129 83
125 126 83
132 130 84
133 131 84
123 125 82
143 141 93
138 137 87
134 133 86
136 135 85
129 130 84
135 134 90
145 143 92
153 150 94
148 146 92
144 141 90
149 146 91
151 149 95
148 146 90
149 146 90
156 152 94
153 150 94
157 153 94
154 150 93
162 157 97
153 150 84
166 161 97
161 158 94
160 156 96
167 162 98
161 157 97
169 163 96
164 159 95
161 156 93
168 163 96
168 162 100
166 160 98
162 158 93
166 161 98
174 168 103
169 164 95
169 164 92
168 164 95
174 167 99
170 164 98
172 166 97
173 167 98
169 164 95
171 165 94
172 165 95
172 166 95
174 168 98
168 164 94
173 167 98
171 165 95
170 165 97
172 166 95
176 169 99
172 167 102
171 165 98
174 168 103
167 162 88
167 162 93
171 165 95
172 166 93
167 161 93
170 164 91
170 164 94
171 164 95
169 162 95
167 161 93
167 160 85
169 163 93
166 159 88
170 164 95
171 165 90
171 165 91
169 162 90
167 161 90
162 156 87
164 157 85
168 161 95
167 160 88
168 162 90
167 160 92
168 162 92
161 154 86
168 162 95
161 154 84
162 156 87
164 157 86
157 151 85
160 155 84
158 152 86
151 146 75
155 150 76
148 142 75
158 151 78
162 156 84
151 146 72
151 146 77
153 147 78
155 149 71
152 147 73
149 144 73
146 141 67
146 141 70
149 143 69
150 143 69
146 141 69
141 136 65
141 140 57
145 147 57
138 144 42
149 156 44
155 166 45
161 174 42
153 170 19
161 178 19
166 184 25
166 184 19
172 193 19
173 197 0
172 196 0
172 196 0
175 198 0
175 198 0
173 196 0
171 195 0
175 197 0
172 196 0
173 196 0
172 196 0
172 195 0
172 195 0
171 194 0
171 195 0
170 194 0
172 196 0
172 196 0
173 197 0
170 194 0
172 196 0
172 195 0
171 195 0
170 193 0
171 194 0
171 195 0
172 196 0
173 197 0
170 194 0
170 193 0
170 193 0
173 196 0
172 196 0
170 194 0
173 196 0
173 196 0
173 196 0
173 196 0
171 195 0
174 197 0
173 197 0
172 195 0
174 197 0
170 193 0
170 193 0
172 195 0
171 195 0
172 196 0
170 193 0
172 196 0
172 195 0
173 196 0
170 193 0
172 195 0
169 193 0
172 195 0
173 196 0
172 195 0
171 194 0
171 194 0
171 195 0
169 193 0
170 193 0
172 195 0
173 196 0
171 195 0
168 192 0
170 194 0
172 196 0
168 191 0
173 196 0
172 196 0
171 195 0
169 193 0
170 193 0
173 195 0
171 194 0
169 193 0
172 194 0
169 192 0
170 193 0
172 195 0
171 194 0
170 194 0
169 191 0
171 195 0
170 194 0
172 195 0
172 196 0
172 195 0
172 196 0
170 193 0
171 194 18
161 184 60
138 162 94
85 116 157
62 98 164
62 99 169
62 99 172
61 98 166
63 99 174
62 98 167
63 99 175
62 99 172
62 99 173
62 99 173
61 98 171
62 98 169
63 99 175
62 99 174
62 98 172
61 98 172
62 99 174
63 99 173
62 99 176
62 99 178
62 98 173
63 99 177
62 99 171
62 99 176
62 99 174
62 99 175
62 99 175
63 99 176
63 99 178
63 99 179
62 99 176
62 99 174
62 99 180
62 99 174
61 98 175
62 99 180
62 99 179
62 99 179
62 99 178
63 100 179
62 99 178
62 99 181
62 99 176
63 100 180
61 98 177
61 99 176
62 99 178
62 99 177
63 100 181
62 99 179
63 100 178
62 99 176
61 98 175
63 99 179
62 99 179
62 99 178
63 99 179
62 99 179
61 99 179
62 99 178
63 100 181
62 99 179
62 99 180
62 99 179
63 99 178
63 100 179
63 99 179
62 99 178
62 99 181
62 99 178
62 99 177
62 99 180
62 99 180
62 99 178
62 99 179
62 99 178
62 99 179
62 99 178
61 99 179
62 99 179
62 99 177
62 99 178
62 99 177
62 99 178
62 99 178
62 99 177
62 98 176
62 99 178
62 99 177
61 98 177
61 98 170
62 99 177
62 99 179
62 99 177
62 99 175
62 99 178
63 99 177
62 99 176
62 99 177
62 99 178
62 99 175
61 98 174
62 99 180
62 99 177
62 99 178
62 99 177
62 99 178
62 99 178
62 99 177
62 99 178
62 99 173
61 99 178
62 99 175
63 100 179
63 100 175
62 99 175
62 99 177
62 99 172
62 99 179
62 99 173
62 99 175
62 99 174
62 99 176
62 99 175
62 99 176
63 100 175
62 98 170
62 99 176
62 99 179
62 98 173
62 99 178
62 98 167
62 98 173
62 98 169
62 98 176
62 99 177
61 97 166
63 99 174
63 99 173
62 99 171
62 98 169
61 97 166
62 99 173
61 98 171
61 98 169
62 97 163
62 98 170
61 97 170
61 96 168
63 98 170
62 97 165
61 96 165
60 96 162
61 96 164
60 96 163
59 93 160
61 91 151
59 84 127
69 82 106
76 81 66
72 77 56
78 81 57
63 68 51
77 82 60
81 85 60
83 88 63
76 81 61
82 87 62
93 96 69
90 92 64
77 81 59
100 102 71
95 99 68
101 104 73
95 99 69
100 103 70
103 105 74
117 118 81
109 111 76
128 127 83
117 118 78
133 132 85
119 120 75
129 128 86
120 120 77
122 122 83
121 122 83
113 115 75
130 129 82
137 137 90
141 140 89
132 131 82
141 139 87
131 131 86
143 141 87
138 136 88
142 140 89
143 140 88
147 144 91
156 152 94
148 145 86
145 143 86
148 145 87
158 153 93
158 153 97
155 152 91
163 158 98
157 154 90
151 150 95
160 156 93
158 155 93
163 159 92
164 160 95
163 159 100
166 161 97
163 159 95
165 161 98
163 159 93
163 159 95
165 161 98
169 163 90
166 162 99
167 162 95
168 162 97
168 163 92
169 165 100
167 162 94
171 166 100
170 165 98
169 164 96
171 165 91
173 167 103
169 164 97
174 168 96
174 167 97
172 166 98
167 162 96
169 164 93
170 164 96
176 169 97
170 165 93
169 163 90
174 167 97
173 167 96
173 166 94
169 164 91
170 164 93
173 167 96
167 162 87
175 168 100
171 164 94
167 161 90
164 159 90
165 159 91
173 166 95
168 162 90
170 164 95
166 160 89
163 158 88
169 162 94
161 156 83
166 160 88
163 157 88
166 159 87
164 158 87
167 160 87
163 156 88
155 149 80
167 160 84
161 155 84
170 163 89
163 156 82
156 150 82
164 157 84
160 154 81
156 149 83
153 147 75
157 150 81
157 151 80
154 148 77
155 149 81
158 152 80
158 152 76
156 150 78
152 146 71
145 139 74
154 148 71
149 143 72
149 142 72
147 141 71
139 134 62
137 133 59
145 143 63
144 145 58
144 144 62
150 154 54
155 164 47
142 153 30
156 169 34
157 173 30
159 175 36
166 185 28
167 188 16
170 192 0
174 197 0
172 196 0
172 195 0
171 195 0
173 196 0
172 196 0
173 197 0
174 197 0
170 194 0
171 195 0
173 196 0
171 194 0
172 196 0
169 193 0
171 195 0
170 194 0
171 194 0
173 197 0
170 194 0
171 194 0
171 194 0
173 197 0
174 197 0
172 195 0
172 195 0
174 197 0
172 196 0
171 195 0
175 198 0
173 196 0
172 195 0
173 196 0
172 195 0
171 195 0
174 197 0
173 196 0
173 196 0
171 195 0
171 195 0
174 198 0
170 194 0
174 198 0
173 196 0
173 196 0
173 197 0
172 196 0
169 192 0
171 195 0
172 194 0
171 195 0
171 195 0
172 196 0
171 195 0
171 195 0
173 196 0
170 194 0
172 195 0
172 195 0
172 194 0
170 194 0
174 196 0
173 196 0
171 195 0
171 195 0
171 195 0
172 195 0
170 195 0
169 193 0
173 195 0
170 194 0
173 197 0
169 192 0
171 194 0
169 193 0
172 195 0
170 194 0
170 194 0
173 195 0
171 194 0
170 194 0
171 194 0
173 196 0
169 192 0
170 193 0
168 192 0
170 194 0
170 193 0
171 195 0
172 195 0
171 194 0
170 193 0
173 196 0
169 192 25
146 170 84
107 134 133
67 102 167
62 98 162
62 98 168
62 99 170
62 98 172
62 99 172
62 99 171
62 99 171
62 99 173
62 98 169
62 99 173
62 99 172
62 99 177
62 99 172
62 99 176
61 98 164
62 99 175
62 99 174
62 99 174
63 99 176
62 99 176
63 99 173
62 99 173
62 99 176
63 100 178
62 99 179
62 99 173
62 99 179
62 99 175
62 99 176
62 99 176
62 99 179
62 99 175
62 99 177
63 100 177
62 99 176
62 99 179
62 99 177
62 99 180
62 99 180
62 99 176
62 99 177
63 99 177
62 99 180
62 99 178
62 99 177
62 99 180
62 99 177
62 99 178
61 98 175
62 99 175
62 99 178
62 99 178
62 99 179
62 99 180
62 99 179
62 99 175
62 99 179
62 99 179
62 98 174
62 99 178
62 99 180
62 99 181
61 99 177
62 99 179
63 99 180
62 99 179
61 99 176
62 99 175
62 99 175
62 99 180
62 99 180
62 99 178
63 100 179
62 99 176
62 99 179
61 98 176
62 99 177
62 99 178
61 98 173
62 99 177
62 99 178
62 99 178
62 99 175
62 99 176
62 99 179
62 99 177
62 99 176
62 99 176
63 100 178
62 99 178
63 99 175
62 99 176
62 99 180
62 99 177
62 99 179
62 99 174
62 99 180
62 99 179
62 99 177
62 99 175
62 99 175
63 99 178
62 99 175
62 99 173
62 99 177
63 100 177
63 99 176
62 99 175
62 99 177
62 99 175
62 99 176
62 99 177
62 99 171
62 99 175
61 98 173
62 99 177
62 99 176
62 99 177
62 99 175
63 100 178
62 99 176
62 99 176
62 99 175
62 99 179
62 98 171
62 99 176
62 99 176
62 99 174
62 99 173
62 99 174
62 99 170
62 99 169
62 98 170
63 99 176
62 98 170
62 98 172
62 99 174
62 98 170
62 98 171
62 98 168
61 97 165
62 98 174
61 98 167
62 98 167
61 97 167
62 99 175
61 98 169
62 98 167
62 98 170
61 97 169
61 97 167
61 96 164
61 96 165
61 96 165
61 96 164
60 95 158
59 93 157
59 89 142
72 90 115
87 95 97
70 74 64
82 85 59
77 80 59
85 88 61
69 74 53
80 84 60
75 79 59
83 86 60
78 82 60
94 97 71
91 94 64
84 88 61
93 97 70
96 100 72
102 106 75
90 93 68
93 96 68
99 103 72
95 98 67
124 124 80
121 120 79
106 109 74
128 128 83
126 126 79
119 120 79
129 129 85
126 127 84
129 129 81
132 131 86
124 123 79
142 140 86
136 137 88
127 128 83
139 139 87
147 144 90
132 132 81
136 134 84
144 142 87
146 144 85
146 144 90
149 147 95
147 145 86
152 148 90
154 150 94
155 152 94
162 158 93
149 146 88
157 152 88
161 156 93
159 155 93
162 157 96
155 150 90
152 149 87
163 159 95
168 162 90
169 164 101
167 162 99
165 160 95
167 162 100
164 159 95
168 163 98
164 160 97
170 165 99
167 162 93
171 165 96
165 161 87
172 167 101
167 162 95
168 164 97
170 163 92
172 167 95
168 162 94
169 164 95
175 168 99
170 164 94
172 166 96
174 168 97
173 166 95
170 164 93
170 163 90
175 168 98
178 171 99
171 166 94
172 166 95
175 167 95
169 164 90
170 163 98
175 168 99
173 167 96
171 164 90
170 163 97
170 163 95
168 162 93
164 159 85
171 164 91
166 161 89
169 162 92
169 163 89
166 159 84
162 156 83
169 162 93
169 162 93
163 157 82
164 158 89
165 158 94
164 158 88
162 155 84
170 163 93
164 158 86
166 160 92
163 156 84
162 156 83
161 154 82
160 153 80
168 160 89
163 156 84
164 157 82
157 150 76
162 155 84
159 151 86
147 142 68
154 148 75
147 142 74
148 141 75
154 148 77
143 138 70
147 141 70
134 128 62
145 139 64
147 141 70
140 134 67
144 139 58
141 139 58
134 132 52
147 149 63
155 162 45
163 171 57
153 162 44
159 174 36
160 174 37
165 181 32
165 182 25
166 187 11
170 191 11
172 195 0
172 195 0
171 195 0
171 194 0
172 196 0
172 196 0
174 197 0
175 198 0
172 195 0
174 197 0
171 195 0
174 197 0
173 195 0
173 197 0
173 197 0
172 195 0
173 195 0
171 195 0
172 194 0
172 195 0
174 197 0
174 197 0
174 197 0
172 195 0
173 196 0
172 195 0
174 197 0
174 197 0
170 194 0
172 196 0
172 196 0
170 193 0
171 195 0
172 195 0
171 195 0
174 196 0
173 196 0
169 192 0
171 194 0
172 195 0
169 193 0
173 196 0
172 195 0
170 194 0
174 197 0
171 194 0
172 195 0
174 198 0
172 196 0
174 197 0
170 194 0
172 195 0
170 193 0
173 196 0
171 195 0
171 194 0
171 194 0
168 190 0
172 196 0
171 195 0
169 192 0
171 194 0
174 197 0
170 194 0
173 196 0
174 197 0
171 195 0
172 195 0
171 195 0
170 194 0
172 195 0
171 195 0
170 194 0
171 195 0
172 195 0
168 191 0
173 197 0
172 196 0
169 192 0
173 196 0
170 193 0
169 192 0
173 196 0
171 194 0
174 197 0
173 196 0
170 193 0
168 192 0
171 194 0
171 194 0
171 194 0
171 194 0
156 180 72
138 162 107
77 109 152
63 99 168
62 98 163
62 98 169
62 98 163
62 98 165
62 98 165
62 99 168
62 99 171
62 99 171
62 99 170
62 99 173
63 99 174
62 99 172
61 98 170
62 99 175
63 99 175
61 98 172
62 99 174
61 98 171
62 99 178
63 99 172
61 98 174
62 99 176
62 98 171
62 99 174
62 99 179
62 99 177
62 99 177
62 99 175
62 99 177
62 99 173
62 99 175
62 99 175
62 99 176
62 98 175
62 99 178
62 99 175
62 99 175
62 99 177
63 99 178
63 100 179
62 99 178
62 99 178
63 100 180
62 99 176
62 99 181
63 100 179
62 99 175
62 99 177
62 99 180
62 99 176
63 99 178
62 99 177
62 99 178
61 98 178
62 99 177
62 99 177
62 99 179
61 99 177
62 99 178
62 99 179
62 99 178
62 99 179
62 99 180
62 99 179
62 99 176
62 99 179
62 99 178
62 99 177
63 100 178
62 99 181
62 99 175
62 99 174
62 99 179
62 99 179
62 99 180
62 99 177
62 99 178
62 99 177
63 99 178
62 99 179
62 99 177
61 98 177
62 99 176
63 100 180
62 99 178
62 99 173
62 99 178
62 99 180
62 99 176
61 98 176
62 99 176
62 99 181
62 99 175
63 99 178
62 99 179
62 99 176
62 99 177
62 99 179
62 98 172
62 99 177
63 100 179
62 99 175
62 99 177
62 99 177
62 99 175
62 98 172
61 98 170
62 99 178
62 99 175
62 99 171
63 100 177
62 99 174
61 98 173
62 99 177
62 99 175
63 99 176
62 99 177
62 99 175
62 99 173
62 99 178
63 99 173
63 99 175
62 99 174
60 97 170
61 98 173
63 99 172
62 99 175
62 99 169
61 98 174
62 99 175
61 98 170
61 98 174
62 99 179
62 98 172
62 98 170
61 97 171
63 99 173
61 98 170
62 98 170
62 98 172
63 99 170
61 97 164
62 98 172
62 98 170
62 98 168
61 97 166
61 97 168
61 97 171
60 95 165
61 97 164
61 96 165
61 96 161
61 96 165
61 97 165
62 97 164
61 96 158
61 95 160
60 94 162
63 86 124
66 80 100
82 86 68
80 83 62
85 88 63
71 75 55
82 85 61
81 84 59
78 81 56
75 81 59
80 83 59
84 88 63
94 99 71
86 91 69
89 92 65
95 98 66
110 111 74
96 99 68
108 109 72
103 105 69
101 103 65
106 108 71
107 109 69
106 108 75
115 117 78
108 110 74
107 109 75
132 131 81
120 121 78
122 122 77
139 137 87
139 138 90
131 130 81
140 138 85
126 127 82
135 134 83
143 141 89
138 137 89
143 141 85
154 150 91
149 146 91
146 144 88
151 148 92
148 146 88
152 149 91
157 153 92
151 148 86
163 158 98
146 143 81
158 154 94
160 154 92
161 156 92
165 160 94
159 155 91
163 158 95
160 155 91
164 160 95
166 160 90
171 164 96
159 155 90
170 164 98
163 158 92
169 164 96
166 161 95
167 161 91
173 167 98
170 164 95
165 160 94
169 164 94
170 164 95
169 164 94
168 163 94
168 164 90
170 164 93
175 168 99
168 163 92
176 169 99
171 165 96
171 164 93
172 167 99
171 165 93
171 165 93
173 166 96
171 165 89
169 164 90
173 166 92
176 169 99
171 164 90
169 163 88
174 167 99
169 163 94
170 164 92
170 164 93
173 166 95
171 165 84
165 160 89
167 161 87
172 165 95
171 164 92
165 158 87
169 163 90
168 162 91
163 157 89
171 163 93
167 159 84
164 158 85
169 161 89
162 156 85
168 162 87
163 157 85
160 154 84
162 156 86
164 157 85
160 154 84
159 153 84
157 151 80
161 156 82
162 156 86
151 145 78
152 145 72
153 147 71
156 150 80
143 139 62
156 149 75
158 152 80
146 140 71
155 148 72
145 139 68
143 138 70
146 140 68
140 134 60
142 137 66
138 133 65
146 141 65
145 142 64
144 145 61
142 145 49
153 157 51
148 158 34
153 165 39
152 165 34
163 178 32
166 184 30
163 181 30
171 191 19
171 193 0
172 196 0
173 196 0
173 197 0
172 196 0
173 195 0
173 196 0
174 198 0
171 194 0
172 196 0
171 194 0
174 197 0
174 197 0
171 194 0
173 196 0
171 194 0
171 195 0
172 196 0
173 196 0
172 196 0
173 197 0
173 196 0
173 196 0
172 195 0
174 196 0
171 194 0
170 194 0
171 195 0
172 196 0
170 194 0
171 195 0
171 194 0
172 196 0
173 197 0
172 196 0
172 195 0
173 197 0
172 196 0
169 192 0
172 195 0
171 195 0
172 195 0
173 195 0
174 197 0
170 194 0
171 194 0
172 196 0
173 196 0
172 195 0
173 196 0
170 192 0
170 193 0
172 195 0
171 195 0
173 196 0
171 195 0
170 194 0
171 195 0
171 194 0
172 196 0
169 193 0
170 193 0
171 195 0
174 198 0
169 192 0
170 193 0
172 196 0
170 193 0
170 193 0
171 194 0
174 198 0
172 195 0
173 196 0
171 194 0
171 194 0
168 191 0
172 195 0
171 195 0
173 196 0
170 193 0
170 193 0
173 196 0
168 191 0
170 193 0
170 193 0
172 195 0
171 195 0
171 195 0
170 193 0
170 193 0
171 194 0
173 196 0
166 190 44
157 181 74
113 140 136
69 104 164
61 97 159
62 98 167
61 98 168
62 99 169
61 98 165
62 99 170
62 99 173
62 99 169
62 98 169
61 98 168
62 99 174
62 99 174
61 98 168
62 99 172
62 98 172
62 98 171
62 98 170
62 99 175
62 99 174
62 98 175
62 99 174
62 99 171
62 99 174
62 99 172
62 99 178
61 98 174
62 99 173
62 99 175
62 99 179
61 98 176
62 99 175
63 99 179
62 99 179
62 99 178
62 99 178
62 99 174
62 99 176
62 99 175
62 99 179
63 99 179
61 98 173
62 99 173
63 99 178
62 99 178
62 99 179
62 99 178
62 99 177
63 100 177
62 99 178
62 99 176
62 99 176
63 99 177
62 99 178
62 99 178
62 99 178
62 99 177
62 99 179
62 99 180
62 99 180
62 99 178
62 99 179
62 99 177
62 99 177
61 98 174
62 99 179
62 99 176
61 99 178
62 99 179
62 99 178
63 100 178
62 99 177
62 99 177
62 99 181
62 99 175
62 99 178
62 99 174
62 99 178
63 100 178
62 99 176
62 99 178
62 99 180
62 99 176
62 99 178
62 99 178
62 99 179
62 99 179
62 99 176
62 99 176
62 99 180
62 99 175
62 99 177
62 99 178
62 99 177
62 99 180
62 99 177
62 99 175
63 99 176
63 99 178
62 99 179
62 99 176
62 98 171
62 99 180
62 99 176
62 99 178
63 99 178
61 98 176
62 99 176
62 99 177
62 99 175
61 98 174
62 98 175
62 99 173
62 99 175
62 99 177
62 99 178
62 99 174
62 99 175
62 98 172
61 98 173
62 99 178
62 99 173
62 99 173
62 99 175
62 98 172
62 99 178
62 99 176
61 98 176
62 99 173
61 98 169
62 99 176
63 99 171
62 99 172
62 99 174
62 99 175
62 98 172
63 99 171
62 98 171
61 97 166
62 98 168
62 98 172
61 98 169
62 98 169
62 98 168
62 98 172
62 98 169
62 97 166
62 98 168
62 99 169
61 97 164
62 97 166
61 96 161
62 98 173
59 94 152
60 96 164
61 97 165
62 97 167
61 95 154
60 94 157
60 94 157
57 83 128
61 81 115
62 72 74
67 73 61
82 87 65
77 81 59
71 75 55
78 82 58
71 76 56
79 83 60
72 77 58
91 94 67
89 92 64
78 84 62
89 92 62
103 106 73
95 98 67
85 90 65
90 94 65
93 96 68
113 114 72
108 110 76
100 104 69
116 117 79
121 121 79
119 120 78
110 112 77
118 119 78
122 122 77
130 129 84
136 135 85
125 126 84
137 137 87
146 144 94
131 131 84
144 142 84
142 140 84
142 139 83
149 146 89
148 145 90
149 146 90
148 146 85
142 141 89
151 148 86
158 153 96
140 139 87
147 145 88
153 150 87
160 156 95
167 161 95
159 155 93
160 156 93
154 151 87
156 153 89
163 159 94
165 161 97
163 158 94
162 157 95
170 164 98
166 161 94
166 161 91
167 161 98
166 160 97
172 166 98
167 162 91
167 162 89
165 160 93
171 165 94
171 166 98
165 160 89
164 159 92
172 166 99
172 166 90
170 164 92
169 163 90
172 166 98
172 166 95
171 166 98
174 167 95
170 164 93
175 168 97
168 162 88
170 164 92
170 164 89
173 167 93
169 162 93
172 165 98
171 165 97
174 168 95
170 164 91
170 164 89
174 166 96
169 162 90
171 165 90
170 164 92
168 162 92
167 160 88
171 164 93
169 162 86
163 158 87
170 163 94
163 156 87
168 162 87
161 155 84
167 161 88
168 162 89
165 159 87
166 159 87
166 159 87
164 158 82
160 153 79
162 155 87
165 159 88
157 151 84
158 153 79
156 150 80
157 151 81
159 152 80
152 146 75
161 154 82
162 155 84
145 141 73
159 153 80
153 147 80
154 148 77
156 149 79
158 151 75
148 143 62
149 143 75
142 136 65
140 134 63
139 134 65
139 134 63
138 133 59
141 143 56
136 136 54
149 152 54
151 154 57
149 158 41
152 162 37
157 172 32
158 174 30
166 183 28
164 183 30
169 190 11
171 193 11
172 196 0
172 196 0
170 194 0
172 195 0
173 197 0
172 196 0
170 193 0
171 194 0
173 197 0
173 196 0
173 196 0
172 195 0
173 197 0
173 197 0
172 195 0
171 194 0
173 196 0
171 194 0
172 196 0
172 196 0
170 193 0
171 195 0
174 197 0
173 195 0
172 196 0
171 195 0
173 196 0
171 195 0
169 192 0
172 196 0
171 195 0
170 194 0
173 195 0
171 194 0
169 192 0
173 196 0
171 194 0
171 194 0
171 194 0
167 190 0
174 197 0
172 195 0
173 197 0
167 191 0
173 197 0
172 195 0
171 194 0
171 195 0
173 196 0
173 197 0
170 193 0
172 195 0
170 194 0
174 196 0
174 197 0
172 196 0
171 194 0
173 196 0
171 195 0
170 194 0
171 195 0
169 193 0
173 196 0
172 195 0
169 192 0
168 192 0
171 195 0
173 196 0
172 196 0
172 195 0
171 194 0
172 194 0
172 195 0
171 194 0
172 195 0
169 192 0
171 194 0
171 194 0
172 194 0
172 195 0
172 196 0
170 192 0
171 195 0
170 193 0
171 195 0
167 191 0
172 194 0
170 193 0
172 195 0
170 193 0
169 193 0
160 183 67
136 161 107
87 117 141
62 98 166
61 98 166
62 99 171
62 99 167
62 99 174
62 98 170
63 99 170
61 97 163
62 99 171
62 98 166
62 98 169
62 99 177
62 99 174
62 99 176
62 99 172
62 98 173
61 98 170
62 98 172
62 99 178
63 100 174
63 100 175
62 99 174
62 99 174
62 99 178
62 98 172
62 99 172
62 99 178
62 99 179
62 99 174
62 100 181
62 99 175
61 98 173
62 99 175
61 98 175
62 99 174
62 99 175
62 99 176
63 100 177
62 99 176
62 99 178
62 99 175
63 100 181
61 98 174
62 99 178
62 99 179
62 99 179
62 99 175
62 99 178
62 99 175
62 99 172
62 99 177
62 99 178
62 99 175
62 99 176
62 99 178
63 100 178
62 99 177
61 98 177
62 99 178
62 99 175
62 99 179
62 99 176
62 99 178
61 98 179
62 99 179
62 99 178
62 99 177
63 99 180
62 99 177
62 99 179
62 99 175
62 99 177
62 99 179
62 99 178
62 99 178
63 99 177
62 99 175
62 99 176
63 100 181
61 98 175
62 99 175
61 98 178
62 99 178
62 99 180
62 99 180
62 99 175
62 99 176
61 98 175
62 99 176
62 99 176
62 99 177
62 99 175
62 99 177
62 99 178
62 99 179
62 99 174
63 99 179
62 99 175
63 100 178
62 99 179
62 99 176
62 99 178
62 99 176
62 99 176
62 99 175
62 98 173
62 99 176
62 99 177
62 99 175
62 99 180
62 98 174
61 98 172
63 100 176
62 99 177
62 99 168
62 99 177
62 98 173
62 99 174
62 99 174
62 99 173
62 99 175
62 99 172
62 98 174
62 99 171
62 98 171
62 99 172
62 99 175
62 98 171
63 99 175
62 98 169
62 99 173
62 98 171
62 98 168
62 98 167
62 99 175
62 99 172
62 99 173
61 98 172
61 98 171
62 99 172
62 99 172
62 99 174
62 98 173
61 98 166
62 98 165
62 98 167
61 96 162
62 99 170
62 98 164
62 99 170
62 98 172
61 97 166
62 98 173
60 95 163
61 96 157
60 96 163
59 93 157
61 96 165
59 94 156
60 93 152
59 90 143
62 83 114
58 77 111
66 73 70
70 73 52
63 68 50
64 69 51
67 70 50
72 75 53
72 77 54
69 75 57
89 92 68
78 83 59
87 90 64
93 96 65
93 96 65
93 98 67
87 91 64
100 103 67
85 90 60
104 107 73
104 105 66
101 104 68
113 116 78
121 121 77
113 115 73
116 117 79
118 118 76
124 124 76
122 123 80
125 125 81
132 130 84
125 126 82
132 131 83
134 133 83
143 140 85
133 132 82
134 133 79
141 139 90
145 142 85
143 141 87
144 143 87
139 137 87
145 143 84
146 144 89
146 143 85
154 151 88
154 150 88
158 154 90
154 151 86
157 153 90
161 156 89
164 159 96
153 150 88
166 162 94
162 158 93
168 162 96
162 157 90
160 155 89
170 164 98
167 161 96
165 160 93
159 156 88
164 160 89
169 164 97
162 158 90
175 168 100
167 162 95
171 165 96
173 167 96
174 168 95
173 167 94
172 165 90
167 161 92
168 163 93
169 162 88
177 168 96
169 162 91
173 167 96
174 168 98
172 165 90
166 161 96
172 165 98
170 164 95
173 167 93
170 165 95
170 164 89
170 165 93
174 167 92
173 166 91
171 164 88
169 162 90
170 164 87
165 159 85
166 160 84
164 159 87
171 165 91
170 164 84
175 167 99
165 159 83
165 160 84
164 158 89
169 162 92
163 157 83
171 164 89
168 161 90
162 156 80
166 160 83
151 146 75
157 151 80
161 154 77
156 149 80
171 163 86
155 150 73
159 152 80
160 153 82
161 155 84
157 150 79
166 159 85
158 151 76
160 153 76
154 148 78
149 144 74
157 150 77
157 149 76
158 152 84
150 144 72
150 144 75
148 142 73
150 143 74
148 142 65
142 136 64
139 135 58
131 127 49
143 142 58
147 149 53
149 155 42
148 157 44
151 162 39
158 170 37
159 171 36
161 174 36
166 183 25
164 182 16
171 192 19
171 192 0
173 197 0
173 196 0
173 196 0
174 197 0
172 195 0
170 193 0
170 193 0
171 196 0
172 194 0
172 196 0
171 195 0
172 196 0
174 198 0
173 196 0
172 196 0
172 196 0
174 197 0
171 194 0
173 197 0
173 197 0
172 196 0
171 195 0
173 196 0
175 198 0
174 198 0
171 194 0
173 196 0
172 195 0
174 196 0
171 195 0
171 195 0
172 196 0
166 190 0
173 196 0
173 195 0
172 195 0
173 195 0
174 197 0
173 197 0
172 195 0
170 194 0
170 193 0
167 189 0
172 194 0
174 197 0
171 195 0
173 196 0
170 194 0
171 194 0
170 194 0
173 197 0
172 195 0
171 194 0
173 196 0
171 194 0
171 195 0
170 194 0
172 196 0
173 197 0
171 194 0
171 194 0
172 194 0
173 196 0
172 194 0
171 195 0
169 193 0
171 194 0
171 194 0
171 195 0
170 193 0
170 194 0
171 195 0
172 195 0
171 194 0
171 194 0
167 190 0
170 193 0
171 195 0
172 195 0
170 193 0
166 189 0
170 193 0
172 196 0
170 193 0
168 192 0
169 192 0
172 195 0
171 194 0
168 192 0
171 194 0
167 191 25
147 171 86
121 147 125
74 107 163
61 97 158
62 98 166
63 99 173
62 98 169
62 99 168
62 99 170
62 99 169
63 99 173
62 98 167
63 99 173
62 99 172
62 99 169
62 99 174
62 98 170
62 98 170
62 99 176
62 99 173
62 99 171
62 99 175
63 100 174
62 99 175
61 98 171
62 99 177
62 99 176
63 99 177
62 99 175
62 99 174
62 99 174
62 99 177
62 99 173
62 99 175
62 99 177
62 99 176
62 99 174
62 99 177
62 99 175
62 99 175
62 99 176
62 99 176
63 99 178
62 99 176
63 99 176
62 99 177
62 99 178
62 99 179
63 99 179
62 98 174
62 99 174
62 99 178
62 99 180
63 99 177
62 99 179
62 99 178
62 99 180
62 99 177
63 100 178
62 99 177
62 99 179
61 98 174
62 99 175
63 99 178
61 98 175
62 99 179
62 99 177
62 99 179
62 99 177
61 99 178
62 99 179
62 99 178
62 99 180
62 99 176
62 99 178
62 99 177
62 99 176
63 100 179
62 99 176
62 99 176
62 99 179
62 99 179
62 99 176
62 99 179
61 98 174
62 99 181
62 99 177
61 98 174
62 99 177
62 99 176
62 99 179
62 99 175
63 99 178
63 99 177
62 99 177
62 99 179
63 100 178
62 99 178
62 99 175
62 99 174
61 98 172
62 99 175
62 99 173
62 99 177
62 99 177
61 98 176
62 99 175
62 99 177
62 99 175
62 99 173
62 99 178
62 99 176
62 99 174
62 99 173
62 98 172
63 100 180
62 99 172
63 100 178
61 98 172
62 99 177
62 98 172
62 99 173
63 99 174
61 98 174
62 99 168
62 99 171
62 99 171
62 99 177
62 99 170
62 99 173
61 98 173
62 99 172
62 98 169
62 99 175
62 99 174
62 99 173
62 99 172
62 99 178
61 97 171
62 99 175
62 99 173
62 99 174
62 98 170
62 98 169
62 98 171
62 98 172
62 98 172
62 98 168
61 97 168
61 98 165
61 97 166
62 98 168
62 98 171
61 97 164
62 99 171
62 98 169
62 97 163
62 98 168
62 98 164
61 96 163
60 95 160
60 95 158
61 96 165
59 94 162
66 91 134
63 81 111
62 73 75
53 62 56
75 77 53
65 70 54
55 61 48
78 81 58
63 70 52
84 88 58
90 94 68
81 84 58
73 78 58
84 89 63
93 97 68
85 90 65
88 91 65
94 97 67
105 107 68
96 100 70
98 102 71
106 109 73
106 108 74
109 110 74
113 115 79
112 114 77
121 121 80
139 137 85
118 119 79
138 137 85
129 129 84
130 129 80
143 141 87
140 139 84
137 136 85
148 145 88
138 136 78
140 138 87
144 141 83
134 134 86
147 144 89
148 145 91
151 148 85
153 150 91
158 153 90
139 138 78
154 151 91
161 156 91
158 154 89
154 150 88
160 156 94
163 159 92
159 156 90
159 155 91
161 157 92
161 158 91
159 154 91
171 165 94
164 159 93
165 160 93
172 165 99
161 156 83
167 162 94
166 161 91
170 164 91
170 164 97
165 160 92
168 162 93
166 160 91
172 166 93
175 168 94
173 166 95
169 163 92
167 161 88
174 168 99
173 167 94
169 163 87
171 165 90
171 165 96
168 162 88
170 164 92
174 167 97
168 162 92
175 168 96
170 165 90
166 160 89
170 164 91
169 163 92
163 158 84
169 161 90
169 163 94
169 162 90
165 159 90
169 163 87
170 163 93
172 165 94
167 161 90
167 160 90
168 161 89
166 159 89
162 156 86
163 157 82
168 161 87
154 148 75
154 148 77
162 155 84
158 152 84
159 152 82
164 157 80
166 159 86
160 154 77
162 155 79
159 153 81
146 141 67
160 153 79
157 151 75
160 153 79
156 151 77
161 154 82
158 151 80
154 148 73
142 137 62
154 147 72
153 147 75
154 147 75
146 141 69
150 143 71
145 138 71
133 127 65
149 142 72
145 139 74
137 131 57
148 145 69
144 144 51
147 151 48
143 149 42
153 161 49
158 168 42
156 170 39
165 179 28
165 180 32
165 181 25
165 184 16
173 194 16
171 193 0
173 197 0
171 195 0
174 198 0
170 194 0
170 193 0
175 198 0
173 196 0
172 195 0
172 195 0
173 196 0
171 194 0
171 195 0
171 195 0
174 197 0
170 194 0
171 195 0
173 197 0
172 195 0
173 196 0
173 196 0
173 197 0
173 197 0
173 196 0
175 198 0
173 196 0
173 197 0
174 197 0
174 197 0
173 197 0
170 193 0
169 192 0
171 195 0
172 195 0
172 195 0
171 194 0
171 195 0
170 193 0
172 195 0
171 195 0
172 195 0
172 196 0
172 195 0
170 194 0
172 195 0
171 196 0
170 193 0
168 192 0
171 195 0
170 194 0
167 191 0
171 194 0
171 194 0
172 195 0
173 195 0
172 195 0
169 191 0
174 197 0
172 195 0
174 197 0
172 196 0
166 188 0
170 193 0
173 196 0
169 192 0
174 197 0
167 191 0
170 193 0
166 190 0
174 197 0
173 197 0
172 194 0
171 194 0
169 193 0
171 195 0
169 193 0
170 193 0
170 193 0
170 193 0
170 193 0
171 194 0
168 192 0
173 195 0
169 192 0
169 192 0
170 193 0
171 194 0
169 192 0
168 191 0
170 194 0
169 193 0
166 189 47
138 163 100
86 116 141
62 98 162
62 99 164
61 97 159
62 99 165
62 99 168
62 99 171
62 98 166
62 98 168
62 99 175
62 99 176
62 99 171
62 98 170
62 99 169
63 99 174
61 98 170
62 98 169
62 98 171
63 99 173
62 99 175
62 99 174
62 99 172
62 99 175
62 98 173
62 98 170
62 99 172
62 99 173
62 99 175
62 99 177
62 99 173
62 99 176
62 99 175
62 99 172
61 98 174
61 98 174
62 99 175
62 99 174
63 100 178
62 99 173
62 99 176
62 99 178
62 98 175
62 99 177
62 99 176
62 99 179
63 99 176
62 99 177
63 100 177
62 99 179
62 99 178
62 99 176
62 99 178
62 99 178
63 99 178
62 99 174
63 100 180
62 99 177
62 99 179
62 99 178
62 99 177
62 99 179
62 99 177
62 99 180
63 99 178
62 99 177
61 99 178
63 100 179
62 99 176
62 99 177
62 99 179
61 98 179
62 99 177
63 99 177
62 99 177
62 99 179
62 98 175
62 99 177
62 99 179
62 99 173
63 100 179
62 98 174
62 99 176
62 99 175
62 99 177
62 99 177
62 99 177
62 99 176
63 99 176
62 99 175
61 98 177
63 100 178
62 98 175
62 99 175
61 98 175
62 99 179
62 98 174
62 99 176
62 99 177
62 99 177
62 99 172
62 99 175
62 98 174
62 99 172
62 99 175
62 99 177
63 99 174
62 99 176
62 98 171
62 99 174
62 99 174
61 98 173
63 100 179
63 99 175
62 99 176
62 99 176
62 99 178
63 99 179
62 99 175
62 99 172
61 98 172
62 99 177
62 99 175
61 98 171
62 99 176
62 99 177
62 99 176
62 98 171
61 98 173
62 99 173
62 99 177
62 98 171
62 98 166
62 99 174
62 98 170
62 99 172
61 98 169
63 99 171
62 99 172
62 98 171
62 99 171
62 99 173
62 99 173
63 99 173
63 99 170
62 98 166
62 98 171
61 98 169
62 98 166
62 99 172
61 97 165
61 97 165
62 98 166
62 98 173
62 98 168
61 96 164
62 98 168
62 97 164
61 96 165
61 96 160
61 96 163
60 95 158
60 94 159
60 95 163
56 86 134
66 86 118
59 75 99
69 74 61
75 78 55
70 74 55
46 56 47
61 67 49
76 81 59
75 79 56
72 77 55
76 81 56
70 76 56
87 91 62
76 82 58
92 95 60
91 94 64
102 104 70
98 101 65
107 108 71
98 102 70
104 106 69
110 112 71
109 109 70
124 124 80
123 123 73
126 125 76
126 126 78
128 127 80
128 127 76
139 136 85
123 124 77
133 132 77
135 134 84
142 140 87
121 121 71
132 131 77
136 135 84
137 135 82
140 138 82
132 131 77
147 144 84
145 142 81
152 148 83
144 142 88
156 152 91
151 148 89
156 153 91
153 149 84
164 159 97
164 159 90
154 149 85
164 159 92
163 158 93
161 156 90
156 152 90
159 155 89
166 161 90
162 158 93
170 164 94
168 163 89
166 160 87
161 156 90
169 163 90
169 163 92
164 158 88
167 162 92
165 159 93
167 161 90
170 165 94
171 165 89
172 166 99
171 165 94
174 167 98
172 164 93
171 165 93
169 163 89
168 162 90
167 162 94
164 159 90
167 161 88
172 166 90
171 165 96
170 164 93
169 164 86
170 165 91
167 160 85
166 160 85
172 166 90
166 160 84
164 159 81
172 165 97
161 156 84
163 157 83
169 163 90
170 163 88
166 159 85
161 155 87
166 160 85
166 160 78
164 158 84
163 157 80
167 161 81
161 155 84
159 154 75
160 154 79
167 160 87
166 159 89
161 155 80
158 152 76
164 158 81
159 152 82
166 159 84
155 150 76
156 151 77
157 151 74
159 153 79
155 148 76
159 152 76
157 150 75
160 152 80
152 146 68
157 151 75
150 144 68
145 139 71
150 144 63
152 145 75
143 137 66
139 134 63
139 132 58
144 138 62
141 138 57
137 136 54
136 136 49
151 153 57
152 157 52
147 158 36
155 163 51
157 170 32
160 176 30
157 174 28
164 181 25
166 184 16
167 189 16
172 194 16
174 197 0
170 194 0
175 198 0
174 197 0
171 194 0
172 196 0
172 196 0
172 195 0
174 197 0
174 198 0
171 194 0
174 198 0
173 196 0
173 196 0
171 195 0
171 195 0
170 194 0
168 193 0
171 194 0
170 193 0
172 196 0
172 196 0
173 195 0
171 195 0
169 193 0
171 195 0
170 193 0
173 196 0
173 196 0
171 194 0
172 195 0
171 195 0
172 195 0
172 195 0
170 194 0
173 197 0
171 193 0
174 197 0
170 194 0
171 194 0
171 194 0
170 194 0
168 192 0
173 197 0
172 195 0
171 194 0
171 195 0
170 194 0
172 196 0
171 195 0
171 194 0
170 193 0
173 195 0
172 195 0
170 193 0
168 192 0
172 196 0
170 194 0
166 190 0
169 192 0
172 195 0
169 193 0
172 195 0
171 195 0
173 196 0
171 194 0
170 193 0
174 197 0
172 195 0
170 194 0
169 193 0
168 192 0
170 194 0
170 193 0
173 195 0
171 194 0
168 190 0
170 194 0
172 197 0
172 195 0
172 195 0
173 196 0
172 195 0
172 196 0
172 195 0
171 194 0
167 190 0
170 193 0
171 195 0
169 193 0
157 182 62
114 141 130
72 105 158
63 99 167
62 98 163
61 98 163
62 98 167
61 97 158
62 98 158
62 98 170
62 98 165
62 98 169
63 99 169
62 99 173
62 99 170
63 100 178
62 98 172
62 98 167
63 99 173
62 99 177
61 98 170
62 99 168
62 99 176
62 99 173
62 98 173
62 99 174
62 98 170
63 99 175
63 99 175
62 99 172
62 98 169
62 99 175
63 100 177
63 99 174
62 99 177
62 99 175
62 99 174
63 99 175
62 99 176
62 99 176
62 99 178
62 99 175
62 99 177
62 99 174
62 99 178
62 99 179
62 99 178
62 99 175
62 99 174
62 99 176
62 99 174
62 99 177
61 98 173
62 99 178
63 100 180
62 99 176
63 100 179
62 99 176
63 99 176
62 99 176
62 99 177
61 98 175
63 99 176
62 99 178
62 99 176
62 99 177
62 99 178
63 99 175
62 99 177
62 99 179
61 98 177
62 99 176
62 99 178
62 99 179
62 99 176
62 99 179
61 98 173
63 100 179
62 99 179
62 99 177
62 99 179
62 99 179
63 99 177
63 100 178
61 99 177
62 99 175
62 99 177
62 99 177
62 99 178
62 99 181
62 99 177
63 100 178
62 99 175
62 99 175
62 98 174
62 99 177
62 99 174
62 99 175
62 99 175
63 99 174
62 99 176
62 99 179
62 99 176
62 99 176
62 99 177
62 99 179
62 99 177
62 99 173
62 99 174
62 98 174
62 99 176
62 99 174
62 99 172
62 99 173
62 99 171
62 99 176
62 99 175
61 98 172
62 99 176
61 98 171
62 99 173
63 99 175
63 100 174
62 98 171
62 99 174
63 99 174
62 99 172
62 99 174
63 99 172
63 100 176
63 99 177
62 98 166
63 99 171
62 99 173
62 99 174
62 99 177
62 99 175
62 99 176
62 99 172
63 99 176
62 98 170
62 99 173
60 96 160
63 99 175
62 99 175
61 97 165
63 98 166
61 98 166
62 99 173
62 97 162
62 98 169
61 97 166
61 98 168
61 97 168
62 98 170
62 98 169
61 97 168
61 97 166
62 97 159
62 98 166
60 94 152
61 95 159
61 97 165
60 94 151
61 96 160
63 96 161
60 88 139
59 76 101
55 67 74
60 67 47
76 77 54
64 68 48
64 69 48
69 75 55
74 79 54
88 91 60
74 78 55
85 89 57
73 79 56
87 89 61
85 89 58
84 90 66
86 90 60
101 103 68
88 92 65
111 112 73
111 113 74
100 103 69
106 108 67
101 105 67
112 114 67
121 120 77
118 119 78
128 127 80
133 132 81
128 127 82
122 122 76
132 131 79
141 137 82
135 134 82
135 134 80
131 130 83
133 132 79
145 142 87
133 132 77
144 141 85
142 140 82
152 149 88
159 154 91
156 151 90
158 153 96
148 146 84
158 154 94
156 152 89
146 144 81
157 152 89
163 157 94
156 153 90
165 159 89
160 156 87
163 158 91
158 154 88
162 156 89
160 155 89
163 157 89
169 163 93
167 162 90
171 165 92
169 163 91
169 163 91
166 160 89
169 164 93
172 166 95
172 165 95
165 160 85
170 163 87
168 162 87
173 166 94
169 163 85
169 163 87
169 163 91
168 162 88
166 161 91
166 161 85
171 165 89
170 164 88
170 164 89
172 165 90
170 163 91
165 161 84
170 163 93
171 165 95
164 159 87
169 162 89
170 163 92
168 162 88
170 163 85
170 163 89
165 158 86
165 158 88
171 164 88
172 165 87
164 157 87
166 160 90
167 159 87
165 160 80
165 159 84
163 157 84
161 155 82
163 157 82
156 150 82
162 155 85
164 157 87
160 155 79
158 152 76
159 153 75
160 154 86
150 144 71
158 151 80
156 150 80
159 152 78
157 150 70
156 150 74
155 149 74
155 148 75
146 140 72
148 142 73
150 143 72
153 147 70
146 141 72
140 135 60
141 136 58
152 146 70
150 145 71
136 131 61
147 141 66
137 133 59
140 136 56
142 141 60
149 148 53
150 157 45
150 162 42
150 162 36
161 175 37
161 176 30
166 186 16
169 187 16
168 189 11
172 194 11
173 194 0
172 196 0
173 196 0
170 193 0
176 198 0
171 194 0
170 194 0
171 195 0
173 197 0
174 196 0
172 196 0
173 196 0
171 194 0
168 193 0
173 195 0
171 194 0
173 196 0
172 196 0
173 196 0
173 197 0
171 195 0
173 196 0
172 195 0
172 196 0
174 197 0
170 194 0
170 193 0
169 192 0
172 195 0
173 195 0
172 196 0
171 195 0
171 194 0
172 195 0
171 195 0
168 192 0
170 193 0
172 196 0
170 193 0
172 196 0
170 193 0
174 197 0
171 195 0
169 192 0
169 192 0
172 195 0
170 194 0
168 191 0
171 195 0
167 190 0
173 196 0
170 193 0
172 195 0
171 195 0
171 194 0
170 194 0
173 196 0
171 195 0
171 194 0
172 195 0
168 191 0
172 195 0
169 192 0
170 193 0
173 197 0
173 196 0
170 193 0
171 194 0
170 194 0
167 191 0
174 197 0
171 194 0
171 194 0
168 191 0
170 194 0
172 194 0
171 194 0
170 194 0
170 194 0
169 192 0
172 196 0
167 191 0
170 194 0
169 192 0
170 194 0
168 192 0
169 193 0
174 197 0
169 193 0
171 194 0
160 183 54
147 172 92
97 126 140
62 98 161
62 98 169
62 98 163
61 97 159
62 99 171
62 99 168
61 97 165
62 99 172
62 99 170
62 99 170
62 98 167
62 98 169
62 98 165
62 99 176
62 98 169
62 99 170
61 97 163
62 99 170
63 99 171
62 99 171
62 99 176
62 99 173
62 99 177
62 99 175
62 98 170
62 99 176
62 99 173
63 99 176
62 99 175
62 98 174
62 99 175
61 98 173
62 98 171
63 99 176
62 99 177
62 99 178
63 99 173
62 99 176
61 98 176
62 99 177
63 100 177
62 99 176
62 98 174
62 99 177
63 100 180
62 99 176
62 98 174
62 99 172
62 99 176
62 99 177
62 99 178
62 99 175
63 100 180
62 99 178
62 99 178
62 99 178
62 99 174
62 99 176
63 100 176
62 99 174
62 99 177
62 99 176
62 99 178
62 99 178
62 99 174
62 99 177
61 99 177
62 99 177
62 99 177
62 99 177
62 99 177
62 99 179
63 100 181
62 99 178
62 99 176
62 99 178
62 99 175
62 99 177
62 99 175
62 99 173
62 99 178
61 98 175
62 99 177
62 99 177
62 99 176
62 99 179
62 99 174
62 99 176
62 99 179
62 99 180
61 98 175
62 99 177
62 98 173
63 100 180
61 98 173
62 99 174
62 99 177
62 99 174
62 99 176
62 99 175
62 99 177
61 98 169
61 98 174
63 99 177
62 99 175
62 99 174
62 99 176
62 99 178
62 99 176
61 98 175
62 99 177
62 99 174
62 99 175
62 99 176
63 100 178
62 99 175
63 100 176
63 99 176
63 99 175
62 98 175
62 99 172
62 99 176
62 99 177
62 99 175
63 100 177
63 99 172
63 100 176
62 99 172
62 99 173
62 99 174
63 99 172
62 99 171
62 98 166
61 98 165
62 99 170
61 98 170
61 98 170
62 99 172
62 99 171
62 98 170
62 99 171
62 99 172
62 98 164
61 98 167
62 98 169
61 98 170
62 98 169
61 98 169
62 98 171
62 98 166
63 99 172
62 97 163
62 97 164
61 97 164
62 98 166
62 98 168
61 97 163
61 95 155
61 96 158
61 97 167
61 96 166
61 96 166
60 94 155
61 95 160
57 87 139
54 77 108
57 69 80
51 56 44
66 71 48
62 67 49
69 73 49
60 66 48
70 75 54
51 59 43
82 87 62
83 84 56
73 78 55
92 95 64
79 82 54
87 90 59
108 110 70
103 104 67
96 99 68
101 104 70
104 107 71
93 96 66
98 100 64
114 115 70
117 117 72
121 121 78
112 114 73
119 119 76
128 129 78
120 121 74
130 129 76
136 134 79
126 125 74
143 141 85
139 137 79
135 134 81
135 133 81
141 139 79
140 138 84
143 141 85
143 141 84
146 143 79
146 144 86
154 150 88
149 145 86
155 151 87
149 146 85
158 154 88
152 149 88
157 153 88
160 155 88
160 156 88
154 149 83
155 150 88
157 153 90
159 155 90
163 158 90
168 162 96
170 163 93
171 165 96
163 157 87
165 161 93
166 160 90
165 160 90
167 163 91
165 160 92
168 163 95
173 166 95
165 160 89
172 164 92
172 165 94
169 164 87
166 160 86
170 164 86
171 164 94
165 159 87
169 163 86
171 164 90
167 160 84
168 162 87
175 168 96
173 165 95
168 161 87
172 165 92
173 165 93
169 163 92
167 161 84
171 164 90
167 161 84
171 163 90
171 164 90
162 156 84
166 160 85
169 163 87
163 156 85
162 156 80
167 161 85
165 158 81
166 159 84
165 158 84
161 157 81
161 155 80
168 160 86
161 155 76
162 154 84
165 157 84
158 151 78
159 154 75
158 151 80
173 164 92
160 153 82
161 154 79
166 159 85
148 143 69
155 149 70
144 138 72
153 147 65
157 151 78
156 149 77
143 138 62
147 141 72
158 151 76
152 146 70
145 139 65
142 136 69
149 143 67
140 134 62
150 143 75
131 127 58
140 135 64
141 138 60
140 143 48
143 146 48
139 142 48
147 152 49
146 155 36
156 167 41
155 170 32
163 178 30
164 181 28
167 185 0
166 182 30
169 190 16
168 190 0
172 195 0
172 196 0
174 197 0
173 197 0
172 196 0
171 194 0
173 196 0
173 196 0
173 196 0
171 196 0
173 196 0
171 194 0
172 195 0
171 194 0
172 196 0
172 196 0
171 194 0
171 196 0
174 197 0
168 191 0
171 195 0
172 195 0
170 194 0
172 195 0
172 196 0
171 195 0
173 197 0
170 194 0
173 196 0
171 195 0
170 193 0
174 197 0
172 195 0
170 194 0
173 196 0
168 192 0
172 195 0
173 196 0
171 195 0
173 196 0
172 195 0
172 196 0
172 196 0
173 197 0
169 193 0
171 194 0
169 192 0
171 196 0
171 194 0
171 194 0
173 196 0
171 195 0
169 193 0
171 195 0
168 191 0
170 194 0
169 193 0
172 195 0
169 193 0
172 196 0
169 192 0
171 195 0
174 197 0
168 192 0
169 192 0
172 195 0
167 190 0
170 193 0
170 193 0
171 195 0
171 194 0
171 194 0
172 195 0
169 193 0
168 191 0
172 195 0
172 195 0
173 195 0
168 192 0
171 194 0
170 194 0
167 191 0
169 192 0
172 195 0
169 193 0
171 194 0
169 192 0
168 191 0
169 192 0
156 180 65
128 154 120
75 108 149
62 98 166
62 98 162
62 98 168
62 98 164
62 98 166
63 99 169
62 99 170
62 99 168
62 99 170
62 98 168
63 99 172
62 99 168
62 99 175
62 99 176
62 98 170
63 99 169
62 99 172
62 98 172
62 98 171
62 99 174
62 99 175
62 98 170
62 99 174
62 99 173
62 99 171
62 99 174
62 99 174
62 99 173
62 99 175
63 99 178
62 99 175
63 100 178
63 99 178
62 99 178
62 99 174
62 99 175
62 99 175
62 99 175
63 99 179
62 99 171
62 99 179
62 99 174
63 100 179
62 99 175
62 98 176
62 99 174
62 99 177
62 99 176
63 99 176
62 99 176
62 99 179
62 99 175
63 99 177
62 99 177
62 99 177
62 99 174
62 99 176
62 99 179
62 99 177
62 99 178
62 99 178
61 98 176
62 99 178
62 99 177
62 99 179
61 98 178
62 99 179
62 99 178
62 99 179
62 99 180
62 99 174
62 99 176
62 99 178
62 99 175
63 99 178
62 99 175
62 99 174
62 99 177
62 99 175
62 99 177
62 99 174
62 99 174
62 99 173
62 99 180
62 99 177
63 99 176
62 99 174
62 99 179
62 99 178
62 99 178
62 99 176
62 99 173
61 98 174
62 99 175
62 99 173
62 99 175
62 99 173
62 99 172
62 99 176
62 99 172
62 99 174
63 99 174
62 99 177
62 99 175
62 99 171
62 99 171
62 99 175
62 98 172
62 98 172
63 99 176
62 99 177
62 99 174
62 99 176
62 99 174
62 99 175
62 99 177
62 99 175
63 99 178
62 99 176
62 99 173
63 100 176
62 99 174
61 98 170
63 100 178
62 99 175
61 98 173
62 99 175
62 99 172
62 98 168
62 99 173
63 99 170
61 98 174
62 99 171
62 99 174
63 99 171
61 98 166
62 99 172
62 99 173
61 97 168
61 97 169
61 98 169
62 98 171
62 98 170
62 98 167
61 97 164
62 99 170
62 98 169
62 98 168
62 98 164
62 98 168
61 97 168
62 98 168
61 98 169
61 97 162
61 96 160
61 96 160
61 97 164
61 96 160
61 97 168
60 95 163
62 97 166
60 94 156
61 96 161
62 97 161
59 92 154
58 86 125
72 85 98
58 68 67
49 54 40
63 68 48
62 70 53
54 60 39
65 70 50
62 68 49
76 81 56
85 90 64
76 81 57
76 80 56
89 92 57
91 95 61
101 103 66
90 92 61
103 105 64
96 98 64
109 110 70
102 105 67
106 107 72
114 115 72
110 111 71
103 105 59
118 118 71
123 123 75
121 122 72
121 121 75
139 137 78
135 133 76
137 135 81
126 126 76
143 140 83
135 132 71
138 137 86
139 137 83
133 133 78
143 140 76
152 149 88
144 141 81
146 143 82
151 147 88
151 149 87
146 144 84
145 141 84
154 150 84
153 149 85
151 147 87
151 149 83
164 158 92
161 156 95
156 153 88
163 158 90
156 151 89
168 163 94
169 162 94
152 148 80
163 157 86
165 160 91
170 164 95
169 162 93
166 161 85
172 165 91
169 163 94
165 161 93
173 166 93
173 167 95
164 158 84
172 165 95
171 164 96
168 162 90
171 164 92
168 161 89
169 163 87
167 160 89
165 159 86
167 161 84
172 165 95
165 160 84
165 160 80
165 159 85
172 165 86
170 164 93
163 157 83
170 163 90
169 162 88
169 163 88
170 163 89
165 159 87
171 164 90
165 158 87
171 164 90
161 156 81
166 160 84
169 161 90
166 160 81
165 158 80
166 158 84
163 157 80
166 160 82
162 156 76
162 154 83
162 156 84
156 150 77
164 157 84
160 154 84
157 151 80
161 154 78
159 152 79
161 155 77
162 156 79
156 149 79
155 149 76
161 154 72
152 146 73
154 147 75
153 147 64
157 150 73
154 149 73
149 143 70
150 144 71
146 140 64
150 143 71
146 141 59
151 145 73
146 140 69
143 137 61
140 137 58
139 136 61
140 141 52
139 141 48
152 155 56
152 161 39
152 163 36
160 174 34
152 165 34
156 171 30
165 182 25
160 179 16
166 188 11
171 191 11
175 196 0
171 195 0
172 196 0
171 195 0
175 197 0
172 196 0
173 197 0
172 195 0
170 194 0
172 195 0
171 195 0
176 198 0
172 196 0
171 195 0
174 197 0
170 193 0
174 197 0
172 195 0
173 196 0
172 196 0
174 198 0
171 195 0
172 195 0
172 195 0
169 192 0
174 197 0
170 194 0
170 193 0
170 194 0
169 192 0
173 197 0
172 195 0
170 194 0
172 195 0
169 193 0
169 193 0
171 194 0
173 196 0
169 193 0
171 194 0
166 190 0
173 197 0
171 195 0
170 193 0
171 195 0
170 194 0
171 194 0
173 197 0
173 197 0
173 197 0
167 191 0
172 195 0
166 189 0
172 196 0
170 193 0
171 194 0
171 194 0
171 194 0
169 193 0
171 195 0
171 193 0
171 195 0
171 194 0
171 194 0
173 197 0
172 194 0
174 197 0
172 195 0
166 190 0
171 194 0
170 193 0
171 195 0
171 193 0
170 193 0
170 193 0
170 193 0
169 193 0
171 195 0
169 192 0
173 195 0
172 196 0
170 193 0
168 191 0
172 195 0
169 193 0
169 191 0
168 191 0
169 192 0
169 193 0
165 188 0
142 167 92
114 141 125
63 99 159
61 97 161
61 97 159
61 97 160
62 98 164
62 98 169
62 98 168
62 98 169
63 99 168
62 99 171
62 99 171
63 100 173
61 98 170
63 99 167
61 98 163
62 99 175
62 98 169
62 99 170
62 99 170
62 99 175
62 98 170
63 99 176
61 98 169
62 99 175
62 99 175
63 99 175
61 98 169
61 98 173
62 99 177
62 99 174
62 98 174
62 99 173
62 99 176
62 99 174
62 99 175
61 98 175
62 99 176
63 99 175
62 99 178
63 100 178
62 99 172
63 100 178
62 99 174
62 99 173
63 100 179
61 98 176
62 98 171
61 98 174
62 99 177
62 99 176
62 99 177
62 99 175
63 100 176
63 99 179
62 99 178
62 99 178
62 99 174
62 99 178
62 99 177
62 99 179
62 99 175
62 99 178
62 99 173
62 99 175
61 98 176
62 99 176
62 99 177
62 99 179
63 100 180
62 99 176
62 99 173
63 100 175
62 99 177
62 99 179
62 99 177
61 98 172
62 99 173
62 99 175
62 99 177
62 99 173
62 99 174
62 99 177
62 99 177
62 99 177
62 98 171
63 99 174
62 99 174
61 99 176
62 99 176
62 99 174
62 99 174
62 99 175
62 99 179
62 99 173
63 100 176
62 99 172
62 99 174
62 99 179
62 99 175
62 99 173
63 99 176
63 99 177
62 99 178
62 99 176
62 99 178
62 99 174
62 99 176
62 99 171
62 99 176
63 99 176
62 99 176
63 99 174
62 98 166
63 100 179
63 99 177
62 98 173
62 99 177
63 99 171
63 99 173
62 99 177
63 99 179
62 99 175
62 99 178
62 99 173
62 98 171
62 99 175
62 98 170
62 99 172
62 99 175
63 99 175
62 98 166
62 98 170
62 99 167
62 98 174
62 99 171
62 99 177
62 99 170
61 98 171
62 99 173
63 99 173
63 99 169
62 99 172
63 99 171
61 97 164
62 98 170
62 98 167
61 97 167
62 98 168
61 97 157
61 97 163
62 98 172
62 98 171
62 98 169
61 97 163
61 97 162
61 96 163
62 97 165
61 97 162
62 98 166
60 96 162
61 96 163
60 96 156
62 97 164
61 96 161
60 94 155
58 91 147
57 84 132
57 77 104
55 69 81
59 64 51
63 68 43
64 69 50
75 79 54
51 58 42
67 72 49
82 84 51
76 81 58
74 80 55
71 77 53
90 94 62
95 97 63
87 90 57
92 96 67
98 101 64
102 103 65
94 97 67
94 97 62
110 111 67
102 104 66
107 108 71
117 118 74
113 113 66
122 122 77
126 126 78
122 121 69
133 130 76
139 136 78
125 124 74
130 129 79
134 133 76
150 146 91
137 134 77
140 139 72
136 135 83
136 135 76
151 147 80
150 147 87
151 148 86
144 142 81
149 146 88
156 152 90
152 148 84
151 146 80
157 153 84
149 146 86
160 155 80
153 148 85
162 157 89
164 159 88
162 158 91
162 156 86
161 156 88
162 156 86
162 157 89
164 159 94
160 155 87
164 159 87
163 158 86
166 161 89
167 161 89
165 160 88
164 159 89
162 157 80
164 159 84
172 166 92
166 159 87
171 165 88
165 160 86
167 161 90
172 164 90
172 166 95
166 161 80
170 165 95
170 164 93
162 157 80
170 163 87
166 161 83
172 164 90
171 165 93
169 162 89
166 160 87
168 161 88
169 163 84
167 162 87
164 158 87
161 155 80
168 162 88
166 160 88
171 164 91
164 159 81
169 162 83
166 158 82
159 153 76
162 156 77
167 159 84
164 158 79
164 158 82
161 155 74
164 157 82
162 156 75
163 157 82
157 152 73
165 158 83
152 147 66
161 155 78
161 154 77
156 150 74
156 150 75
151 144 71
156 150 68
156 150 65
152 146 72
162 155 80
153 145 75
156 149 75
145 139 67
138 132 60
147 142 67
146 141 65
144 138 68
149 143 65
138 134 56
140 134 61
145 138 63
139 136 57
135 133 52
147 149 58
150 151 56
158 162 52
143 149 41
151 161 32
149 164 25
161 175 32
165 182 28
168 186 30
165 184 19
172 193 11
170 190 0
172 194 0
173 197 0
174 197 0
172 195 0
172 195 0
172 196 0
173 196 0
173 197 0
171 195 0
171 195 0
174 197 0
170 193 0
171 194 0
174 197 0
172 194 0
172 196 0
172 195 0
173 195 0
173 196 0
170 193 0
173 196 0
173 196 0
171 194 0
173 196 0
171 194 0
172 195 0
172 194 0
174 197 0
171 195 0
172 196 0
172 195 0
169 192 0
173 196 0
172 195 0
171 195 0
172 195 0
169 192 0
173 196 0
173 197 0
171 194 0
168 191 0
167 190 0
171 193 0
170 194 0
174 197 0
172 196 0
171 195 0
169 192 0
170 193 0
170 194 0
172 194 0
171 194 0
171 195 0
169 193 0
172 196 0
175 198 0
171 195 0
172 195 0
170 194 0
170 194 0
172 195 0
169 192 0
174 196 0
167 190 0
169 192 0
172 194 0
168 191 0
169 191 0
162 186 0
170 193 0
169 193 0
169 191 0
169 192 0
169 191 0
173 196 0
168 192 0
169 192 0
163 186 0
172 195 0
168 192 0
171 194 0
170 193 0
170 193 0
171 195 0
170 192 0
171 195 0
169 193 0
169 193 0
169 191 0
167 191 44
131 156 107
84 115 155
62 98 163
62 98 160
63 99 169
63 99 167
62 98 166
62 99 164
62 98 167
62 98 163
62 99 170
62 98 165
61 98 170
62 98 166
62 99 170
62 99 168
62 99 169
62 98 167
62 99 173
62 99 172
63 99 173
62 98 171
62 98 172
62 98 168
63 99 177
63 100 177
62 98 170
62 99 172
62 98 170
62 98 170
62 99 173
62 99 172
63 99 177
63 99 176
62 98 171
62 99 176
63 99 175
62 99 173
63 100 179
62 99 178
62 99 174
62 99 176
62 99 175
62 99 177
62 99 174
63 100 176
61 98 174
62 99 175
62 99 176
62 99 174
61 98 171
62 99 175
63 99 176
62 99 176
62 99 172
62 99 175
62 99 176
62 99 176
62 99 173
62 99 176
62 99 176
62 99 176
62 99 177
62 99 178
62 99 177
62 99 174
62 99 178
63 99 176
62 99 177
63 100 177
61 98 174
62 99 173
62 99 176
62 99 176
61 98 174
62 99 175
62 99 174
63 99 177
61 98 172
62 98 174
62 99 179
61 98 174
62 99 177
62 99 176
61 98 178
62 99 176
62 99 177
62 99 175
62 98 172
61 98 171
62 99 174
62 99 175
62 99 177
62 99 176
62 99 174
62 99 174
62 99 174
62 99 177
62 99 175
62 99 177
62 99 178
61 98 176
62 99 172
61 98 171
62 99 175
62 98 174
62 98 175
63 100 175
63 100 179
62 99 175
62 99 178
62 99 172
62 99 175
62 99 174
62 99 178
62 99 173
62 99 177
62 99 173
62 99 170
62 99 171
62 99 173
62 99 176
62 98 171
61 98 173
62 99 170
62 98 171
63 100 175
63 99 173
62 99 175
62 99 173
62 98 166
62 99 173
63 99 172
63 99 173
62 98 169
62 99 173
62 99 173
63 99 170
62 99 176
62 99 169
62 98 167
62 99 174
62 98 164
61 97 169
61 98 165
62 98 167
62 99 168
61 98 168
62 98 169
61 97 169
62 99 173
62 98 171
62 98 168
62 98 169
61 97 164
62 98 166
61 98 168
63 98 168
61 97 165
62 98 167
61 98 170
61 97 164
61 96 159
60 95 159
60 95 154
61 97 164
60 94 155
59 93 151
59 88 135
59 85 126
63 75 83
62 68 52
50 57 40
47 55 44
63 69 48
55 64 45
75 78 53
66 70 41
77 82 56
82 87 58
91 94 60
87 92 63
92 94 56
87 91 59
93 96 61
89 92 55
96 99 65
97 100 61
94 96 61
103 105 64
102 103 63
110 110 66
117 118 71
111 112 66
118 119 73
125 124 73
122 122 72
117 117 71
131 129 77
119 120 72
139 137 79
129 128 77
135 134 79
127 126 75
146 143 81
136 134 81
143 140 78
134 132 83
146 143 80
146 142 82
146 142 83
140 137 72
151 147 81
155 151 83
160 155 88
150 148 84
149 146 83
148 145 82
161 157 88
160 155 86
160 155 89
159 155 88
159 154 87
166 161 90
157 152 87
155 152 85
160 156 83
165 160 93
169 163 91
165 159 89
167 161 90
167 162 89
169 162 90
168 162 86
169 163 91
171 164 90
167 161 87
164 159 86
170 164 91
170 163 87
171 164 94
165 160 86
166 159 82
169 163 92
173 166 91
168 161 87
167 161 86
165 160 84
175 167 92
171 164 90
165 159 87
172 165 85
171 164 90
166 160 87
163 157 83
168 161 81
163 157 83
169 163 87
166 159 87
164 158 87
163 157 84
163 157 80
169 161 90
166 160 85
165 158 83
159 154 75
166 159 83
166 159 87
163 157 76
165 158 85
156 150 76
163 156 88
156 150 75
155 148 73
159 153 70
161 154 81
165 158 82
152 147 68
158 151 77
160 154 79
150 144 63
152 146 78
155 149 68
153 147 75
153 146 68
149 143 72
141 136 64
150 144 65
146 140 65
150 144 57
143 138 65
139 133 62
143 139 57
145 139 66
141 135 56
152 144 72
142 138 53
156 154 70
145 146 53
136 140 48
143 147 41
158 168 41
155 164 42
162 180 25
161 179 19
156 172 19
166 187 19
166 186 19
167 188 19
170 192 11
170 191 0
172 196 0
173 196 0
174 197 0
174 197 0
173 197 0
173 197 0
172 196 0
174 197 0
170 194 0
174 197 0
172 196 0
173 197 0
173 196 0
170 193 0
171 195 0
171 194 0
174 197 0
172 196 0
171 195 0
173 196 0
172 195 0
171 195 0
172 195 0
171 195 0
171 194 0
172 196 0
171 194 0
171 194 0
172 196 0
173 196 0
173 197 0
172 196 0
173 196 0
169 192 0
172 195 0
172 195 0
171 194 0
169 193 0
172 194 0
171 195 0
169 193 0
171 194 0
173 197 0
169 192 0
172 195 0
167 192 0
174 197 0
171 195 0
171 195 0
171 195 0
171 193 0
170 194 0
171 194 0
171 195 0
169 192 0
169 193 0
172 195 0
169 192 0
170 194 0
172 194 0
171 194 0
169 192 0
169 192 0
171 194 0
168 191 0
172 195 0
170 192 0
171 194 0
171 194 0
169 192 0
167 191 0
174 197 0
173 196 0
169 193 0
169 193 0
171 194 0
173 196 0
166 189 0
169 192 0
167 190 0
169 193 0
172 195 0
171 193 0
172 195 0
171 194 0
171 194 0
170 193 0
168 191 0
150 173 74
123 149 120
74 107 148
62 98 157
61 97 160
62 98 158
62 98 163
61 98 169
61 98 168
62 98 169
62 99 171
62 98 166
62 98 171
63 100 175
62 99 174
62 99 170
62 98 168
61 98 167
62 99 173
62 99 170
62 99 172
62 99 170
62 99 173
62 99 174
61 98 175
62 99 173
62 99 175
63 99 174
62 98 168
62 98 171
63 99 173
62 99 175
63 100 178
62 99 175
63 100 175
62 99 176
62 99 178
62 99 179
62 99 176
62 99 175
63 99 176
62 99 175
62 99 175
62 98 171
61 97 168
62 99 176
62 99 175
62 98 172
62 99 176
62 98 173
62 99 179
62 99 176
62 99 175
62 98 172
62 99 178
62 99 177
62 99 175
62 99 177
62 99 179
62 99 173
62 99 178
63 100 178
62 99 173
63 99 177
62 99 179
61 99 177
62 99 177
62 99 178
62 98 171
63 100 179
62 99 173
62 99 174
62 99 179
62 99 176
62 99 180
62 99 176
62 98 172
62 99 173
62 99 176
62 99 175
62 99 179
63 99 173
61 98 174
62 99 180
62 99 177
62 99 178
62 99 177
62 99 176
62 99 175
61 98 171
63 100 177
62 99 175
62 99 175
62 99 174
62 98 171
61 98 174
62 99 176
62 99 176
61 98 175
62 99 176
62 99 175
62 99 174
62 98 174
62 99 176
62 99 178
62 99 174
62 99 174
61 98 172
62 99 174
62 99 176
61 98 169
61 98 174
63 99 175
62 99 173
63 99 173
62 99 176
62 99 171
63 99 174
62 99 174
62 99 175
62 99 170
62 99 177
62 99 172
62 99 174
62 99 175
62 99 172
62 98 172
62 98 172
62 99 176
62 98 171
62 99 172
62 98 172
62 98 171
62 98 168
62 99 176
62 99 169
62 99 171
62 99 175
62 98 171
62 99 169
61 98 171
63 99 174
62 99 174
62 98 171
62 98 172
62 98 168
61 97 163
62 99 172
62 98 169
62 98 165
61 98 167
62 99 171
62 98 164
62 98 170
62 99 170
62 98 164
62 97 167
61 98 167
62 98 170
62 98 167
61 96 162
60 96 160
62 96 160
61 96 162
61 96 163
60 95 161
59 93 153
60 95 162
59 93 148
58 91 147
57 85 134
50 69 97
62 70 67
66 70 48
57 64 47
55 62 38
73 77 49
60 66 44
71 76 49
75 78 49
70 75 50
81 86 61
57 66 48
90 93 57
98 101 65
86 89 57
94 97 63
106 107 66
100 104 66
107 108 67
116 117 76
105 107 64
111 112 71
111 113 64
112 113 65
119 118 68
110 112 71
129 127 74
129 128 79
138 135 78
126 124 72
134 132 79
132 132 71
133 133 80
137 135 77
140 137 79
140 137 75
135 133 77
145 142 77
143 140 82
148 144 82
145 142 82
151 147 88
148 144 78
143 140 72
150 145 79
159 154 85
154 150 85
156 152 83
161 155 91
158 153 89
155 151 82
155 151 86
157 152 88
160 155 82
160 154 87
160 155 83
160 155 86
157 152 84
164 159 87
168 163 93
162 158 86
159 155 80
165 159 84
161 155 85
167 162 88
168 162 90
166 161 84
164 159 85
165 159 85
168 161 91
171 165 94
169 163 90
171 165 91
160 155 80
172 165 93
166 160 84
170 162 88
171 165 86
169 162 84
167 161 80
172 164 92
169 162 90
170 164 87
168 161 87
166 160 85
169 163 86
164 157 77
166 160 86
164 158 82
167 160 85
165 159 83
166 159 84
166 159 81
164 157 84
165 158 81
159 152 77
165 158 81
168 161 84
160 154 76
157 150 75
167 161 82
159 152 76
156 149 76
153 148 74
163 156 84
157 150 76
160 155 80
156 150 72
156 150 73
159 153 77
156 149 75
151 144 69
154 148 76
148 142 67
154 147 78
147 140 70
148 143 64
145 140 62
152 145 68
143 136 63
148 142 56
141 135 61
143 135 63
147 140 63
142 136 66
141 138 56
138 136 52
150 147 66
139 140 48
154 158 52
145 152 45
152 161 37
158 170 34
158 170 30
160 174 36
166 182 25
163 182 16
169 188 0
170 191 0
172 193 0
171 192 0
175 198 0
174 196 0
173 197 0
173 196 0
171 195 0
172 195 0
172 196 0
172 196 0
172 196 0
171 195 0
174 197 0
172 195 0
172 196 0
173 196 0
173 196 0
171 195 0
171 195 0
172 197 0
172 195 0
174 197 0
173 196 0
174 197 0
171 195 0
170 193 0
173 196 0
175 198 0
171 194 0
173 196 0
171 194 0
174 197 0
172 194 0
173 196 0
171 194 0
172 196 0
171 195 0
172 195 0
171 195 0
172 195 0
172 195 0
170 194 0
170 192 0
172 195 0
171 195 0
174 197 0
170 194 0
172 195 0
170 194 0
172 195 0
171 194 0
172 196 0
171 194 0
169 192 0
169 193 0
172 195 0
168 192 0
171 194 0
171 194 0
170 193 0
170 193 0
174 197 0
173 196 0
168 193 0
169 193 0
168 191 0
170 194 0
172 196 0
171 194 0
170 193 0
168 191 0
171 194 0
170 193 0
167 191 0
169 191 0
170 193 0
169 193 0
170 193 0
171 195 0
170 193 0
170 193 0
168 191 0
173 196 0
170 192 0
172 195 0
169 193 0
169 193 0
167 190 0
171 194 0
170 194 0
145 169 84
101 129 144
61 97 156
60 97 161
61 97 155
62 98 165
62 99 173
62 98 164
62 99 171
63 99 171
61 97 164
62 98 164
62 99 174
63 99 171
63 99 172
63 99 175
62 98 173
63 100 175
62 98 169
63 99 177
62 99 172
62 98 173
62 98 169
62 99 174
62 98 169
62 98 175
62 99 175
62 99 172
62 99 175
63 99 174
62 99 172
62 98 174
63 99 177
63 99 174
61 98 171
63 99 176
62 98 170
62 99 175
62 99 171
62 98 172
61 98 173
62 99 172
62 99 176
62 99 175
62 99 175
62 99 172
62 99 173
62 99 176
62 99 175
62 98 173
62 99 176
62 99 176
62 99 179
62 98 174
62 98 172
63 99 174
62 99 172
63 100 178
62 99 176
62 99 176
62 99 176
62 98 176
62 99 172
62 99 176
62 99 175
62 99 176
62 99 178
62 99 177
62 99 176
62 99 172
62 99 174
62 99 174
62 99 176
62 99 174
62 98 170
62 98 167
62 99 173
62 98 177
61 98 173
62 99 177
62 99 177
62 99 175
61 99 177
63 99 175
62 98 174
63 100 179
62 99 178
62 99 176
62 99 174
63 99 176
62 99 175
61 98 176
62 98 171
63 99 172
62 99 174
62 99 171
62 98 172
62 99 175
62 99 175
63 100 177
62 99 175
62 99 173
62 99 175
62 99 176
62 99 174
62 99 176
63 99 174
62 99 178
63 99 173
62 99 174
61 98 170
62 99 171
61 98 171
62 99 172
62 99 172
62 98 174
62 99 169
63 99 173
62 98 170
63 99 174
62 98 174
63 99 174
62 99 176
62 99 174
62 99 174
62 99 172
63 99 171
63 99 175
62 98 167
62 99 173
63 100 177
62 99 171
62 98 171
62 98 170
63 99 175
62 99 175
62 99 175
62 99 171
61 98 169
62 98 170
62 99 171
62 98 168
62 99 173
62 98 166
62 98 171
62 99 171
63 99 173
62 98 169
62 98 170
62 99 170
62 98 169
62 98 167
61 97 166
62 98 167
62 99 168
62 98 168
61 97 162
62 97 162
61 97 162
63 99 169
62 98 163
63 99 169
62 98 168
63 98 165
62 97 164
62 98 168
60 95 154
60 94 156
60 95 159
60 94 156
57 85 134
51 71 97
58 71 81
60 65 41
59 64 41
62 66 43
50 58 43
64 69 46
74 79 47
71 75 41
66 71 45
79 83 56
71 77 45
86 88 59
96 98 54
90 93 57
98 99 61
102 104 67
97 100 61
100 103 64
106 107 67
111 111 64
110 109 67
123 123 72
114 114 68
122 119 76
114 114 68
121 121 72
126 124 71
114 114 70
114 115 66
133 130 77
144 140 79
133 131 75
132 130 74
150 147 78
139 137 82
134 132 71
141 139 85
144 142 84
145 141 83
139 137 75
140 138 83
151 147 84
142 139 75
153 149 85
145 143 80
158 154 86
153 148 85
164 158 88
156 151 78
158 153 86
160 155 83
162 156 87
154 150 78
163 157 86
161 156 87
156 151 84
162 157 81
156 152 75
163 158 86
166 160 88
161 156 84
166 161 90
164 158 87
171 165 92
167 162 91
159 154 81
168 162 87
168 161 84
170 164 87
168 162 86
168 162 88
168 162 85
167 161 83
163 157 81
164 157 81
168 162 87
164 157 84
168 161 87
167 161 86
166 159 86
171 164 83
165 159 84
170 163 84
167 160 82
164 158 81
169 163 87
161 155 75
162 155 78
164 158 79
163 158 84
166 159 83
164 157 80
160 155 79
162 155 79
167 160 85
165 158 84
160 154 81
164 158 77
157 151 75
165 159 84
157 151 78
167 159 84
160 153 79
155 149 77
155 148 73
156 150 79
152 147 77
158 152 78
155 150 75
156 150 75
162 156 75
150 144 68
152 145 68
156 150 75
143 137 64
149 142 67
148 141 71
150 144 68
146 140 62
153 145 75
144 139 62
148 142 63
144 138 61
142 137 54
141 137 63
134 133 49
143 145 48
139 143 44
147 151 42
148 154 44
153 162 39
160 172 34
159 176 22
163 176 37
167 187 0
169 189 11
167 187 11
171 194 0
173 195 0
172 195 0
172 196 0
172 196 0
173 196 0
172 196 0
174 197 0
170 193 0
171 195 0
173 196 0
169 193 0
170 194 0
168 192 0
170 194 0
170 193 0
172 196 0
173 196 0
169 193 0
172 195 0
170 193 0
173 196 0
172 195 0
172 195 0
174 197 0
172 196 0
172 197 0
169 192 0
173 196 0
173 197 0
171 195 0
170 192 0
170 194 0
169 192 0
170 193 0
173 196 0
172 196 0
172 195 0
172 196 0
171 194 0
172 195 0
171 195 0
173 196 0
172 195 0
171 195 0
170 194 0
169 193 0
173 196 0
170 194 0
172 196 0
168 191 0
171 194 0
174 197 0
172 195 0
170 195 0
170 194 0
171 195 0
171 195 0
171 193 0
171 194 0
171 194 0
171 194 0
169 192 0
169 192 0
171 194 0
173 196 0
170 193 0
173 194 0
170 194 0
170 193 0
171 194 0
171 195 0
168 192 0
169 193 0
174 197 0
170 194 0
168 192 0
169 193 0
171 194 0
170 193 0
171 194 0
172 196 0
173 196 0
171 194 0
163 186 0
171 193 0
170 194 0
168 191 0
168 191 0
169 192 0
164 188 54
140 163 97
78 110 154
61 97 159
62 98 165
63 99 167
62 98 163
62 98 161
61 97 160
63 99 169
61 98 167
62 99 170
63 99 168
62 99 169
62 99 168
61 98 162
62 98 170
62 99 172
62 98 170
61 98 171
62 99 174
62 99 173
63 99 173
62 99 175
62 99 175
63 99 174
62 99 173
62 98 169
62 99 173
63 99 176
62 99 174
62 99 171
62 99 174
62 99 172
63 99 173
62 99 178
62 99 173
62 98 171
62 98 167
63 100 174
61 97 166
62 98 170
62 99 174
63 99 175
62 99 173
62 99 174
62 99 177
63 99 174
61 98 168
62 99 175
63 99 175
62 99 177
62 99 175
62 99 174
63 99 177
62 99 172
61 98 172
62 98 172
62 99 174
63 99 176
63 99 178
62 99 173
63 99 176
62 99 174
61 98 174
62 99 177
62 99 175
62 98 174
62 99 178
62 98 171
61 98 178
63 99 177
62 99 176
62 99 176
62 99 172
62 99 174
62 99 173
63 100 178
62 99 178
62 99 175
62 99 172
63 100 174
62 99 172
62 99 173
62 99 176
62 99 174
63 99 177
62 99 171
62 99 178
62 98 173
62 99 174
62 99 175
62 99 173
62 99 175
63 100 176
62 99 174
61 98 172
62 98 171
62 99 176
63 99 171
62 99 177
62 99 175
62 99 174
62 99 178
62 99 170
62 99 176
61 98 172
63 100 176
61 98 171
63 99 174
62 99 178
63 100 177
63 100 179
62 99 173
62 99 171
62 98 168
62 99 175
63 99 177
62 99 172
62 99 174
62 99 177
62 98 172
62 99 174
61 98 169
63 99 174
63 99 175
62 99 168
62 99 170
62 99 175
61 98 171
61 98 171
62 99 172
63 99 175
62 99 169
61 98 171
61 98 169
62 99 170
62 99 174
62 99 166
62 99 171
62 99 175
62 98 163
62 98 161
62 99 168
62 98 170
62 98 167
62 98 167
62 98 170
62 98 165
63 100 175
62 98 168
62 98 169
63 99 173
62 98 170
62 99 169
61 97 161
62 98 169
61 98 168
61 96 163
61 96 164
62 98 167
62 98 162
62 97 165
61 98 166
61 96 159
61 96 158
61 96 156
60 94 155
62 97 165
61 95 156
60 94 150
57 89 144
55 78 112
56 69 84
63 70 59
55 60 42
58 63 38
64 69 43
57 61 38
65 69 47
65 71 44
83 85 55
76 80 45
85 89 53
90 93 55
81 85 59
91 93 54
87 89 55
98 101 67
95 97 60
101 102 57
101 104 62
107 107 66
99 101 62
106 108 66
126 125 71
124 123 68
118 118 74
116 116 71
120 120 73
122 121 68
129 127 73
124 123 70
136 133 78
139 137 77
135 133 75
143 139 76
141 139 80
148 144 78
135 133 70
150 147 86
146 143 80
145 142 82
142 140 70
148 145 86
146 143 79
150 147 80
156 152 83
151 147 85
158 153 87
152 148 85
157 152 85
156 152 82
164 158 90
152 148 78
158 154 77
163 157 89
159 155 83
164 158 82
153 150 77
165 159 86
167 161 86
169 163 90
162 157 88
166 160 87
166 160 88
165 158 85
166 160 86
167 160 89
165 159 79
167 161 84
162 157 80
168 162 85
166 159 82
162 157 77
165 159 88
162 156 84
165 159 79
172 165 91
164 158 79
164 158 83
168 161 81
165 159 76
168 161 84
165 158 84
168 161 82
165 158 88
160 154 78
174 166 87
167 160 86
163 157 80
169 162 87
168 161 87
162 155 83
165 158 84
160 153 77
162 157 80
161 155 81
164 157 83
163 157 73
155 149 76
159 154 74
163 156 79
158 152 81
161 154 75
153 147 72
148 142 62
155 149 78
163 156 83
149 144 73
156 149 76
151 145 66
146 141 65
152 146 69
161 154 77
155 149 68
153 148 65
155 148 80
142 137 66
145 139 65
147 141 67
142 138 60
153 146 68
139 133 62
152 145 71
156 149 72
133 128 49
150 147 54
138 136 54
142 144 52
143 144 53
152 157 48
150 158 37
153 164 41
156 167 42
155 170 19
158 174 22
162 179 19
164 183 11
169 189 0
169 192 0
171 193 0
171 193 0
172 196 0
174 198 0
169 193 0
170 194 0
171 195 0
171 194 0
176 198 0
172 196 0
172 195 0
172 195 0
171 195 0
173 196 0
173 197 0
171 195 0
173 196 0
171 195 0
173 196 0
171 195 0
172 195 0
172 195 0
168 191 0
168 191 0
171 194 0
170 194 0
174 197 0
169 193 0
173 197 0
169 193 0
174 196 0
170 194 0
173 196 0
171 195 0
173 196 0
169 193 0
172 195 0
174 197 0
174 197 0
173 196 0
173 196 0
168 191 0
172 196 0
169 192 0
170 194 0
171 194 0
171 194 0
173 196 0
171 194 0
171 194 0
174 196 0
167 192 0
169 192 0
172 196 0
170 194 0
171 195 0
170 194 0
171 194 0
165 189 0
171 194 0
170 193 0
170 194 0
169 192 0
172 196 0
171 195 0
172 196 0
169 193 0
170 194 0
167 190 0
169 193 0
166 190 0
171 194 0
169 192 0
170 193 0
170 193 0
173 195 0
169 192 0
173 196 0
171 194 0
168 191 0
168 192 0
169 192 0
171 194 0
171 195 0
170 194 0
170 193 0
168 191 0
168 191 0
169 193 18
157 182 65
120 145 114
79 111 157
62 98 167
61 97 157
62 98 168
62 98 163
63 99 170
62 98 165
62 98 168
62 99 167
62 98 167
63 100 170
62 98 168
61 98 165
62 98 166
62 98 165
63 99 170
62 98 168
62 99 172
62 98 167
63 99 174
63 99 174
62 99 170
62 98 167
63 99 173
62 99 177
62 99 174
62 98 169
62 99 176
62 99 174
62 99 175
62 99 176
62 98 172
63 99 176
62 99 172
62 99 175
62 99 173
62 99 172
62 99 173
62 98 176
63 99 172
62 98 175
62 98 170
62 99 176
62 98 173
63 99 172
62 99 176
62 99 177
62 99 178
62 99 175
63 100 178
62 99 174
62 99 175
63 99 176
62 99 176
63 99 178
62 99 175
62 99 173
62 99 180
63 100 178
62 99 176
63 100 175
62 99 176
62 98 173
62 99 177
63 99 178
62 99 175
62 99 177
62 99 176
62 99 173
61 98 172
62 99 173
61 98 175
61 98 175
62 99 174
62 99 175
62 99 173
62 99 174
61 98 174
61 98 176
61 98 172
62 99 177
62 99 174
62 99 174
62 99 176
63 99 177
62 99 173
62 98 171
62 99 177
61 98 172
62 99 176
63 99 177
62 99 176
62 98 170
62 98 170
62 99 172
62 99 171
62 99 174
62 99 171
62 98 173
62 99 173
63 100 177
62 99 173
62 99 176
62 99 173
61 98 170
62 99 174
63 99 174
62 99 173
62 99 172
61 99 178
62 98 175
61 98 173
62 98 170
61 98 173
62 99 177
62 99 175
61 98 169
62 99 170
61 98 170
62 99 176
62 99 177
62 98 170
62 99 172
62 99 174
62 99 177
63 99 177
63 99 173
62 99 171
62 99 173
62 99 174
61 98 171
62 99 171
62 98 173
61 97 163
63 99 174
62 98 169
62 98 172
62 99 171
62 98 169
62 99 169
62 99 171
62 99 173
63 99 173
61 97 167
62 98 170
61 98 165
62 98 171
63 99 172
62 98 166
61 98 166
62 98 170
61 97 161
62 99 171
63 99 170
62 99 170
62 98 165
61 97 166
61 96 162
61 97 163
61 97 162
62 98 166
61 97 164
62 97 168
60 95 152
60 95 158
61 95 157
60 95 153
61 95 152
58 91 150
58 91 148
58 82 122
55 75 105
43 55 55
57 62 38
60 67 48
66 71 49
77 79 50
61 68 39
75 78 44
64 69 42
76 80 50
83 84 46
76 80 44
82 85 54
88 91 54
85 90 53
83 88 55
101 103 60
91 95 56
105 106 63
92 97 61
114 114 64
106 109 62
114 113 69
114 114 70
119 118 71
115 116 69
118 119 66
132 130 79
128 126 75
131 129 75
124 124 67
142 139 79
131 130 73
135 134 69
130 128 70
135 133 70
141 138 76
145 141 78
151 147 81
145 141 83
142 139 79
146 143 81
150 146 82
152 147 81
156 151 79
151 147 81
152 147 84
149 146 75
152 147 80
150 146 79
158 154 82
157 152 83
158 154 86
158 153 83
153 149 80
156 151 88
165 159 84
163 156 86
165 159 89
162 157 83
164 158 82
164 159 81
166 160 83
162 156 80
162 157 81
168 162 88
167 160 83
162 156 79
167 160 84
164 158 81
166 160 82
172 164 89
168 161 83
168 161 86
165 158 82
170 163 87
164 158 80
166 160 81
165 159 84
170 163 86
165 159 81
160 155 79
168 163 84
164 158 80
167 161 82
163 157 75
163 156 75
172 165 94
163 157 80
167 159 83
167 161 83
162 156 85
162 156 75
166 160 85
156 150 73
164 157 81
159 153 73
157 151 75
164 157 82
157 151 69
163 156 77
159 153 74
157 151 80
160 154 73
153 147 70
153 147 65
157 150 71
156 149 74
146 138 67
149 143 66
150 144 64
153 148 70
156 150 75
151 146 66
143 137 62
153 147 64
138 133 53
144 139 58
150 144 64
144 138 61
144 138 64
143 137 60
138 132 56
132 128 45
142 138 57
142 142 56
139 141 49
145 149 44
143 150 37
149 159 39
153 165 39
160 174 30
162 176 34
166 183 32
167 187 25
162 181 16
170 191 0
171 193 0
170 190 0
169 191 0
172 195 0
175 198 0
175 197 0
167 191 0
173 196 0
172 196 0
172 195 0
173 197 0
172 195 0
170 194 0
174 197 0
170 194 0
172 196 0
174 197 0
173 196 0
170 193 0
173 196 0
171 194 0
172 195 0
169 193 0
169 192 0
172 195 0
170 194 0
171 194 0
171 195 0
171 193 0
172 195 0
168 192 0
170 194 0
174 196 0
169 193 0
171 194 0
171 195 0
168 192 0
173 196 0
172 195 0
168 192 0
171 194 0
169 191 0
172 196 0
167 191 0
169 193 0
172 195 0
172 196 0
169 192 0
172 195 0
172 196 0
167 192 0
169 192 0
172 195 0
169 193 0
169 192 0
168 192 0
169 193 0
173 195 0
172 195 0
171 195 0
170 194 0
174 198 0
170 193 0
168 191 0
171 193 0
167 191 0
170 193 0
169 192 0
171 194 0
170 193 0
172 195 0
173 195 0
169 193 0
169 192 0
171 195 0
167 191 0
169 192 0
168 192 0
166 189 0
171 194 0
168 191 0
170 194 0
172 196 0
170 194 0
171 193 0
173 196 0
170 193 0
168 191 0
166 190 0
166 188 31
152 176 80
108 135 133
65 101 167
61 97 160
61 96 154
62 98 168
62 98 162
62 98 162
62 98 167
62 98 165
62 98 165
62 99 169
62 98 166
62 99 169
62 98 162
62 98 171
62 98 167
63 99 176
62 99 171
62 99 171
62 99 174
62 98 169
62 98 172
62 99 177
62 99 171
63 99 174
62 99 173
62 99 170
62 99 173
63 99 179
62 99 171
62 99 172
63 99 174
61 98 171
62 98 174
62 99 175
62 99 174
63 99 177
63 99 176
61 98 173
61 98 167
62 99 175
61 98 174
62 99 176
62 99 176
62 99 176
63 100 173
62 98 169
63 99 176
63 99 176
61 98 172
62 99 179
62 99 169
62 99 177
62 99 178
62 99 173
62 99 174
62 99 176
62 99 175
63 99 178
62 99 174
62 99 173
62 99 176
63 100 179
62 98 170
63 100 178
62 99 172
61 98 173
61 98 175
62 99 171
63 100 178
62 99 176
62 99 173
62 99 175
63 100 179
63 99 176
62 99 174
62 99 173
62 99 175
62 99 176
62 99 173
62 99 176
62 99 179
62 99 174
61 98 176
63 99 175
63 99 176
62 99 177
62 99 178
63 99 175
62 99 173
62 99 177
62 99 173
62 99 172
62 99 174
63 99 176
62 98 172
62 99 172
62 99 177
62 99 172
62 99 176
63 99 178
62 99 173
62 99 176
62 99 179
62 99 171
62 99 174
63 99 172
63 100 174
61 97 165
62 98 169
62 99 174
63 100 177
63 99 175
62 98 175
62 99 174
61 98 172
62 99 170
62 98 173
61 98 174
62 99 172
62 99 172
62 98 171
61 98 173
62 99 175
62 99 176
62 98 171
62 99 169
62 99 172
61 97 167
62 98 171
62 98 167
62 98 171
63 99 168
62 99 170
62 99 173
62 99 172
62 98 166
61 97 158
63 99 170
62 98 166
62 99 173
62 98 164
62 98 167
62 98 166
62 98 166
62 98 167
61 97 161
62 99 169
61 97 165
61 97 161
62 98 163
62 99 171
62 98 167
62 98 167
62 98 170
62 98 168
62 97 164
61 96 162
62 98 165
63 99 171
61 97 165
60 96 160
61 97 163
61 97 163
60 95 157
61 96 157
62 97 160
60 95 159
59 93 152
61 96 161
59 92 150
55 84 135
55 71 83
50 63 67
47 54 32
49 54 33
53 59 38
57 64 46
68 73 46
50 57 38
60 67 45
66 72 52
77 82 48
90 93 56
90 92 58
98 100 58
83 86 49
83 88 56
100 101 63
96 99 56
109 111 63
102 104 64
119 120 64
121 120 70
114 114 71
119 119 67
112 111 69
125 125 69
116 115 65
126 126 72
125 123 71
132 130 72
128 127 70
125 125 69
130 130 69
142 140 82
142 140 74
132 130 79
131 129 77
143 140 81
139 136 76
143 140 76
142 139 73
154 149 81
155 149 83
152 148 82
146 143 79
148 143 79
155 150 82
150 145 77
160 155 84
155 149 78
156 151 81
158 153 86
154 149 78
157 152 81
162 156 85
162 157 86
160 155 81
160 154 83
164 158 87
161 155 78
169 164 90
158 153 80
166 160 81
166 160 83
161 156 89
161 156 79
170 164 89
161 156 84
163 157 84
167 160 85
161 155 80
171 164 87
170 163 86
168 162 87
166 160 82
171 164 89
166 159 80
167 160 82
168 161 80
163 157 81
164 157 80
166 159 79
162 156 75
172 165 87
168 161 84
174 166 90
166 160 85
162 156 80
163 157 79
159 153 74
163 155 81
166 160 84
155 150 72
162 156 73
160 154 78
165 158 82
163 156 82
162 156 77
161 155 75
160 153 78
158 153 70
157 151 72
156 150 75
152 147 70
153 146 70
157 151 69
157 150 74
154 148 71
153 147 71
154 148 69
156 149 73
151 145 68
149 143 67
146 141 56
143 139 63
143 138 58
139 134 61
145 138 60
136 131 54
141 134 64
134 129 53
137 131 59
138 133 56
135 129 57
143 141 56
141 139 53
135 135 51
147 154 41
155 161 42
151 162 41
148 157 37
156 172 28
160 176 22
162 181 22
165 185 11
171 191 0
168 188 0
171 192 0
169 191 0
172 192 0
171 194 0
170 194 0
172 196 0
172 195 0
171 194 0
172 196 0
170 194 0
171 195 0
170 193 0
173 195 0
173 196 0
172 196 0
171 195 0
170 194 0
170 193 0
172 195 0
169 193 0
176 198 0
172 196 0
173 195 0
173 196 0
170 193 0
171 195 0
169 192 0
171 195 0
172 195 0
170 193 0
173 196 0
172 195 0
173 196 0
171 194 0
169 193 0
173 196 0
172 195 0
173 196 0
173 196 0
171 195 0
173 196 0
173 195 0
172 196 0
170 193 0
170 194 0
171 194 0
169 193 0
169 192 0
171 195 0
172 195 0
172 195 0
172 195 0
172 196 0
173 196 0
172 195 0
171 194 0
172 194 0
170 192 0
169 192 0
167 189 0
174 197 0
169 193 0
167 190 0
171 194 0
170 193 0
173 197 0
170 194 0
167 191 0
169 191 0
171 194 0
173 196 0
167 190 0
171 195 0
171 194 0
171 194 0
169 193 0
165 188 0
172 196 0
167 191 0
168 191 0
166 189 0
168 191 0
171 194 0
166 189 0
171 195 0
169 192 0
170 192 0
168 191 0
168 191 0
166 189 36
136 162 103
90 119 136
60 96 152
63 99 172
61 97 157
61 97 157
62 98 157
63 99 170
62 98 164
62 98 164
62 98 165
63 99 169
62 98 171
63 99 173
62 98 167
62 98 168
63 99 168
62 98 170
62 98 167
62 99 172
63 99 175
62 99 171
61 98 169
62 99 172
61 98 173
62 98 170
61 98 170
62 99 174
62 99 171
62 99 175
63 99 171
62 99 177
62 98 171
62 99 174
62 98 174
62 99 169
62 99 174
62 99 176
62 99 176
62 98 170
61 98 170
62 99 175
62 98 174
62 98 170
63 99 177
63 99 173
62 98 170
62 98 173
61 98 170
62 99 170
62 99 173
62 98 172
62 99 174
62 98 169
62 99 176
62 99 178
62 99 176
61 98 175
63 99 176
62 99 174
62 99 174
62 99 173
62 99 170
62 99 176
62 99 175
62 99 175
62 99 174
62 98 171
62 99 175
62 99 175
62 99 174
62 99 177
62 99 174
62 99 175
62 99 176
62 99 178
62 99 176
62 99 174
62 99 173
63 99 172
62 99 173
62 99 176
62 99 172
62 99 174
61 98 168
62 98 169
62 99 171
63 100 175
62 99 179
62 99 173
62 99 176
61 98 174
63 100 177
62 99 176
62 99 171
62 99 174
62 99 172
62 98 173
63 99 175
62 99 171
61 98 172
62 99 174
62 99 176
61 98 172
63 99 174
63 99 176
62 99 175
62 99 177
62 99 173
63 99 176
62 99 175
62 98 172
62 99 173
62 99 175
62 99 171
63 99 176
62 99 176
62 99 175
62 99 172
63 100 178
62 99 170
62 99 172
62 99 173
62 99 171
62 99 174
62 99 172
63 99 175
62 99 173
63 99 174
62 99 174
62 99 171
62 99 171
62 99 171
62 99 170
63 100 175
61 98 167
62 99 172
62 98 170
62 99 168
61 98 166
62 98 171
63 99 167
62 99 172
62 98 165
62 99 168
63 99 170
62 98 168
62 98 163
62 98 163
61 97 160
62 98 169
62 98 161
62 97 161
61 98 170
62 99 174
62 98 166
62 98 169
62 99 170
62 98 163
63 99 168
61 97 162
60 96 153
62 98 166
61 97 163
60 95 158
61 96 154
61 96 155
61 96 158
60 95 154
59 93 149
59 92 147
61 94 158
58 88 137
55 76 107
59 72 80
51 57 46
67 72 41
49 57 38
50 54 27
70 73 42
63 68 43
53 60 42
70 76 51
72 76 48
71 76 49
79 83 52
84 88 51
88 90 58
88 91 57
89 91 52
86 90 56
102 104 61
113 113 68
110 112 64
99 101 63
121 121 67
111 113 63
119 119 67
118 118 67
120 119 62
126 124 71
127 125 73
130 128 73
137 134 71
130 128 71
133 131 68
132 130 68
129 128 66
134 132 75
140 138 77
145 142 75
141 139 70
148 145 79
148 144 78
147 144 79
146 142 73
144 141 77
155 150 82
158 152 83
153 148 74
154 149 77
155 151 78
156 151 75
157 152 82
156 151 74
155 151 79
152 149 71
157 152 70
157 152 71
157 151 82
159 153 85
157 151 79
161 155 80
163 157 81
164 158 78
167 161 87
165 159 82
167 161 86
163 157 80
158 153 77
161 155 79
167 161 83
169 163 87
162 156 74
168 162 89
166 160 82
169 163 85
170 164 83
168 162 81
166 160 78
161 156 80
166 159 85
161 155 77
160 154 73
169 161 78
163 157 80
166 159 84
163 157 70
163 158 75
165 159 84
161 155 79
164 158 80
163 157 75
163 157 80
166 159 84
161 155 80
162 155 78
164 158 80
163 158 75
165 158 82
165 158 75
160 153 80
154 148 67
159 152 71
159 153 68
166 159 84
156 149 74
147 143 67
153 148 66
157 151 74
158 152 69
160 154 78
146 141 68
140 134 59
149 143 67
152 145 71
152 146 66
150 144 71
150 144 64
144 138 59
143 137 62
138 132 61
140 134 59
144 139 64
143 137 64
143 137 65
130 128 36
139 137 51
138 140 45
148 151 52
142 146 49
150 161 30
149 162 30
151 164 32
159 172 34
165 183 25
162 180 16
165 184 11
169 191 11
173 194 11
170 190 0
168 190 0
172 194 0
174 197 0
172 195 0
170 195 0
169 192 0
172 196 0
174 197 0
167 191 0
171 195 0
173 196 0
172 196 0
174 197 0
173 197 0
173 196 0
173 196 0
171 195 0
173 196 0
172 195 0
172 194 0
173 196 0
170 194 0
172 195 0
170 193 0
172 195 0
171 195 0
170 194 0
169 192 0
173 196 0
173 195 0
170 193 0
171 194 0
170 193 0
172 196 0
171 194 0
171 195 0
167 190 0
168 191 0
173 197 0
170 193 0
174 197 0
170 194 0
174 197 0
173 195 0
171 194 0
172 195 0
171 194 0
168 191 0
169 192 0
174 196 0
173 195 0
173 196 0
171 195 0
172 195 0
169 192 0
170 193 0
171 194 0
170 194 0
172 195 0
170 193 0
171 195 0
170 193 0
171 195 0
168 192 0
169 192 0
167 191 0
170 194 0
169 192 0
171 194 0
170 192 0
172 195 0
167 191 0
170 194 0
172 195 0
168 191 0
169 192 0
168 192 0
166 190 0
167 190 0
168 190 0
165 189 0
166 190 0
168 192 0
170 193 0
170 193 0
171 193 0
168 191 0
167 190 18
158 181 67
117 142 125
74 106 149
62 97 159
62 98 162
62 98 163
62 98 163
62 99 168
62 99 170
63 99 172
63 99 166
63 100 175
61 98 163
62 99 169
62 99 175
62 99 173
62 98 172
62 98 170
62 98 169
62 99 174
62 98 166
62 99 173
62 99 172
63 99 172
62 98 168
62 98 169
62 99 166
62 98 167
61 97 167
62 98 171
62 98 171
62 99 173
62 99 174
62 99 173
62 98 171
62 99 174
61 98 171
62 99 172
63 100 175
62 99 172
63 99 175
62 99 176
62 98 170
62 99 177
63 99 176
62 99 175
62 98 169
62 99 176
62 99 175
62 99 171
62 99 176
62 99 175
63 99 174
62 99 174
62 99 174
62 99 177
62 99 176
62 98 172
62 99 177
62 99 176
62 99 175
62 99 171
62 99 177
62 98 172
62 99 178
63 99 176
63 99 173
62 99 176
63 100 175
62 99 173
63 99 175
62 99 171
62 99 175
62 99 177
62 99 175
63 99 177
62 99 177
62 98 173
63 100 176
62 99 175
62 99 175
61 98 171
63 99 175
61 98 170
62 99 175
62 99 177
62 98 173
62 99 178
62 99 172
62 99 176
62 99 173
62 99 170
62 99 178
63 100 176
62 98 172
63 100 180
61 98 171
62 99 171
62 98 172
62 98 174
62 99 175
62 99 173
62 99 173
62 99 172
62 99 173
62 99 174
62 98 171
62 99 171
63 99 172
61 98 173
61 98 173
62 98 169
62 99 170
63 99 173
62 99 172
62 99 176
62 99 178
62 99 172
62 98 171
62 99 171
61 98 171
62 99 172
62 99 173
62 99 169
62 99 168
62 98 170
62 99 171
62 99 172
62 99 172
61 98 168
62 99 171
62 99 168
63 100 172
62 99 169
62 99 171
62 99 166
62 98 167
62 99 170
62 98 169
63 100 172
61 97 165
63 99 171
62 99 175
63 99 169
62 98 172
62 98 167
62 98 168
62 98 167
61 98 166
62 98 170
62 98 168
61 98 168
62 98 163
62 98 166
62 98 165
62 99 170
62 98 163
62 97 160
62 97 161
61 97 163
63 99 168
62 98 167
62 98 169
61 97 164
61 96 160
61 95 149
62 97 163
61 97 159
61 95 158
61 95 160
60 96 160
61 95 155
59 92 150
61 93 148
60 86 130
58 76 100
47 58 65
66 70 38
53 58 38
55 60 34
53 57 30
58 61 33
75 79 46
66 72 44
69 75 47
73 78 48
78 82 48
75 79 48
94 96 55
77 83 53
98 99 58
90 92 52
79 85 47
106 108 63
105 107 66
115 114 61
104 105 59
101 104 54
119 117 57
113 113 64
119 119 65
121 121 73
118 118 65
129 127 71
124 123 57
134 132 72
129 127 71
144 141 76
135 133 73
139 137 71
136 133 72
139 136 73
143 140 78
143 140 76
153 148 78
139 136 74
146 143 78
153 148 86
144 141 82
151 146 76
158 152 80
152 148 81
154 149 81
139 138 69
154 149 79
154 150 79
158 153 79
155 149 80
158 153 79
156 151 78
160 154 75
159 154 81
159 153 76
157 151 81
163 157 83
163 157 81
165 159 81
163 157 80
162 156 80
163 157 80
164 158 83
169 162 80
165 158 87
171 164 84
168 162 81
164 158 84
163 157 84
171 163 87
165 159 74
166 160 79
162 156 80
162 156 83
165 158 77
167 160 80
157 151 77
169 162 84
164 158 80
161 155 77
162 157 76
165 158 74
165 158 78
162 156 80
157 151 75
162 156 75
163 157 78
160 153 76
168 160 78
163 156 78
162 155 79
163 156 79
157 151 72
157 151 67
156 150 70
161 154 77
154 147 72
153 147 70
156 150 66
155 149 73
155 149 70
152 146 67
152 146 70
143 138 60
148 141 61
154 149 62
154 147 67
149 142 68
151 144 65
143 137 63
140 135 61
151 144 71
152 146 64
147 141 66
139 135 53
147 141 60
138 132 59
135 130 52
139 134 53
147 143 61
147 147 59
146 148 45
154 158 53
149 153 42
153 160 44
153 164 37
152 166 22
164 180 30
161 176 28
163 183 11
164 183 11
171 192 11
169 189 0
171 194 0
170 191 0
169 192 0
171 195 0
172 195 0
172 196 0
174 198 0
170 193 0
173 197 0
172 196 0
171 194 0
171 194 0
172 194 0
172 196 0
171 193 0
171 194 0
172 196 0
171 195 0
170 193 0
172 195 0
171 195 0
171 195 0
170 193 0
171 195 0
169 193 0
171 195 0
174 197 0
168 192 0
173 196 0
168 191 0
172 195 0
171 194 0
168 191 0
173 196 0
171 195 0
172 194 0
172 195 0
175 198 0
170 194 0
171 193 0
170 194 0
172 195 0
169 192 0
169 193 0
167 190 0
168 192 0
169 193 0
169 193 0
172 196 0
172 196 0
170 194 0
170 194 0
173 196 0
171 194 0
173 195 0
167 191 0
171 195 0
171 195 0
170 193 0
171 195 0
169 193 0
170 193 0
172 195 0
172 195 0
173 196 0
166 190 0
170 194 0
166 189 0
169 192 0
170 193 0
172 195 0
171 194 0
171 195 0
171 194 0
172 195 0
172 194 0
168 191 0
167 190 0
171 194 0
166 189 0
167 191 0
171 194 0
168 192 0
171 195 0
167 190 0
170 193 0
171 194 0
169 192 0
166 190 18
152 176 67
112 138 124
62 98 156
61 98 162
62 98 165
61 97 161
62 99 165
62 98 163
60 96 153
62 99 169
61 98 165
63 99 169
62 98 171
62 98 167
61 98 168
62 98 165
61 98 166
62 99 165
62 98 168
62 98 167
62 99 170
62 98 166
62 98 165
62 99 167
62 99 174
62 99 172
61 98 168
63 99 172
62 99 170
62 99 174
62 99 172
62 98 171
62 99 174
62 98 172
62 99 172
63 100 177
62 99 172
62 99 175
63 100 179
62 99 176
63 99 170
62 98 176
63 100 179
61 98 169
62 99 174
62 99 172
62 98 171
62 98 170
62 99 172
62 99 176
62 99 169
62 99 174
62 99 174
62 99 174
62 98 174
62 98 175
62 99 173
62 98 168
61 98 173
62 99 174
63 99 174
62 99 177
62 99 176
62 99 174
62 99 173
62 99 176
63 100 176
62 99 176
63 100 176
62 99 177
62 99 174
62 99 173
62 98 169
62 99 174
62 99 173
61 98 170
62 99 175
62 99 177
62 99 174
62 99 177
63 100 178
62 99 177
62 98 170
62 99 171
62 99 174
62 98 169
61 98 175
62 99 173
63 99 177
61 98 170
63 99 175
62 99 175
62 99 175
62 99 173
62 99 175
63 99 173
62 99 173
63 99 174
62 99 177
62 99 170
62 98 172
61 98 170
62 99 173
61 98 167
62 99 174
61 98 172
62 99 174
62 99 174
61 98 166
63 99 176
62 99 174
61 98 167
62 99 170
61 98 168
62 99 170
62 99 178
62 99 173
63 99 170
62 98 169
62 98 168
61 98 166
63 100 173
62 99 173
62 99 175
62 98 170
62 98 174
62 99 168
62 98 170
61 98 164
63 100 175
62 98 170
62 99 172
62 98 162
63 100 173
62 98 169
63 99 167
62 98 170
63 99 166
62 98 169
61 98 168
61 98 168
62 99 170
63 99 171
61 98 171
61 98 165
62 98 168
62 98 169
61 97 164
62 98 166
63 99 175
62 98 166
62 98 168
61 97 168
62 98 163
61 97 164
61 97 163
61 97 161
62 98 169
62 98 161
61 97 159
61 96 158
61 97 161
62 97 163
62 98 161
61 97 162
61 96 159
62 98 165
60 95 150
61 97 163
61 96 155
60 94 148
60 94 153
59 93 155
59 93 145
60 89 135
49 69 92
48 59 57
52 59 37
55 60 29
61 67 40
67 72 41
67 71 36
69 74 44
75 79 45
66 73 48
78 81 41
78 81 47
86 87 46
81 84 51
94 95 48
96 97 55
96 99 54
98 101 56
108 109 61
114 114 65
105 106 62
102 105 58
114 113 65
117 116 66
112 112 66
131 128 71
117 116 60
120 118 65
127 126 66
129 128 67
141 138 81
131 130 67
134 131 69
137 135 75
140 137 75
127 126 69
129 127 64
139 136 77
139 136 70
147 142 79
148 145 74
145 141 76
153 149 81
143 141 66
149 145 79
154 149 79
157 152 78
153 149 82
146 142 76
151 147 74
155 150 78
153 149 71
153 149 70
159 154 73
162 156 80
156 151 77
160 155 82
160 155 78
159 153 85
159 153 80
156 152 77
169 162 89
160 155 78
164 158 82
160 155 78
164 158 75
163 157 78
161 156 83
167 161 81
171 164 85
165 159 78
160 155 72
167 161 85
162 156 77
166 159 84
166 159 79
164 158 78
164 158 77
164 157 81
165 158 75
162 157 78
167 160 86
162 157 82
163 157 75
161 155 80
165 159 81
162 156 81
164 158 77
165 159 75
157 151 79
161 155 78
163 156 81
157 151 72
157 152 74
161 154 78
163 157 82
160 153 70
162 155 78
152 146 68
159 153 75
156 150 70
153 147 72
157 150 73
153 146 70
161 154 71
155 148 73
155 148 73
154 148 66
153 147 60
152 146 67
150 144 61
159 152 75
148 142 65
143 137 67
145 139 56
152 146 65
134 130 57
148 141 67
146 140 63
141 136 61
147 141 66
140 138 49
135 135 51
140 143 41
146 149 49
145 150 37
155 164 44
150 161 34
154 165 36
163 178 25
160 175 25
163 179 19
166 185 0
165 187 11
167 188 0
168 189 0
170 191 0
169 192 0
169 190 0
174 197 0
172 195 0
170 193 0
173 196 0
173 196 0
170 194 0
173 197 0
174 197 0
171 195 0
172 195 0
171 195 0
170 194 0
173 197 0
170 193 0
172 195 0
171 195 0
170 194 0
172 195 0
172 196 0
170 194 0
172 195 0
170 195 0
170 192 0
171 195 0
170 193 0
170 193 0
171 194 0
172 196 0
172 196 0
169 192 0
172 195 0
174 197 0
171 194 0
168 192 0
172 195 0
170 193 0
172 195 0
167 190 0
169 192 0
166 189 0
169 193 0
170 193 0
172 195 0
171 195 0
167 191 0
169 192 0
171 194 0
168 192 0
172 195 0
170 193 0
171 194 0
171 194 0
170 193 0
173 195 0
167 190 0
172 195 0
170 193 0
169 192 0
165 189 0
168 191 0
162 186 0
172 195 0
171 195 0
170 194 0
170 192 0
172 196 0
168 192 0
170 193 0
169 193 0
172 195 0
169 192 0
171 194 0
169 193 0
167 190 0
167 191 0
168 193 0
170 194 0
169 193 0
171 194 0
168 191 0
171 193 0
172 195 0
167 190 0
169 192 0
166 190 0
164 187 31
138 162 99
99 127 126
63 98 154
61 97 158
62 98 161
61 97 157
61 97 162
62 98 164
63 99 164
62 98 162
62 99 168
61 98 163
62 99 167
60 97 163
63 99 166
62 98 165
62 98 164
62 99 174
62 98 165
62 99 172
62 98 168
62 98 168
62 98 169
62 99 174
62 98 163
63 100 176
63 100 175
62 98 170
62 98 172
62 98 171
63 99 169
62 99 174
62 98 168
62 99 173
62 99 171
62 99 174
62 99 173
63 99 174
62 98 169
62 98 170
62 98 171
63 99 176
62 99 176
62 99 177
62 99 177
62 99 175
62 99 175
62 99 178
62 98 171
63 100 176
62 99 174
62 99 173
62 99 176
62 99 177
61 98 174
62 99 173
62 98 174
62 99 171
62 99 177
62 99 175
62 98 170
62 99 172
63 99 174
62 99 176
62 99 177
62 99 173
62 99 176
62 99 177
62 99 173
62 99 177
62 98 172
62 99 176
62 99 170
63 99 173
63 99 177
62 99 174
63 99 177
63 99 174
62 99 175
62 98 173
62 99 174
62 98 170
62 99 173
62 99 176
62 99 176
62 98 172
62 99 173
63 99 173
62 98 173
62 99 170
62 99 169
62 98 174
63 99 174
62 98 173
62 98 173
62 99 171
62 99 171
62 99 177
62 99 173
62 98 173
62 99 169
62 99 173
62 99 173
62 99 175
62 99 172
62 98 172
62 99 173
62 99 172
61 98 167
61 98 167
62 99 176
63 99 174
62 99 174
62 99 171
62 99 174
63 99 170
62 98 167
63 99 169
62 98 165
62 99 173
62 99 175
62 99 169
62 98 168
62 99 170
62 98 170
62 98 164
63 99 173
61 98 164
62 99 179
62 98 170
62 99 170
62 99 172
62 98 167
62 98 164
62 99 168
62 99 174
63 99 172
62 99 169
62 98 167
61 97 166
62 99 176
62 99 167
62 99 167
63 99 173
62 98 169
61 98 166
62 99 171
63 99 172
62 99 168
61 97 163
62 98 163
61 97 163
62 98 166
62 98 168
62 98 163
62 98 170
62 98 165
62 99 170
62 99 170
62 98 167
61 97 161
61 97 161
61 96 159
61 97 162
61 97 160
63 98 166
61 96 158
61 96 161
62 97 162
62 96 155
62 97 160
61 96 149
59 94 157
60 94 155
57 88 136
55 75 106
56 68 67
59 65 38
65 69 38
51 56 36
81 83 44
69 74 36
72 74 37
75 77 40
75 78 40
74 78 46
75 79 45
79 83 45
100 101 58
76 79 49
82 87 55
83 86 43
94 96 56
101 103 61
112 113 64
102 104 64
111 110 60
108 107 59
110 110 55
120 120 60
122 121 68
123 121 65
123 123 65
121 119 55
123 123 67
130 129 69
138 134 75
131 129 69
130 128 70
127 126 65
141 138 75
139 137 70
136 133 70
141 138 73
139 136 69
149 145 75
145 142 72
149 145 75
149 145 76
149 144 77
150 146 79
153 148 78
147 143 78
155 151 76
156 151 82
155 150 70
156 151 78
154 150 78
151 146 73
160 155 78
162 156 84
153 148 71
156 150 76
159 155 76
164 158 82
153 149 74
163 157 74
164 158 83
163 158 79
167 161 84
169 162 80
165 159 86
161 155 78
163 158 81
166 160 82
167 161 86
165 158 80
164 157 80
164 158 75
166 160 78
166 160 80
164 158 82
168 160 80
160 155 75
161 156 71
158 153 74
167 159 84
162 156 75
159 153 70
162 156 74
161 155 71
159 153 70
162 155 78
160 154 74
164 157 80
162 157 74
163 156 77
165 157 81
155 149 70
162 155 81
154 148 69
152 146 67
157 152 73
156 151 73
156 149 71
146 141 64
156 149 67
156 150 75
152 146 64
151 146 66
152 147 68
151 146 67
149 143 65
152 146 64
157 150 69
151 144 70
150 144 66
149 143 67
140 134 65
143 138 61
150 144 61
137 132 57
130 125 48
142 137 56
137 132 56
142 137 58
135 133 52
143 141 56
148 148 51
145 151 42
144 150 48
151 159 44
153 165 25
157 171 22
150 165 16
158 174 16
161 178 11
168 187 16
169 187 11
170 190 0
172 193 0
172 194 0
167 187 0
169 190 0
171 194 0
173 196 0
173 196 0
173 197 0
172 195 0
168 192 0
172 195 0
173 197 0
170 193 0
171 195 0
175 198 0
171 194 0
173 196 0
168 192 0
169 192 0
168 192 0
169 193 0
167 191 0
171 195 0
172 195 0
174 197 0
172 195 0
170 193 0
169 193 0
171 196 0
172 196 0
171 194 0
170 194 0
171 195 0
172 195 0
172 195 0
173 196 0
173 196 0
170 193 0
171 194 0
170 193 0
172 196 0
172 196 0
169 193 0
170 194 0
169 193 0
171 195 0
173 197 0
172 196 0
169 193 0
170 193 0
173 197 0
170 193 0
171 195 0
171 194 0
172 195 0
173 197 0
172 195 0
168 192 0
167 190 0
170 192 0
171 195 0
172 195 0
168 191 0
172 196 0
171 194 0
172 195 0
169 192 0
172 196 0
171 195 0
169 192 0
170 193 0
172 196 0
171 194 0
168 192 0
171 194 0
171 194 0
170 194 0
166 189 0
169 191 0
166 189 0
168 192 0
170 193 0
168 191 0
174 197 0
167 189 0
168 191 0
169 193 0
169 192 0
172 194 0
161 184 47
142 166 88
85 116 151
62 98 157
62 98 161
62 98 159
62 98 156
62 98 161
62 98 158
62 98 163
62 99 168
62 99 167
62 98 165
62 98 161
62 99 169
62 99 170
62 99 173
61 98 162
62 98 170
61 98 170
61 98 165
63 99 170
62 98 169
61 98 170
62 99 170
62 99 171
62 99 170
62 99 175
61 98 174
62 98 170
62 98 172
62 99 172
62 98 168
63 100 174
63 99 173
62 99 174
62 98 170
62 98 170
62 99 174
61 98 170
62 99 172
62 99 174
62 98 171
62 99 177
63 99 174
62 99 171
62 99 174
62 98 169
62 98 174
62 98 171
62 99 172
62 98 168
62 99 176
62 99 170
62 98 171
62 99 173
62 99 176
62 98 170
62 99 174
61 98 171
62 99 176
62 99 174
62 99 175
63 99 177
62 98 171
62 99 175
62 99 175
62 99 171
61 98 170
62 99 177
62 99 171
63 99 173
62 99 173
62 98 171
62 99 173
62 99 176
62 99 173
62 98 171
62 99 170
62 99 172
62 99 173
62 99 174
62 99 174
63 100 175
62 99 174
62 98 174
62 99 173
62 99 177
62 99 171
62 99 172
62 99 171
62 99 174
61 98 170
62 99 174
62 99 171
62 98 172
62 98 169
61 98 168
62 98 169
63 99 176
63 99 176
62 99 173
62 98 170
62 99 172
62 98 169
63 100 180
62 99 176
62 99 173
62 99 168
63 99 170
61 98 173
63 100 178
62 98 172
62 98 169
62 99 175
61 98 163
62 98 167
62 99 175
62 99 173
62 98 168
62 98 168
62 99 170
61 98 167
62 99 170
62 98 167
62 98 167
62 99 174
61 98 165
62 99 171
63 99 168
61 97 165
62 98 167
63 99 171
62 99 169
62 98 171
62 98 170
62 98 171
62 99 167
62 99 169
61 98 171
62 98 166
63 99 172
61 97 160
62 98 162
62 98 167
63 99 175
61 97 164
62 98 166
61 96 152
62 98 164
63 99 167
62 98 164
62 98 164
62 98 162
61 97 163
61 97 167
60 95 158
62 98 165
61 98 166
61 97 166
61 96 161
61 97 165
61 97 164
63 98 164
60 95 152
62 97 157
62 97 162
61 96 158
61 96 162
61 97 159
61 96 155
61 97 162
61 96 162
59 92 150
59 93 148
60 88 134
64 84 107
48 66 84
47 56 52
48 54 36
67 69 36
64 67 33
68 70 30
83 84 41
67 72 40
74 78 34
65 71 37
90 91 42
88 90 49
89 90 42
95 97 51
93 94 54
84 86 46
94 96 55
96 98 56
98 99 53
108 109 62
99 101 60
109 110 53
106 105 62
114 114 65
115 114 64
125 123 66
122 121 62
130 128 68
123 121 58
130 128 65
129 126 61
137 135 77
132 131 72
139 137 66
136 133 74
141 137 80
140 136 74
144 141 76
133 131 64
137 134 71
143 139 72
151 147 76
147 143 76
146 143 77
151 147 77
150 145 73
142 139 64
153 148 75
148 144 74
156 151 74
150 147 76
151 147 71
161 156 78
154 150 77
160 154 72
155 150 79
163 157 80
158 152 80
164 158 77
160 155 79
167 161 87
163 156 79
161 155 79
161 155 76
161 157 83
159 153 78
162 156 75
157 152 73
165 159 79
162 156 72
167 160 77
156 150 77
166 159 78
163 157 82
163 157 78
162 156 77
163 157 75
164 158 84
150 145 69
164 158 73
160 154 70
166 160 83
160 155 75
165 158 73
162 156 73
156 150 72
160 154 73
155 150 66
160 154 75
160 154 69
160 153 75
159 152 74
164 157 74
160 154 75
154 149 71
160 154 71
160 152 78
159 153 72
160 154 75
154 148 70
154 148 68
160 153 71
160 153 71
145 141 62
152 147 70
155 149 71
152 146 66
150 144 64
155 149 69
147 141 59
146 141 60
150 144 68
142 137 61
140 135 56
142 137 59
139 133 57
137 132 54
130 126 42
133 130 47
136 132 48
139 136 52
139 138 44
146 149 49
145 150 42
147 154 37
150 161 32
152 162 34
159 173 22
159 173 22
160 176 22
161 182 0
168 186 16
166 185 0
168 188 0
169 190 0
173 193 0
170 191 0
168 190 0
170 194 0
170 194 0
171 194 0
169 193 0
172 195 0
171 195 0
171 194 0
171 195 0
174 197 0
171 195 0
172 195 0
171 194 0
171 195 0
172 195 0
171 195 0
169 192 0
171 194 0
170 193 0
170 194 0
171 194 0
170 194 0
171 195 0
173 196 0
172 196 0
166 190 0
171 194 0
172 196 0
171 195 0
169 193 0
170 194 0
172 195 0
172 196 0
168 191 0
169 193 0
169 193 0
173 196 0
170 193 0
171 194 0
170 193 0
173 197 0
170 193 0
173 197 0
170 193 0
168 192 0
168 191 0
170 194 0
170 194 0
169 191 0
171 194 0
168 192 0
165 188 0
169 191 0
170 193 0
168 191 0
174 197 0
171 194 0
172 195 0
171 195 0
170 192 0
172 194 0
167 190 0
171 194 0
165 189 0
170 193 0
174 197 0
169 192 0
171 193 0
167 191 0
170 193 0
172 196 0
168 191 0
169 193 0
172 196 0
167 191 0
169 192 0
169 191 0
169 192 0
167 190 0
168 193 0
170 193 0
171 195 0
173 195 0
168 191 0
166 189 0
167 190 0
152 175 70
126 151 105
74 107 161
61 97 156
62 98 158
62 98 163
62 98 162
61 97 162
61 97 165
62 99 165
63 99 162
61 98 166
61 98 163
62 98 159
62 98 166
62 98 166
61 97 161
63 99 170
62 99 170
62 98 166
61 97 161
62 98 168
61 98 171
62 99 173
62 99 168
62 98 167
63 99 170
62 99 174
61 97 166
62 99 176
62 99 169
62 98 170
62 99 174
62 99 171
61 98 172
61 98 169
62 99 174
62 98 173
62 98 170
62 98 170
62 99 170
62 99 178
62 99 172
62 99 173
62 99 173
62 98 167
62 99 174
63 99 174
62 99 175
62 99 176
62 98 174
62 99 173
62 99 174
62 99 172
62 99 177
62 99 175
63 99 174
61 98 175
62 99 173
62 99 173
62 99 172
62 99 172
62 99 175
63 99 176
63 99 174
62 99 173
61 98 168
63 99 176
62 98 172
61 98 174
62 98 170
62 99 173
62 99 175
62 98 171
62 99 175
62 99 175
62 99 173
61 97 169
62 99 173
62 99 174
61 98 172
62 99 177
63 100 175
62 98 168
62 99 173
63 100 176
63 100 176
62 99 172
61 98 172
61 98 167
62 98 169
62 99 172
62 99 174
62 99 171
62 99 175
62 99 173
62 99 178
63 100 176
62 99 177
62 99 175
62 98 170
62 99 172
62 98 170
61 98 172
62 99 175
63 99 175
63 99 175
62 99 176
63 99 175
62 99 172
62 99 175
62 98 171
63 99 172
63 100 175
62 99 177
63 99 173
62 99 174
62 98 166
62 99 173
61 98 168
62 98 169
62 99 172
62 98 168
63 99 172
63 99 173
62 98 169
63 99 173
63 99 174
61 98 165
62 98 165
63 99 173
62 99 172
62 98 171
62 99 170
62 98 164
62 99 171
62 99 169
62 98 166
63 99 170
62 98 161
62 98 163
62 99 170
62 99 170
62 98 167
62 98 167
62 98 169
62 99 165
62 99 168
62 97 165
61 98 163
62 98 163
62 98 166
61 98 165
62 98 167
62 98 165
62 99 168
61 97 163
61 97 163
61 97 155
62 98 165
62 98 164
62 98 168
62 97 162
62 98 160
62 98 164
60 96 158
61 97 157
61 96 153
62 97 160
61 95 155
60 95 156
60 94 152
60 95 157
60 95 156
58 92 146
62 93 141
56 82 121
67 80 88
57 66 55
59 63 23
59 63 33
70 74 34
61 67 35
58 64 39
75 78 36
70 74 39
76 81 45
77 81 45
80 83 47
79 81 49
90 92 51
81 83 43
91 94 56
101 103 59
98 100 56
96 97 51
101 103 58
109 108 62
108 108 55
110 111 59
119 119 60
115 114 58
119 118 66
119 117 60
120 119 59
127 126 68
109 108 55
132 130 64
125 123 65
125 124 64
133 131 67
136 134 65
139 136 68
141 137 62
136 134 69
140 137 62
143 140 65
145 141 74
145 142 65
140 138 72
149 145 79
157 151 79
152 147 76
150 145 72
152 147 72
159 153 82
157 152 79
155 150 75
157 152 75
153 149 74
164 156 81
157 150 79
152 147 70
163 156 80
164 157 80
158 153 79
160 155 79
159 154 71
164 159 83
153 148 72
158 153 70
161 155 75
158 152 73
161 155 81
168 161 86
160 153 75
159 153 77
174 166 87
164 157 79
167 160 80
161 155 75
159 153 74
164 157 77
165 159 81
160 154 68
159 153 72
167 161 84
159 153 73
168 161 86
157 152 67
162 155 79
152 146 69
161 155 75
160 153 76
161 155 74
163 156 79
155 149 68
158 151 75
159 152 74
153 147 67
163 156 80
156 150 75
155 148 70
149 143 65
163 156 72
156 151 67
159 152 72
150 145 62
147 140 67
154 147 70
147 141 61
143 137 62
153 148 63
145 139 62
149 143 68
147 141 63
148 141 66
151 145 63
147 141 68
137 131 49
138 133 54
145 139 53
143 137 60
147 140 61
142 136 62
143 138 59
140 139 51
134 135 42
145 147 51
147 150 42
151 155 44
147 153 41
156 164 41
148 155 36
160 174 30
164 183 30
160 177 16
161 179 11
168 188 0
167 188 0
168 187 0
168 190 0
169 192 0
169 189 0
169 190 0
174 196 0
170 194 0
172 195 0
173 196 0
168 192 0
172 196 0
171 193 0
174 197 0
173 196 0
174 197 0
170 193 0
170 194 0
173 196 0
172 196 0
169 193 0
172 195 0
174 197 0
172 195 0
171 194 0
169 193 0
169 194 0
174 197 0
172 195 0
171 195 0
174 197 0
168 191 0
172 195 0
170 193 0
168 192 0
172 194 0
171 195 0
169 192 0
169 193 0
169 192 0
172 195 0
169 191 0
170 193 0
171 194 0
169 193 0
170 193 0
168 191 0
171 195 0
170 193 0
170 193 0
170 193 0
173 197 0
170 194 0
171 193 0
169 192 0
168 191 0
171 195 0
168 191 0
169 192 0
170 193 0
168 192 0
171 194 0
171 193 0
168 191 0
172 194 0
171 194 0
169 192 0
166 190 0
169 192 0
169 193 0
169 192 0
168 191 0
171 195 0
173 196 0
170 192 0
171 193 0
168 190 0
168 191 0
168 191 0
165 189 0
167 190 0
171 194 0
171 194 0
169 193 0
169 192 0
165 188 0
166 189 0
168 191 0
166 190 0
167 190 0
168 191 31
150 174 74
111 139 117
65 100 154
62 98 160
62 97 154
62 98 159
62 98 164
62 99 170
62 98 157
62 98 161
62 98 163
61 98 161
62 98 162
62 98 163
62 98 170
62 98 166
61 98 161
62 99 177
60 97 161
62 98 168
61 97 161
62 98 167
62 99 172
63 99 171
62 98 167
62 98 165
62 98 168
62 98 169
62 98 170
61 98 170
62 99 173
62 99 172
63 99 173
62 99 177
62 99 173
62 99 172
62 98 171
62 99 174
62 99 167
62 98 166
62 99 173
63 99 174
63 99 174
62 98 173
62 98 169
62 98 171
63 99 176
62 99 177
63 99 175
62 98 175
62 99 171
63 100 178
62 99 177
62 99 178
63 100 178
61 98 170
62 99 175
62 99 173
62 99 177
62 99 174
62 99 178
61 98 171
62 99 174
62 99 176
62 98 169
62 99 174
62 99 176
61 98 167
62 99 172
62 99 172
62 99 170
62 99 177
62 99 171
62 98 167
61 98 172
62 99 172
62 99 177
62 99 170
62 99 174
62 99 175
62 99 173
62 98 166
62 98 170
63 99 177
64 100 177
62 98 172
62 98 171
62 99 175
62 99 169
62 98 169
62 99 172
62 99 173
62 99 173
62 99 170
63 99 172
62 99 174
62 99 176
62 99 171
62 99 177
62 99 175
62 98 169
62 99 174
62 99 173
62 99 174
62 99 169
63 99 171
62 98 170
62 99 174
63 100 176
62 99 175
62 99 170
62 98 170
62 99 173
63 99 173
62 98 168
62 99 170
62 99 176
62 99 172
62 99 168
62 99 170
62 99 171
62 98 166
63 99 168
62 99 172
63 99 174
62 98 170
62 98 165
62 99 167
62 99 173
63 99 171
61 98 165
62 99 172
63 99 173
62 99 171
63 99 173
62 98 166
62 99 172
62 98 168
62 99 172
63 99 171
62 99 165
62 99 172
62 98 165
62 98 170
62 99 170
62 98 168
62 98 162
62 98 164
62 98 169
61 98 165
61 97 160
62 99 169
63 99 170
61 97 162
61 97 160
62 98 165
62 99 172
62 98 166
63 99 162
62 98 167
61 97 165
62 98 162
62 97 159
62 97 160
61 97 158
61 96 158
62 97 160
61 97 156
61 96 151
61 96 161
61 97 154
61 97 155
61 95 148
61 94 151
61 95 149
58 91 145
66 90 132
59 76 95
47 58 61
45 52 34
63 67 33
62 65 32
68 73 35
77 80 40
69 73 33
78 82 43
78 79 41
78 82 45
88 88 38
82 85 44
84 88 50
96 98 45
84 88 46
99 101 53
97 98 50
102 101 56
103 104 57
112 112 59
109 109 54
101 102 56
111 110 60
122 120 62
123 123 64
119 119 59
126 124 68
120 119 59
121 120 56
137 134 70
139 136 71
131 128 63
135 132 72
127 127 60
145 141 69
133 130 64
146 141 67
137 134 67
145 142 77
143 139 71
145 140 73
146 143 78
145 141 65
157 151 72
146 142 76
144 141 68
147 143 75
151 146 75
153 148 75
154 149 77
150 146 77
158 152 78
157 151 79
158 152 78
162 157 79
159 154 75
161 154 75
154 150 73
159 153 74
156 150 83
159 154 70
157 151 71
156 152 67
163 156 75
164 158 77
165 158 85
161 155 78
162 156 75
162 156 76
166 160 79
164 157 81
162 155 75
159 154 72
165 158 78
162 156 76
162 154 71
159 153 74
156 151 71
161 156 69
160 154 72
165 159 74
165 158 75
162 155 77
160 154 78
158 152 75
155 149 72
163 157 76
162 156 70
161 154 75
157 152 69
164 157 75
151 145 69
150 144 66
151 146 61
154 149 67
153 146 64
153 147 59
154 146 67
155 149 67
155 149 62
150 144 62
152 146 62
149 143 65
149 143 59
152 145 70
157 151 63
149 143 61
143 136 62
146 140 61
140 134 60
144 139 63
136 130 52
142 136 58
143 138 60
133 129 47
138 132 57
130 126 45
134 130 49
136 134 53
147 145 56
148 151 49
139 144 41
149 154 39
152 165 28
154 162 37
157 170 30
154 165 25
161 178 28
157 175 19
168 186 11
167 186 11
169 190 0
168 187 0
169 190 0
170 190 0
169 189 0
170 190 0
172 195 0
174 197 0
173 196 0
171 195 0
174 198 0
170 193 0
167 191 0
172 194 0
176 198 0
169 193 0
170 193 0
173 195 0
171 194 0
173 197 0
172 195 0
173 196 0
169 192 0
168 192 0
169 193 0
171 195 0
172 196 0
169 192 0
171 194 0
170 194 0
174 196 0
173 195 0
170 192 0
170 193 0
169 192 0
171 194 0
172 196 0
167 190 0
168 191 0
172 196 0
170 193 0
172 195 0
167 191 0
172 196 0
168 191 0
166 189 0
171 195 0
171 194 0
173 196 0
170 193 0
172 195 0
171 195 0
171 194 0
173 196 0
168 192 0
173 197 0
169 192 0
171 195 0
172 195 0
169 191 0
170 193 0
168 192 0
170 194 0
166 190 0
174 197 0
166 188 0
168 190 0
166 190 0
169 192 0
172 195 0
166 189 0
169 193 0
166 190 0
170 194 0
172 195 0
174 196 0
171 194 0
169 192 0
167 190 0
167 190 0
169 193 0
168 192 0
168 191 0
168 191 0
165 188 0
171 194 0
170 193 0
167 191 0
168 192 0
172 196 0
167 189 31
145 168 78
108 135 129
61 97 151
62 97 153
61 97 159
63 99 163
62 98 166
61 97 160
62 98 161
62 99 166
61 97 161
62 99 164
61 98 164
62 98 166
62 98 170
62 98 166
61 97 158
61 97 161
61 97 164
62 98 167
61 97 164
60 96 168
62 98 166
61 98 165
62 99 171
61 98 170
62 98 169
63 99 172
62 99 173
62 98 167
62 98 168
61 98 170
62 99 171
61 98 169
62 98 171
61 98 172
62 98 170
62 99 175
61 98 168
62 99 171
63 99 171
62 99 173
62 99 173
62 98 171
62 99 175
62 99 177
62 98 168
63 99 172
62 99 175
62 99 171
62 99 176
62 98 170
63 100 177
62 99 174
61 98 165
62 98 172
62 99 176
62 99 172
62 98 171
62 99 174
62 98 173
62 98 171
62 99 176
62 99 171
62 99 173
62 98 171
61 98 173
62 98 172
61 98 168
62 99 174
62 99 172
62 98 172
62 98 171
63 99 172
63 99 177
61 98 167
63 100 176
62 98 173
63 99 173
63 100 177
63 100 177
62 99 171
62 99 173
62 98 172
62 99 175
62 99 174
62 98 171
62 99 176
62 98 168
62 99 170
62 99 172
62 99 172
63 100 174
62 99 171
61 98 167
62 99 173
63 99 174
62 99 172
62 99 174
62 98 171
62 99 176
62 98 168
61 98 171
62 98 166
62 98 167
62 99 173
62 98 173
62 99 169
62 99 176
62 99 176
62 98 172
62 99 175
62 99 170
62 99 169
63 99 173
62 98 166
63 99 172
62 99 176
62 98 169
62 99 173
62 99 175
62 98 168
62 99 169
62 99 170
63 99 172
62 98 168
61 98 168
62 98 164
61 98 168
62 99 172
62 98 166
62 99 172
61 98 164
62 99 167
63 99 171
62 99 170
62 98 164
63 99 172
62 98 165
63 99 171
62 98 170
62 98 168
62 98 165
61 98 165
63 99 170
62 98 168
62 99 171
62 98 168
62 98 169
62 98 170
62 98 163
62 98 167
62 98 160
62 98 167
61 97 162
62 98 167
63 99 169
61 96 162
62 97 162
62 98 163
62 98 168
62 98 161
61 96 160
61 97 165
62 98 163
61 97 157
61 96 153
61 96 157
59 94 147
61 96 160
60 94 151
60 95 157
61 96 162
59 93 143
60 94 147
58 90 140
57 86 132
57 80 107
55 65 57
68 70 37
52 57 34
61 66 28
57 62 33
71 75 36
63 67 37
82 83 37
83 85 42
80 83 40
88 90 50
96 95 48
83 85 42
100 100 50
89 90 40
90 92 49
101 103 56
101 102 52
98 99 52
110 109 59
112 112 56
115 115 67
99 99 47
117 115 56
115 113 56
114 114 60
123 121 67
125 123 56
129 127 65
121 119 64
123 122 62
133 129 66
131 129 68
128 127 65
133 131 68
142 139 68
141 137 72
137 135 63
140 137 69
146 141 70
146 142 72
152 146 82
141 136 71
147 144 64
152 147 72
151 148 68
151 147 71
150 147 72
151 147 76
153 148 75
154 149 74
158 153 69
156 150 73
153 149 74
159 152 76
154 149 81
155 149 80
152 147 74
157 151 78
154 149 71
162 155 78
166 159 85
160 154 76
163 158 75
161 155 72
162 155 74
166 158 85
164 158 80
158 152 77
163 157 76
161 155 75
161 155 73
159 153 67
163 156 73
164 158 71
158 152 78
160 153 70
162 156 75
162 156 69
158 152 68
160 154 71
160 153 73
164 157 74
153 148 63
166 159 78
157 151 69
160 154 71
146 140 57
155 150 72
158 152 70
157 150 69
145 140 56
157 151 71
157 151 78
159 153 75
155 149 63
158 151 72
153 147 72
151 144 61
149 143 64
149 142 67
155 150 62
148 143 57
151 145 70
151 145 61
148 142 62
152 147 63
148 143 59
143 137 58
142 136 63
145 140 64
133 129 52
138 132 53
139 133 58
139 133 60
146 140 60
143 137 57
136 133 49
139 139 44
144 145 49
141 144 39
150 156 41
148 156 39
155 166 36
148 161 30
157 172 28
152 169 16
158 176 19
165 183 16
163 181 16
168 188 11
171 191 11
169 189 0
172 194 0
170 191 0
173 194 0
170 192 0
171 194 0
173 197 0
170 194 0
169 192 0
171 194 0
172 195 0
170 193 0
170 194 0
172 196 0
174 197 0
172 195 0
174 197 0
170 192 0
170 193 0
169 192 0
170 192 0
170 193 0
172 195 0
172 196 0
171 195 0
172 195 0
169 193 0
172 195 0
172 195 0
171 195 0
170 193 0
172 195 0
172 196 0
170 194 0
171 194 0
173 196 0
169 194 0
171 194 0
170 194 0
167 190 0
170 194 0
170 194 0
171 194 0
170 194 0
171 196 0
171 195 0
171 194 0
171 195 0
169 193 0
173 196 0
172 195 0
170 195 0
169 191 0
172 195 0
167 190 0
171 194 0
170 193 0
173 196 0
172 194 0
171 195 0
169 193 0
169 192 0
170 193 0
171 195 0
173 195 0
169 192 0
169 192 0
169 192 0
167 191 0
171 195 0
169 193 0
171 195 0
163 187 0
168 192 0
170 193 0
169 192 0
168 191 0
170 193 0
172 196 0
170 193 0
169 193 0
170 193 0
167 191 0
168 191 0
163 187 0
168 191 0
164 187 0
171 193 0
168 191 0
166 189 31
138 162 90
104 132 135
60 96 150
61 98 158
60 96 150
62 98 156
62 98 160
61 97 154
62 98 162
62 98 164
61 97 152
62 98 166
62 98 165
62 98 163
62 98 170
61 97 162
62 99 169
62 98 166
63 99 171
62 99 174
62 98 166
62 98 165
61 98 170
62 99 171
62 98 164
62 99 169
63 99 175
62 98 167
61 98 168
62 98 166
63 99 174
62 98 167
62 98 171
62 98 174
61 98 168
62 99 172
61 98 169
62 99 177
62 99 171
62 99 171
62 99 171
63 99 171
62 99 173
62 98 171
62 99 177
61 98 168
63 99 176
62 98 170
63 99 176
63 100 178
62 99 173
62 98 170
62 99 175
62 99 176
62 99 175
62 98 173
62 99 173
62 98 169
62 99 179
62 98 170
62 99 175
62 99 174
61 98 173
62 98 170
63 99 176
62 99 170
62 99 173
63 99 176
62 98 171
62 99 174
62 99 170
62 98 169
62 99 170
61 98 173
62 99 174
62 98 167
62 99 170
63 99 173
62 99 175
63 99 176
62 98 173
62 99 169
62 99 176
62 99 172
62 98 169
61 98 167
62 99 167
62 99 174
61 98 176
62 99 173
62 99 174
62 98 173
63 99 168
62 99 171
61 98 167
62 99 172
62 99 171
62 99 174
62 99 173
63 99 175
63 100 176
62 99 170
62 98 168
62 99 173
62 98 172
62 98 166
62 99 174
62 99 173
62 99 170
62 98 173
62 99 179
62 99 171
62 98 173
62 99 169
62 99 172
63 99 173
62 99 173
62 98 169
62 99 173
62 99 171
62 98 166
63 99 168
62 98 169
63 99 173
63 100 173
62 98 169
63 100 179
62 99 170
62 99 172
63 99 171
62 98 166
62 98 164
63 99 169
62 98 168
62 99 170
63 99 171
61 97 158
62 99 171
61 98 165
63 99 171
62 98 166
62 98 162
62 98 160
63 99 168
62 98 167
62 98 162
62 99 169
63 99 170
61 98 163
62 99 169
62 98 163
62 98 163
61 98 164
62 98 169
62 98 169
62 98 160
61 97 163
62 98 167
63 99 170
61 97 163
62 97 161
61 97 163
62 97 160
62 98 165
62 97 156
61 97 163
62 97 155
60 95 155
61 96 152
61 96 153
61 96 155
60 95 151
60 95 152
61 96 152
59 92 144
61 96 156
61 89 132
53 77 109
77 85 69
59 63 37
63 67 33
64 68 32
64 68 32
68 73 42
77 78 34
71 74 35
69 73 37
88 90 45
93 93 48
81 85 36
86 89 49
90 91 43
95 95 47
91 93 51
87 90 52
110 109 53
108 109 54
99 99 45
114 111 49
111 111 56
109 110 55
109 109 60
114 115 58
111 111 54
113 112 56
121 120 59
130 127 62
128 125 66
120 118 58
132 130 70
132 130 67
137 134 71
123 121 57
123 122 63
129 127 62
143 139 71
137 134 71
133 130 61
141 137 66
150 146 75
143 139 68
155 149 75
151 146 78
146 142 68
146 141 72
144 140 68
156 151 74
151 146 71
151 146 69
153 148 71
152 147 73
155 149 69
156 150 72
157 151 76
147 144 65
156 150 71
152 147 68
158 152 74
159 154 76
164 157 78
160 155 75
163 157 78
161 155 74
162 156 77
161 155 70
158 152 64
162 155 65
159 154 71
163 156 75
163 157 75
158 152 74
160 154 69
165 158 80
162 156 81
158 153 74
163 156 75
158 153 78
158 153 73
161 155 71
154 149 66
164 157 79
166 159 79
159 152 66
161 154 74
157 152 63
160 155 72
160 153 72
158 152 67
158 151 69
154 148 66
151 146 65
155 150 67
154 148 66
151 146 64
162 156 64
147 141 65
152 146 67
148 143 65
153 148 60
147 141 66
151 146 62
147 142 59
158 151 68
152 146 64
151 145 62
150 143 64
140 134 54
141 135 57
142 136 56
140 134 62
141 135 59
128 123 52
140 134 57
141 137 49
139 135 52
141 139 47
138 140 41
141 145 44
142 144 37
143 148 36
153 164 28
149 160 30
151 162 34
156 171 19
160 175 25
161 178 19
166 185 11
167 185 0
170 190 0
170 189 0
170 192 0
168 189 0
167 189 0
170 189 0
170 191 0
172 195 0
172 194 0
170 193 0
174 197 0
170 194 0
172 196 0
171 195 0
172 195 0
171 194 0
172 195 0
171 194 0
171 195 0
171 195 0
169 192 0
170 192 0
169 193 0
170 194 0
170 193 0
172 196 0
173 196 0
172 195 0
170 194 0
167 191 0
169 192 0
169 192 0
172 196 0
175 197 0
168 191 0
173 197 0
170 194 0
172 196 0
172 196 0
172 195 0
171 194 0
172 195 0
171 194 0
173 196 0
167 191 0
175 198 0
167 191 0
172 195 0
167 191 0
167 191 0
169 192 0
170 195 0
170 193 0
173 196 0
171 194 0
172 195 0
164 188 0
169 192 0
167 190 0
168 191 0
171 194 0
171 194 0
172 194 0
172 195 0
168 192 0
169 192 0
167 191 0
170 193 0
169 192 0
163 187 0
169 193 0
168 191 0
170 194 0
165 190 0
171 194 0
169 192 0
165 188 0
171 194 0
169 192 0
172 196 0
168 192 0
171 194 0
169 192 0
167 190 0
170 193 0
164 186 0
171 195 0
170 193 0
166 189 0
170 193 0
166 189 0
156 179 65
134 160 113
81 112 141
61 97 156
62 98 159
62 98 158
62 97 155
62 98 165
61 97 160
62 98 159
62 98 164
62 99 164
62 98 168
62 99 164
62 99 169
62 98 166
61 98 164
61 97 160
61 98 163
62 98 165
61 98 168
63 99 161
63 99 172
61 98 164
62 99 171
62 99 171
62 99 170
61 98 169
61 98 162
61 98 173
62 98 167
62 99 170
62 99 173
62 99 173
62 99 172
62 98 168
62 98 168
61 98 171
63 99 169
62 98 171
62 98 170
62 99 172
62 99 171
62 98 172
62 99 176
62 99 172
62 99 174
62 99 172
63 99 173
61 98 171
62 99 176
61 98 174
62 99 172
62 98 170
62 99 176
63 99 180
62 99 172
61 98 172
62 99 174
62 99 177
62 98 173
62 99 176
62 99 174
62 98 169
62 99 175
62 99 175
62 99 174
62 98 165
63 99 173
62 99 173
62 99 175
61 98 171
62 98 171
62 98 172
62 99 171
61 98 174
62 99 172
62 99 172
62 98 167
63 100 175
62 99 172
62 99 173
62 99 173
61 98 170
62 99 173
63 99 177
62 99 176
62 99 171
61 98 171
62 98 172
62 98 169
62 98 167
62 98 170
62 98 165
62 99 172
62 99 166
62 99 171
62 99 172
63 99 173
62 98 168
63 99 173
62 99 174
62 99 172
63 99 175
63 99 174
62 98 170
62 99 174
62 99 172
63 99 175
62 98 168
62 99 173
62 99 171
61 97 163
62 98 167
63 99 171
62 99 168
61 98 164
62 98 172
61 98 167
61 98 164
62 98 165
62 99 174
62 99 172
62 98 168
62 98 169
62 99 168
62 98 169
63 99 168
62 98 168
62 99 171
62 98 164
62 99 169
62 99 168
62 98 161
62 98 164
62 98 169
62 99 172
62 98 164
61 98 166
62 99 170
62 99 172
62 98 163
63 99 167
61 98 163
61 97 169
62 99 170
62 99 169
62 98 167
62 98 165
62 98 166
63 100 168
61 97 158
62 98 168
62 98 162
62 98 167
62 98 169
61 97 159
62 99 168
62 98 165
62 98 162
61 98 163
62 98 165
62 98 165
63 98 161
62 98 163
61 97 157
62 97 158
62 97 157
61 96 155
60 95 148
61 96 157
62 97 160
60 94 147
60 95 155
60 93 143
60 94 151
60 94 155
59 90 134
58 81 106
56 73 84
52 63 58
59 65 34
71 74 26
65 69 33
66 70 34
75 77 31
65 70 34
74 78 34
85 87 43
90 91 43
82 84 44
71 76 43
86 89 43
95 96 45
94 97 51
97 99 52
99 99 52
103 103 46
97 99 51
102 103 50
106 106 52
113 113 60
111 111 49
113 112 55
115 115 57
116 114 58
108 108 51
114 114 52
132 129 62
128 125 67
124 122 66
133 131 72
129 127 62
129 126 64
142 138 61
147 142 73
136 133 66
135 132 62
143 140 63
148 144 71
146 140 66
148 143 71
160 155 78
152 147 71
145 141 63
158 153 74
151 146 62
153 147 76
157 152 72
155 149 71
154 149 68
149 144 71
159 152 71
157 152 78
160 154 71
158 153 69
162 156 74
159 153 75
160 154 77
162 156 76
161 154 78
158 152 78
163 156 73
159 154 67
163 157 73
158 152 78
165 159 78
166 159 73
158 153 73
153 148 62
164 158 75
163 156 76
161 155 71
158 151 73
160 154 77
160 153 79
159 153 68
160 153 76
163 156 73
157 150 67
152 147 60
157 151 67
157 151 62
157 151 64
162 155 78
152 145 69
150 144 65
155 150 70
154 147 64
148 142 59
152 145 66
153 147 63
157 151 63
149 143 68
151 145 61
160 154 72
149 143 64
157 151 73
152 147 62
154 149 64
156 150 64
144 139 49
154 148 64
145 140 59
148 142 61
146 140 61
144 139 57
158 152 66
144 138 59
136 130 53
142 135 59
144 139 58
136 130 52
133 127 53
143 138 56
138 135 51
136 132 44
135 139 37
143 146 41
143 147 42
147 155 36
154 165 34
152 162 36
155 169 28
152 166 22
163 180 16
160 177 19
167 186 19
171 191 0
168 187 11
169 189 0
167 188 0
171 192 0
171 193 0
169 189 0
171 192 0
173 196 0
169 192 0
171 194 0
171 195 0
170 194 0
172 195 0
170 194 0
170 194 0
172 196 0
173 196 0
171 195 0
173 195 0
172 195 0
172 195 0
171 195 0
172 195 0
170 194 0
170 193 0
172 196 0
169 193 0
172 195 0
170 194 0
172 194 0
169 193 0
171 195 0
170 194 0
171 195 0
174 197 0
171 195 0
170 194 0
171 194 0
168 191 0
172 195 0
172 195 0
173 195 0
170 194 0
169 192 0
167 191 0
169 193 0
169 192 0
170 193 0
170 194 0
169 193 0
169 192 0
168 192 0
170 193 0
170 194 0
171 194 0
171 194 0
172 195 0
170 194 0
172 196 0
166 188 0
171 194 0
172 195 0
169 193 0
171 194 0
174 196 0
170 192 0
171 193 0
170 194 0
168 191 0
172 195 0
166 189 0
169 193 0
170 193 0
170 194 0
172 195 0
168 192 0
172 195 0
165 189 0
169 191 0
170 193 0
167 190 0
169 192 0
168 190 0
168 190 0
172 196 0
168 191 0
166 190 0
170 193 0
166 189 0
164 187 0
166 190 0
162 185 57
117 143 120
71 104 151
62 98 157
62 97 158
61 97 158
62 97 154
62 98 158
61 97 158
62 98 162
62 98 160
61 97 155
62 98 162
62 98 163
62 98 167
61 97 158
62 98 161
62 98 166
62 98 160
62 98 168
61 98 161
62 98 166
62 98 165
62 99 171
61 98 172
62 98 170
63 99 173
62 99 170
62 98 168
61 98 167
62 99 171
62 99 171
61 98 167
62 98 169
62 99 171
61 98 173
62 99 171
62 99 172
62 99 171
61 98 171
61 97 170
63 99 172
62 99 171
62 99 173
63 99 170
61 98 175
62 99 172
62 98 172
62 98 171
62 98 171
62 99 173
62 98 169
62 99 174
62 99 176
62 99 176
62 99 173
62 99 171
62 99 174
62 99 174
62 98 172
62 99 175
61 98 173
61 98 172
62 98 172
63 99 175
63 99 172
62 99 176
62 99 174
62 99 174
62 99 173
62 98 171
62 99 174
63 99 174
62 99 174
62 99 170
63 100 177
62 99 173
62 98 172
63 100 177
62 98 173
62 99 175
61 98 164
62 99 171
62 98 173
62 99 172
62 99 172
62 99 173
62 99 170
63 99 169
62 99 171
62 98 171
62 99 170
62 98 171
62 99 173
62 99 172
62 99 175
62 98 169
62 98 166
62 99 170
62 99 168
63 99 171
62 99 169
61 98 170
62 99 174
62 98 173
61 98 167
62 98 166
62 99 173
62 99 174
62 99 173
63 99 173
62 99 172
62 99 176
63 99 168
62 99 168
62 99 169
63 99 175
62 99 174
63 99 170
63 99 171
62 99 173
62 99 171
62 99 170
62 98 169
61 98 163
62 98 168
62 99 167
62 98 167
61 97 163
62 98 165
63 99 174
63 99 167
62 98 161
62 99 171
62 98 163
62 99 170
62 98 166
62 98 160
63 99 165
62 98 162
62 98 165
62 98 168
61 98 163
62 99 171
62 98 161
62 98 172
63 99 171
62 98 165
61 97 159
62 98 169
62 99 169
62 98 163
62 98 168
61 98 164
63 98 160
62 97 159
62 99 167
61 97 162
62 97 161
63 99 162
62 98 158
62 98 166
62 98 161
61 96 161
62 98 163
61 96 163
62 97 156
61 97 155
62 97 161
61 96 153
62 97 163
60 95 154
60 95 152
61 95 155
60 95 152
61 96 164
59 92 147
59 89 134
60 87 121
66 78 91
54 61 47
69 73 25
61 64 23
67 71 33
64 69 36
58 64 29
63 67 32
66 71 32
76 79 38
82 86 33
97 99 42
86 88 41
80 82 37
87 89 36
96 98 42
92 94 38
87 88 44
101 103 54
103 104 56
109 109 48
102 102 45
125 122 55
110 109 55
118 115 56
120 117 60
118 117 52
124 122 64
121 119 57
112 111 52
127 125 65
129 126 71
133 130 64
126 124 58
135 132 62
132 129 61
132 129 55
137 134 64
137 134 60
147 143 62
154 149 73
145 140 68
144 140 62
137 134 61
151 146 78
142 137 68
144 140 63
150 145 65
142 138 67
150 145 70
149 144 68
147 143 70
151 147 68
155 150 70
155 149 78
150 145 66
153 148 64
160 154 71
155 151 74
158 152 73
158 153 73
152 146 70
156 151 70
161 156 70
158 152 72
164 156 75
162 155 75
165 158 74
160 154 71
156 150 65
163 156 73
162 156 66
159 154 63
160 154 66
161 155 74
157 151 69
162 156 71
153 148 60
165 158 74
162 155 72
161 154 72
160 154 70
154 149 59
159 152 67
158 152 72
154 148 59
161 154 68
153 148 69
158 152 67
153 147 68
154 148 68
151 146 56
156 150 61
157 151 67
154 149 62
158 151 69
153 147 66
148 142 62
148 143 64
142 138 58
145 139 56
142 137 51
150 144 62
153 147 67
148 140 61
150 144 62
145 140 53
143 138 58
132 127 54
147 141 61
138 132 56
140 135 47
133 128 49
142 136 56
139 135 48
134 130 47
135 132 52
137 137 53
143 145 48
144 148 44
143 147 39
144 155 25
150 161 34
157 169 32
156 171 22
158 171 25
160 174 22
170 188 11
167 186 16
164 184 0
167 189 0
170 190 0
168 190 0
168 187 0
168 190 0
172 193 0
170 190 0
172 196 0
171 194 0
172 196 0
173 196 0
170 193 0
170 192 0
170 193 0
171 194 0
171 194 0
173 196 0
170 193 0
173 196 0
171 196 0
172 195 0
171 195 0
171 195 0
169 193 0
172 195 0
170 193 0
173 196 0
172 196 0
172 195 0
168 191 0
173 196 0
168 192 0
172 196 0
174 196 0
170 193 0
169 192 0
170 194 0
174 197 0
170 193 0
168 191 0
169 193 0
173 196 0
170 193 0
170 194 0
169 193 0
171 194 25
172 195 0
168 192 0
170 192 25
170 193 25
171 194 0
170 193 25
171 195 0
170 193 0
168 192 0
173 196 0
170 192 0
170 194 0
171 195 0
172 195 0
168 192 0
166 190 0
168 191 0
170 193 0
165 188 0
169 193 0
174 196 0
166 188 0
169 191 0
171 195 0
169 193 0
166 189 0
169 192 0
171 194 0
166 189 0
167 191 0
171 194 0
167 190 0
166 189 0
168 192 0
163 186 0
165 188 0
168 189 0
167 191 0
169 193 0
167 191 0
167 189 0
169 191 0
166 190 0
168 191 0
168 190 18
147 170 78
119 145 107
68 102 160
62 98 159
61 97 159
63 99 161
62 97 157
62 98 163
62 98 156
62 98 162
62 98 157
61 98 159
61 98 167
61 97 160
63 99 165
62 98 160
62 99 169
62 98 170
62 98 171
62 98 166
62 98 165
62 98 160
61 98 163
61 97 163
62 98 172
63 99 173
61 97 162
63 99 170
61 98 172
62 98 168
62 98 172
63 99 171
61 98 167
61 98 166
62 98 169
62 98 170
62 99 172
61 97 171
63 99 175
61 98 172
62 98 172
61 98 166
62 98 165
62 99 169
61 98 166
62 99 173
62 99 170
63 99 171
62 99 172
62 98 169
62 99 171
62 99 173
62 99 175
62 99 171
62 99 175
62 98 170
62 98 173
62 98 171
62 99 174
62 99 171
62 98 171
62 98 168
62 98 173
62 99 176
62 99 174
61 98 170
62 99 171
62 99 174
62 98 169
63 100 175
62 99 177
63 100 174
62 98 170
62 98 166
62 99 171
62 99 172
62 98 169
61 98 169
62 99 175
62 99 169
62 99 168
62 98 170
62 98 172
62 98 170
62 98 166
62 99 172
62 99 170
63 99 173
61 98 171
62 99 172
62 99 169
61 98 168
62 98 167
62 99 177
63 99 173
62 98 173
63 99 173
62 99 172
62 98 167
63 99 173
63 100 175
62 99 172
62 99 170
62 99 172
62 99 171
63 100 174
62 98 169
62 99 171
62 99 176
63 99 173
62 99 172
62 98 170
62 99 173
62 99 170
62 99 171
61 98 169
63 99 170
63 99 170
62 99 171
63 100 177
61 98 162
61 98 165
62 99 170
62 99 169
62 99 168
62 99 170
63 99 170
62 98 169
62 99 166
61 97 162
62 99 168
62 99 167
62 99 173
62 98 168
62 98 166
62 98 164
62 99 172
62 98 164
62 98 161
62 98 171
62 98 164
62 98 165
62 99 169
62 99 169
62 98 166
61 97 158
62 98 166
62 98 167
63 99 170
62 98 166
63 99 167
61 97 159
61 98 164
62 99 170
62 98 161
60 97 157
62 98 165
62 98 162
62 98 163
61 97 156
62 98 164
62 97 166
62 97 163
62 98 164
61 97 159
61 97 162
62 98 162
61 96 154
61 97 155
62 97 159
61 97 161
60 95 151
61 95 154
60 95 157
61 96 154
58 91 136
60 94 150
58 90 133
65 89 120
52 70 84
66 73 65
63 65 30
67 72 36
65 70 32
68 74 38
74 76 31
74 75 33
81 82 33
76 79 35
89 91 44
83 85 43
88 90 41
93 94 42
85 89 46
86 87 39
95 96 45
94 95 50
99 100 49
95 96 45
112 112 47
110 110 46
102 102 53
106 108 51
105 105 56
124 123 60
120 118 53
127 124 65
104 105 48
125 123 55
129 127 64
129 127 60
128 126 58
131 128 69
128 126 55
137 134 61
138 134 69
137 134 60
145 141 59
133 130 61
138 134 56
138 134 64
143 140 68
134 132 60
139 136 66
144 140 71
151 146 77
154 149 72
151 147 64
152 147 68
152 147 67
155 150 72
152 147 64
155 150 71
152 147 68
161 155 80
160 154 73
161 155 75
158 152 75
158 151 75
155 149 69
160 153 71
158 153 65
151 146 71
161 155 72
162 155 76
161 154 62
165 158 74
158 152 71
159 152 71
163 157 69
156 150 68
163 156 69
151 146 65
163 157 70
158 152 69
160 155 69
154 149 64
162 155 75
155 149 63
161 155 67
161 155 68
160 154 73
159 153 71
152 146 65
157 151 67
153 147 72
147 141 63
153 148 66
156 150 71
155 149 64
152 147 56
159 152 71
157 152 60
154 149 66
152 145 67
146 141 60
154 148 66
149 144 56
144 138 63
152 146 59
145 140 56
153 145 61
149 143 64
149 144 58
141 136 59
147 142 59
146 140 59
144 138 56
129 125 42
141 136 54
139 134 53
143 137 58
134 128 52
139 134 49
137 132 48
131 129 39
137 137 44
143 144 45
148 156 28
155 162 44
148 157 30
149 160 25
145 156 25
152 163 22
157 172 28
160 176 22
164 183 16
167 186 0
169 189 11
168 188 0
166 187 0
171 192 0
167 188 0
173 193 0
170 191 0
168 188 0
170 194 0
173 196 0
170 192 0
171 195 0
171 195 0
169 193 0
169 192 0
173 196 0
169 193 0
172 196 0
169 192 0
167 191 0
173 197 0
172 196 0
171 195 0
168 191 0
168 191 0
169 192 0
171 195 0
173 196 0
170 194 25
173 196 25
169 192 0
169 193 0
170 193 0
170 193 0
171 194 25
171 195 0
172 195 25
173 197 0
173 196 0
170 193 36
170 193 0
169 192 25
172 196 25
171 195 0
171 196 25
170 193 36
168 191 36
172 195 0
174 197 36
175 198 36
169 192 0
172 195 25
169 192 0
169 192 25
169 191 25
167 191 0
170 194 0
170 193 0
171 194 0
175 198 36
170 192 36
169 193 0
169 192 0
171 194 25
169 193 0
168 191 0
168 191 0
171 193 0
166 189 0
170 193 0
167 190 0
169 193 0
171 194 0
168 191 0
169 192 0
167 190 0
172 193 0
170 193 0
167 190 0
169 192 0
171 194 0
169 193 0
167 190 0
173 196 0
168 192 0
170 192 0
166 189 0
170 193 0
168 191 0
164 187 0
162 185 0
161 185 18
151 174 67
104 130 120
63 98 143
63 99 165
61 97 153
62 98 156
61 97 153
62 99 167
61 97 158
62 98 164
62 98 167
62 98 157
62 98 164
61 97 158
62 98 163
61 98 163
61 98 161
61 97 157
61 98 163
61 98 170
62 98 164
61 98 165
62 98 168
62 98 166
61 98 171
61 97 164
61 97 167
62 98 167
61 97 164
62 98 164
61 98 167
62 98 169
62 98 171
62 98 172
62 99 168
61 98 167
62 98 167
63 99 171
63 99 173
62 99 172
62 99 169
62 99 173
61 98 167
63 100 179
63 99 173
62 98 171
62 99 169
61 98 167
61 97 164
62 99 171
63 99 168
62 99 175
62 99 171
62 99 175
62 99 175
61 98 167
62 99 172
62 98 167
63 99 173
62 98 168
62 99 171
62 98 166
62 98 169
61 98 167
62 99 170
62 99 171
62 99 169
62 99 175
62 98 170
62 99 173
61 98 166
62 98 172
62 99 173
63 99 172
62 99 173
63 100 172
62 99 172
62 99 174
62 99 173
62 99 171
62 98 173
62 99 174
63 99 174
63 99 174
63 99 172
62 99 169
62 98 171
61 98 164
62 99 171
62 99 170
61 98 169
62 98 167
62 99 170
63 99 173
61 98 170
62 99 170
62 98 165
61 98 168
62 99 173
62 99 173
62 99 174
62 99 171
62 99 176
62 98 172
61 98 170
62 99 170
62 99 176
63 99 170
62 99 170
63 100 178
62 98 167
62 98 169
63 99 171
62 98 162
62 98 169
62 99 174
62 99 173
61 98 162
62 98 172
62 99 170
62 99 164
62 98 169
62 99 169
62 98 163
62 98 169
62 99 169
62 98 164
62 98 166
62 99 172
62 99 166
62 98 166
62 98 166
62 99 168
62 98 164
62 98 163
63 99 170
62 99 166
62 98 167
63 99 170
62 99 166
62 98 163
62 98 165
62 98 164
62 98 165
62 99 169
61 98 167
62 99 169
62 99 172
62 98 169
62 99 166
61 97 163
61 98 162
61 98 161
62 98 165
62 98 164
63 98 164
63 99 171
62 98 167
62 97 161
63 99 166
61 97 162
63 98 162
62 98 165
62 97 160
62 97 160
61 96 158
63 99 164
61 97 162
62 98 164
61 96 154
60 94 150
61 97 160
61 96 158
59 94 149
61 96 161
59 93 143
60 93 143
60 94 153
62 88 121
53 73 88
63 71 60
69 72 28
57 62 31
78 78 33
64 67 31
69 72 29
78 80 40
83 85 39
85 88 40
77 79 33
87 88 40
89 90 37
90 90 48
96 97 38
104 105 50
109 107 52
97 98 47
100 99 46
110 109 57
108 109 54
112 111 48
114 114 47
117 117 52
111 110 52
116 114 51
117 116 57
110 110 56
123 121 58
114 114 51
127 125 56
130 127 64
129 127 57
122 120 55
131 129 52
134 132 63
138 134 67
125 123 54
142 138 63
141 137 66
142 137 57
148 143 71
140 137 61
139 136 57
154 149 67
149 144 71
153 147 70
147 142 72
149 146 60
151 146 60
146 142 64
153 147 73
149 143 69
149 144 67
154 149 67
159 153 76
156 150 69
157 151 71
152 147 71
155 150 69
151 146 63
161 155 75
159 152 76
156 150 63
159 154 66
164 157 76
161 155 69
157 151 73
155 149 68
156 150 71
160 152 76
157 151 74
162 155 71
160 153 68
158 153 71
153 147 68
163 156 78
157 152 67
156 150 64
154 148 71
155 149 63
153 148 62
157 152 60
157 150 70
164 156 72
158 152 64
153 148 60
160 153 69
156 151 63
157 151 69
152 146 66
154 148 60
152 145 63
152 147 63
151 144 58
146 140 58
150 146 59
154 148 68
143 138 56
153 146 61
152 147 61
149 143 57
142 136 49
153 146 63
141 134 60
142 136 59
141 136 48
144 138 61
139 133 58
141 135 52
144 138 56
138 132 49
127 122 49
143 138 51
141 137 51
138 138 51
136 138 39
135 138 36
144 146 39
151 158 32
145 154 32
160 171 37
145 158 22
159 174 16
162 177 22
160 176 19
164 183 11
165 183 16
165 185 0
171 191 0
171 191 0
169 191 0
168 188 0
167 186 0
166 186 0
169 189 0
172 192 0
169 193 0
170 195 0
167 191 0
173 196 0
169 193 0
171 195 0
173 196 0
170 194 0
168 191 0
171 194 0
172 195 0
170 193 0
168 191 0
171 195 0
170 193 0
168 193 0
169 192 0
172 195 0
172 195 0
169 193 0
173 196 0
170 194 0
171 195 0
173 195 36
170 193 25
173 197 51
174 197 36
172 195 0
170 193 25
171 194 36
172 195 36
171 194 36
171 195 25
175 197 36
169 192 25
170 193 0
171 194 36
170 194 36
170 193 0
169 193 25
166 190 25
171 195 36
172 195 25
171 195 25
170 194 36
173 195 44
168 191 36
169 191 25
169 193 0
164 188 0
168 191 25
169 193 25
169 192 25
173 196 57
171 193 36
170 193 0
169 193 25
167 189 0
167 190 0
170 193 36
170 193 0
165 189 0
168 191 0
169 192 0
167 191 0
165 188 0
170 194 0
170 193 0
166 189 0
166 189 0
171 194 0
169 192 0
169 193 0
169 193 0
169 193 0
168 191 0
166 189 0
164 187 0
167 190 0
167 190 0
168 190 0
168 192 0
163 185 0
163 187 25
148 173 80
113 139 129
63 98 151
61 97 159
61 97 157
61 97 153
62 98 154
61 96 151
61 97 157
61 97 159
62 98 167
61 97 160
61 97 157
62 98 166
62 98 160
61 98 165
62 98 167
61 97 163
61 97 163
62 98 160
62 99 173
62 99 166
61 97 165
61 97 162
62 99 171
62 98 169
62 98 166
61 98 167
61 98 168
62 98 166
61 97 164
61 98 172
62 98 172
63 99 171
62 98 167
62 99 173
62 98 166
62 98 171
62 98 168
62 98 167
62 98 171
62 98 166
62 99 172
62 98 167
61 97 161
62 99 169
63 99 171
62 98 166
62 98 169
62 98 171
63 99 175
62 99 170
62 99 171
62 99 172
62 99 173
61 98 167
62 99 173
61 98 170
62 99 172
61 98 165
62 98 170
62 99 171
62 98 166
62 99 170
62 99 172
62 99 172
62 98 168
62 99 172
62 99 177
63 100 177
62 99 172
62 98 169
63 99 173
61 98 169
63 100 175
62 98 169
62 98 170
62 99 171
62 99 169
62 99 173
63 100 171
63 99 168
62 99 169
62 98 169
62 98 173
62 98 170
62 99 168
62 98 172
62 99 169
62 98 168
62 98 168
62 98 165
62 99 171
61 98 166
62 99 170
61 98 170
62 98 175
62 98 170
62 99 169
63 100 174
62 99 169
62 98 166
63 99 174
62 98 166
62 99 172
62 99 169
62 98 170
61 98 170
62 99 167
62 99 172
62 99 166
62 98 169
61 98 166
63 99 171
62 98 167
62 99 176
62 99 173
62 98 169
63 99 170
62 98 168
62 99 171
62 99 169
62 98 166
63 100 172
62 98 165
62 98 166
63 99 172
62 98 164
63 99 174
62 98 167
62 98 162
62 99 170
62 99 172
62 99 168
61 98 164
61 97 164
62 98 164
61 97 162
62 98 167
61 97 164
61 97 159
62 98 161
61 98 162
61 98 166
62 98 165
61 98 165
62 98 164
61 98 164
62 98 166
62 98 166
62 98 164
61 98 162
61 97 159
62 98 163
62 98 159
62 98 166
61 96 156
62 98 167
62 98 162
62 98 157
62 98 163
62 97 157
61 97 152
61 97 159
60 95 148
60 95 149
61 96 158
61 97 159
61 97 160
61 97 157
61 96 157
60 95 153
62 97 157
60 94 147
61 95 154
61 96 155
59 92 137
58 91 144
59 89 136
60 77 99
51 62 62
67 71 34
65 68 24
67 68 21
74 76 31
83 84 28
78 80 35
70 74 30
83 84 30
72 75 31
87 86 39
97 97 36
87 89 42
82 84 41
93 94 42
91 92 41
107 106 41
109 109 43
116 115 49
103 103 45
114 113 51
107 107 44
109 108 51
117 116 52
123 121 57
124 122 52
116 116 56
116 116 55
117 115 55
129 126 62
136 133 64
132 129 61
132 129 54
140 136 62
128 127 60
132 129 65
141 137 66
143 139 61
141 137 60
138 134 62
143 138 62
147 143 62
141 136 59
143 138 65
139 136 66
150 145 68
146 142 63
140 138 57
156 150 68
155 150 75
145 140 52
151 147 64
150 145 65
151 145 72
151 147 65
154 149 71
158 152 75
155 149 64
156 150 69
156 151 70
165 159 73
158 152 68
157 151 67
153 147 64
162 156 75
153 147 68
160 154 70
157 151 68
161 154 74
159 153 64
165 158 77
152 147 59
159 152 68
160 153 69
158 152 62
152 146 64
163 157 70
161 154 69
164 157 77
151 145 65
155 147 68
158 152 62
153 148 61
158 151 71
148 143 60
160 153 65
153 148 66
150 145 61
155 149 61
148 142 59
153 148 64
153 147 65
145 139 54
149 143 65
147 141 58
149 143 59
158 151 69
156 149 63
142 137 49
149 143 62
142 136 59
140 135 52
138 133 52
141 136 54
149 143 59
151 144 65
143 137 51
138 133 45
142 136 54
130 126 42
139 134 48
130 124 56
134 133 41
141 139 49
138 137 51
136 136 45
141 144 39
140 146 32
155 164 39
150 159 37
150 160 25
153 165 11
157 171 25
162 177 22
161 177 25
165 183 22
169 189 0
168 186 0
167 185 0
169 190 0
166 187 0
169 191 0
169 189 0
168 187 0
170 192 0
169 190 0
174 197 0
172 195 0
169 193 0
171 194 0
173 196 0
169 192 0
173 197 0
171 195 0
172 196 0
172 196 0
171 195 0
168 192 0
168 192 0
171 194 0
173 196 36
170 194 0
171 193 25
167 191 25
170 192 36
170 194 25
170 194 0
173 197 25
173 196 25
169 193 36
170 193 25
172 195 36
172 195 25
173 196 25
173 196 36
173 196 44
169 192 25
170 193 44
169 193 25
172 196 25
169 192 36
173 195 44
173 195 51
172 194 72
173 195 62
170 193 44
171 195 44
170 192 44
169 192 36
173 195 44
173 196 57
174 197 25
169 193 25
168 192 25
171 194 44
165 189 36
173 196 44
172 194 44
171 195 25
169 192 25
171 194 25
174 196 36
165 188 0
168 190 36
171 194 44
172 195 0
168 191 0
170 192 0
168 191 25
165 189 0
173 195 25
166 190 0
168 193 0
169 192 0
171 194 0
170 193 0
167 190 0
170 194 0
168 191 0
172 195 0
169 191 0
167 189 0
167 190 0
169 192 0
170 194 0
166 189 0
167 191 0
162 186 0
164 188 0
162 184 25
132 156 97
103 130 130
61 97 151
62 98 154
62 97 156
61 97 155
62 98 159
61 97 156
60 96 153
61 97 159
62 98 157
62 98 164
62 98 167
62 98 163
62 98 160
61 97 159
62 98 170
61 97 159
62 98 164
62 99 171
61 98 166
61 98 160
62 98 166
62 98 163
62 99 167
61 97 161
61 97 164
61 97 164
62 98 168
62 98 168
62 98 168
62 98 171
62 98 167
61 98 165
61 98 168
62 99 175
61 98 166
61 98 165
62 99 169
62 99 170
62 99 171
62 99 169
61 97 161
63 99 173
63 99 171
62 99 169
62 99 173
61 98 169
63 99 172
63 100 175
62 98 169
62 99 169
62 98 165
62 99 175
62 98 168
63 99 173
61 97 163
61 98 173
62 99 171
62 99 173
62 99 168
63 99 174
62 98 170
62 99 169
62 98 169
63 100 176
63 100 175
62 99 173
62 98 170
63 99 174
62 99 170
62 99 172
62 99 172
61 98 169
63 99 173
63 99 175
62 99 176
62 99 171
62 99 170
61 98 164
62 99 169
62 99 173
63 99 177
63 100 175
62 99 172
62 99 170
62 98 167
62 98 170
62 99 174
63 99 175
62 99 168
62 98 170
62 98 169
62 99 173
62 99 168
62 98 171
63 99 173
61 97 163
63 99 175
63 99 172
62 99 174
62 99 168
62 98 172
63 100 176
62 98 166
62 99 175
61 98 166
62 99 168
62 99 173
62 99 172
63 99 171
62 99 170
62 99 171
62 99 168
62 99 166
62 99 175
61 98 171
62 98 164
62 99 170
61 98 167
62 98 165
62 99 168
62 98 169
62 99 166
62 98 169
62 98 164
62 98 166
62 98 166
62 98 169
61 97 163
62 98 166
63 99 170
62 99 167
63 99 169
62 98 171
62 98 165
62 98 167
62 98 168
62 98 160
63 99 170
62 98 167
62 98 167
62 98 171
62 98 162
62 98 163
62 99 168
62 98 164
62 98 163
62 99 168
63 99 170
61 97 158
62 98 156
62 99 168
62 98 163
62 98 161
62 98 161
61 96 148
62 98 160
62 98 162
62 98 165
61 96 158
61 97 163
61 96 158
61 97 159
61 97 161
61 96 154
61 96 156
60 96 156
62 97 160
61 96 150
60 96 152
61 96 160
61 95 150
61 96 160
59 94 153
60 95 147
60 95 150
57 90 136
59 88 128
63 80 98
71 83 83
63 68 40
61 65 22
58 61 29
80 80 31
61 64 27
72 73 25
82 83 24
81 84 34
86 88 41
90 91 35
95 95 32
92 93 31
88 89 41
88 90 40
102 101 48
97 97 36
100 100 47
113 112 45
107 106 46
104 104 45
115 113 48
106 106 53
108 108 58
116 115 52
106 106 49
118 117 43
127 125 60
122 121 53
121 119 53
120 118 55
131 129 54
125 124 59
125 123 52
134 130 59
140 136 60
133 130 56
131 128 54
143 139 65
139 135 64
150 145 71
135 133 60
142 137 58
134 130 51
151 146 71
149 145 64
148 144 64
145 141 59
147 143 59
148 143 63
147 142 62
145 142 59
146 142 57
147 143 61
149 144 61
151 146 66
152 147 58
150 144 64
154 148 72
157 150 65
157 151 66
163 156 75
154 149 64
164 157 78
156 150 64
155 150 64
157 150 66
156 150 71
152 146 64
152 146 62
154 148 66
162 155 74
156 149 64
159 154 66
161 154 65
155 149 68
150 145 65
164 156 71
157 150 64
158 151 67
157 151 62
157 152 62
156 150 58
156 150 61
154 147 63
152 146 58
157 150 70
156 149 68
149 143 56
146 140 64
151 146 60
153 147 60
146 141 56
154 147 63
145 139 52
146 141 52
150 144 58
155 147 68
146 141 52
149 143 67
141 136 51
145 138 56
143 137 53
142 137 54
146 140 60
132 127 44
143 138 60
142 137 49
138 132 52
139 133 51
139 133 47
127 125 41
144 142 42
142 140 49
132 132 39
146 149 39
147 153 36
148 155 34
150 160 28
153 163 36
154 161 34
153 165 25
158 174 16
165 181 19
166 185 0
166 185 19
169 189 0
167 186 0
169 190 0
172 192 0
169 189 0
167 187 0
170 191 0
167 185 0
168 188 0
171 191 0
172 195 0
168 192 0
167 191 0
170 193 0
169 193 0
170 194 25
172 195 0
168 191 0
175 198 0
170 193 0
173 196 0
171 195 0
171 195 0
171 194 0
174 196 36
170 193 36
171 195 36
173 196 25
168 192 25
172 195 25
173 197 44
173 196 36
174 197 36
174 197 57
173 197 62
176 199 72
172 195 67
171 195 44
169 192 51
171 194 36
172 195 62
175 198 62
171 194 25
173 196 51
172 195 57
168 192 25
170 193 44
171 194 25
174 197 44
173 196 67
177 199 62
171 194 51
172 194 62
173 195 36
169 192 0
173 196 51
173 196 57
174 196 51
170 194 25
172 195 25
170 192 51
173 195 44
170 194 36
176 199 44
172 195 36
174 197 51
168 190 44
170 193 25
174 197 44
173 195 36
167 190 36
166 190 25
166 189 0
167 191 0
167 190 25
171 194 0
167 192 0
171 195 0
168 190 0
167 190 0
168 192 0
161 184 0
165 188 0
166 190 0
163 187 0
167 191 0
168 191 0
167 190 0
166 191 0
170 193 0
167 190 0
169 192 0
169 192 0
162 185 44
142 166 100
81 112 139
62 98 158
62 98 163
62 98 158
62 98 158
61 97 160
62 98 157
61 97 162
62 98 160
61 97 164
61 97 162
61 97 158
62 98 161
62 98 158
62 99 168
60 97 161
61 97 158
61 97 162
62 98 162
62 99 172
62 99 170
62 98 166
62 98 164
62 98 166
62 98 168
62 98 167
61 98 173
61 97 166
62 98 166
62 98 167
62 99 170
61 98 168
62 98 169
62 99 173
62 98 169
62 98 169
62 98 168
62 98 168
61 97 160
62 99 175
62 98 170
61 97 164
62 98 166
62 99 172
62 98 171
62 98 169
63 99 175
61 97 166
63 99 173
62 98 167
62 99 167
62 99 173
62 99 171
62 99 173
62 98 172
62 98 175
62 98 169
62 98 172
62 99 172
62 99 174
61 98 169
62 99 173
62 99 172
62 99 174
62 98 170
62 99 176
63 99 172
62 98 172
62 98 164
61 97 171
62 98 169
63 99 177
62 99 171
62 98 170
62 99 173
62 99 174
61 97 168
62 99 167
62 99 172
61 98 169
63 99 172
62 99 171
62 99 174
62 98 169
62 99 168
62 99 169
62 98 170
61 98 165
63 100 175
63 99 172
63 99 168
62 99 173
62 99 172
61 98 165
61 98 170
62 98 168
62 98 171
62 99 168
62 99 172
61 97 163
63 100 172
62 99 170
61 98 165
62 98 166
62 98 168
62 98 167
61 98 166
62 98 168
62 98 170
63 99 170
62 98 164
62 99 170
62 98 165
63 99 173
63 99 171
63 99 166
62 98 166
61 98 165
63 99 168
62 98 164
63 99 174
62 98 170
61 97 160
62 98 170
63 99 166
62 98 166
62 98 164
61 98 163
62 98 164
62 98 162
61 98 160
62 98 166
62 99 168
61 98 161
62 99 170
61 98 168
62 99 168
62 98 165
62 99 169
61 97 164
62 98 167
62 97 160
63 99 165
63 99 170
63 99 168
62 99 170
63 99 163
63 99 171
61 97 164
62 98 156
61 97 158
61 97 163
61 96 154
63 99 169
62 98 170
61 97 158
62 98 158
63 99 166
61 98 161
62 98 160
62 98 157
61 97 156
61 97 156
61 97 162
62 98 155
61 97 149
59 95 152
61 96 153
61 97 153
60 95 151
60 95 155
60 96 156
59 94 149
61 96 151
60 94 147
59 94 146
59 93 148
57 90 127
68 89 116
74 83 68
72 74 42
77 78 19
71 74 28
71 74 26
70 72 26
77 78 34
79 80 30
91 92 35
80 83 27
83 85 36
84 85 34
87 90 47
83 86 34
94 95 39
94 93 29
105 105 46
99 100 41
95 96 35
103 103 44
99 98 42
106 106 42
118 116 52
117 115 47
112 111 45
114 113 54
119 117 50
127 122 55
125 122 48
125 122 55
123 122 54
122 120 50
125 123 59
125 122 54
134 131 64
135 132 56
126 125 57
137 133 56
141 136 67
128 125 51
135 131 57
141 137 56
145 141 67
139 136 57
142 138 57
152 147 66
152 145 64
144 140 70
147 142 62
146 142 61
144 140 61
157 151 70
148 143 61
152 147 63
151 145 63
149 145 65
144 140 59
151 145 64
153 147 64
154 147 66
150 145 62
156 151 64
159 154 67
155 150 64
151 146 65
157 150 66
157 150 73
151 147 65
156 150 65
156 150 63
150 144 67
158 153 70
156 150 67
149 143 57
161 155 67
156 150 67
150 143 64
156 151 61
161 155 72
163 156 73
146 142 57
152 147 63
156 149 57
143 138 57
146 140 60
147 141 53
146 141 58
153 147 62
154 149 61
149 144 57
151 144 62
144 139 56
154 148 63
141 136 45
151 145 61
156 149 64
154 147 67
149 142 59
140 135 53
153 146 63
146 141 59
143 137 44
143 136 59
146 141 52
140 134 61
140 134 54
140 134 52
143 138 53
137 131 54
140 134 47
142 136 58
133 130 42
141 138 56
131 130 42
130 131 37
136 142 37
148 155 32
151 161 28
154 165 28
146 157 19
162 171 34
158 172 28
160 177 0
161 177 19
160 177 0
164 182 11
168 186 0
172 192 0
168 189 0
165 186 0
168 188 0
171 190 0
167 188 0
170 191 0
169 190 0
171 191 0
169 193 0
169 193 0
170 193 0
172 195 0
171 194 0
170 193 0
173 196 36
172 196 44
174 197 44
172 195 36
172 196 25
172 196 44
169 193 0
172 195 51
175 197 44
171 194 36
175 198 51
173 195 51
171 194 51
173 196 51
175 198 44
173 195 25
172 194 51
172 195 51
176 198 57
174 197 62
171 193 57
173 196 36
168 191 57
170 194 57
169 193 51
173 197 57
171 194 44
167 190 0
171 193 36
174 196 51
172 194 62
170 193 25
169 192 62
169 192 51
173 196 57
176 199 51
173 196 76
175 197 44
173 196 44
170 193 57
175 197 57
176 198 62
166 190 51
174 197 51
172 194 51
168 192 51
170 193 51
172 196 44
170 192 25
171 193 44
168 191 36
175 197 67
169 192 36
167 190 44
174 197 62
172 195 36
168 190 36
170 193 25
168 191 57
168 191 51
172 196 36
167 190 0
166 189 25
164 188 0
168 192 25
170 193 25
163 186 25
168 192 25
167 189 25
167 191 0
166 189 0
169 192 0
169 191 0
173 195 0
165 189 0
169 192 0
168 191 0
159 183 47
128 153 102
82 112 133
63 98 157
61 97 154
61 97 151
61 97 158
62 98 159
61 97 160
60 96 153
62 98 164
62 98 156
62 98 159
61 97 154
62 98 159
61 97 154
62 98 167
62 99 163
62 98 164
62 98 165
61 98 164
62 98 163
62 98 157
61 97 163
63 99 173
63 99 171
61 97 164
61 97 161
61 98 170
61 97 165
62 99 172
62 99 172
62 99 172
62 98 164
61 98 167
62 98 166
62 98 165
62 99 171
61 97 169
62 98 167
62 98 168
62 98 167
61 98 170
62 98 168
61 98 165
62 98 170
62 98 170
63 99 173
63 99 177
62 98 167
62 99 171
62 99 173
61 98 166
61 98 168
62 99 168
62 98 169
62 99 173
63 99 170
63 99 177
62 98 167
62 98 169
62 98 172
62 99 175
62 99 169
62 98 171
62 99 169
61 97 168
62 99 176
61 98 167
62 98 168
62 98 168
62 98 166
62 99 170
62 99 172
63 99 171
62 99 171
62 98 171
62 99 173
62 99 173
62 98 167
62 99 171
63 99 173
62 99 171
62 99 175
62 99 168
62 99 170
62 99 170
62 99 171
61 98 170
63 100 176
61 98 168
62 98 165
62 99 171
62 99 172
62 99 169
63 99 174
62 99 173
62 98 172
62 99 172
62 99 170
62 98 165
62 98 167
62 99 173
62 99 167
62 98 168
63 99 172
63 99 171
63 99 174
62 98 168
62 99 175
62 98 167
62 99 170
63 100 176
62 99 167
63 99 165
63 99 171
62 98 167
63 99 166
62 98 164
62 99 169
62 98 166
61 98 166
63 99 170
62 98 166
63 99 170
63 99 167
61 97 163
62 98 168
62 99 171
62 98 166
62 98 157
62 98 168
62 98 164
62 99 171
62 98 162
62 98 167
62 99 167
62 98 166
62 99 169
61 98 161
63 99 168
62 98 162
62 98 165
62 98 163
61 97 157
61 97 158
62 98 163
61 97 163
62 98 160
62 98 167
62 99 166
62 98 164
62 98 165
62 98 161
61 97 158
61 97 156
62 97 156
62 98 163
62 98 162
62 97 162
62 98 164
63 99 166
62 98 164
61 96 154
60 96 158
62 98 164
62 97 156
61 97 157
62 97 159
62 98 155
61 96 154
61 96 150
61 96 154
61 96 153
60 95 149
60 94 148
60 94 147
61 95 148
58 91 131
59 90 143
65 85 110
71 77 66
60 66 43
68 71 30
65 67 20
73 75 25
85 85 24
78 80 26
69 71 25
78 80 27
83 84 35
82 83 27
75 78 30
80 82 35
88 89 38
101 101 41
88 89 36
84 86 32
101 100 42
103 102 46
98 99 48
95 95 46
106 105 50
108 109 47
124 122 54
110 109 45
108 108 46
122 120 55
114 113 46
122 121 50
131 128 52
121 120 47
129 126 54
128 126 56
120 118 50
132 128 55
138 134 63
130 127 55
148 143 66
139 135 59
133 129 53
141 136 55
145 141 57
138 135 55
132 128 53
136 132 63
143 139 56
146 141 66
147 142 64
150 145 63
147 141 62
152 147 65
148 142 66
143 137 64
153 148 69
153 148 60
149 145 61
152 147 65
161 155 69
146 141 61
149 144 66
147 143 58
156 150 70
153 148 66
148 142 64
158 152 64
158 152 69
155 149 64
151 147 56
157 151 69
153 148 60
159 153 70
155 150 57
152 146 61
159 152 68
157 151 65
151 146 59
155 148 62
142 138 54
155 148 61
162 155 70
152 146 61
151 145 61
148 143 51
147 143 51
152 147 61
155 149 66
151 145 61
146 141 57
149 143 64
148 143 53
145 140 58
158 152 67
154 148 59
145 139 52
151 144 61
142 137 49
155 148 64
143 138 51
144 138 58
148 142 59
139 134 52
139 133 53
144 139 59
136 130 51
143 138 53
142 137 53
137 131 47
136 131 45
132 126 47
129 126 41
136 134 44
135 132 37
135 133 47
144 144 47
145 147 44
140 147 39
150 157 37
141 151 25
152 163 22
157 171 19
155 167 19
162 176 22
162 179 0
164 182 11
166 186 0
167 185 0
170 189 0
167 186 0
168 188 0
169 187 0
169 189 0
170 191 0
168 188 0
166 186 0
169 188 0
171 192 0
168 192 0
171 194 0
172 196 0
166 190 0
172 194 25
173 196 25
176 199 62
175 198 36
172 195 25
174 197 44
171 194 25
173 197 51
173 196 36
171 195 36
175 197 44
173 196 36
172 195 36
176 198 36
174 197 57
173 196 51
175 197 62
173 196 44
173 196 36
172 194 44
177 200 72
173 195 51
172 196 44
172 195 51
171 194 25
174 197 57
172 195 44
173 196 57
168 192 51
171 195 44
174 197 57
172 194 62
172 195 25
172 194 25
170 193 57
171 194 51
173 196 72
169 192 51
174 196 51
173 196 72
167 191 51
173 195 51
173 196 51
173 196 51
173 196 62
170 193 51
171 193 57
169 192 36
172 195 57
175 198 67
172 195 51
170 193 62
172 195 62
167 190 36
169 192 51
172 194 36
167 190 44
172 194 51
171 194 51
169 192 25
174 196 44
166 190 25
171 194 57
171 194 44
168 191 0
166 189 44
167 190 25
167 190 25
170 193 0
166 188 36
161 184 25
170 193 0
171 195 0
165 188 0
164 188 0
171 193 0
167 191 0
169 192 0
166 189 18
157 181 44
123 149 115
86 117 148
61 97 149
61 97 155
61 97 152
62 98 162
62 98 155
62 98 156
61 97 157
62 98 158
62 98 160
62 98 160
62 98 161
61 98 162
61 98 164
61 97 159
62 98 162
61 97 160
61 97 157
61 97 162
62 98 166
62 98 163
61 97 162
61 97 161
62 98 164
63 99 167
62 98 167
63 99 166
61 97 163
62 98 168
61 97 164
62 99 165
60 97 163
62 98 166
63 99 170
62 99 164
62 99 172
62 98 166
61 98 173
62 99 171
62 98 167
62 98 167
63 99 172
61 98 172
62 99 172
62 98 170
62 98 168
61 98 164
62 99 173
62 98 166
63 99 173
62 98 173
62 98 167
62 99 168
62 98 169
63 99 170
63 99 173
62 98 170
62 99 170
62 99 173
63 100 176
62 98 170
62 98 164
62 99 176
62 99 169
63 99 174
62 98 168
62 97 159
62 99 172
62 98 166
61 97 168
62 98 167
62 98 173
63 99 172
62 99 174
61 97 159
62 98 168
62 99 171
63 99 174
62 98 166
62 98 168
63 99 173
62 99 171
62 99 172
61 98 164
62 99 169
62 98 169
62 99 173
62 99 175
62 99 174
63 99 173
62 99 168
62 98 168
62 99 173
62 99 173
63 99 172
62 99 172
61 97 162
62 99 169
62 99 173
63 99 173
63 99 172
62 98 169
63 99 175
61 98 165
62 99 165
62 99 169
62 98 165
62 98 165
62 98 165
62 99 169
62 99 169
62 98 168
62 98 166
62 99 168
62 98 168
63 99 168
61 98 165
62 99 168
62 99 167
62 98 168
63 99 167
62 98 165
61 97 160
63 99 174
63 99 163
62 98 161
62 99 170
62 99 168
62 98 165
61 98 169
62 98 162
63 99 170
62 99 166
61 97 157
63 99 164
62 98 163
63 99 166
63 99 167
61 98 165
62 98 164
62 98 164
60 97 155
62 98 164
63 99 162
62 98 164
61 98 164
62 98 165
62 98 165
63 99 168
61 98 164
62 98 160
62 98 157
62 97 160
62 98 160
62 98 159
62 98 163
62 98 169
63 99 164
61 97 157
61 97 158
61 97 155
61 97 162
61 96 151
62 98 160
60 95 148
61 97 159
62 97 162
60 96 152
61 97 154
61 97 156
61 97 159
62 97 156
61 95 150
61 95 148
60 94 147
60 95 149
58 90 131
58 89 134
62 85 109
65 79 92
75 78 36
79 80 31
77 77 17
80 81 28
86 86 25
78 79 31
77 80 29
85 85 29
85 86 26
83 85 31
87 87 31
93 93 33
85 88 40
81 84 31
96 97 32
99 99 40
98 97 44
96 98 41
112 110 48
112 111 49
102 101 45
111 110 38
110 109 47
107 105 37
123 121 50
120 119 48
111 111 43
120 118 54
128 124 54
129 126 55
129 127 54
129 126 55
136 133 53
129 127 58
129 126 55
141 136 65
142 138 63
139 133 49
133 130 53
132 129 49
133 130 52
141 137 62
132 129 51
142 138 57
141 136 57
140 136 59
148 143 63
140 135 49
152 147 66
152 146 65
156 150 69
144 140 56
148 143 59
147 142 63
146 141 61
149 144 59
148 143 60
151 146 62
153 148 65
148 144 59
152 147 59
149 142 63
159 154 69
153 148 63
147 141 61
150 145 58
152 147 60
151 146 61
148 143 57
151 145 54
162 156 69
150 145 57
151 146 60
157 150 62
151 145 57
156 150 69
151 145 63
155 148 66
156 150 65
152 147 65
150 144 63
149 143 53
148 142 52
154 149 57
151 145 60
140 135 56
153 147 60
147 141 58
151 146 59
147 141 56
151 145 56
147 141 59
153 148 59
147 141 56
148 142 60
144 139 45
148 142 57
147 141 58
145 140 52
145 140 53
143 138 52
143 138 54
142 136 54
145 139 53
148 142 57
146 140 56
141 137 47
131 126 41
135 132 42
143 140 51
143 142 51
130 133 36
139 141 41
138 144 36
154 162 36
146 154 36
155 166 37
147 158 22
157 172 25
161 175 28
160 175 11
159 177 11
167 187 11
169 187 11
167 188 0
169 189 0
168 187 0
167 186 0
166 185 0
170 190 0
169 189 0
171 191 0
169 189 0
169 190 0
170 190 0
171 194 0
169 192 0
169 191 0
173 196 25
173 196 44
171 194 44
173 196 25
174 196 36
171 193 25
172 195 25
173 196 44
172 195 36
176 199 62
175 197 57
174 197 36
170 194 25
175 198 51
179 201 72
169 192 36
174 198 57
173 194 67
174 197 44
171 195 62
173 196 62
166 188 44
174 196 44
177 200 67
176 199 57
176 199 72
173 196 76
174 196 62
176 199 80
174 196 72
169 193 36
175 197 51
174 196 67
174 196 62
174 197 67
171 194 51
172 195 72
175 196 80
175 197 80
176 199 76
175 198 67
176 198 80
173 196 72
175 197 67
170 192 62
171 194 72
176 198 62
174 195 72
170 193 57
171 194 62
172 194 51
172 195 67
172 195 51
171 194 57
170 193 57
169 191 51
170 193 57
170 193 62
171 194 57
173 196 36
174 196 62
171 193 36
174 197 67
173 196 51
165 189 0
170 193 36
166 189 44
169 191 44
168 191 62
169 193 36
168 191 44
167 191 44
169 192 25
169 193 0
173 196 36
166 188 25
169 193 0
172 195 0
170 194 0
167 190 25
153 177 65
132 158 100
75 107 148
61 96 144
61 97 151
62 97 157
62 98 160
62 98 162
61 97 148
60 95 145
62 99 165
61 97 157
61 98 163
61 97 160
62 98 161
61 97 159
62 99 169
62 98 162
61 97 158
61 98 166
62 98 161
60 97 165
62 98 164
61 98 164
62 98 166
62 98 162
61 97 162
62 98 165
62 98 168
62 98 169
61 97 164
61 98 169
61 98 165
61 98 167
61 98 165
62 99 169
62 98 165
62 98 172
62 98 170
61 98 167
62 98 168
61 98 163
61 98 169
61 97 167
61 98 169
62 98 167
62 98 170
62 99 172
62 98 163
62 99 171
62 98 168
62 98 168
62 98 169
62 99 168
62 98 165
62 98 167
62 98 167
62 99 170
61 98 170
62 98 169
61 97 164
61 97 165
62 98 165
62 98 165
62 98 168
63 99 173
63 99 167
61 98 168
62 98 165
62 98 164
62 99 169
63 99 168
62 99 172
63 99 173
62 99 171
62 99 171
61 98 167
62 99 171
61 98 164
62 99 170
61 98 168
61 98 166
62 99 175
63 99 170
62 98 171
62 98 165
61 98 164
62 99 169
62 99 174
62 99 172
62 99 172
62 99 170
62 99 170
62 99 172
61 98 164
61 97 159
61 98 163
63 99 174
62 98 172
62 99 172
62 99 170
61 98 165
62 99 170
62 99 173
61 98 166
62 98 161
61 98 165
62 98 168
62 98 171
62 98 163
62 98 171
61 97 163
62 98 168
62 99 169
62 98 168
62 98 166
62 98 165
62 99 167
62 98 168
62 98 163
63 100 175
62 99 170
61 98 162
63 99 167
62 98 162
61 98 164
61 98 166
62 98 166
62 99 170
63 99 170
62 98 160
62 99 166
62 98 167
61 98 164
63 99 168
61 98 164
63 99 174
63 99 169
62 98 165
62 98 163
62 98 166
63 99 166
62 98 160
62 98 162
61 98 162
62 98 171
62 98 158
63 99 165
62 98 159
61 97 159
62 98 163
61 97 162
61 97 156
62 97 159
62 98 161
61 97 159
63 99 170
62 98 162
62 98 160
62 98 166
62 97 160
62 98 162
62 98 159
62 98 158
61 97 158
61 96 159
62 97 158
62 98 158
61 96 159
61 96 150
61 96 150
60 94 145
62 97 156
61 95 151
62 96 150
61 95 142
61 96 154
60 94 148
59 93 142
58 91 138
58 83 119
77 87 80
75 77 51
76 76 26
82 82 15
83 82 28
76 78 26
83 82 21
74 75 31
67 70 31
81 84 25
77 80 30
87 87 30
83 85 37
89 90 34
86 89 39
98 98 43
103 102 40
98 99 43
102 102 30
106 104 38
99 98 39
102 101 45
116 114 47
106 107 44
109 109 44
118 117 44
116 116 45
119 116 45
119 117 46
121 119 50
122 120 52
129 126 58
127 124 42
123 121 50
133 130 52
150 144 69
127 124 47
132 129 52
134 132 50
135 132 50
136 132 51
149 143 67
139 135 54
142 138 59
141 137 60
137 133 59
138 135 63
136 132 57
152 146 62
146 140 59
145 140 58
150 145 63
148 143 57
140 136 54
150 144 67
151 146 52
152 147 61
149 144 60
146 141 56
154 149 57
150 145 57
153 148 61
152 146 58
156 150 61
161 155 70
152 147 59
152 146 69
144 139 50
152 148 54
153 147 64
152 145 57
153 147 57
153 147 58
151 145 56
151 145 63
152 146 59
158 152 61
149 145 52
153 147 59
151 145 62
154 147 60
155 149 64
146 140 58
148 144 53
148 143 59
138 132 53
151 144 59
145 139 58
141 135 49
147 141 56
154 147 61
146 141 59
145 140 54
147 141 59
142 136 49
144 138 48
143 137 51
144 137 51
145 140 59
139 134 51
143 138 54
147 141 57
135 130 42
142 137 56
147 141 54
135 128 60
125 121 32
144 138 52
133 129 48
132 128 49
137 137 39
146 145 53
139 141 41
144 145 47
143 150 32
147 155 32
145 155 28
153 164 34
156 170 25
157 170 22
162 177 11
158 175 11
161 179 0
163 181 11
163 183 0
170 190 0
166 187 0
170 189 0
165 183 0
171 192 0
170 190 0
164 185 0
169 190 0
171 191 0
170 191 0
167 189 0
171 194 36
175 198 51
172 195 44
173 195 51
172 195 25
174 197 44
172 194 44
176 198 62
172 195 25
174 197 36
173 197 51
171 195 36
173 195 57
176 198 67
176 198 76
171 193 67
175 198 62
173 196 51
175 198 51
172 195 62
172 196 44
175 198 62
175 198 84
176 198 72
177 199 72
175 197 72
174 198 67
174 196 67
173 195 57
173 196 44
174 196 72
177 199 95
175 197 72
176 198 84
177 199 80
173 195 80
176 197 72
176 197 92
181 202 95
168 192 44
176 198 80
179 201 95
175 197 67
178 199 88
177 199 84
173 196 62
171 194 62
171 193 72
176 198 76
172 195 80
176 198 72
175 197 88
174 196 62
169 192 57
175 198 67
177 199 62
174 196 67
178 200 80
173 195 76
169 193 25
171 193 67
174 196 67
173 196 44
170 192 57
173 196 62
171 195 51
170 193 36
171 194 44
169 192 25
170 193 51
171 193 44
170 193 36
173 195 67
169 192 62
171 194 44
170 192 36
171 193 44
168 190 44
168 191 0
170 193 36
168 192 0
171 193 44
165 188 51
147 171 67
126 153 121
71 104 145
65 100 153
62 97 145
61 97 150
62 97 152
61 97 158
62 97 162
61 97 159
62 98 165
62 98 167
61 96 151
61 97 157
62 98 159
61 97 160
61 96 156
61 98 160
61 97 158
61 97 163
62 98 161
61 97 159
62 99 168
61 97 162
62 98 166
62 98 166
61 97 164
61 98 169
61 97 164
63 99 168
61 98 172
62 98 169
62 99 171
61 98 164
62 98 162
61 98 162
62 98 167
62 98 162
63 99 169
62 98 169
61 98 171
62 99 171
61 97 164
62 99 176
62 99 168
62 98 167
62 98 168
62 98 168
61 98 163
61 98 167
62 98 165
62 98 169
61 98 169
62 98 169
62 99 176
62 98 168
61 98 167
62 99 169
62 98 170
62 99 170
62 99 173
61 97 162
62 99 173
61 97 163
62 99 171
62 99 169
61 98 166
62 98 169
61 98 164
61 98 170
62 99 173
62 98 167
61 97 164
62 99 171
62 99 172
62 99 167
62 98 169
62 98 164
61 98 169
62 98 170
62 98 172
63 99 170
62 99 171
62 98 167
63 99 172
62 98 169
62 99 169
62 98 170
61 97 165
61 98 162
62 98 163
62 98 170
62 99 169
62 99 171
62 98 166
62 98 162
62 99 174
62 98 170
62 98 167
61 98 168
62 99 170
62 98 170
61 97 162
62 99 169
63 99 167
62 98 165
63 99 172
62 98 166
63 99 171
62 99 172
63 99 171
62 98 168
62 98 170
61 98 168
62 99 172
62 99 169
62 98 167
61 97 160
62 98 164
62 98 169
62 98 167
62 98 166
62 99 170
62 98 167
62 98 166
61 97 158
62 98 166
62 99 168
61 97 161
62 99 168
62 98 164
62 98 164
63 99 167
62 99 166
62 98 165
63 99 164
62 99 172
62 98 170
62 98 165
62 98 164
62 98 164
62 98 157
62 99 166
62 98 166
62 98 164
63 99 166
62 98 161
62 98 160
63 99 163
61 97 159
62 98 161
62 97 158
62 98 165
62 98 157
61 97 160
61 97 154
62 98 160
63 99 166
63 99 167
63 99 167
62 98 163
61 96 151
62 98 161
62 98 160
61 96 158
62 97 159
62 97 161
61 97 161
62 97 162
61 97 157
61 95 154
62 97 156
62 97 154
61 95 151
60 95 147
61 96 155
60 95 151
60 93 141
59 92 143
57 89 136
60 86 129
67 81 85
70 76 53
83 84 19
69 71 24
66 68 26
73 74 20
82 83 29
74 75 25
81 82 27
79 80 25
90 89 27
88 88 20
91 92 32
86 86 27
98 98 41
96 96 42
96 97 36
93 94 37
96 96 27
109 107 39
97 97 37
109 107 46
106 106 46
118 116 43
116 114 47
97 98 30
115 115 39
105 105 34
128 125 52
125 123 55
118 117 41
121 119 47
137 132 56
130 127 55
129 126 56
127 125 48
134 131 55
137 134 53
135 133 48
136 132 55
137 133 53
133 130 57
139 135 51
139 136 56
146 140 61
147 142 62
137 134 51
144 139 61
143 139 63
145 140 57
147 141 62
151 146 64
150 145 58
142 137 57
148 143 56
151 146 64
148 144 61
148 143 63
146 142 54
151 146 55
150 145 54
148 143 60
160 154 70
151 144 60
149 144 53
150 144 60
156 150 60
149 145 51
156 149 61
146 141 53
152 147 53
157 150 65
156 149 65
153 147 58
150 143 60
153 148 61
143 137 58
151 146 57
147 142 53
149 144 52
145 140 61
155 148 67
152 145 60
147 142 59
155 148 61
152 146 64
148 142 53
149 143 54
141 136 47
148 144 48
148 142 60
144 138 56
145 139 52
149 144 56
145 139 59
145 140 52
145 139 60
140 134 49
141 136 49
133 128 37
145 138 56
146 140 58
139 135 47
143 137 53
134 129 49
136 132 47
141 136 51
132 127 42
130 127 36
131 131 37
138 136 42
143 144 41
133 137 39
148 152 36
140 144 36
148 153 39
151 163 19
150 164 11
157 169 28
160 174 19
160 177 11
158 174 0
165 184 11
166 182 0
163 179 0
168 188 0
170 190 0
166 186 0
163 182 0
167 186 0
165 182 0
167 186 0
167 187 0
169 192 0
168 187 0
169 188 0
174 196 44
172 195 44
174 197 57
175 197 62
174 197 44
171 195 44
174 197 57
169 192 44
174 197 51
173 196 57
171 194 44
175 196 44
175 199 57
173 195 57
171 194 72
176 198 76
173 197 57
176 199 67
177 199 67
176 199 72
172 195 44
172 194 51
179 201 92
175 198 67
172 195 62
175 197 72
176 199 80
175 198 76
175 197 88
177 199 92
174 195 67
179 201 88
175 196 76
177 199 92
176 199 88
174 197 62
174 196 72
177 199 95
175 197 80
176 199 80
180 202 105
174 197 67
175 197 84
179 200 102
176 198 88
181 202 99
177 199 84
181 203 99
180 201 95
180 202 99
174 195 99
176 198 76
177 199 95
175 197 99
180 201 105
170 193 72
172 196 51
174 196 72
176 198 80
176 198 76
172 194 72
171 194 57
172 194 62
170 194 44
170 192 67
174 196 44
166 188 36
165 188 25
168 190 44
171 194 57
171 193 67
166 189 36
172 195 36
170 192 36
175 197 44
175 198 62
165 187 44
172 195 51
168 191 25
167 190 0
171 193 44
159 183 57
164 186 31
155 178 51
117 144 107
75 107 144
73 106 153
67 101 150
65 100 152
62 98 158
62 97 154
60 97 160
61 97 155
62 98 163
62 98 161
62 99 167
61 97 159
61 97 159
62 97 157
62 98 163
62 98 164
61 98 168
61 97 158
62 98 164
62 98 165
61 98 166
61 98 167
62 98 163
61 97 163
61 98 166
62 98 165
61 97 163
61 97 157
62 98 167
63 99 169
62 98 165
62 99 172
62 98 170
62 98 164
62 98 162
61 97 165
61 97 164
62 98 165
62 99 172
62 98 169
62 98 166
61 98 169
62 99 175
60 97 167
62 98 167
62 99 172
61 98 166
62 98 168
61 97 165
61 98 164
61 98 164
62 99 171
62 99 166
61 97 164
62 99 172
62 99 168
62 98 165
61 98 167
63 100 174
62 98 171
62 98 168
61 98 166
62 99 168
62 98 170
62 99 168
62 98 166
62 99 173
62 98 171
61 97 163
61 97 164
61 97 166
61 98 167
62 99 167
62 98 166
62 98 167
62 98 167
62 98 161
62 98 163
62 98 167
62 98 170
63 99 175
62 99 169
62 98 166
61 98 170
62 98 166
62 98 165
61 97 164
62 98 170
62 99 172
61 98 165
63 99 171
63 99 170
62 99 167
62 98 168
62 98 172
63 99 172
62 98 167
62 99 168
62 99 171
61 97 155
62 98 167
62 99 168
63 99 172
62 98 173
63 99 170
62 99 167
62 99 169
62 98 165
62 97 162
63 99 171
62 98 164
62 98 165
62 99 175
62 98 167
62 99 169
61 98 166
63 99 170
62 99 172
63 99 164
62 99 169
62 99 169
62 98 162
61 98 160
62 99 169
61 98 165
63 99 170
63 99 171
62 98 164
62 98 158
62 98 165
62 99 167
63 99 167
62 99 166
62 98 161
62 98 162
62 98 159
61 97 159
63 99 170
63 99 165
62 98 162
61 98 161
62 98 158
61 98 159
62 99 166
61 97 156
62 98 163
62 98 165
61 97 158
62 98 161
62 98 161
62 98 158
62 98 161
62 98 164
61 97 162
63 99 163
61 97 159
61 98 164
61 97 156
62 98 163
60 96 153
61 97 154
62 98 158
61 96 155
61 97 165
61 96 155
62 97 161
61 96 154
62 97 152
60 96 157
61 96 148
61 95 151
60 95 151
61 96 154
60 94 147
61 95 147
59 93 144
60 94 144
61 94 145
70 89 105
78 90 87
77 83 56
79 80 24
83 83 27
81 79 20
71 73 21
85 86 26
79 79 21
88 89 26
83 84 25
90 89 20
92 91 33
82 85 24
95 95 33
81 83 32
102 101 41
100 99 37
101 101 42
101 100 32
102 103 27
108 108 37
111 110 41
93 96 45
112 111 46
115 113 40
113 111 42
116 114 49
117 114 55
126 122 46
129 126 48
119 117 48
126 123 56
131 128 48
118 117 41
125 121 46
123 119 51
133 130 46
134 132 51
142 139 55
131 127 55
143 137 57
137 134 54
135 133 49
137 133 43
142 136 55
143 138 55
143 140 54
148 143 62
136 132 57
141 135 56
143 138 56
146 142 61
143 139 53
149 143 62
151 145 62
148 143 61
141 135 56
144 139 56
150 144 53
146 141 55
150 144 65
155 149 71
149 145 52
147 141 58
151 146 58
147 142 54
151 145 61
159 152 68
148 143 52
157 152 65
156 150 65
154 148 56
152 147 58
155 149 59
146 140 56
153 148 59
156 148 63
142 137 47
144 140 51
153 147 63
151 145 52
144 140 47
148 141 54
145 139 58
141 136 47
134 130 49
153 146 63
146 139 59
144 138 52
144 139 51
159 152 70
153 147 59
143 136 60
141 136 47
144 139 51
143 138 44
142 137 53
142 137 49
134 130 41
136 130 48
141 136 52
138 133 49
149 142 56
139 133 45
139 133 51
129 124 51
131 127 36
137 134 45
133 133 42
126 126 34
143 144 44
146 149 42
135 140 22
145 151 30
146 151 32
151 157 34
151 161 30
156 169 22
153 166 19
153 169 16
164 180 22
167 184 0
167 185 0
171 191 0
167 185 0
168 188 0
171 190 0
169 188 0
170 189 0
169 189 0
168 187 0
167 189 0
166 186 0
169 187 0
167 187 0
168 187 0
171 194 25
173 196 51
173 196 44
174 196 57
173 196 44
177 199 57
172 195 36
174 197 57
172 195 44
173 196 57
176 198 76
175 198 72
172 195 44
176 199 80
173 197 57
174 197 57
173 196 67
176 199 72
173 196 62
182 203 108
172 195 67
179 201 84
178 199 88
176 197 88
178 200 95
179 201 92
178 200 92
179 200 95
177 199 92
179 200 117
174 196 80
179 201 88
176 198 95
177 199 84
183 204 111
177 199 99
181 202 99
177 199 80
181 202 108
181 202 111
176 198 84
177 199 105
176 198 84
178 200 92
174 197 72
176 198 95
176 197 95
179 201 102
175 197 95
177 199 84
180 202 105
175 196 88
168 191 72
180 201 95
175 198 88
172 194 92
176 198 88
176 198 84
171 193 72
175 197 72
171 193 67
174 195 80
176 198 76
174 196 76
173 195 51
175 197 72
171 194 57
168 191 57
175 197 62
172 194 67
163 186 36
170 193 51
171 194 57
165 188 51
171 194 62
169 192 44
166 189 44
168 190 62
169 191 44
167 190 51
166 189 40
165 188 36
163 187 36
151 175 72
122 147 115
81 112 145
62 97 143
60 96 150
68 101 150
65 100 156
67 102 151
66 100 156
61 97 159
61 96 157
62 98 164
61 98 160
61 97 161
61 98 165
61 97 160
62 98 161
62 98 165
61 97 162
62 98 168
61 97 163
61 98 170
61 97 161
61 97 158
62 98 166
61 98 169
62 98 163
62 98 174
62 98 166
61 97 161
62 98 168
61 97 156
62 98 167
62 98 167
63 99 173
61 98 165
61 97 166
61 97 166
61 97 161
62 98 169
62 98 167
61 97 165
61 97 163
61 97 162
63 99 175
63 99 174
61 98 168
62 98 171
61 98 173
62 98 160
62 99 171
62 99 172
61 97 166
61 98 166
62 98 166
62 98 166
62 98 169
61 97 165
62 98 164
62 98 169
63 99 168
62 98 169
62 98 168
61 98 164
62 99 172
62 99 175
62 98 168
62 98 164
62 98 169
62 98 167
62 98 167
62 99 173
62 98 169
62 99 171
62 98 166
62 99 171
62 98 171
61 97 161
62 99 166
63 100 174
62 98 169
61 97 159
62 99 172
62 98 169
61 98 163
63 99 172
63 99 174
62 98 166
61 97 161
62 98 169
63 99 173
63 99 171
62 99 169
62 99 172
63 99 167
62 98 165
62 98 165
62 99 168
62 98 169
62 98 170
62 98 171
61 98 166
62 98 164
62 99 166
62 98 166
62 98 162
61 97 158
62 98 168
62 99 170
62 98 159
62 99 167
62 99 172
62 99 165
63 99 170
62 99 166
63 99 171
62 98 167
62 99 167
62 98 169
63 99 167
62 98 165
62 98 164
61 96 154
62 98 164
63 99 166
62 98 164
62 98 164
62 99 168
62 98 166
62 99 171
63 99 172
62 99 170
63 99 168
62 99 167
62 98 166
62 98 159
62 98 163
62 98 163
61 98 164
62 98 167
62 98 165
62 98 165
61 97 161
62 98 161
62 98 163
61 97 159
61 97 156
62 98 164
61 97 162
63 99 166
62 98 161
62 98 167
63 99 168
61 97 154
62 98 160
62 98 163
62 98 167
62 98 161
61 96 156
62 98 159
62 98 167
61 96 149
61 97 159
62 98 158
61 97 158
61 97 159
61 96 157
62 97 159
61 96 163
61 96 152
60 95 156
62 97 154
60 94 149
60 95 147
60 95 150
60 95 145
61 95 150
59 93 142
59 93 142
57 90 136
63 86 115
74 85 90
74 77 45
78 77 17
78 77 13
62 65 17
80 81 23
86 85 23
81 81 20
78 80 29
79 80 23
83 84 27
88 88 28
81 83 32
101 101 33
96 96 33
94 93 36
105 104 43
103 104 32
102 102 34
102 102 39
113 111 49
89 90 30
91 91 33
101 101 35
108 107 43
109 108 40
117 114 48
123 120 51
122 119 45
130 126 49
128 125 51
130 126 53
119 118 44
123 121 45
129 126 52
124 120 40
126 122 51
130 127 49
124 121 40
139 135 59
129 126 50
136 132 53
135 132 58
129 126 45
139 135 50
142 138 57
144 140 55
142 138 54
141 138 54
133 129 37
145 140 59
146 141 58
141 138 49
148 144 57
151 145 62
152 147 57
146 141 61
147 141 63
148 143 57
155 149 62
148 144 57
141 137 54
141 136 50
148 143 56
149 143 61
147 142 57
151 145 52
149 143 56
155 150 59
147 141 56
145 141 48
143 138 53
153 147 60
150 145 53
157 150 63
155 149 57
142 137 48
140 136 51
149 143 59
149 145 47
139 134 52
144 138 58
151 146 58
148 143 52
149 144 53
145 139 56
150 145 53
144 140 52
140 135 47
145 139 45
140 135 52
147 141 54
137 132 49
140 135 49
144 139 54
145 139 53
139 134 47
139 134 52
142 138 53
134 128 48
136 131 44
135 131 48
128 124 39
128 123 39
131 126 42
139 135 47
144 142 51
131 129 45
139 137 32
140 142 34
141 142 36
130 133 30
144 149 28
147 155 30
146 155 30
148 157 22
152 164 22
163 175 25
158 174 19
159 175 0
163 179 19
163 180 22
165 185 0
168 188 0
166 183 0
166 185 0
163 179 0
163 180 0
169 188 0
166 187 0
168 188 0
168 186 0
170 189 0
170 191 0
170 189 0
167 188 0
171 193 44
172 195 51
173 197 44
173 196 25
169 192 51
176 199 51
174 197 44
174 197 51
175 198 51
173 196 51
174 197 72
177 200 80
177 199 62
175 198 62
172 195 62
177 200 76
177 199 92
173 196 76
176 199 92
177 200 76
179 201 92
175 197 76
178 199 99
176 199 95
182 203 111
179 200 108
174 196 92
173 196 72
177 199 95
180 202 95
182 203 117
180 202 108
179 200 117
178 200 102
184 204 122
181 202 105
178 199 111
176 198 84
178 200 108
179 201 102
179 201 108
177 199 95
180 202 108
179 201 117
175 197 102
184 204 135
177 198 80
183 203 105
181 203 102
180 201 114
183 204 120
177 199 99
184 205 120
174 197 67
175 197 99
178 199 95
171 194 72
177 198 102
172 195 67
175 196 80
178 199 95
175 197 80
169 192 62
176 197 84
172 195 80
175 197 72
174 196 76
175 197 67
169 191 67
169 193 51
174 196 80
170 194 36
175 197 72
170 194 57
171 195 44
170 193 57
167 189 67
166 190 57
166 189 25
170 194 51
167 189 44
160 182 76
160 183 70
145 168 74
123 148 108
83 112 139
74 105 151
70 103 136
69 102 151
68 101 154
73 106 157
63 99 156
61 97 156
62 98 158
61 97 163
61 97 161
62 97 155
60 96 154
62 98 161
60 96 154
62 98 160
62 98 162
61 97 157
61 98 162
62 99 171
61 97 162
62 98 164
61 98 164
61 97 162
62 99 169
61 98 162
62 98 166
61 97 162
62 98 173
62 98 163
61 98 167
60 96 159
61 98 169
62 98 171
61 97 162
61 98 166
62 98 166
61 98 168
62 98 168
62 99 168
62 98 164
62 98 167
61 97 160
61 98 170
62 99 176
62 98 167
62 99 175
62 98 166
62 99 170
61 98 167
61 97 162
61 98 169
61 98 167
62 99 174
62 98 166
62 98 175
62 98 165
61 98 171
62 98 165
62 98 171
62 99 171
62 98 169
61 97 166
62 98 168
62 98 167
61 98 164
63 99 170
62 98 163
62 98 168
62 98 171
61 98 166
62 98 165
63 99 170
62 98 169
62 99 168
62 98 168
62 99 168
62 98 169
61 97 158
61 97 160
62 98 163
62 98 163
62 98 166
62 98 170
63 99 171
63 99 171
63 99 166
62 98 167
63 99 174
62 98 167
62 98 168
62 99 168
62 98 164
62 98 160
62 98 166
63 99 170
61 98 165
62 99 171
62 99 164
62 99 169
62 98 166
62 98 164
62 98 167
61 98 165
63 99 167
62 98 166
62 98 165
63 99 169
62 98 166
62 98 163
62 98 172
62 99 167
62 98 166
62 98 160
62 98 163
62 98 168
61 98 166
62 98 165
62 98 165
62 99 168
62 98 164
62 98 168
62 98 164
62 98 166
62 98 163
62 98 165
62 98 161
62 99 169
62 98 164
61 98 164
62 99 166
62 98 161
62 98 163
62 98 166
62 99 171
62 98 160
62 98 162
62 98 164
61 98 160
63 99 168
62 98 164
62 98 164
61 97 157
62 98 164
62 98 160
62 98 161
62 98 163
62 98 164
62 97 161
62 98 161
62 98 159
62 98 163
62 98 165
61 97 155
62 98 164
62 98 158
62 97 160
63 98 159
62 98 161
61 97 157
61 97 159
62 97 157
61 97 156
62 98 151
61 96 155
61 96 152
61 97 154
61 96 150
62 97 160
62 98 162
61 96 152
60 94 147
60 94 140
61 96 151
60 94 144
60 94 141
58 91 130
58 91 137
63 86 119
78 89 79
78 85 67
78 80 37
70 70 10
86 86 12
71 73 17
73 74 12
79 79 25
81 82 27
80 80 18
91 90 24
78 79 29
95 96 32
94 94 28
102 101 32
92 91 29
93 93 37
94 94 28
101 101 38
90 92 30
106 104 38
102 102 29
114 111 42
112 110 40
110 110 27
113 111 45
117 115 44
119 117 43
124 122 45
120 118 44
124 122 43
122 119 51
123 120 44
126 123 45
123 119 48
135 132 45
132 128 57
137 132 61
130 126 45
135 131 47
132 129 42
142 137 46
136 133 53
130 126 48
133 129 45
131 128 53
145 141 57
142 138 55
135 130 51
142 138 53
145 141 56
139 134 51
145 141 51
150 144 57
149 144 58
142 138 57
145 140 52
144 139 51
143 139 53
152 147 56
150 145 51
153 148 60
143 138 57
155 149 59
148 143 48
145 140 54
147 142 57
149 144 52
146 140 49
144 140 47
148 141 62
144 139 53
152 147 53
147 141 48
146 140 59
153 147 51
140 134 54
150 144 59
148 143 53
147 141 59
153 148 51
150 144 53
144 139 45
140 134 41
144 140 45
141 136 47
151 145 52
137 133 44
143 137 49
142 137 49
147 141 54
151 145 58
150 144 54
143 138 56
147 140 59
146 139 60
134 129 44
138 133 49
145 140 51
153 147 61
125 121 36
136 131 47
134 128 42
136 131 42
136 131 42
131 126 51
139 137 44
131 128 37
140 139 32
142 145 36
140 144 37
135 138 37
146 155 28
151 160 28
153 162 19
156 170 28
153 163 19
163 178 25
158 171 19
158 172 11
163 179 11
164 180 0
168 187 0
168 187 0
163 181 0
167 187 0
166 185 0
161 180 0
169 187 0
170 190 0
166 185 0
170 190 0
169 190 0
161 181 0
169 189 0
167 186 0
175 198 62
175 197 57
172 195 51
174 197 51
174 198 62
175 198 57
177 200 57
175 197 76
172 195 67
174 197 57
179 201 95
174 196 76
176 198 72
176 198 72
176 199 80
175 198 67
179 201 102
179 201 92
181 202 117
179 201 99
182 203 111
183 205 111
180 201 105
180 202 117
181 202 105
176 197 95
177 199 88
181 203 108
179 201 99
187 207 142
182 203 122
186 206 133
180 201 111
181 203 102
180 201 120
182 203 111
183 204 122
183 205 120
181 201 125
183 203 135
183 204 133
183 205 128
185 206 114
182 203 120
177 200 92
179 200 111
177 199 95
173 194 95
183 205 120
182 202 117
180 202 102
180 201 108
178 200 88
181 202 120
185 206 120
182 203 108
178 200 99
180 201 111
179 200 111
182 204 105
176 198 95
176 199 92
179 200 111
174 196 76
177 198 102
172 194 76
177 199 80
180 201 105
171 194 84
172 194 57
175 198 67
170 193 57
171 192 72
175 197 62
172 195 51
171 193 76
168 191 25
173 195 76
166 189 57
165 187 47
166 189 60
158 179 70
159 181 54
141 164 99
125 149 121
87 116 144
72 105 143
69 101 145
74 106 152
74 106 149
67 101 154
70 104 152
66 101 151
62 98 149
64 99 155
64 99 163
62 98 163
64 99 155
60 95 154
61 97 160
61 97 159
60 96 156
61 97 159
61 97 160
61 98 169
61 97 160
61 97 160
60 96 158
62 99 166
62 98 164
62 99 168
62 98 166
61 98 167
62 99 167
62 98 168
62 99 170
63 99 168
62 98 161
62 98 162
61 97 165
61 98 164
62 98 163
62 99 168
62 98 166
61 96 165
61 97 167
62 99 169
62 98 168
61 98 163
62 99 170
62 98 168
62 98 171
62 98 167
62 98 164
62 98 166
62 99 172
62 99 172
62 98 171
62 99 171
62 98 167
62 98 165
62 98 171
62 98 170
62 98 166
61 97 164
63 99 167
62 98 166
61 98 166
62 99 167
62 99 175
61 98 170
62 99 171
62 98 166
61 98 163
62 99 168
60 97 166
62 99 172
62 98 166
62 98 160
62 99 170
62 98 165
62 98 168
62 99 168
62 98 169
62 99 174
62 99 169
62 98 169
61 97 159
62 98 166
63 99 167
62 98 169
62 99 170
61 98 166
62 99 166
62 98 170
62 99 169
62 98 164
62 98 165
62 98 168
62 99 168
62 98 165
62 99 170
62 98 165
62 99 171
61 98 165
62 98 165
62 98 167
62 99 170
63 99 169
61 97 160
62 98 169
62 98 169
62 98 164
63 99 173
62 99 166
62 99 169
62 99 167
62 99 169
62 98 163
62 98 162
62 98 164
61 98 163
62 98 163
62 98 162
62 98 166
61 97 160
62 99 169
61 97 159
61 98 165
62 98 163
63 99 170
62 99 169
62 98 166
62 99 171
62 98 160
62 98 161
62 99 167
62 98 161
63 99 166
62 98 163
62 98 160
61 97 159
61 97 156
62 98 160
63 99 165
62 99 172
62 98 163
62 98 163
62 98 167
62 99 165
62 98 162
62 98 165
62 98 161
62 98 161
62 98 164
61 97 155
62 97 156
62 98 159
62 97 159
62 98 155
62 98 162
61 97 154
61 97 163
62 98 160
62 98 160
61 97 156
61 97 154
61 97 156
61 96 149
61 96 154
61 96 153
60 95 147
61 96 156
60 95 146
59 93 144
61 96 150
60 95 147
61 96 157
59 93 144
60 95 148
61 95 145
59 92 137
57 90 135
64 89 123
75 91 105
64 71 59
75 78 22
80 81 16
81 79 20
79 80 14
70 72 21
84 83 23
88 87 25
93 91 30
89 88 25
77 77 21
92 91 32
99 97 27
87 88 30
92 92 27
105 103 35
106 105 34
101 100 40
98 96 34
104 103 38
107 106 44
102 101 32
108 108 34
109 107 33
110 110 44
118 116 50
113 112 42
112 112 40
114 113 37
119 117 50
127 124 36
126 123 45
134 131 50
119 118 41
128 125 51
117 113 45
131 127 52
135 130 52
130 126 48
133 130 46
135 130 51
132 129 52
135 130 52
135 131 61
139 135 54
145 141 52
141 136 45
144 138 56
144 139 51
130 126 50
131 128 46
143 138 60
145 140 59
146 140 60
144 139 46
144 140 56
153 147 57
152 145 58
147 142 53
136 132 42
146 141 48
148 142 51
148 142 61
144 139 52
144 138 51
150 146 53
146 140 59
146 141 45
146 140 57
149 144 57
149 143 51
143 139 53
152 146 56
143 138 51
147 142 53
147 142 45
148 142 56
146 141 51
141 136 53
145 140 45
151 145 58
147 142 49
148 142 47
142 138 44
140 135 51
143 138 42
145 140 48
145 140 49
144 139 51
139 133 51
144 138 49
140 135 47
141 135 44
141 136 49
135 130 47
138 133 41
141 136 57
143 137 52
139 134 44
143 136 45
134 129 34
135 130 48
129 126 36
134 130 45
139 138 37
129 126 39
134 134 39
137 139 34
133 136 22
150 155 34
150 153 39
143 150 28
151 160 19
155 165 22
152 164 19
148 160 19
165 180 16
161 178 19
155 170 11
159 177 0
160 178 0
167 184 0
171 189 0
167 185 0
168 187 0
168 187 0
168 188 0
166 184 0
169 188 0
168 186 0
167 186 0
168 188 0
167 186 0
165 185 0
169 188 0
174 197 57
175 198 62
174 198 62
177 199 72
172 195 51
179 201 88
177 200 72
179 200 80
177 200 92
178 200 99
174 196 72
171 194 76
177 199 80
181 203 105
180 202 102
178 200 92
181 202 95
176 198 92
178 199 92
182 203 122
179 201 88
186 206 120
180 202 111
182 202 122
184 205 111
184 205 128
183 205 122
182 204 114
184 205 137
181 203 111
183 204 122
185 205 122
180 202 122
190 211 147
183 204 142
186 206 140
186 206 130
187 207 130
183 203 114
188 209 140
182 203 117
188 208 153
187 208 142
185 205 133
182 203 122
183 204 130
183 203 133
187 207 137
188 208 140
183 204 128
183 203 128
180 201 114
185 204 135
184 204 120
184 205 117
181 202 117
184 205 122
179 200 120
188 208 130
176 197 99
181 202 125
173 195 105
181 201 105
178 200 99
179 200 108
174 197 88
179 200 105
176 197 84
175 197 92
175 197 84
175 196 84
174 196 76
171 193 72
174 197 76
175 197 76
171 194 57
165 188 36
171 194 76
169 191 62
169 193 54
160 183 72
156 179 76
152 176 84
148 171 95
126 150 122
80 111 155
81 111 151
80 110 134
69 103 152
66 100 151
64 99 162
63 99 156
65 100 156
66 100 161
64 99 153
64 99 152
65 100 157
61 97 154
63 99 164
61 97 154
63 99 162
61 97 157
61 96 150
61 96 158
61 97 163
62 99 168
61 97 159
62 98 157
62 98 168
61 97 163
62 98 158
60 96 158
61 97 163
63 99 170
61 97 167
61 98 168
62 98 169
62 99 169
62 98 167
61 98 173
60 97 167
61 97 163
61 97 162
60 97 167
62 98 167
61 97 159
62 98 166
62 98 168
62 98 166
62 98 165
61 98 168
62 98 164
62 99 171
62 98 166
63 99 174
61 97 163
63 99 170
61 97 165
62 98 170
62 98 168
61 97 159
62 98 168
62 98 171
62 99 170
62 98 164
62 98 169
62 99 171
62 98 171
62 99 169
62 99 174
62 99 173
63 99 170
62 98 159
62 99 172
61 98 164
62 98 165
61 98 165
62 98 167
61 98 167
62 99 173
62 99 171
62 98 165
62 98 171
62 99 172
63 99 170
62 98 166
61 98 168
61 98 164
62 98 166
62 99 167
63 99 172
61 98 163
63 99 171
62 98 171
62 98 165
61 98 168
61 97 165
62 98 165
62 99 167
61 98 162
62 98 167
61 98 160
61 98 166
62 99 169
62 98 165
62 98 164
63 99 171
61 98 170
62 98 166
62 98 161
62 98 164
62 98 165
62 99 170
61 98 166
62 98 163
62 99 170
62 98 167
61 98 167
62 98 167
62 98 164
62 99 174
62 99 166
63 99 167
62 98 171
62 99 166
61 98 162
62 99 168
62 98 166
62 98 163
62 97 163
63 99 168
63 99 169
62 99 170
62 98 167
62 98 164
62 98 166
62 98 165
62 98 163
62 98 164
61 98 164
63 99 168
63 99 168
62 98 164
62 98 163
62 98 161
61 98 164
62 99 167
62 98 160
62 97 155
62 98 157
62 98 160
62 98 164
62 98 155
63 99 167
61 97 153
62 98 162
61 97 160
61 97 154
62 98 159
62 98 164
62 98 159
61 97 161
61 98 162
62 97 160
60 95 148
60 96 158
62 97 159
60 95 146
61 96 142
62 98 154
62 97 160
60 95 144
61 96 146
61 96 155
61 96 159
60 96 156
61 96 148
61 96 149
60 94 140
59 94 143
60 95 150
59 92 138
58 90 136
65 90 120
72 84 90
76 81 51
76 77 15
84 83 12
68 68 14
79 80 21
69 70 18
88 87 16
98 97 15
85 84 29
90 90 25
91 90 26
97 96 27
92 90 36
90 88 35
85 87 22
100 99 25
108 106 38
92 92 26
106 105 28
113 111 33
102 99 29
105 105 34
104 103 35
114 111 36
108 107 39
117 114 46
125 122 37
105 103 40
121 118 38
125 122 36
117 114 43
118 115 41
127 124 35
126 122 44
128 127 43
125 121 45
131 128 41
127 124 43
127 124 45
127 125 44
126 123 47
132 129 48
143 138 57
132 129 48
135 131 51
139 135 47
135 131 53
144 138 60
138 135 47
137 134 48
143 139 47
143 138 54
146 140 52
146 142 56
146 142 50
147 141 56
142 137 53
137 132 55
152 146 53
142 137 53
149 144 53
140 135 47
150 143 54
148 143 54
151 145 53
145 139 54
145 140 57
146 142 48
146 140 56
139 135 44
145 139 49
135 130 49
141 136 51
137 133 41
148 142 53
145 140 49
151 145 54
149 144 53
144 139 47
150 144 60
148 142 49
147 141 57
149 143 59
154 148 60
144 137 52
145 140 54
142 136 45
142 137 51
144 138 53
141 136 45
140 135 47
145 138 54
139 133 44
141 137 49
137 132 37
128 124 39
134 128 52
126 123 41
134 128 42
134 130 39
137 131 42
133 130 47
132 126 44
131 127 41
134 131 41
136 134 34
138 139 28
139 139 37
150 155 37
148 154 22
146 152 34
149 161 16
150 160 25
155 168 16
151 164 19
156 170 16
159 174 11
152 169 11
160 176 0
163 178 11
167 186 0
167 186 0
169 187 0
166 185 0
167 185 0
167 187 0
167 186 0
170 190 0
169 187 0
167 186 0
167 186 0
168 188 0
168 187 0
166 184 0
170 191 0
175 198 72
175 198 57
174 196 76
176 198 57
175 198 62
178 200 92
180 202 92
178 200 95
177 199 80
182 203 128
180 203 92
177 199 102
177 199 105
179 200 102
176 198 88
182 203 114
184 204 111
184 205 125
179 201 105
181 203 120
177 198 108
180 201 114
187 207 142
181 201 114
182 203 130
184 206 133
181 202 114
179 200 108
184 205 130
190 210 149
190 209 144
182 204 120
187 208 133
189 209 147
187 207 140
185 206 135
188 208 144
186 206 149
184 205 135
189 210 147
187 207 142
191 211 159
183 203 122
185 205 140
189 209 142
189 209 155
187 207 147
186 206 142
187 208 135
185 206 140
187 207 135
181 201 117
180 201 122
184 205 130
184 205 128
187 207 135
181 201 120
185 205 133
184 205 120
179 199 114
180 202 117
177 198 95
184 204 114
180 201 105
183 204 120
174 195 99
182 204 114
175 197 92
181 202 120
180 201 120
175 196 99
170 194 62
177 199 88
177 198 88
167 189 67
176 197 76
172 195 80
173 195 67
171 194 60
165 187 78
162 183 78
157 180 82
150 173 92
142 165 78
125 150 118
82 112 149
83 113 144
85 115 150
68 102 163
71 105 151
67 102 159
65 100 149
69 103 156
66 100 149
61 96 151
62 98 162
67 101 153
61 97 162
60 96 152
60 96 155
61 97 159
61 97 158
60 96 158
62 98 161
61 97 161
61 97 159
62 98 168
62 98 164
62 98 169
61 97 158
61 97 159
62 98 167
61 97 161
62 98 165
62 98 169
61 97 164
62 99 172
62 98 167
61 97 164
61 97 162
60 97 161
60 97 164
62 98 165
61 97 166
62 98 166
61 98 170
62 98 168
62 98 169
60 97 162
61 98 166
62 98 167
61 98 167
61 98 167
62 98 162
61 97 160
62 98 161
61 98 166
61 97 159
62 98 168
61 98 169
62 99 168
61 97 161
62 99 171
62 98 170
62 98 169
61 97 165
61 97 167
62 99 167
61 97 166
61 97 168
62 99 169
62 99 168
62 98 167
62 98 165
61 98 165
62 99 169
62 98 169
61 97 165
62 98 168
62 98 164
62 98 166
61 97 166
62 98 168
61 97 167
61 98 164
62 98 167
62 98 167
62 98 166
61 97 164
61 97 164
62 98 163
63 99 171
63 99 167
62 98 169
62 98 164
62 98 163
62 98 169
62 98 166
62 98 167
63 99 170
62 98 167
62 98 167
62 98 167
62 98 164
62 99 166
62 99 171
62 98 169
61 97 159
62 98 164
62 98 166
61 97 162
62 98 163
63 99 169
62 98 163
63 99 169
60 97 159
62 98 169
62 98 168
62 98 164
63 99 171
62 98 164
61 97 156
62 98 167
63 99 170
63 99 170
61 97 154
61 97 163
63 99 165
61 97 157
63 99 167
62 98 165
63 99 165
61 97 162
61 97 161
61 98 160
62 98 169
62 98 157
62 98 164
62 98 163
63 99 165
62 98 161
62 98 167
62 99 167
62 98 161
61 97 152
61 98 163
62 98 165
62 98 158
63 99 164
63 99 171
62 98 165
62 98 157
62 98 159
62 98 163
62 98 158
61 96 148
62 98 160
62 98 165
62 98 162
62 98 161
62 98 158
62 98 161
61 96 155
62 98 158
62 98 158
61 97 160
61 97 154
62 98 158
61 96 156
61 96 148
60 95 149
61 97 153
60 95 146
60 95 150
60 95 147
60 95 151
61 95 150
60 95 155
60 94 146
59 93 141
58 92 139
59 93 141
61 95 148
70 92 124
62 77 77
82 87 64
84 85 23
77 77 14
79 80 18
88 87 19
83 83 20
91 89 17
93 93 14
87 87 18
96 93 24
94 92 25
81 82 22
99 97 28
99 98 25
95 95 28
89 89 30
97 95 29
105 103 32
105 103 34
88 90 28
104 103 30
95 94 35
102 102 34
107 106 35
111 109 32
120 116 47
108 106 39
118 117 33
130 126 50
118 114 48
133 127 49
127 124 46
128 125 52
128 125 46
126 123 47
122 118 45
120 118 40
130 128 50
139 134 50
125 122 47
129 128 41
128 126 42
132 129 46
140 135 53
139 135 51
130 127 45
140 134 53
133 130 39
141 136 51
138 132 51
145 140 43
148 143 55
148 143 45
144 140 47
142 136 51
150 143 58
145 141 47
142 136 48
146 141 49
139 134 45
142 138 51
139 133 42
149 143 56
137 132 50
146 140 54
140 135 48
144 138 45
147 141 55
147 142 44
149 143 59
144 139 49
145 139 51
132 128 41
144 139 58
140 135 37
134 129 44
142 138 37
143 137 52
150 145 53
143 138 45
143 138 51
138 131 45
134 128 48
138 133 42
143 137 51
145 140 44
138 133 48
139 134 41
141 135 51
138 134 39
137 131 45
136 131 42
133 129 42
144 138 49
143 137 49
135 129 45
134 129 36
126 122 28
133 128 48
123 118 37
137 131 49
129 125 39
128 126 30
135 133 36
129 129 34
141 140 47
143 145 42
149 151 39
146 153 19
149 157 19
147 157 16
154 166 22
149 160 22
150 165 11
157 170 11
160 173 25
162 176 16
163 180 11
161 179 11
162 181 0
168 187 0
166 186 0
160 177 0
164 182 0
166 184 0
169 188 0
166 185 0
168 185 0
166 185 0
171 192 0
166 185 0
168 189 0
166 186 0
168 186 0
163 182 0
176 199 72
179 200 95
175 199 62
177 199 76
176 198 95
177 199 80
177 199 80
181 203 102
184 205 122
177 199 76
181 202 108
185 205 125
179 201 111
182 203 105
181 202 117
183 204 114
180 201 114
183 204 120
187 208 140
181 202 117
187 207 135
185 206 125
187 207 151
185 205 130
181 202 120
188 209 137
187 207 142
187 207 137
190 210 153
186 206 133
191 211 159
193 212 163
186 206 140
187 207 147
190 210 144
192 211 161
191 211 159
188 207 149
184 205 140
185 205 140
189 209 147
186 206 142
190 211 155
190 210 151
189 209 144
192 211 163
188 208 144
190 210 157
185 206 137
190 210 153
190 210 161
182 203 130
184 204 128
191 210 151
184 205 133
187 207 151
185 206 128
189 209 144
187 207 155
189 209 144
187 208 133
182 203 120
183 204 133
187 207 133
183 203 135
176 196 92
181 202 122
183 204 114
182 202 114
174 195 99
179 200 111
173 195 92
172 194 92
176 197 105
178 199 99
169 192 76
172 193 72
169 191 72
173 194 103
162 184 94
147 171 95
155 178 108
153 176 97
147 170 107
117 143 125
89 119 144
89 117 144
89 118 154
74 106 150
78 109 154
68 102 150
62 97 154
66 101 164
63 98 159
64 99 150
60 95 151
64 99 156
61 97 156
64 99 162
61 97 151
62 98 166
64 100 161
61 97 157
62 98 165
61 98 163
61 98 160
61 97 157
62 98 168
61 97 153
61 97 160
61 97 164
61 97 162
61 97 163
61 97 161
61 97 158
61 97 165
61 98 163
62 98 168
61 97 165
62 98 166
62 98 170
62 98 167
62 98 160
61 97 163
62 98 166
62 98 167
61 98 165
61 97 166
61 98 169
63 99 170
62 98 166
61 97 156
61 97 160
62 99 173
62 98 163
61 97 164
62 98 169
61 98 166
61 98 174
61 97 165
61 98 165
62 98 158
62 98 169
61 98 168
61 98 163
61 98 170
63 99 172
62 98 165
62 98 162
62 99 171
62 98 167
63 99 171
62 98 168
62 99 172
61 98 167
62 98 169
62 98 167
61 97 160
62 98 168
63 99 167
61 97 163
62 99 169
62 99 174
61 98 167
62 99 167
62 99 172
62 99 170
63 100 171
62 98 167
60 96 156
62 98 167
61 98 164
62 98 162
62 98 161
61 98 165
62 98 165
62 98 167
62 98 167
61 98 165
62 98 167
62 98 163
62 99 168
62 99 169
63 99 171
62 98 165
62 98 163
62 98 168
61 96 153
62 98 166
62 98 164
62 98 165
62 98 166
61 96 156
62 99 171
61 98 166
62 98 165
62 98 164
62 98 161
62 99 169
61 97 156
62 98 165
62 98 160
62 98 164
61 98 160
62 98 160
62 98 163
62 98 165
62 98 166
61 98 164
62 98 161
63 99 165
63 99 160
61 97 158
63 99 172
62 98 168
63 99 170
62 98 166
62 98 162
62 99 169
63 99 165
62 98 162
62 98 163
62 98 167
61 97 163
61 97 158
62 99 165
63 99 169
62 98 161
62 98 166
62 98 160
62 98 161
61 97 155
61 97 161
62 98 163
62 98 161
61 97 153
62 97 155
61 97 160
61 97 153
62 98 162
61 97 159
63 99 163
61 97 157
62 98 161
62 98 156
62 98 164
62 98 163
61 97 154
61 96 152
61 96 148
60 96 152
61 96 149
62 97 151
60 95 148
60 95 145
61 96 151
60 94 142
61 96 150
61 95 147
61 96 148
60 94 146
59 93 138
59 93 137
64 88 111
68 82 93
82 84 48
88 89 34
81 79 6
80 78 16
84 84 14
84 84 16
81 80 17
76 76 20
96 95 17
88 88 30
85 84 20
92 90 18
92 92 16
92 91 27
97 97 34
92 93 24
91 90 29
96 95 24
91 91 29
101 100 31
105 104 36
103 102 39
112 109 38
114 111 31
106 105 41
118 115 37
120 117 39
115 112 39
128 124 43
120 117 45
126 123 45
115 112 39
118 115 37
121 118 38
129 126 37
127 125 41
121 119 39
134 129 60
127 124 38
130 125 51
134 130 47
139 135 51
124 121 42
133 129 44
127 124 43
134 130 48
143 137 47
149 143 54
134 130 45
144 139 54
135 131 48
139 133 42
141 137 43
145 139 52
131 126 40
142 136 53
141 136 52
138 134 38
149 143 53
144 140 45
139 135 48
139 135 45
131 128 36
146 141 45
146 141 54
147 142 56
142 137 44
145 139 54
144 138 45
151 145 56
144 139 57
136 130 44
148 142 52
150 144 53
144 138 53
149 144 54
140 134 47
149 143 57
148 142 53
140 134 45
134 130 44
135 131 45
145 140 45
142 138 42
144 139 51
145 141 47
142 136 51
145 140 45
139 133 49
138 133 42
128 124 34
130 126 34
139 133 51
142 135 45
140 136 42
139 133 47
136 131 47
135 129 44
141 134 49
139 133 44
131 127 28
143 139 47
132 132 34
134 133 34
140 139 41
136 140 32
144 144 32
141 149 28
140 147 32
147 156 19
142 149 19
147 157 28
145 158 11
156 168 22
151 163 0
163 178 11
163 181 0
166 181 0
166 186 0
167 186 0
167 186 0
166 185 0
168 188 0
162 177 0
169 186 0
167 187 0
167 186 0
166 186 0
166 184 0
167 185 0
165 183 0
168 188 0
166 185 0
167 186 0
166 186 0
177 200 92
173 196 72
179 201 88
174 197 76
184 205 120
179 201 99
185 206 125
182 204 114
184 206 120
185 206 130
179 201 99
179 201 105
185 206 125
180 202 108
191 210 151
178 201 99
185 205 120
187 208 142
191 211 155
185 206 128
186 206 130
188 208 142
195 214 179
189 209 151
187 208 135
190 210 163
187 208 137
187 207 147
191 210 159
190 210 147
192 211 165
191 211 159
192 212 161
190 210 159
192 212 167
196 215 177
196 214 182
187 206 153
195 214 167
191 211 157
192 212 161
192 212 165
188 208 142
191 211 155
194 213 163
193 212 179
193 212 167
187 206 147
190 210 159
195 214 167
191 211 157
187 207 151
191 211 163
190 210 161
188 208 147
187 208 144
190 209 157
193 212 167
184 204 147
187 207 151
187 207 142
188 208 151
191 210 147
183 204 137
187 208 140
182 202 117
178 198 117
183 204 120
178 199 117
185 206 137
181 202 111
173 194 102
178 199 122
181 202 114
179 200 102
172 193 92
173 195 88
167 190 57
169 191 72
164 186 117
151 175 117
146 169 102
136 160 102
135 158 117
114 140 120
88 116 151
90 118 147
80 110 149
86 115 147
77 109 153
76 108 153
71 104 156
73 105 157
66 100 150
65 99 148
65 100 155
64 99 163
66 100 157
63 98 158
66 100 157
62 97 162
63 98 156
62 98 159
61 97 159
62 98 163
62 98 156
61 97 159
61 97 160
61 97 162
60 96 158
61 97 161
61 97 160
60 96 162
61 98 167
61 98 163
61 96 153
62 98 164
62 98 165
60 96 161
61 97 158
62 98 167
61 97 162
62 98 166
61 97 162
61 98 171
62 98 167
62 98 165
61 98 165
61 97 164
61 98 166
62 98 163
61 97 160
61 98 168
62 98 172
62 99 167
62 98 167
61 98 166
62 98 171
61 98 169
62 98 168
62 97 157
63 99 171
61 98 164
62 98 169
61 98 167
62 98 169
63 99 171
62 98 169
61 97 164
62 98 171
62 98 166
61 98 163
62 98 166
62 98 166
61 97 163
62 98 171
62 99 169
63 99 169
61 97 159
61 97 161
62 98 167
62 98 167
62 98 162
62 98 165
62 98 170
63 99 173
61 98 168
61 97 165
62 99 170
61 98 165
62 99 168
61 97 163
62 99 169
62 98 168
61 98 166
61 98 166
63 99 164
62 99 171
63 99 167
61 98 163
62 99 169
62 98 165
62 98 168
62 98 162
62 99 169
62 98 160
62 98 167
63 99 164
62 99 166
62 98 162
62 98 162
62 98 164
62 99 165
62 99 167
62 99 167
61 97 162
61 97 161
62 98 164
62 98 166
62 98 162
62 98 163
62 98 165
62 98 164
61 97 162
62 98 162
61 97 161
62 98 166
61 97 161
62 98 166
62 98 163
61 98 166
62 98 167
62 98 162
61 97 161
63 99 169
63 100 174
62 99 163
62 99 172
62 98 163
61 97 154
62 98 168
61 96 155
62 98 164
62 99 166
63 99 166
62 98 163
63 100 169
62 98 156
62 98 162
61 97 155
61 97 157
61 97 164
62 98 165
62 98 158
61 98 165
62 98 166
61 97 152
61 97 155
62 98 159
61 97 155
62 98 160
62 98 160
61 96 155
62 97 157
63 99 162
61 97 151
61 96 155
61 96 153
62 97 158
60 95 153
61 96 152
62 98 157
59 93 136
61 97 156
61 97 148
61 96 150
60 95 145
62 98 159
60 95 145
60 94 143
59 93 146
59 92 136
58 91 130
70 90 111
74 88 96
77 82 45
84 83 22
88 86 8
95 92 16
76 75 16
79 78 15
87 84 14
88 87 14
85 85 20
79 80 23
85 86 23
97 94 19
87 88 16
93 92 28
95 94 31
98 97 23
105 103 39
102 100 29
101 100 23
100 100 27
104 104 24
95 94 31
112 108 34
121 119 41
112 111 36
99 97 31
106 103 35
111 109 31
116 113 32
119 116 39
116 113 34
122 119 37
115 111 44
129 125 43
132 128 43
117 114 37
136 133 44
133 128 38
134 129 52
140 136 45
133 129 43
134 130 52
128 123 45
127 124 35
133 130 39
131 128 46
131 127 50
138 133 53
143 138 49
140 136 48
135 132 39
141 136 36
137 132 43
139 135 47
138 132 47
141 135 49
133 128 47
140 135 41
133 128 40
142 137 47
139 135 43
149 142 53
145 139 49
146 141 49
141 135 49
140 135 48
139 133 39
144 139 56
144 138 52
136 131 41
142 137 42
141 136 47
138 133 44
138 133 45
144 139 44
135 130 39
144 138 48
147 141 49
146 140 52
141 136 44
139 134 48
133 128 42
146 141 51
139 134 37
141 137 41
140 133 48
138 132 42
135 130 37
137 131 54
136 131 42
141 135 48
138 132 51
133 127 49
146 139 61
132 129 41
134 128 37
139 133 48
133 129 45
123 118 39
130 127 36
129 126 37
127 125 37
131 128 34
128 130 25
137 139 28
131 133 34
140 145 36
144 152 30
147 155 34
149 158 22
148 158 28
155 166 22
161 175 11
156 171 0
156 174 11
160 174 11
166 184 0
165 183 0
162 180 0
169 188 0
159 177 0
166 182 0
164 182 0
170 189 0
169 188 0
163 183 0
165 183 0
170 190 0
169 188 0
166 186 0
167 186 0
169 189 0
168 187 0
163 182 0
167 186 0
176 196 92
179 200 99
178 200 99
185 206 120
184 205 122
181 203 114
179 201 92
184 205 111
182 204 111
179 201 95
187 207 130
187 207 142
189 209 144
187 207 133
194 214 165
184 205 144
192 212 157
189 209 151
189 209 149
183 204 130
188 209 147
189 209 144
194 213 165
186 206 147
195 214 169
194 214 175
194 213 171
191 211 161
188 208 161
198 217 182
188 208 147
192 211 165
189 209 151
190 210 159
193 213 161
193 212 167
192 212 171
192 211 165
191 211 161
191 211 167
191 211 171
193 213 175
193 212 171
196 215 186
195 215 184
193 213 169
193 213 163
194 213 175
191 211 161
192 211 165
194 213 169
194 213 177
196 215 173
190 209 157
193 213 165
195 215 173
192 211 161
195 214 169
192 211 161
189 209 153
191 211 161
187 207 157
187 207 153
185 205 144
187 207 135
185 206 135
183 204 122
185 204 133
179 199 122
185 206 125
183 204 117
185 205 133
181 201 105
180 200 111
183 204 120
177 199 105
180 201 111
172 193 90
168 190 100
156 177 115
155 178 126
140 164 108
124 149 118
139 163 108
125 150 125
97 125 158
89 118 150
70 104 156
80 110 150
80 111 153
70 103 145
70 104 158
69 103 154
65 100 157
72 104 151
63 98 158
65 100 158
63 98 154
70 103 153
60 95 154
61 97 157
63 98 160
62 98 166
62 98 160
61 97 160
61 97 156
62 98 155
61 96 159
60 96 160
61 97 159
61 97 159
62 98 163
61 96 155
60 97 159
61 97 160
62 98 168
62 99 171
62 98 162
61 97 166
62 98 166
61 98 164
62 98 169
61 97 155
62 98 164
61 97 161
62 98 167
62 99 171
62 98 164
62 98 165
61 97 159
62 98 166
61 98 164
61 97 164
61 97 165
62 98 164
61 97 164
62 98 170
62 98 165
62 98 168
63 99 171
62 98 167
62 98 168
61 97 163
62 98 165
62 98 169
62 98 166
61 98 166
61 97 163
61 96 159
62 99 171
61 97 168
62 98 164
61 97 163
62 98 162
62 99 170
62 98 169
62 98 167
61 97 163
62 98 166
62 98 164
63 99 169
62 99 168
61 97 159
61 98 162
61 97 162
62 98 164
62 98 169
62 98 168
62 98 168
61 97 161
62 98 171
62 98 166
63 99 167
62 98 168
62 98 166
63 99 168
63 99 164
62 98 164
62 98 166
62 98 165
62 98 168
61 98 162
62 98 167
62 98 162
62 98 164
62 98 165
62 99 168
62 98 162
61 97 155
62 98 164
62 98 167
63 100 171
61 97 156
63 99 168
62 98 164
63 99 164
62 98 162
62 98 164
62 98 163
62 98 165
61 96 156
62 98 163
63 99 164
62 98 165
62 98 165
63 99 167
62 98 163
62 98 155
61 97 158
63 99 164
62 98 164
61 97 160
63 99 164
62 99 167
61 97 153
62 99 167
61 98 162
61 97 160
62 97 156
61 97 162
62 98 159
62 98 160
63 99 160
63 99 163
61 97 151
62 97 154
62 98 161
61 98 160
61 97 152
61 97 156
62 98 161
61 97 154
62 98 161
60 96 151
62 97 156
63 99 164
62 98 162
63 98 155
62 98 157
62 97 158
62 98 159
62 98 155
61 97 152
61 97 153
62 98 157
61 96 148
61 97 158
62 97 156
62 99 164
60 95 145
62 97 159
61 96 154
61 96 151
61 96 149
61 96 149
60 95 144
59 94 138
58 93 136
60 94 142
61 95 145
59 94 147
60 94 134
55 86 109
70 93 117
77 87 74
77 81 43
79 78 28
84 83 9
86 83 19
93 90 8
88 87 9
83 83 25
82 81 8
81 81 14
90 88 12
93 92 12
88 85 26
80 81 21
90 88 25
99 99 20
96 95 24
89 87 21
88 89 21
103 102 32
100 101 24
102 101 33
100 99 36
108 106 28
107 106 35
112 111 31
99 99 31
122 118 37
114 112 42
116 114 42
116 114 34
125 122 42
125 122 43
122 119 33
124 121 40
119 117 36
131 127 42
130 127 41
126 123 36
129 125 50
142 137 57
134 130 43
133 128 46
133 129 42
126 123 31
138 132 47
137 132 47
135 132 45
141 136 43
135 131 43
130 126 44
141 136 47
138 133 45
138 134 38
146 140 53
140 135 49
140 135 42
128 124 42
144 139 52
144 139 57
136 132 36
149 143 49
143 139 49
137 133 41
141 137 45
145 140 57
144 138 52
142 137 57
143 138 45
141 136 48
134 130 38
142 137 41
143 137 51
148 142 54
142 137 42
142 136 45
148 142 47
146 140 57
141 135 47
144 138 48
138 134 37
141 136 49
141 136 42
142 136 53
138 134 44
145 139 47
142 136 41
139 134 44
142 135 44
136 132 36
144 137 49
142 136 39
139 133 49
135 129 45
135 130 42
136 131 44
123 117 34
133 128 39
131 126 47
133 128 45
135 132 42
132 130 25
131 132 22
133 132 37
141 144 30
142 145 32
139 144 36
143 151 19
142 148 28
147 153 32
150 158 19
153 163 28
156 168 11
156 172 11
156 169 11
164 179 16
170 187 11
161 175 11
162 180 0
160 175 0
163 180 0
166 184 0
168 187 0
167 185 0
169 186 0
163 178 0
164 179 0
167 185 0
162 179 0
165 185 0
169 187 0
164 182 0
161 179 0
168 187 0
168 187 0
167 183 0
180 202 99
182 204 122
182 203 108
183 204 122
182 203 128
181 202 111
187 208 130
186 207 130
187 207 140
183 204 120
189 209 144
186 207 130
185 206 137
186 207 133
193 213 163
189 209 149
191 211 159
190 210 157
187 207 149
190 209 151
194 213 165
190 210 157
190 211 159
192 212 169
191 210 161
195 214 165
193 212 169
193 213 169
191 212 165
193 212 177
197 216 181
195 214 179
194 214 184
194 214 175
192 212 171
193 213 169
199 217 189
197 216 191
197 216 182
192 211 159
197 215 184
197 217 191
193 212 173
196 216 186
195 215 173
194 213 175
197 216 181
198 216 186
193 213 175
196 216 181
194 214 175
194 214 177
192 212 171
194 213 173
181 201 151
190 209 153
192 212 163
191 210 157
188 208 149
188 208 159
194 214 173
194 213 179
192 211 159
191 211 157
191 210 159
189 209 161
187 207 149
194 213 163
186 206 140
186 206 142
178 199 114
187 207 144
182 203 125
184 204 122
183 204 120
182 201 117
181 202 111
175 197 100
163 185 136
151 172 111
146 168 126
139 162 134
140 163 137
126 150 128
121 146 136
97 124 149
78 109 142
79 110 149
87 116 155
85 115 158
71 103 152
74 106 151
71 104 158
68 102 155
68 101 154
68 102 160
64 99 147
65 100 159
61 97 161
61 97 156
63 98 155
64 99 160
60 96 155
63 98 159
64 99 158
61 97 157
61 97 161
63 99 158
63 99 159
61 97 162
61 96 159
61 97 158
62 98 163
61 98 170
62 98 162
62 99 168
63 99 168
61 97 155
62 98 162
61 97 158
62 98 168
62 98 166
60 96 154
61 98 169
62 98 164
63 99 163
62 98 169
61 98 169
62 98 169
62 97 159
62 98 163
62 99 170
61 97 162
61 97 161
62 98 168
62 98 167
62 99 167
61 97 167
61 97 162
62 98 168
62 98 167
62 99 166
61 98 167
62 98 165
62 99 169
61 98 170
62 99 169
62 98 162
62 99 172
61 98 169
61 98 167
60 96 156
62 99 171
62 98 170
61 98 165
61 98 167
62 99 166
62 98 165
62 98 174
62 99 165
63 99 172
62 99 167
62 98 168
61 98 169
61 98 161
62 99 167
62 98 163
62 98 167
62 98 166
62 98 164
62 98 163
62 98 157
61 97 157
62 98 166
61 97 162
63 99 172
62 98 166
61 97 160
61 98 165
61 98 164
62 98 166
62 98 170
61 97 157
62 98 164
62 99 172
62 98 165
62 99 165
62 98 164
62 98 164
62 98 165
62 98 163
62 98 167
62 99 169
62 98 166
62 98 164
61 97 158
62 98 168
60 97 158
62 98 164
62 98 160
62 98 166
61 97 158
62 99 165
62 98 162
62 98 163
62 98 163
60 96 158
61 97 161
62 98 167
61 97 157
61 97 160
63 98 163
61 97 160
62 98 160
62 98 163
61 97 157
62 98 158
62 98 162
62 98 162
62 98 159
62 98 161
62 98 161
63 99 162
62 98 159
63 99 167
61 97 158
62 98 161
62 97 156
62 98 165
62 97 159
62 97 155
62 98 158
61 97 154
61 97 152
61 96 156
62 97 156
61 97 152
62 97 158
63 99 161
61 97 157
61 98 161
61 97 155
61 97 156
61 97 153
61 97 154
62 97 151
61 96 148
61 96 147
62 98 162
61 96 151
62 97 158
61 96 153
61 95 147
60 95 151
61 96 143
60 95 150
61 95 149
60 94 144
61 96 149
60 95 157
59 92 130
60 94 139
61 93 136
70 94 118
77 90 91
79 84 60
93 91 14
81 80 14
75 75 10
81 79 16
70 70 18
93 91 12
77 76 14
98 95 17
89 88 12
90 89 16
93 91 18
92 92 20
100 97 20
88 87 16
92 91 31
88 87 18
108 106 26
94 92 26
107 106 18
96 95 22
104 104 25
107 105 27
109 108 29
114 112 30
106 106 28
113 112 26
114 113 31
120 117 35
111 110 37
117 114 32
113 111 38
117 115 28
121 119 39
110 109 23
125 122 38
123 120 38
128 125 38
134 128 45
124 119 37
130 126 34
127 123 37
136 132 43
127 123 36
133 127 42
128 125 33
135 130 44
137 132 44
128 123 45
138 133 45
129 124 33
139 135 37
137 133 41
141 137 44
133 129 34
149 143 50
137 132 44
131 126 41
146 140 45
145 139 38
140 136 42
142 137 44
139 133 48
140 133 47
137 132 45
144 139 45
138 132 48
134 128 43
134 130 42
144 138 49
146 141 42
138 132 48
148 141 49
152 146 57
140 135 44
142 137 44
144 139 45
143 137 52
137 132 42
144 139 39
142 137 47
134 128 37
146 140 49
137 132 47
138 134 41
132 127 39
135 130 42
136 132 36
138 133 44
139 134 48
130 126 36
131 125 45
124 120 30
138 132 48
127 121 39
131 127 28
129 125 36
127 124 41
127 124 34
133 131 34
140 138 48
132 136 30
134 135 30
141 146 34
142 148 22
149 157 30
142 150 16
145 153 25
158 170 16
154 164 11
159 171 11
155 167 16
160 175 16
162 178 0
159 174 0
163 178 0
163 182 0
170 187 0
167 183 0
162 179 0
168 185 0
164 180 0
167 184 0
165 181 0
164 182 0
165 183 0
170 186 0
166 186 0
168 186 0
166 185 0
167 188 0
165 183 0
166 184 0
169 189 0
167 186 0
184 205 117
182 204 117
183 203 122
179 200 114
188 208 142
187 207 140
186 207 130
188 208 140
188 208 135
187 208 140
189 209 140
187 207 142
190 210 149
189 209 149
190 210 157
185 205 147
193 213 171
190 211 159
189 209 151
190 210 155
194 214 167
190 210 161
193 213 173
196 215 179
193 212 165
193 212 179
195 215 182
193 213 179
198 217 193
191 210 163
199 217 188
193 213 173
196 215 189
197 216 179
196 215 184
200 219 198
192 211 169
194 214 181
199 218 188
195 215 179
196 216 179
198 217 189
197 216 189
195 214 182
199 218 193
196 215 186
199 218 191
199 218 193
199 218 193
196 215 184
196 216 184
197 216 186
195 214 171
195 214 186
193 212 167
198 217 191
189 209 155
194 214 173
194 213 173
196 215 181
196 215 179
201 219 198
193 212 169
189 209 157
192 211 159
195 214 173
195 214 173
185 205 151
184 204 130
181 202 122
187 207 151
184 205 140
178 199 114
186 206 130
177 198 120
181 202 135
179 200 126
176 197 139
165 186 133
156 178 149
143 166 133
140 162 141
137 160 137
134 157 133
113 139 126
99 126 150
75 106 150
109 135 151
83 113 159
71 104 154
82 112 152
78 110 166
67 100 142
69 103 158
70 103 153
70 103 159
72 105 151
64 98 149
69 103 157
69 103 157
63 98 158
64 99 158
64 98 148
64 99 161
61 97 159
62 98 163
62 98 159
61 97 161
61 97 159
61 97 159
62 98 164
61 97 164
61 97 158
62 98 164
61 97 165
62 98 161
61 97 164
61 97 168
60 97 155
62 98 168
61 97 162
61 97 161
61 98 169
60 97 161
62 98 164
62 98 166
60 97 164
62 98 168
61 97 166
62 98 168
61 97 165
63 99 165
62 98 166
62 98 160
60 96 159
62 98 161
62 99 164
61 97 159
62 98 169
61 97 158
61 98 166
61 97 160
62 98 159
62 98 168
61 97 164
61 98 169
61 97 159
61 97 159
62 98 163
62 98 162
61 97 163
61 97 162
62 98 169
62 98 162
62 98 166
61 97 164
62 98 161
62 99 171
62 98 170
62 98 168
61 97 159
62 98 163
62 98 161
61 98 165
61 98 165
62 98 167
61 97 161
62 98 162
62 98 167
62 98 166
61 97 164
62 98 165
62 98 165
62 99 167
61 97 155
61 97 156
62 98 169
63 99 168
62 98 166
62 98 163
62 98 163
62 99 166
62 98 165
62 98 164
62 98 167
62 98 162
61 97 160
62 98 169
62 98 162
62 98 164
62 98 166
62 99 165
61 97 159
62 98 163
63 100 169
62 98 163
61 97 158
62 98 156
63 99 170
61 97 154
62 99 166
62 98 160
61 97 161
62 98 163
62 98 166
62 98 165
62 99 168
62 99 168
62 98 163
61 97 159
62 98 166
62 98 170
62 99 165
63 99 165
62 98 161
62 98 155
61 97 157
62 98 159
62 98 161
62 98 156
62 98 165
62 98 159
62 98 165
61 97 155
61 97 151
62 98 158
62 97 160
61 97 156
60 96 151
63 99 165
61 97 158
63 99 161
61 97 157
61 97 154
61 97 156
61 97 162
62 98 154
61 97 155
62 97 152
61 97 154
61 96 148
61 97 152
62 98 156
62 98 160
61 97 154
62 98 156
61 96 153
61 96 149
61 97 151
61 97 156
61 96 152
61 97 153
60 95 148
61 95 142
61 95 149
59 94 139
61 96 144
61 97 152
61 96 150
60 94 150
60 94 135
60 94 141
57 89 128
61 87 117
72 85 84
89 89 38
81 82 8
66 66 13
80 80 12
89 87 21
85 83 12
90 88 23
90 90 14
92 91 3
81 81 12
94 93 24
95 93 14
94 93 24
91 90 16
90 90 24
95 94 23
95 94 18
100 100 22
97 96 24
104 101 24
109 108 29
100 100 14
100 99 26
106 103 20
102 100 29
111 109 23
110 107 33
107 106 24
114 111 28
104 103 30
119 115 29
123 120 40
119 117 36
119 116 39
121 119 35
120 117 32
126 123 43
118 116 29
113 110 34
120 117 35
125 120 36
129 125 43
123 120 37
127 124 35
129 123 33
128 124 45
129 125 40
131 127 34
141 135 45
140 135 42
145 139 45
133 129 45
139 135 45
131 125 42
130 127 41
143 138 49
132 129 35
134 130 39
128 124 41
137 132 43
137 132 46
138 133 44
145 140 44
131 128 36
138 134 34
145 139 45
138 132 44
144 138 53
142 136 37
144 138 45
144 139 49
147 141 52
138 132 42
143 139 44
153 147 54
143 138 36
138 133 42
139 134 42
144 138 39
138 132 36
130 124 45
137 130 41
141 136 39
131 126 37
141 136 42
134 129 45
141 136 41
139 133 45
126 121 30
135 130 42
136 132 42
122 116 36
135 130 36
135 129 44
132 127 42
133 127 44
125 123 37
133 131 32
131 130 37
138 138 30
139 139 32
137 138 34
137 139 25
150 155 34
143 147 30
146 153 25
145 153 22
142 149 16
146 157 16
152 162 0
162 175 16
154 168 16
158 171 16
156 173 11
165 180 0
162 178 11
163 180 0
168 184 0
163 180 0
166 182 0
170 186 0
166 182 0
166 182 0
169 186 0
168 186 0
166 184 0
166 185 0
169 188 0
164 183 0
169 188 0
164 183 0
167 185 0
166 186 0
170 190 0
167 187 0
184 204 128
182 204 114
183 203 133
184 205 128
183 204 128
189 207 155
188 208 135
193 212 165
194 213 165
189 210 142
192 212 165
186 206 153
194 214 167
192 212 157
193 212 165
192 211 163
193 212 167
193 213 171
193 212 181
192 212 165
195 215 186
199 218 193
193 213 171
195 214 175
192 212 159
193 212 173
199 218 191
195 214 182
200 219 199
199 218 191
194 214 179
201 219 196
195 214 186
199 218 206
199 218 189
195 215 182
196 216 186
199 218 194
198 217 188
200 219 198
199 218 189
201 219 199
200 219 204
199 218 189
202 221 204
202 220 201
200 219 199
202 220 207
196 215 181
202 220 206
196 215 184
200 218 194
194 215 177
199 218 194
199 217 209
197 216 188
195 214 184
199 218 193
196 215 188
198 216 188
197 216 188
196 215 184
192 211 163
197 215 188
194 214 171
194 213 171
187 207 151
191 211 157
191 210 159
189 209 161
190 209 163
189 209 155
187 206 155
189 209 151
187 207 153
186 206 149
183 202 152
172 193 141
170 190 166
155 177 141
143 166 151
133 155 153
134 157 130
132 155 139
119 143 144
88 117 147
90 118 160
80 112 161
84 114 157
88 117 161
79 110 152
72 105 157
85 116 164
77 108 155
73 105 156
75 107 149
71 104 159
69 102 159
63 98 158
66 101 153
63 98 156
64 99 149
63 98 158
64 98 155
60 96 156
61 96 151
63 98 152
62 98 162
61 97 160
61 97 160
61 97 165
63 99 169
61 97 158
60 96 157
61 97 164
60 97 155
60 96 152
61 97 155
61 97 163
61 97 163
62 98 163
62 98 161
62 98 159
61 97 166
62 98 170
61 98 169
61 97 162
61 98 165
63 99 168
62 98 160
61 97 163
61 98 165
61 98 167
61 98 165
61 97 163
60 96 159
61 97 165
61 97 158
62 98 169
62 98 168
61 98 169
62 98 161
63 99 169
62 98 163
61 97 159
62 98 160
62 98 168
61 97 162
61 98 162
63 99 165
61 98 165
61 97 166
62 98 168
62 98 160
62 99 170
62 98 166
62 98 164
62 98 164
62 98 168
61 98 164
62 98 161
62 98 161
62 98 162
62 98 160
62 99 168
62 99 170
62 98 164
62 98 165
62 98 165
62 98 165
62 98 165
61 97 159
62 98 164
62 98 165
61 97 164
61 98 161
62 98 169
61 97 160
62 98 164
62 98 164
62 98 166
62 98 163
63 100 173
63 99 166
61 98 164
62 98 164
61 97 157
62 99 162
62 98 163
61 97 159
62 98 157
62 98 163
63 99 171
62 98 162
62 98 159
61 97 157
62 98 162
62 98 162
62 97 159
63 99 166
62 98 165
61 97 161
61 98 161
61 97 160
62 98 156
62 98 163
62 98 161
62 98 162
62 98 160
61 97 156
62 98 157
61 97 159
62 98 158
61 97 157
62 98 160
62 98 164
62 97 159
62 98 157
62 98 164
61 97 157
62 97 161
62 98 162
62 97 157
62 98 166
62 97 154
61 97 154
61 97 160
61 97 157
61 97 156
62 98 160
62 98 157
62 98 162
62 97 161
62 98 157
62 98 156
61 97 161
62 97 155
62 97 155
62 97 156
61 97 155
62 98 161
62 98 160
62 97 155
62 98 155
61 96 152
62 97 155
60 96 143
62 97 156
61 96 147
62 97 154
59 94 140
60 95 147
61 97 154
60 95 152
59 93 145
61 95 146
59 94 139
60 94 146
61 95 139
59 94 145
58 92 139
58 92 133
58 91 134
64 87 118
65 77 71
81 82 52
90 89 18
76 75 14
86 85 14
88 85 11
93 92 14
87 83 22
87 84 11
97 94 16
90 89 14
95 93 18
87 86 14
90 89 21
88 86 18
86 85 11
95 96 19
96 95 16
92 90 18
96 96 23
94 94 20
94 92 21
99 97 20
113 111 27
108 106 18
105 102 36
111 109 26
106 104 25
116 113 29
104 103 27
119 116 32
108 104 41
116 112 41
113 111 32
120 117 37
118 114 32
117 114 32
122 119 34
119 117 30
133 129 32
128 124 39
128 125 36
119 116 35
128 123 36
123 121 34
116 113 32
128 125 37
134 129 42
129 127 33
129 126 37
125 121 34
139 134 47
136 132 42
134 128 47
133 129 34
137 133 37
136 131 42
129 125 34
138 133 41
136 132 39
141 136 45
145 141 46
141 135 40
141 136 47
141 137 39
137 131 43
148 143 47
136 132 36
143 139 41
137 131 47
140 134 49
136 131 37
139 133 37
143 137 53
133 129 37
139 134 44
127 123 37
143 137 41
140 135 42
130 125 37
144 137 48
126 122 34
137 133 32
131 126 34
133 127 37
136 131 44
137 133 30
127 121 37
141 134 53
127 122 32
134 129 44
134 129 39
136 131 42
127 123 34
134 129 37
135 128 45
120 116 36
128 124 37
132 131 30
136 133 37
133 134 32
138 141 32
140 147 16
144 146 30
143 146 30
141 150 16
148 154 30
145 154 25
151 160 22
154 166 16
159 174 19
158 170 19
158 170 16
159 172 16
159 175 0
156 171 0
166 180 0
168 184 0
165 180 0
164 181 0
165 183 0
168 188 0
165 184 0
170 189 0
166 184 0
168 187 0
168 187 0
164 183 0
168 188 0
160 177 0
167 187 0
168 187 0
169 188 0
165 181 0
164 184 0
167 186 0
186 206 133
186 207 128
185 207 130
186 208 137
187 207 147
182 204 135
190 210 161
188 208 142
193 213 169
188 209 142
191 211 167
196 215 171
193 213 157
194 214 167
191 211 169
197 216 182
195 214 179
199 218 194
197 215 191
192 212 165
194 214 182
196 215 181
199 218 194
199 218 191
197 217 184
198 217 184
197 216 186
201 220 201
196 215 186
200 219 198
203 221 206
200 219 199
198 218 193
197 217 196
197 217 188
199 218 191
200 219 199
202 221 207
196 216 188
201 220 203
202 221 206
201 220 203
200 219 206
201 219 201
198 217 193
196 215 182
202 221 212
206 223 218
201 219 201
202 221 206
202 221 206
204 222 212
200 220 201
197 216 191
201 220 206
200 218 193
195 214 182
196 215 179
198 217 194
199 218 198
201 219 196
198 217 189
199 217 196
196 215 181
193 212 169
193 213 167
198 217 186
195 214 179
193 212 177
189 209 161
189 208 167
195 213 177
192 211 169
193 212 167
190 210 157
182 203 135
178 198 148
175 196 156
154 176 150
161 182 157
135 157 157
144 166 145
142 163 167
130 153 144
125 148 149
89 118 159
97 125 156
89 117 150
82 112 152
92 120 137
75 106 152
79 109 155
76 108 153
80 110 150
76 107 156
72 104 147
67 101 158
72 104 163
69 103 161
70 103 155
68 102 151
65 101 160
61 97 155
63 98 158
60 96 150
61 97 157
62 98 161
61 97 160
64 99 153
62 98 162
61 97 161
61 97 158
62 98 159
60 96 154
61 97 165
62 99 166
61 97 162
62 98 162
61 97 166
61 98 165
60 96 163
61 97 149
61 98 161
60 96 158
62 98 164
61 97 164
60 97 159
61 97 160
61 97 163
61 97 162
60 96 162
61 97 164
62 98 164
62 98 165
60 96 158
61 97 160
61 96 153
62 98 171
61 97 163
62 98 166
62 98 165
62 98 166
63 99 169
61 97 163
62 98 161
62 98 164
62 98 164
62 99 166
62 99 170
61 97 165
61 98 166
61 98 163
61 98 161
62 98 168
61 97 167
62 98 163
61 97 162
61 97 157
61 97 164
62 98 163
62 99 166
62 99 169
62 98 163
62 98 161
62 99 168
61 98 159
64 100 169
62 98 160
62 98 162
61 97 162
62 98 168
62 98 165
62 99 164
62 98 165
62 98 159
62 98 163
62 98 166
62 98 158
61 97 157
62 98 171
62 99 167
62 98 162
62 98 158
62 98 161
62 98 163
62 98 161
62 99 169
61 97 158
62 98 162
62 98 162
62 98 160
62 98 165
61 97 159
63 99 163
62 98 162
62 98 161
62 98 167
62 98 165
62 98 164
63 99 166
62 98 160
63 99 165
62 98 160
62 98 163
62 98 162
61 97 156
62 98 162
63 100 170
61 97 159
62 98 160
62 98 156
62 98 166
62 98 157
62 99 166
60 96 157
62 98 158
61 97 160
60 97 156
62 98 160
62 98 160
61 97 162
61 97 158
61 97 154
62 98 159
62 97 158
61 97 154
63 98 159
62 98 156
62 98 158
62 98 162
61 97 161
62 98 160
61 97 157
62 98 162
63 98 162
62 98 160
61 96 152
62 97 155
62 98 151
61 96 150
61 96 150
61 97 155
60 96 150
62 98 160
61 96 156
60 95 154
61 96 150
61 96 148
62 97 158
62 97 156
61 95 148
61 97 152
61 96 147
61 96 152
60 95 146
60 95 147
60 95 142
60 95 147
60 95 149
60 94 140
60 94 140
60 93 140
59 91 133
75 92 97
63 80 87
83 86 50
91 89 16
86 86 14
79 78 14
88 85 3
90 89 11
91 90 11
89 87 14
93 90 18
85 84 12
83 84 14
93 92 16
102 100 14
91 88 11
99 97 21
90 89 18
92 90 21
93 91 16
108 106 16
101 101 18
104 101 25
95 95 20
108 105 16
101 100 31
99 97 32
102 100 32
109 106 29
103 101 19
116 113 36
115 114 28
112 110 23
110 108 25
114 112 20
103 103 32
119 114 41
116 114 29
119 115 28
122 119 31
132 127 35
123 120 39
120 117 24
127 123 26
122 119 33
127 123 37
126 122 41
133 130 34
131 126 39
125 123 35
126 121 37
134 130 34
129 125 32
133 129 29
129 125 38
140 135 41
143 138 37
129 126 37
133 129 39
134 130 41
130 126 31
138 133 37
134 130 33
134 129 37
132 128 36
140 136 43
144 139 39
145 139 44
139 134 45
138 134 34
143 138 44
140 134 34
135 130 44
141 136 44
129 125 30
137 133 39
138 132 32
139 133 36
135 130 42
139 133 36
129 124 32
135 130 37
133 128 37
128 123 30
139 134 42
139 133 47
137 131 39
143 137 41
124 120 30
130 126 36
131 127 36
130 124 44
128 123 34
127 123 30
130 124 34
134 129 37
141 137 45
125 120 34
133 130 37
134 134 36
139 140 36
138 141 22
137 139 34
137 142 25
138 146 0
142 151 0
149 156 28
151 161 19
148 158 11
153 162 16
150 162 16
152 163 16
155 169 11
160 176 0
160 174 11
163 179 11
164 180 0
167 185 0
166 182 0
167 186 0
165 184 0
165 180 0
167 185 0
163 180 0
167 185 0
167 184 0
167 184 0
165 182 0
164 180 0
162 179 0
167 184 0
166 184 0
167 186 0
170 189 0
169 186 0
164 182 0
169 187 0
187 208 147
188 208 144
187 208 140
193 213 167
184 205 130
189 209 153
193 212 171
191 211 151
188 208 161
190 210 161
195 215 184
198 217 188
194 213 184
196 216 188
193 213 169
200 218 193
202 220 203
193 213 175
200 219 199
195 215 169
199 218 201
200 219 199
198 217 193
204 222 212
199 219 201
202 221 207
203 221 214
202 220 204
202 221 204
202 221 217
202 221 206
200 218 196
204 223 217
202 221 206
205 224 221
203 222 212
202 221 206
202 221 203
200 219 199
204 223 218
200 219 201
203 222 220
201 220 207
199 218 194
205 223 214
200 220 206
203 222 212
203 222 212
204 222 217
202 221 207
204 222 209
196 216 188
203 222 212
198 217 198
203 221 207
202 221 206
200 218 198
204 223 215
202 220 206
200 219 198
197 217 188
195 214 182
195 214 181
202 220 203
201 219 198
195 214 175
202 219 199
199 218 188
195 214 179
193 212 175
194 213 182
199 217 184
193 213 167
189 208 171
192 212 160
186 206 156
187 206 181
169 189 167
154 175 163
153 174 165
150 170 179
133 156 162
138 161 173
131 153 156
133 156 163
96 124 158
98 125 164
99 126 157
85 115 156
76 109 157
83 114 163
86 115 160
78 109 153
75 108 159
76 108 163
70 104 162
88 117 165
75 107 160
67 101 153
63 98 159
76 108 152
70 104 156
67 101 158
64 99 151
69 103 159
65 101 161
61 96 154
61 97 160
61 97 159
62 98 167
61 97 158
61 97 161
61 97 160
60 96 159
62 98 167
61 97 161
61 97 163
62 98 166
61 96 158
61 97 156
62 98 163
60 96 160
61 97 167
62 98 166
61 97 161
61 96 160
61 97 159
61 98 164
62 98 165
62 99 169
60 96 160
62 98 169
62 98 169
61 98 163
62 98 164
61 98 163
60 96 158
62 98 164
62 98 165
61 97 162
62 98 167
62 99 165
61 97 161
61 96 162
62 98 164
61 97 159
62 98 161
62 98 164
62 98 167
61 97 166
61 97 158
61 97 159
62 99 169
62 98 162
61 97 159
62 99 168
62 99 164
62 98 167
61 98 163
61 97 161
63 99 168
61 97 164
62 99 170
61 97 158
62 98 158
61 97 162
61 97 161
62 99 169
63 99 168
62 98 161
61 98 162
63 99 166
62 98 166
62 98 167
62 98 160
62 98 166
62 98 161
61 98 162
61 98 163
63 99 170
62 98 162
63 99 166
62 99 167
62 98 163
62 99 168
63 99 165
61 98 161
62 99 167
61 98 165
61 97 156
60 96 149
62 98 161
62 98 162
62 97 157
63 99 166
62 98 162
62 97 156
62 99 168
61 96 154
62 98 162
62 98 159
63 99 162
62 98 163
62 98 165
62 98 161
62 98 163
62 99 165
62 98 163
62 97 157
62 98 162
62 98 159
61 97 156
62 98 155
62 98 161
62 98 159
62 98 158
62 98 159
61 97 157
62 98 156
62 98 161
63 98 163
61 97 152
61 98 160
60 96 159
62 98 163
62 98 160
62 98 162
62 98 160
62 98 165
61 97 155
62 98 160
62 98 158
61 97 155
61 97 158
62 98 158
61 96 149
62 98 154
62 97 161
61 97 153
61 96 146
62 97 156
61 97 147
62 97 152
61 97 154
62 97 151
62 97 155
61 97 153
61 96 148
60 95 149
62 97 150
61 97 149
61 97 154
61 96 154
61 96 145
60 95 146
60 94 145
61 95 139
60 94 140
60 95 137
60 94 150
60 94 140
59 92 137
57 88 127
67 88 120
68 79 74
100 101 60
86 86 21
89 88 8
89 86 0
91 89 12
89 87 12
75 71 0
84 83 8
85 85 14
89 87 11
98 95 11
95 93 16
87 85 21
95 93 9
101 99 24
88 87 14
97 95 14
94 93 16
100 95 23
85 86 19
106 104 29
104 102 25
89 89 17
107 105 23
105 103 16
109 108 22
109 108 16
119 116 28
107 105 25
118 114 23
118 113 37
121 118 24
112 111 29
115 113 37
115 113 33
123 121 38
123 120 30
118 115 28
126 123 29
123 120 37
124 121 34
128 124 34
125 121 36
125 123 36
119 115 26
118 115 31
123 120 30
134 131 40
132 128 45
127 124 31
124 120 24
135 131 35
134 130 37
136 130 39
139 134 37
130 126 39
135 129 41
133 129 36
131 126 41
140 133 42
136 130 44
135 130 42
137 133 39
136 132 37
135 130 40
135 131 41
140 135 41
144 140 37
129 124 30
131 127 30
137 132 39
136 133 32
133 129 36
142 137 42
133 129 37
135 129 37
139 135 32
125 121 30
133 127 32
132 127 39
138 132 36
132 128 39
141 135 39
129 123 47
135 130 37
125 120 32
123 118 34
148 141 45
127 123 28
138 131 36
126 120 28
123 120 34
137 133 37
127 123 28
132 130 34
128 125 30
135 133 32
135 135 32
137 142 32
141 142 39
134 137 19
143 147 19
129 132 16
148 157 25
145 153 22
152 163 16
150 160 16
156 165 25
159 174 11
157 171 0
159 176 0
161 177 0
160 175 0
165 183 0
161 177 0
165 182 0
162 178 0
167 180 0
164 184 0
166 183 0
167 184 0
164 180 0
166 183 0
164 182 0
169 187 0
166 184 0
169 187 0
166 186 0
167 187 0
166 183 0
169 189 0
171 191 0
165 183 0
170 189 0
168 189 0
190 210 155
189 209 147
194 213 169
189 210 147
195 215 177
191 211 159
192 212 165
196 215 179
195 214 173
197 216 179
191 211 163
193 213 177
196 215 177
198 218 191
199 218 193
198 216 194
203 222 212
205 224 217
197 217 193
203 222 215
196 215 191
203 221 214
201 220 203
203 222 211
202 221 207
201 221 206
203 222 215
199 218 198
203 222 211
204 222 212
199 218 193
202 221 209
201 220 209
202 221 214
204 223 214
203 222 214
203 222 215
205 223 217
204 223 221
204 222 223
204 222 215
205 223 215
202 221 206
203 222 214
205 224 220
203 222 212
206 224 223
205 224 220
204 222 217
204 223 214
204 223 218
201 220 203
205 223 215
203 221 209
203 222 212
200 218 206
200 219 198
207 225 220
205 223 214
199 218 198
200 218 203
202 220 199
202 220 199
198 217 186
203 221 204
196 215 188
200 219 196
197 216 188
194 213 171
196 216 191
197 215 189
195 215 179
194 214 179
200 218 196
188 208 171
191 210 183
180 200 180
172 191 182
150 171 173
157 178 179
151 171 177
143 165 174
143 165 166
124 147 157
131 153 161
107 133 159
99 127 163
98 125 157
89 118 176
73 105 147
90 119 163
85 115 156
79 111 156
81 112 155
83 114 155
79 110 166
73 106 152
73 106 165
69 102 150
63 98 159
64 99 155
63 98 156
63 98 156
60 96 149
61 97 159
67 102 159
61 97 154
63 99 161
61 97 160
63 98 156
61 97 159
64 98 157
68 103 163
61 97 159
61 97 160
60 96 161
62 98 160
61 97 163
61 97 163
60 96 159
62 98 162
60 96 154
61 97 159
61 97 166
61 97 163
61 98 166
61 97 159
61 98 162
61 97 160
62 97 160
62 98 163
62 98 165
62 98 167
62 98 162
62 98 165
62 99 170
60 96 158
62 98 168
62 98 159
61 97 158
60 96 162
61 97 165
62 98 159
61 97 161
62 98 160
61 97 154
61 97 168
62 99 171
62 98 166
63 99 171
62 98 163
62 98 167
62 97 158
63 99 170
62 98 164
62 98 162
62 98 167
62 98 162
62 98 165
62 98 165
61 97 160
62 98 167
62 98 165
61 97 161
62 98 164
61 97 163
62 98 165
62 98 162
61 98 163
62 98 162
62 98 161
62 98 165
62 99 166
62 98 163
62 99 168
62 98 160
61 97 159
62 98 157
62 98 160
61 97 161
61 98 164
62 98 162
62 98 168
62 98 160
62 98 158
62 99 170
62 98 161
62 98 164
62 98 166
62 98 162
62 99 164
62 98 164
62 98 163
61 98 165
61 97 159
63 99 169
62 98 157
62 98 161
62 98 162
62 98 160
62 98 159
61 97 157
61 97 157
62 98 158
62 98 162
62 98 169
61 96 154
61 97 160
61 97 156
63 99 164
62 98 158
62 98 158
62 97 152
61 97 158
63 98 161
62 98 160
62 98 160
61 97 160
63 99 166
62 98 162
62 98 159
62 98 159
60 96 151
61 97 154
61 97 156
61 97 153
63 99 160
61 97 153
62 98 161
61 96 156
60 96 143
62 98 156
61 97 161
62 98 156
62 98 157
61 97 155
62 98 159
62 97 151
61 97 156
61 97 152
61 97 156
62 97 156
61 96 148
61 96 152
62 97 155
62 98 156
62 97 154
61 96 143
61 96 153
61 96 150
61 96 150
61 96 151
60 94 142
62 97 154
62 97 152
60 94 142
60 95 148
61 96 158
60 95 141
61 95 150
59 92 141
58 92 133
62 93 134
70 89 112
61 74 84
93 94 43
91 93 18
92 92 19
79 76 14
85 85 19
95 93 14
82 81 14
81 78 21
87 87 20
91 89 8
91 91 14
93 92 18
96 94 14
95 91 12
92 90 11
90 90 0
96 94 14
97 95 19
94 93 12
103 103 27
105 102 22
105 104 18
100 98 20
113 111 21
104 102 20
104 103 19
101 98 18
110 106 18
107 105 18
109 105 19
110 107 30
114 111 24
120 117 27
121 117 37
123 118 32
120 117 23
111 110 31
119 116 26
118 115 28
118 114 35
125 122 34
121 118 29
125 120 33
120 117 22
128 123 30
134 130 31
123 120 27
126 123 29
129 125 30
129 124 31
136 131 34
127 122 36
129 126 32
134 129 39
133 129 30
133 127 41
130 124 41
134 130 28
128 123 36
131 127 29
131 126 34
131 127 40
136 131 36
141 136 36
139 134 41
129 126 30
134 129 39
134 129 37
129 124 42
129 125 34
138 132 28
127 123 28
130 126 36
138 134 34
143 137 41
138 132 42
126 122 30
143 137 41
122 117 32
140 133 44
135 130 45
132 126 36
128 124 25
139 134 37
132 126 37
133 127 36
126 121 32
130 124 39
123 119 36
132 126 42
125 121 28
122 117 34
132 128 39
121 118 16
132 131 34
122 122 25
129 129 30
141 143 28
134 135 34
146 152 28
138 142 16
137 143 16
151 160 19
150 158 19
149 158 11
149 158 22
161 173 19
148 161 0
160 175 0
156 167 16
161 175 11
157 171 0
162 177 0
163 181 0
162 175 0
164 180 0
166 182 0
166 183 0
164 181 0
164 180 0
167 181 0
168 184 0
164 178 0
168 187 0
170 192 0
165 183 0
161 177 0
166 184 0
167 181 0
169 188 0
165 182 0
164 182 0
166 184 0
170 189 0
166 184 0
196 214 175
191 211 163
196 215 177
191 211 157
195 215 181
195 215 181
195 214 171
191 211 153
197 216 186
198 217 196
197 217 189
197 216 194
200 219 203
199 217 184
197 216 189
200 219 201
203 221 211
200 219 199
204 222 209
198 217 184
197 216 193
202 220 214
201 220 206
203 222 221
204 223 214
204 222 215
203 222 209
204 223 215
205 223 215
203 221 204
205 223 218
204 223 214
203 222 214
201 220 214
203 222 212
204 223 218
206 224 224
205 223 220
208 226 228
203 222 217
203 222 215
205 223 220
205 223 224
204 223 217
205 223 220
205 223 221
203 221 217
203 222 207
204 223 218
205 224 220
203 222 212
207 225 226
204 223 218
202 221 211
204 222 214
206 224 221
201 219 203
204 222 214
198 218 193
201 220 199
200 219 201
203 221 204
202 221 211
203 221 212
198 217 196
201 220 206
197 216 193
203 220 209
199 218 199
204 222 209
200 219 198
198 216 179
198 217 193
193 213 168
194 213 183
193 211 191
188 207 194
168 189 175
161 180 185
142 164 182
155 176 190
147 168 171
130 153 184
131 155 173
123 146 154
129 152 170
98 125 166
99 127 166
99 126 164
95 123 165
89 117 153
93 120 159
86 116 149
89 118 168
77 109 163
68 102 158
85 115 160
65 99 158
69 102 146
76 108 155
62 97 150
68 102 159
61 96 157
64 99 164
66 100 157
63 99 156
63 97 161
62 98 160
64 100 164
61 97 163
65 99 153
62 98 154
64 99 150
61 96 155
61 97 163
61 97 164
61 97 159
61 96 159
61 97 159
61 97 159
61 96 162
61 97 160
61 97 163
62 98 165
61 97 162
61 98 166
61 98 168
61 97 161
61 97 160
61 98 164
60 97 163
62 98 168
61 97 158
61 97 156
61 98 165
61 97 160
62 98 165
62 98 169
61 98 168
60 96 163
61 97 158
61 97 161
61 98 163
61 97 163
61 97 162
61 97 162
61 97 160
61 98 163
62 98 166
62 98 166
62 98 170
61 97 165
62 98 165
62 98 162
61 97 161
62 98 163
61 97 160
61 97 159
62 98 166
62 99 168
61 98 168
62 98 165
63 99 170
62 98 161
61 97 160
62 98 161
62 98 161
61 97 155
61 98 162
61 97 163
62 99 168
61 97 161
62 98 163
62 98 159
62 97 152
62 98 161
63 99 168
62 98 161
62 97 160
62 98 162
62 98 164
62 98 165
63 99 163
61 98 162
62 98 160
62 99 163
62 98 166
62 98 160
62 98 165
62 98 157
62 98 163
63 99 163
62 98 158
62 98 158
62 98 164
62 98 163
62 98 162
61 96 153
62 98 164
62 98 163
62 98 164
62 98 162
62 98 154
63 99 170
62 98 157
62 98 164
62 98 165
61 97 158
62 98 158
60 96 153
62 98 158
62 98 158
62 98 160
62 98 158
62 98 160
61 97 157
60 95 154
62 98 160
61 96 151
61 97 154
62 98 160
62 98 157
61 97 158
62 98 166
62 98 159
61 97 154
62 97 154
61 97 152
62 98 165
61 96 151
62 97 157
62 97 160
62 98 156
62 98 159
61 96 152
62 98 158
62 98 159
61 97 148
61 96 148
62 97 156
62 98 156
62 97 157
61 96 147
62 98 162
63 98 158
62 98 155
60 95 148
59 94 142
61 96 149
61 96 140
61 96 150
62 97 153
60 94 142
60 94 140
62 97 151
62 97 158
61 96 144
59 93 138
61 96 143
61 95 136
58 92 120
60 93 137
61 89 118
66 87 110
76 81 71
84 86 42
106 106 14
85 88 14
99 98 11
83 82 8
93 91 11
78 76 3
82 80 8
95 90 20
84 83 8
90 88 14
82 81 11
87 85 14
84 83 12
102 100 11
99 97 16
91 90 12
100 98 16
94 92 21
99 97 23
110 108 22
108 104 12
101 100 16
107 105 11
109 106 28
109 106 16
112 108 21
110 106 25
108 105 19
121 116 23
119 115 35
107 104 30
113 110 22
108 106 24
115 112 23
117 113 31
119 115 28
120 116 29
112 109 20
129 124 35
121 118 29
122 119 25
117 114 35
122 120 27
124 120 28
133 126 37
129 125 37
117 114 33
127 123 28
132 128 34
128 124 37
132 127 32
126 122 35
126 122 19
127 122 34
130 126 34
131 125 42
127 122 36
136 131 41
135 131 30
129 124 32
131 126 30
128 123 34
125 122 30
132 128 36
133 129 32
136 131 28
126 122 28
137 132 37
127 122 39
139 135 44
127 122 28
140 135 41
135 129 36
133 128 34
124 120 28
132 127 32
135 130 28
138 134 39
138 133 30
130 125 36
135 129 34
127 123 28
126 121 32
127 123 25
119 114 36
112 108 30
137 132 36
133 127 37
130 124 34
130 125 32
125 119 30
126 124 30
130 130 22
130 129 25
136 136 22
134 136 22
142 147 22
135 141 16
137 141 32
145 148 36
140 144 11
145 153 19
146 154 16
147 159 11
148 157 11
156 165 25
156 170 16
159 175 11
158 172 11
158 172 0
156 170 11
162 178 0
164 181 0
165 180 0
168 183 0
163 177 0
166 183 0
163 178 0
160 177 0
164 182 0
166 183 0
164 180 0
168 186 0
166 185 0
167 185 0
167 185 0
160 176 0
167 184 0
168 186 0
164 184 0
167 184 0
164 183 0
167 185 0
165 183 0
190 210 157
195 214 173
193 213 169
198 217 184
193 212 169
195 214 181
194 214 173
197 217 189
200 219 198
198 217 194
197 215 196
198 217 191
201 218 207
202 221 206
202 221 211
202 221 211
204 222 212
202 220 207
206 224 221
202 221 211
204 222 214
201 220 201
202 221 207
205 223 218
203 222 207
201 221 212
208 226 228
204 222 211
205 223 217
207 225 226
206 224 223
208 227 238
202 221 207
207 224 223
206 224 221
209 227 231
207 225 223
206 225 226
204 222 217
204 223 228
208 226 230
203 222 215
207 225 228
206 224 220
205 223 220
208 226 230
206 224 220
204 222 218
205 224 223
207 225 226
208 225 226
204 222 220
205 223 217
207 224 218
207 225 220
203 222 217
200 219 206
205 223 217
205 223 218
200 219 203
204 222 212
203 222 211
206 224 220
206 224 221
205 223 215
203 222 214
201 220 203
200 219 201
202 220 198
200 219 199
201 219 201
200 219 198
197 216 181
198 216 194
198 217 201
192 210 199
176 196 195
158 179 175
166 185 188
165 185 204
144 165 185
139 161 183
136 158 174
130 152 181
126 150 179
106 132 165
114 139 171
107 132 171
103 130 171
89 118 160
85 114 161
83 114 159
84 115 158
78 109 161
75 107 159
82 113 157
77 108 163
75 107 159
80 111 160
71 104 160
65 100 157
67 101 150
68 102 155
65 100 158
64 99 156
63 98 159
61 97 158
63 97 149
63 98 157
62 97 156
61 97 162
62 97 154
63 98 157
60 96 153
61 97 158
62 98 158
61 97 164
61 97 153
60 96 158
61 98 165
61 97 163
61 97 162
61 97 160
61 97 164
61 98 168
62 98 164
62 98 164
62 98 163
61 98 167
60 96 158
61 98 166
61 96 162
61 97 164
61 97 158
62 98 162
61 97 160
61 97 168
61 98 165
60 96 156
61 97 165
61 97 159
62 98 162
61 97 160
62 98 165
61 97 162
62 98 162
62 98 160
61 98 164
62 98 157
62 99 168
61 97 155
62 99 168
61 98 161
62 99 168
61 97 161
63 99 168
61 97 163
62 98 166
62 99 167
62 99 170
62 98 165
62 99 168
61 97 159
61 97 162
62 98 162
62 98 169
62 98 165
62 98 162
62 98 168
62 98 155
63 99 168
61 98 167
62 99 164
62 99 170
61 97 156
62 99 167
62 98 160
62 98 163
62 99 170
61 97 162
61 98 163
62 98 164
63 99 167
63 99 165
62 98 163
62 98 161
61 97 155
62 97 161
62 98 160
61 98 160
61 97 151
61 97 157
62 98 162
63 99 169
63 99 161
61 97 159
62 98 168
61 97 157
63 99 165
62 98 164
62 98 159
62 98 162
62 98 157
61 97 154
62 98 161
62 98 160
62 97 158
61 97 159
62 98 158
62 99 169
62 98 162
62 98 161
61 98 164
61 97 159
61 97 158
62 98 160
61 97 155
62 97 158
61 97 156
62 99 165
62 97 156
62 97 156
62 98 164
63 99 165
62 98 160
61 97 150
62 98 160
61 97 152
62 98 158
61 97 148
61 97 151
62 97 151
62 98 158
61 97 148
62 98 157
61 97 158
61 96 156
62 98 162
62 98 157
61 97 150
61 97 152
61 96 148
61 96 142
60 96 150
61 96 145
60 96 154
61 96 150
62 97 152
61 96 155
61 96 147
60 95 146
61 96 150
60 95 149
61 95 144
60 94 146
60 95 146
61 95 146
60 95 145
61 96 147
60 93 142
59 93 135
60 94 144
60 89 115
73 87 84
87 92 53
106 107 39
91 88 16
87 83 0
75 78 0
94 92 8
99 94 11
87 84 3
81 79 3
90 89 0
80 80 14
95 94 19
78 76 27
97 95 0
79 78 3
92 90 11
92 89 14
88 87 14
83 80 14
95 93 19
105 103 8
98 98 11
97 96 19
108 105 18
100 96 14
102 102 24
109 106 24
105 103 16
93 91 19
112 108 28
116 112 26
114 112 28
114 111 27
119 116 21
131 127 32
115 112 27
125 121 30
121 118 21
115 112 24
121 117 25
116 112 28
119 117 30
121 117 29
122 118 29
121 119 26
122 119 40
133 130 29
119 115 22
128 124 22
128 125 29
130 125 31
127 123 36
129 124 30
124 120 28
124 122 25
135 130 36
129 125 30
122 118 28
124 121 25
136 130 42
125 120 25
128 123 25
128 124 34
122 119 25
128 124 32
130 126 28
122 119 32
132 129 22
130 126 30
130 126 22
127 123 30
138 133 28
135 130 34
143 137 45
132 128 32
131 126 28
131 126 30
133 127 34
129 124 32
132 126 37
132 127 22
134 129 34
128 122 25
130 124 36
131 127 30
123 119 25
128 122 36
132 127 32
132 128 32
126 123 30
131 129 30
133 130 32
132 130 19
138 136 32
131 129 22
141 140 36
143 141 28
137 140 22
132 133 19
146 153 19
141 146 0
143 149 25
143 150 19
144 151 16
152 162 22
150 161 0
150 159 0
151 163 11
160 173 0
161 177 0
158 171 0
163 179 0
160 176 0
164 178 0
164 180 0
165 182 0
167 183 0
159 175 0
166 182 0
162 177 0
166 181 0
164 183 0
168 185 0
163 182 0
165 180 0
167 185 0
170 187 0
165 181 0
166 183 0
166 184 0
163 183 0
165 182 0
165 184 0
163 181 0
163 181 0
166 186 0
196 215 175
191 211 159
194 213 171
194 214 181
195 215 181
196 215 182
199 217 196
199 218 193
202 220 207
197 216 188
198 217 189
201 220 204
200 219 201
200 219 201
204 222 215
202 221 207
203 221 212
200 220 207
203 222 214
204 222 212
204 222 215
208 225 226
202 221 212
206 225 227
206 224 218
207 225 227
204 222 215
204 223 218
208 225 228
205 224 223
207 225 227
205 224 221
204 223 221
205 223 220
207 225 223
206 224 218
205 224 223
205 222 227
208 226 227
206 224 227
210 227 233
210 227 231
205 223 223
208 226 230
208 226 236
206 224 224
207 225 226
204 222 223
206 224 221
205 223 221
210 228 234
207 225 223
208 226 228
208 225 224
210 227 237
205 224 220
203 221 209
206 224 221
205 223 220
205 223 221
206 224 221
206 224 226
203 222 217
208 226 226
206 224 220
200 219 201
204 223 212
206 224 218
202 221 214
202 220 209
201 220 204
202 221 204
204 222 212
198 217 197
200 217 206
195 213 211
189 208 206
166 185 193
162 181 199
153 173 194
145 166 200
145 166 195
127 150 178
122 146 181
131 153 180
126 150 182
106 131 165
118 142 178
108 133 178
96 124 160
89 118 160
91 120 161
85 115 152
75 107 165
72 104 160
83 113 161
84 114 165
77 109 159
71 105 162
83 113 164
65 99 162
70 103 157
67 100 151
69 102 157
66 100 150
64 98 144
63 98 159
64 99 158
64 99 157
61 98 161
64 99 160
66 101 165
60 96 159
61 97 160
62 98 163
61 97 162
60 95 151
61 98 166
61 97 157
62 98 159
60 96 150
62 98 166
62 98 165
61 98 166
61 97 160
61 98 164
61 97 162
61 96 155
61 97 164
62 98 162
61 98 161
60 96 160
61 97 160
61 98 163
61 96 159
61 97 162
62 98 165
62 98 168
62 98 163
61 97 163
62 98 166
61 97 161
61 97 161
60 96 162
62 98 166
61 98 162
61 97 159
61 97 156
61 97 159
61 97 163
61 97 161
62 98 165
61 97 163
62 98 165
61 97 161
62 98 166
61 97 160
60 95 148
61 98 159
61 97 159
61 97 159
62 98 161
62 98 163
62 98 162
62 98 162
61 97 159
62 98 168
62 98 161
61 97 163
62 99 165
62 98 162
61 97 164
62 98 161
62 98 162
62 98 162
61 97 160
61 97 160
62 98 169
61 98 161
62 98 162
62 98 163
62 99 165
63 99 166
61 97 153
61 97 160
62 98 165
61 98 164
62 98 162
62 98 158
62 98 160
62 98 163
62 97 157
61 97 159
63 99 167
62 98 159
62 97 156
61 97 152
61 97 155
61 97 157
62 98 159
62 98 164
62 98 158
62 98 157
62 98 160
61 98 164
62 97 156
63 99 170
62 98 161
62 98 160
61 97 157
61 97 157
61 98 164
61 98 159
62 98 158
62 98 162
62 98 160
64 100 170
62 97 155
61 97 158
62 97 157
62 97 148
60 96 145
62 98 163
61 97 158
61 97 156
62 98 159
62 97 151
61 98 159
62 98 158
62 97 153
62 97 147
61 97 153
62 97 155
62 98 154
62 98 160
62 98 158
61 97 149
62 98 156
60 95 143
62 98 158
60 96 152
61 97 153
62 98 160
61 96 148
61 96 153
61 96 150
61 97 156
62 98 156
61 96 148
62 97 151
62 97 152
60 95 143
62 97 152
59 93 138
61 96 155
60 95 149
61 95 145
60 93 142
61 95 142
59 92 132
61 95 139
58 91 137
62 89 122
77 92 93
87 91 59
100 103 18
103 104 11
96 92 14
102 100 14
91 86 1
90 89 12
99 94 2
92 89 0
92 89 11
93 91 11
95 94 8
81 79 3
102 99 11
90 88 9
95 91 12
100 99 11
96 93 8
101 98 20
90 90 0
92 88 12
95 92 14
105 102 18
97 94 25
96 92 18
100 97 12
107 104 14
109 106 16
99 97 16
108 105 14
108 106 14
114 111 24
103 100 21
107 104 16
112 109 19
110 108 11
112 110 14
112 108 22
120 117 28
111 108 34
115 113 21
118 114 18
115 112 22
120 116 21
122 118 19
131 127 29
126 121 30
126 123 20
125 122 33
109 105 25
130 125 25
120 117 22
125 122 19
119 115 24
132 127 31
130 126 34
136 130 34
127 123 25
122 117 22
131 126 34
124 121 28
124 119 28
133 129 22
127 123 30
131 126 36
130 125 36
140 134 34
124 118 28
125 121 33
134 130 32
126 123 30
120 116 28
126 121 34
134 128 42
141 136 39
130 124 36
135 131 42
125 121 32
133 127 39
134 129 30
130 125 34
123 119 25
120 117 25
132 126 34
119 113 28
133 127 28
126 120 28
121 118 28
128 125 28
129 125 19
131 130 25
128 126 30
137 137 34
140 142 28
133 136 25
140 145 30
138 137 28
135 138 16
140 144 22
146 152 22
143 149 19
144 152 11
144 152 11
159 167 19
156 168 22
157 169 11
157 166 11
156 170 0
160 173 0
159 173 0
158 172 0
161 178 0
160 173 0
161 174 0
157 171 0
165 179 0
166 182 0
165 181 0
163 178 0
170 189 0
165 180 0
168 187 0
164 180 0
164 180 0
166 183 0
167 183 0
165 184 0
166 182 0
164 181 0
165 182 0
169 186 0
165 181 0
165 183 0
166 185 0
164 182 0
164 184 0
198 217 196
195 215 181
197 216 182
202 220 203
201 220 198
200 219 196
196 215 177
199 218 194
201 220 203
200 219 196
204 222 215
204 223 215
203 222 212
203 222 209
205 223 217
203 221 209
200 218 203
201 220 207
205 223 217
206 225 224
203 222 217
206 224 226
207 225 227
205 223 221
208 226 228
206 225 224
209 227 233
207 225 226
208 225 226
205 223 223
207 225 223
206 225 228
209 226 230
207 225 227
210 227 236
208 225 226
207 225 230
209 226 231
210 228 237
206 224 224
207 225 221
211 228 237
206 224 226
210 228 238
208 226 231
210 227 234
210 227 231
208 225 230
212 229 237
209 227 236
209 226 230
207 225 227
208 226 231
207 225 221
208 226 230
212 229 240
205 223 220
207 225 223
207 224 218
211 228 236
204 222 211
209 227 230
207 225 224
204 222 217
205 224 220
202 221 204
206 224 218
202 221 206
205 223 215
200 219 199
203 221 209
199 217 191
199 217 202
200 219 210
195 213 214
190 208 207
179 197 211
173 192 212
159 178 198
155 174 204
141 162 191
134 156 192
155 175 202
133 155 195
131 153 193
112 137 178
103 129 173
107 133 170
100 127 179
97 125 170
88 118 169
91 120 163
82 113 164
81 112 156
71 105 167
77 109 155
77 108 148
84 114 161
73 106 155
73 106 166
77 108 157
64 99 162
65 100 151
64 98 147
63 99 162
66 101 154
68 102 160
65 100 159
64 100 167
62 97 149
64 99 161
63 98 160
61 97 155
63 99 157
61 97 162
60 96 154
63 98 157
61 97 161
61 97 164
62 98 163
62 98 159
61 97 159
61 97 164
61 97 162
62 98 168
61 97 163
61 97 159
62 98 169
60 96 152
62 98 164
61 97 159
62 98 160
60 96 159
61 97 160
61 97 161
61 97 164
62 98 167
62 98 168
61 97 163
63 99 167
61 97 160
61 97 157
61 97 160
61 98 169
60 97 163
60 96 160
61 97 157
62 99 167
61 97 165
62 98 164
61 97 162
61 97 155
61 97 160
62 98 159
62 98 162
62 98 161
62 98 166
62 98 169
61 98 164
62 98 162
62 98 162
62 98 161
62 98 161
62 98 160
61 97 160
61 97 159
62 99 165
62 98 163
62 99 165
61 97 166
62 99 168
62 98 165
62 98 164
62 98 164
61 97 161
62 98 165
62 98 163
62 98 161
61 98 159
62 98 160
62 98 160
62 98 164
61 97 164
61 97 157
62 98 156
62 98 164
62 98 160
62 98 162
62 98 160
61 97 161
61 97 156
62 98 162
62 98 160
62 98 164
62 98 166
62 98 163
62 98 160
61 97 156
61 97 155
62 98 163
62 97 163
62 98 163
63 99 167
62 97 158
61 97 163
61 97 156
62 97 153
62 97 153
62 98 162
62 98 161
62 97 158
63 99 162
61 97 154
62 98 156
62 97 158
62 97 145
62 98 155
61 97 150
62 98 165
62 97 153
62 97 160
62 98 158
62 98 162
61 97 153
61 96 153
62 98 160
63 98 158
62 98 162
61 97 150
60 95 149
62 97 150
61 96 147
62 98 157
61 97 157
61 96 150
61 96 149
62 98 162
61 97 161
61 97 155
60 96 141
62 98 158
61 96 151
61 97 154
62 97 158
62 98 160
61 96 150
59 94 139
62 98 157
61 96 151
61 97 157
60 95 137
62 97 155
60 94 142
61 95 139
59 94 136
61 96 144
60 94 139
61 95 142
59 93 134
58 91 132
59 93 139
59 93 140
69 93 118
79 93 77
82 88 58
93 94 30
98 100 11
93 96 0
104 105 8
92 91 0
89 88 0
82 82 0
79 79 8
94 92 11
86 84 14
85 82 8
85 81 18
91 87 16
87 86 1
103 98 11
98 94 0
106 100 14
101 97 1
96 93 8
97 93 14
91 88 8
101 98 0
108 106 25
98 96 0
111 109 16
102 98 5
106 104 23
96 94 18
107 104 12
108 104 22
108 105 19
109 106 12
104 102 11
112 111 18
93 91 14
119 115 16
120 115 32
106 102 19
117 114 18
106 102 18
130 124 36
124 119 24
121 117 25
121 118 19
118 115 22
118 114 31
121 118 19
126 121 28
117 113 28
131 126 36
126 122 28
113 109 25
134 129 28
127 122 26
128 125 22
127 121 28
126 121 30
128 122 37
132 128 30
129 124 24
136 132 34
120 116 22
131 127 22
123 120 25
131 127 16
132 128 39
131 126 30
128 122 36
124 117 28
130 125 28
130 126 34
123 118 37
127 122 30
128 123 36
123 118 32
117 112 28
124 118 22
128 123 30
129 123 36
125 120 30
122 117 19
134 128 32
112 107 22
125 120 34
129 125 30
121 117 28
141 137 39
135 131 34
121 119 22
129 127 28
124 125 30
141 138 34
126 128 19
132 133 19
141 143 28
138 142 19
137 144 16
143 150 11
144 152 11
149 157 16
150 156 19
148 155 19
145 154 11
157 170 11
154 165 11
157 169 0
155 167 0
158 169 0
159 171 0
165 182 0
158 173 0
165 180 0
166 182 0
164 179 0
162 179 0
162 178 0
165 182 0
163 177 0
161 177 0
167 184 0
161 177 0
162 180 0
166 186 0
166 182 0
160 176 0
166 184 0
165 183 0
165 182 0
168 186 0
164 181 0
164 181 0
171 191 0
170 189 0
169 187 0
166 183 0
196 215 188
200 219 199
201 220 199
202 221 204
200 218 193
198 217 196
195 216 184
200 219 196
205 224 221
199 218 206
200 220 206
205 223 217
204 223 218
201 220 204
202 221 209
202 221 209
206 224 220
206 224 226
204 223 217
207 225 226
202 221 212
205 223 218
207 225 226
205 223 220
207 225 228
207 225 228
205 223 224
206 224 221
206 223 218
209 226 230
207 225 226
209 226 233
206 224 228
211 228 234
210 228 238
206 223 224
207 225 230
211 228 237
207 224 227
207 225 231
208 226 231
210 227 233
208 225 227
210 227 237
208 225 227
207 225 224
209 226 234
207 225 228
212 229 244
209 227 234
208 225 228
209 226 233
212 229 241
210 227 233
208 226 227
208 225 228
208 226 230
205 223 220
209 226 230
209 226 233
206 224 228
209 227 231
206 224 221
207 225 224
207 225 223
206 224 227
208 225 221
204 221 217
204 222 214
202 220 206
202 221 209
202 220 207
203 221 208
201 219 216
198 216 211
183 201 208
192 210 227
166 186 214
165 184 212
170 189 220
157 177 209
148 169 206
155 176 209
146 167 204
137 159 195
116 140 184
113 137 177
121 146 181
110 135 181
89 118 173
90 119 166
88 117 174
89 118 167
83 113 160
92 121 164
78 110 165
82 112 159
79 110 159
80 111 158
72 105 158
83 112 160
75 106 156
63 98 153
73 106 161
63 98 158
66 100 162
63 98 160
61 97 153
62 97 160
64 99 162
63 99 160
65 99 156
64 99 166
61 96 155
61 98 169
60 96 156
60 96 161
63 98 157
62 98 164
61 97 166
60 96 159
61 97 162
60 96 162
60 96 157
61 97 159
61 97 161
61 97 160
61 96 157
62 98 163
61 97 159
61 97 167
60 96 159
61 97 161
61 97 167
61 97 155
61 97 163
61 97 160
62 97 159
61 97 163
60 96 161
61 96 158
60 96 152
61 97 163
60 96 156
60 96 155
62 98 160
62 98 160
61 97 156
62 98 161
61 97 159
61 97 158
61 98 165
62 98 167
61 97 159
61 97 160
60 96 154
62 98 168
61 98 161
62 98 165
61 97 158
62 98 159
61 97 159
62 98 162
62 98 161
61 97 153
61 97 159
62 98 164
61 98 166
62 98 158
61 97 153
62 98 168
62 98 163
62 98 162
62 99 167
62 98 161
61 97 164
61 98 165
63 99 165
60 96 149
61 97 165
62 98 165
62 98 160
62 98 158
61 97 153
62 98 159
61 97 156
62 98 158
61 97 155
62 98 167
62 98 163
62 98 158
62 98 165
61 97 163
60 96 148
62 97 155
63 99 164
63 99 163
61 97 159
62 99 167
62 98 158
62 98 161
62 98 159
62 97 157
61 97 158
60 96 152
61 96 152
63 99 167
62 98 158
62 98 159
62 98 161
62 98 154
62 98 159
62 98 157
62 97 151
62 97 156
61 97 153
63 99 164
61 97 150
61 97 157
62 98 158
62 97 159
62 98 155
62 98 157
62 98 160
60 95 144
61 96 153
62 98 159
62 98 156
62 97 153
61 97 151
61 97 154
61 97 151
62 98 155
62 98 155
60 95 141
60 96 143
62 98 156
62 97 151
61 96 147
61 97 154
61 97 156
61 96 156
60 95 140
63 99 161
62 98 158
60 95 149
62 98 154
61 96 149
60 95 146
60 95 147
62 97 155
60 95 141
60 94 134
61 95 139
60 94 143
59 93 134
61 96 147
61 95 147
59 93 139
61 95 147
61 95 144
61 93 128
67 91 120
76 89 87
86 90 47
101 103 0
103 104 8
102 102 11
105 110 8
90 89 11
91 90 8
81 80 11
87 86 0
97 95 8
95 92 8
98 96 8
82 81 8
93 89 16
97 91 3
84 82 8
90 89 8
99 96 18
92 90 11
105 102 14
83 82 14
96 93 8
99 95 3
99 96 22
101 97 0
106 104 14
95 91 11
107 104 16
105 102 14
109 106 18
116 112 16
112 110 24
111 108 18
118 114 11
113 109 16
118 114 19
109 105 14
117 113 26
113 109 21
119 115 26
118 114 26
117 114 16
105 103 14
120 116 25
116 112 28
113 110 26
124 120 19
123 119 24
115 111 18
129 125 32
124 120 25
122 118 25
125 118 31
118 115 22
119 116 19
128 123 32
123 119 32
131 125 28
133 130 25
120 116 25
123 119 22
128 122 30
124 120 16
133 129 30
127 122 30
130 124 30
125 120 22
124 120 25
124 118 32
131 126 30
123 119 22
126 121 22
126 122 28
131 126 36
129 124 28
128 122 30
133 126 41
123 119 32
123 117 22
123 120 16
129 124 25
125 121 25
118 114 32
123 118 19
121 115 30
117 113 25
127 123 25
126 123 28
126 122 30
125 122 22
129 127 16
131 130 11
135 138 25
136 138 19
132 134 28
150 155 22
132 138 0
145 151 16
144 154 19
148 155 19
141 149 11
147 154 0
148 155 11
147 159 16
155 163 19
159 173 11
160 174 0
157 170 0
160 172 0
162 176 0
167 181 0
160 173 0
159 172 0
161 176 0
161 178 0
159 174 0
161 175 0
162 178 0
157 174 0
163 178 0
166 184 0
166 184 0
162 181 0
161 177 0
165 185 0
164 181 0
159 176 0
167 184 0
164 183 0
159 174 0
163 181 0
169 187 0
166 183 0
166 185 0
168 187 0
167 185 0
199 219 198
200 218 194
198 217 193
201 220 198
199 218 198
204 222 211
200 220 203
202 221 206
204 222 214
204 222 212
204 222 214
202 221 211
205 223 224
205 223 215
207 225 224
205 223 218
210 227 231
204 223 221
207 225 226
208 226 233
205 223 220
205 224 223
203 222 218
205 224 224
209 227 233
210 227 240
208 226 231
207 225 226
208 226 233
210 227 234
211 228 238
208 226 230
209 227 230
205 223 223
207 225 227
209 226 233
211 229 242
209 226 230
211 228 240
208 226 230
209 227 234
209 226 231
211 228 236
207 225 221
209 226 230
209 227 233
212 228 237
211 228 241
210 227 234
209 227 233
208 226 226
211 228 236
210 227 233
208 225 221
210 227 230
208 226 236
209 226 227
206 224 220
210 227 233
206 224 223
206 223 221
209 227 233
209 226 223
206 224 221
207 225 226
210 227 234
203 222 215
207 225 226
206 223 212
206 224 217
206 224 220
211 228 231
208 226 226
200 218 213
198 216 220
192 210 221
165 184 208
176 194 219
163 183 211
157 177 215
151 171 208
137 159 202
135 156 196
140 161 196
125 148 193
134 156 198
127 149 193
102 129 171
122 146 188
109 135 191
99 125 172
108 134 180
90 119 167
84 114 161
71 104 164
82 113 168
75 107 162
77 108 159
75 107 162
74 106 155
72 104 156
74 106 161
66 101 154
74 107 162
69 102 161
72 105 155
63 98 157
65 98 150
60 95 149
64 99 162
61 97 160
65 99 154
62 97 157
59 95 159
65 99 150
61 97 160
61 97 159
61 97 157
60 96 161
61 96 156
61 97 161
60 95 154
61 97 164
61 97 166
62 98 158
61 97 161
62 98 163
61 97 164
61 98 165
60 96 158
60 96 151
61 98 164
61 97 156
62 98 162
61 97 162
61 97 161
62 98 159
61 96 152
61 97 159
60 96 153
62 98 164
61 97 168
61 96 161
62 97 164
61 97 160
62 98 166
61 97 157
61 97 158
63 99 170
62 99 167
61 97 160
60 96 157
62 98 167
62 98 163
62 98 160
62 97 159
61 97 159
62 98 164
61 97 164
62 98 164
60 97 156
61 97 162
62 98 164
62 97 155
62 98 162
62 98 161
62 98 161
61 97 154
61 98 165
62 98 161
62 98 162
62 99 167
62 98 164
62 98 166
62 98 164
62 98 164
62 98 160
62 98 169
62 98 156
62 97 158
63 99 165
62 98 162
61 98 164
61 97 154
62 99 164
61 97 155
62 98 160
61 97 157
63 99 163
62 98 163
62 98 158
61 97 159
63 99 168
62 98 162
62 98 158
61 97 156
64 99 168
61 97 156
62 98 154
62 98 161
61 96 148
62 98 154
61 97 156
62 98 157
61 97 153
62 99 167
61 96 147
61 97 154
61 97 150
63 99 166
62 98 158
62 97 156
61 96 145
62 99 166
62 98 155
62 98 156
61 96 145
61 97 152
62 98 161
63 99 162
62 98 159
63 99 166
63 99 167
62 97 150
62 97 149
61 96 147
62 97 154
62 98 165
61 97 151
62 97 153
62 98 161
61 97 152
61 97 147
60 96 148
62 98 151
61 96 153
62 97 153
61 97 147
61 97 153
61 97 152
62 97 154
60 95 142
62 97 155
62 97 154
61 96 145
61 96 149
61 96 154
59 94 139
59 94 142
60 95 144
61 96 149
60 96 147
61 96 150
62 97 150
61 96 145
61 95 144
59 93 140
60 95 143
60 95 143
59 93 134
59 92 129
58 90 136
81 99 109
84 97 84
99 105 47
108 111 26
109 111 16
102 102 14
92 92 11
96 96 0
87 89 16
109 108 12
91 88 11
98 95 0
92 91 11
103 101 8
80 79 2
93 87 11
93 88 8
91 90 0
90 86 0
88 86 12
100 96 0
100 95 21
83 79 18
102 98 14
99 95 14
108 104 14
100 97 19
102 97 14
106 102 12
97 94 8
104 100 12
110 107 21
112 107 22
109 105 11
106 102 22
104 102 18
102 99 11
106 103 16
113 112 21
105 103 0
103 101 16
105 101 11
118 114 21
111 108 24
113 109 19
127 123 37
117 112 24
120 117 22
130 126 11
116 114 22
124 120 22
125 122 22
126 120 22
121 117 25
124 120 22
124 117 34
124 120 19
128 123 26
125 120 30
118 114 16
125 122 21
124 119 25
132 128 28
117 113 22
131 126 34
127 121 25
129 122 39
119 115 16
127 121 37
120 116 22
130 125 32
126 121 32
124 120 28
124 119 30
125 120 32
131 127 22
124 118 36
121 115 37
119 115 25
131 123 32
131 125 28
125 119 32
130 125 30
124 119 28
118 115 16
125 121 34
124 121 36
117 115 25
128 126 16
135 132 34
116 117 28
134 134 22
140 141 30
133 134 22
134 135 11
131 130 32
140 140 28
137 142 19
141 146 16
141 146 19
146 152 0
149 158 11
145 150 19
138 146 0
150 161 19
151 162 11
157 171 11
165 178 0
159 174 0
160 172 0
160 172 0
159 173 0
161 175 0
160 174 0
160 176 0
160 175 0
160 176 0
158 171 0
159 172 0
163 178 0
161 177 0
163 180 0
161 176 0
167 184 0
160 175 0
165 183 0
164 180 0
166 183 0
158 172 0
166 183 0
165 182 0
162 179 0
164 181 0
169 185 0
164 180 0
169 188 0
167 185 0
168 186 0
199 218 198
202 221 204
202 221 211
203 222 211
200 219 201
203 221 211
206 224 220
204 222 217
207 225 223
206 224 224
204 222 214
206 225 227
206 224 220
205 223 220
208 226 227
209 226 224
208 226 226
206 224 224
211 228 240
208 225 228
207 225 224
208 226 236
211 228 237
211 228 237
209 226 227
209 227 234
209 226 230
210 227 237
208 226 233
210 226 236
209 226 231
209 227 234
208 225 226
205 224 226
209 226 227
209 227 237
209 226 236
211 228 234
205 223 223
209 226 231
208 226 234
206 224 226
208 225 227
207 224 223
209 227 231
208 225 228
209 226 234
210 227 230
204 222 214
205 223 221
202 221 214
210 227 236
210 227 233
209 227 230
207 224 224
209 226 234
208 225 227
209 227 234
209 227 234
207 225 223
212 229 238
207 225 224
210 227 240
209 226 228
211 228 236
210 227 236
208 225 221
210 227 230
211 228 234
205 223 221
205 223 215
208 225 226
206 224 222
203 220 225
200 218 228
193 210 231
181 200 225
175 194 217
180 199 225
166 185 213
162 181 214
149 170 205
141 162 203
144 165 204
137 159 199
134 156 198
127 150 195
119 143 191
116 141 191
97 125 176
105 131 181
109 134 185
81 112 164
88 117 168
81 112 166
76 108 165
86 115 159
78 109 157
83 113 172
69 103 163
76 107 165
75 108 169
73 106 160
70 104 162
74 106 160
68 102 160
69 102 152
65 99 160
63 99 164
69 102 160
66 101 159
61 97 156
64 98 141
62 97 162
61 96 151
61 97 159
61 96 160
62 97 149
60 97 160
61 97 161
61 96 158
61 96 151
60 96 161
61 96 157
61 97 163
61 96 158
61 97 166
62 98 163
61 96 155
61 97 160
60 96 156
61 97 157
61 97 161
60 96 156
62 98 159
61 97 157
61 97 158
61 97 157
62 98 164
61 98 165
62 98 165
62 98 167
61 97 156
62 98 163
61 97 159
61 97 163
62 98 162
62 98 163
62 98 166
62 98 169
62 98 167
61 96 153
62 97 157
61 97 156
62 98 166
62 98 162
62 98 162
61 97 156
62 98 161
62 98 165
62 98 163
60 96 151
61 97 161
61 97 157
62 98 160
61 97 160
62 98 158
61 97 156
61 97 161
62 98 160
62 98 162
62 98 167
62 97 157
62 98 158
62 98 159
62 98 162
62 98 160
61 97 158
61 98 159
62 98 162
62 98 162
62 98 162
62 97 156
61 97 159
62 98 165
62 98 161
62 98 158
61 98 162
61 97 160
62 98 159
62 98 165
62 98 161
62 98 157
63 99 162
62 98 161
62 97 154
62 98 155
61 97 153
61 97 159
62 98 163
62 98 161
61 97 153
61 97 154
62 98 162
61 97 157
61 97 161
60 96 153
62 98 158
61 97 154
62 97 161
62 98 160
62 97 155
61 97 155
62 98 161
62 97 157
63 98 166
61 97 157
62 98 157
62 98 159
61 96 149
61 96 154
62 98 157
61 96 152
62 98 161
61 96 154
61 97 151
61 97 161
61 97 148
62 98 162
62 98 157
61 96 143
62 98 158
61 97 153
61 96 149
62 97 152
62 98 157
62 98 158
61 96 147
61 97 148
61 97 153
61 97 148
62 99 163
61 96 145
61 96 152
61 97 150
62 97 148
62 97 153
61 97 152
61 96 145
61 96 142
61 96 149
60 95 140
60 95 139
61 96 140
60 94 137
60 95 143
58 92 132
60 95 144
59 93 132
59 93 132
60 95 140
64 94 125
76 93 103
83 91 64
104 109 45
103 105 11
108 113 11
99 100 8
102 101 11
104 104 11
99 98 0
97 99 8
93 91 11
104 102 16
98 99 0
98 97 8
99 97 14
96 93 19
90 89 8
96 94 11
89 87 0
102 101 16
99 95 0
82 80 14
94 89 11
94 90 19
103 99 8
95 93 19
95 92 8
103 98 0
96 93 8
93 92 14
94 93 11
97 93 11
118 114 21
111 107 19
108 104 21
107 105 11
115 111 11
100 97 8
110 107 14
117 113 19
109 106 14
116 111 22
113 109 22
115 111 16
114 109 20
117 113 16
111 107 30
112 107 23
123 119 19
123 118 22
121 117 26
125 121 19
118 114 16
119 115 16
118 115 22
124 120 19
126 122 31
124 118 28
121 118 22
119 113 16
129 125 25
124 119 28
133 128 25
130 124 24
125 120 22
121 117 25
125 120 16
118 114 25
128 123 25
126 121 22
123 118 22
132 127 37
126 122 22
121 117 22
128 123 28
116 111 0
122 116 22
125 121 25
127 121 28
122 116 30
116 112 11
125 121 25
123 118 28
127 123 25
120 117 19
126 122 19
130 126 19
134 132 22
123 119 16
131 132 25
133 133 19
130 127 11
132 133 11
127 128 16
136 142 0
139 146 19
145 150 19
144 149 25
147 154 16
144 153 11
140 146 22
145 152 0
145 154 11
150 160 11
144 152 11
154 165 0
158 174 0
158 173 0
156 169 0
159 174 0
161 175 0
158 171 0
162 177 0
164 180 0
161 177 0
163 179 0
157 171 0
159 176 0
168 182 0
156 171 0
165 182 0
165 181 0
163 180 0
163 177 0
162 178 0
162 181 0
167 183 0
163 180 0
166 183 0
165 180 0
163 179 0
167 183 0
167 185 0
165 181 0
163 181 0
162 178 0
170 188 0
166 185 0
201 219 203
204 222 212
207 225 223
203 222 217
207 225 226
205 223 215
207 225 224
208 226 230
206 224 220
205 223 218
203 222 215
206 225 226
209 227 233
208 226 224
211 228 238
206 224 221
210 228 238
207 225 226
209 227 231
208 225 230
210 227 233
206 224 224
206 224 226
208 226 233
210 227 238
209 226 231
208 226 228
211 228 236
206 224 218
208 226 228
208 225 227
208 225 227
208 225 226
208 226 233
209 226 230
207 224 230
205 223 220
204 223 217
206 224 217
201 219 209
203 222 217
206 224 221
206 223 220
206 224 221
205 223 218
208 226 228
206 224 226
205 223 214
205 222 218
206 224 220
199 217 211
208 226 228
206 224 221
206 224 220
205 223 220
206 224 223
205 223 217
205 223 223
205 222 218
210 227 231
210 227 230
205 223 220
210 227 228
204 223 215
208 226 230
211 228 233
210 227 228
206 223 227
205 223 218
206 224 223
209 226 228
209 226 231
206 224 231
208 224 235
193 211 221
185 203 225
180 198 218
171 189 222
164 183 213
164 183 217
144 165 203
151 172 209
155 175 210
157 177 214
150 171 209
142 164 210
136 158 203
108 134 184
119 143 189
111 137 186
100 127 182
99 126 178
85 115 172
86 116 179
81 112 165
78 110 175
87 117 167
86 115 167
77 108 153
82 112 164
80 111 163
81 113 170
66 99 157
70 104 162
64 99 161
63 98 154
60 95 156
64 99 155
66 100 156
63 99 159
62 97 161
61 97 160
61 97 166
61 97 158
65 99 149
63 98 154
60 96 160
60 96 158
61 97 158
60 95 154
60 96 158
61 96 155
61 97 157
63 97 150
61 97 162
61 97 157
61 97 161
61 97 162
61 96 161
63 99 164
61 97 160
61 97 163
62 98 165
62 98 158
61 96 157
62 98 164
61 97 157
61 97 161
61 97 157
62 99 167
60 96 153
61 97 155
61 97 160
61 97 159
60 96 157
61 97 157
61 97 157
61 97 159
61 97 163
61 98 164
61 97 159
62 98 159
62 99 168
61 97 164
62 97 158
62 98 161
62 98 164
61 97 157
61 97 155
60 96 158
61 97 160
61 97 159
62 97 162
62 98 155
61 97 157
61 97 156
61 97 157
62 98 167
61 97 163
61 97 158
62 98 159
62 98 163
62 98 160
62 97 157
62 98 166
62 98 161
62 98 162
61 97 159
62 98 159
61 97 157
62 98 159
61 97 156
62 97 155
62 99 166
61 97 152
62 97 156
61 97 158
61 97 155
62 97 152
61 97 154
63 99 162
62 98 161
61 96 151
61 97 152
62 98 158
63 99 163
61 97 155
62 97 157
61 97 156
62 98 160
61 96 154
61 97 153
62 97 159
62 97 151
61 97 155
62 99 164
62 98 154
63 99 163
60 96 147
61 97 151
61 97 156
61 97 160
61 97 148
61 97 158
60 96 145
62 98 155
61 96 148
62 98 165
62 99 164
62 98 158
62 98 158
61 97 154
60 96 151
62 97 154
61 97 149
63 99 159
61 97 156
62 97 156
61 97 154
62 97 156
60 95 148
62 97 151
62 98 159
61 96 152
61 96 148
62 98 159
61 97 155
61 96 156
61 96 147
62 97 156
62 97 154
60 95 153
61 96 151
60 96 150
61 96 148
61 97 154
62 97 157
61 96 144
60 96 145
62 97 151
61 97 147
61 96 146
60 95 140
60 94 141
60 95 148
59 93 133
60 94 131
60 94 134
60 94 141
59 93 139
59 93 138
63 91 130
74 91 98
91 98 70
104 107 26
105 106 11
107 109 0
106 107 11
90 89 0
92 92 0
87 87 0
95 94 2
91 91 11
96 97 16
100 98 8
93 89 8
88 85 0
94 88 8
96 93 14
86 83 11
91 89 0
84 81 0
81 79 14
94 91 0
99 95 8
101 96 0
98 94 11
96 94 0
88 85 0
98 94 8
97 93 0
101 97 14
105 101 0
109 106 11
97 94 0
112 108 16
102 98 0
113 107 11
103 100 2
113 109 11
112 108 18
118 113 21
117 113 14
116 112 22
117 112 25
111 108 11
115 112 16
107 104 20
110 106 11
121 116 22
120 115 16
122 118 16
112 109 18
115 111 22
123 117 25
116 111 16
124 119 19
127 122 16
118 112 16
120 115 11
121 118 22
120 116 28
118 114 16
122 118 25
122 117 11
122 118 19
121 115 16
120 117 19
120 116 11
124 120 25
123 118 25
125 121 19
128 124 28
126 121 22
115 111 25
124 119 30
108 104 11
119 114 22
113 107 25
117 112 30
122 118 22
119 115 16
121 117 19
117 112 32
123 118 34
124 122 22
120 117 28
125 123 28
129 126 16
134 133 28
136 135 32
128 128 16
131 131 19
131 134 16
137 137 30
137 142 11
143 147 19
138 143 0
132 136 16
142 150 22
145 153 11
147 156 16
154 164 16
148 152 0
153 161 11
148 156 0
159 173 16
155 169 0
156 168 0
162 177 0
159 171 0
161 176 0
161 176 0
167 183 0
153 166 0
162 176 0
163 176 0
159 175 0
162 178 0
162 179 0
165 183 0
162 178 0
163 177 0
167 182 0
166 181 0
168 186 0
166 184 0
166 183 0
164 181 0
164 180 0
164 182 0
162 178 0
166 183 0
164 182 0
162 179 0
167 185 0
166 182 0
166 183 0
172 191 0
168 185 0
205 224 217
201 220 206
203 221 206
205 224 227
204 223 217
208 225 226
203 222 212
207 225 223
205 224 217
206 224 224
206 224 223
210 227 234
207 225 224
207 225 226
207 225 227
206 224 220
210 227 234
207 225 228
205 223 227
207 225 227
208 226 234
207 225 230
208 225 223
208 226 226
207 225 228
208 225 223
205 223 218
208 225 228
204 223 221
203 221 211
203 221 215
203 221 212
201 220 212
199 218 206
201 220 215
204 221 211
204 223 223
205 222 217
205 223 220
203 221 209
205 223 217
203 222 214
207 225 226
203 222 214
203 221 207
200 219 209
201 220 206
206 224 221
203 222 211
202 221 209
201 220 209
201 220 207
200 219 206
198 217 196
201 220 212
201 219 203
204 222 218
206 224 217
204 222 218
209 226 226
205 223 215
203 221 215
205 223 220
206 223 224
206 224 220
208 225 221
206 224 221
209 226 226
207 225 221
205 222 217
206 223 231
206 223 222
197 216 211
199 216 226
178 197 217
181 199 220
186 204 226
182 200 223
162 182 217
163 183 214
160 180 216
165 185 214
160 179 217
155 175 212
136 158 205
146 167 205
126 150 199
113 138 191
111 136 190
122 145 190
114 139 191
94 122 179
97 125 183
92 120 175
98 126 176
89 118 167
84 115 166
75 107 161
68 102 161
73 105 167
64 100 167
72 104 155
70 103 161
72 105 162
70 104 167
69 102 159
74 106 163
60 96 157
66 100 158
67 100 150
65 99 154
67 101 157
62 97 159
60 96 150
65 100 158
61 96 155
60 96 160
63 99 160
61 96 153
61 97 160
61 96 154
60 95 152
61 97 154
60 96 157
60 96 158
62 98 160
60 96 157
61 97 159
61 96 157
61 97 156
61 97 156
61 96 159
61 97 164
60 95 152
62 97 158
60 96 150
61 97 162
61 97 154
62 97 162
61 97 157
61 97 149
60 95 157
61 97 162
61 98 164
61 97 163
61 97 157
61 96 158
61 97 161
61 97 153
62 98 162
61 97 159
62 98 160
63 99 166
61 98 166
62 98 161
62 98 160
63 99 170
61 97 160
62 98 159
61 97 154
60 96 152
61 97 156
61 97 154
61 97 155
62 98 161
62 98 157
62 97 153
61 97 155
62 98 162
61 97 158
62 98 159
62 98 155
61 97 158
62 97 164
61 97 155
63 99 164
61 97 154
61 97 158
61 97 155
60 96 151
61 96 147
61 97 156
61 97 157
61 97 155
62 98 157
61 97 159
62 98 160
62 98 163
62 98 154
61 97 156
61 98 159
61 97 157
62 98 159
62 98 161
61 97 156
62 98 159
62 98 159
63 99 166
61 97 155
61 96 152
62 97 155
61 97 156
60 96 147
61 97 156
61 97 158
60 96 147
62 98 158
62 97 151
62 98 158
61 96 148
62 97 153
62 98 156
61 96 149
62 98 159
61 97 154
62 98 158
61 97 153
61 97 144
62 98 162
62 98 160
61 97 153
62 98 161
61 97 150
62 98 162
61 97 152
62 98 160
62 98 163
62 98 159
62 98 155
61 97 158
61 97 154
62 97 149
63 98 159
62 98 160
61 97 150
62 98 153
61 96 152
61 97 156
60 96 147
61 96 150
62 97 149
61 96 150
61 97 159
61 96 143
62 97 155
59 94 136
61 96 148
60 95 140
61 96 146
60 95 139
60 95 144
60 94 132
60 95 145
61 95 139
59 93 139
58 92 128
58 92 127
59 92 130
59 94 141
59 94 134
60 93 133
73 97 124
89 102 96
104 109 57
109 115 51
99 100 0
108 109 0
97 94 0
108 110 0
104 105 0
105 105 11
100 98 16
89 91 8
100 97 0
98 96 8
92 90 0
91 90 0
98 99 0
104 103 0
102 101 0
92 88 0
94 89 11
92 89 11
103 100 0
98 96 14
76 73 8
90 87 0
97 93 11
99 96 11
92 88 0
94 91 0
109 106 0
102 98 11
103 99 12
95 92 0
109 105 8
104 100 14
107 102 18
108 105 12
108 104 11
110 104 11
103 99 8
110 106 14
113 108 11
116 111 25
107 103 14
111 106 11
115 111 19
120 117 0
121 116 19
114 110 11
113 110 19
117 112 18
123 118 0
118 115 19
116 112 19
109 105 16
112 108 22
125 120 25
118 113 18
122 116 25
111 108 24
120 115 16
114 109 19
127 123 16
129 124 25
121 117 11
112 108 25
124 121 19
119 114 11
113 107 22
121 116 19
130 125 22
124 119 22
122 118 28
118 113 19
124 119 28
116 112 22
131 129 11
116 113 19
118 114 16
128 124 28
119 117 22
117 112 16
130 127 25
122 119 25
131 128 25
122 121 16
123 122 11
139 141 22
133 134 22
133 133 16
134 136 11
140 142 22
131 132 22
133 139 0
141 146 11
140 146 0
147 155 0
133 136 0
152 161 0
150 157 11
148 154 16
153 163 0
153 163 11
155 167 16
156 167 0
159 171 0
159 173 0
159 174 0
163 176 0
160 173 0
162 176 0
162 176 0
164 178 0
163 177 0
161 177 0
160 175 0
161 176 0
162 175 0
166 181 0
164 182 0
162 179 0
162 178 0
161 178 0
163 178 0
166 183 0
163 181 0
163 179 0
162 178 0
163 179 0
162 179 0
164 181 0
166 185 0
163 181 0
164 182 0
162 179 0
164 183 0
167 185 0
162 180 0
202 221 207
203 222 214
204 222 215
203 221 211
207 224 223
210 227 237
208 226 227
207 224 223
205 223 223
208 225 228
210 227 234
207 225 228
207 225 227
204 222 218
213 229 241
209 226 226
209 227 230
211 228 241
210 227 233
208 225 226
209 226 228
206 224 224
204 222 218
207 225 230
204 222 215
204 222 217
205 223 220
205 223 221
207 224 221
203 222 215
206 224 223
201 220 204
198 217 203
198 217 198
199 218 198
202 220 209
199 218 193
200 219 206
201 220 204
197 216 188
203 221 211
199 218 201
199 218 193
196 216 193
200 219 196
201 220 201
199 219 198
198 217 206
202 220 203
198 218 199
198 217 193
198 218 199
200 219 199
201 220 204
199 218 196
200 218 201
199 218 199
198 217 198
201 220 204
200 218 209
200 219 199
201 219 204
201 220 207
206 224 220
208 226 230
203 221 217
202 220 201
205 223 221
208 225 228
207 224 226
205 223 215
204 222 223
202 219 224
199 217 221
194 211 228
179 198 213
166 185 207
180 199 226
151 171 206
178 197 222
158 178 213
156 177 214
164 184 217
138 160 205
137 159 201
135 157 200
136 158 201
147 168 209
123 147 197
113 139 194
117 141 188
105 131 181
98 126 181
85 115 178
91 119 176
78 110 172
81 112 166
79 109 171
73 106 169
70 103 165
74 107 159
71 105 169
66 101 161
75 107 156
66 100 155
62 98 165
72 105 167
64 98 162
69 102 156
69 102 154
63 98 154
66 100 152
63 98 159
64 99 160
60 96 161
60 96 153
60 96 155
63 98 159
59 94 144
63 98 157
62 98 163
62 96 147
61 98 162
61 97 161
60 95 144
61 96 159
59 94 157
60 96 154
61 96 154
62 98 165
60 96 160
60 95 151
61 97 159
60 96 163
61 97 162
60 96 151
60 96 155
60 96 155
61 97 159
60 96 150
61 97 158
60 96 153
61 97 156
61 97 161
62 98 162
60 96 155
61 97 161
62 98 163
60 95 147
61 97 157
62 98 159
61 97 158
60 95 148
62 98 168
62 98 161
62 98 162
62 98 164
61 97 161
61 97 156
62 98 160
61 96 155
62 98 164
62 98 158
61 97 158
61 97 154
61 97 157
62 98 161
61 98 162
61 97 160
62 98 163
63 99 162
61 98 164
61 97 149
61 97 161
62 98 166
61 96 154
62 98 161
62 98 160
62 98 160
62 97 156
62 99 166
62 99 164
61 97 153
61 97 158
62 98 161
62 98 156
61 98 161
61 97 155
62 98 158
62 98 156
62 99 166
62 98 158
62 98 164
61 97 156
60 96 150
62 98 158
62 98 164
62 97 156
62 98 159
61 97 154
61 97 150
61 97 155
62 97 154
61 97 153
61 97 159
62 97 156
62 98 154
61 97 153
62 97 158
61 97 153
60 96 151
61 96 149
62 98 161
62 98 162
61 97 158
61 97 153
61 97 153
62 98 159
61 97 153
63 98 155
61 96 142
61 97 152
62 97 155
61 97 153
61 96 147
61 97 153
62 98 159
61 97 151
61 97 149
61 97 151
61 97 154
61 96 144
61 96 147
62 98 160
61 97 154
61 96 153
61 97 150
61 96 140
61 96 143
62 97 151
62 97 152
61 96 145
61 97 150
60 96 147
61 96 151
61 96 140
61 95 143
60 95 142
61 96 152
60 94 143
62 97 148
61 96 142
60 95 141
61 95 144
60 94 133
61 96 143
60 94 141
60 94 134
59 92 135
59 93 136
60 91 126
79 100 110
79 94 83
101 109 68
100 103 29
98 102 0
104 105 0
112 116 0
104 104 12
106 107 2
109 111 0
88 88 0
91 90 0
99 99 0
91 91 0
96 95 0
90 91 0
97 92 16
88 88 0
90 91 0
97 96 0
93 89 8
96 93 0
91 87 0
95 90 11
91 88 0
103 100 0
105 102 0
102 97 0
97 93 0
98 95 12
95 92 0
91 88 12
103 99 11
103 98 0
95 92 14
84 82 14
102 96 0
88 85 8
99 95 0
112 107 0
101 96 3
108 104 0
104 100 11
113 110 0
107 104 0
117 113 11
109 105 0
121 117 11
114 111 11
115 112 0
112 107 22
108 105 14
110 106 14
114 109 11
121 115 11
110 105 11
118 113 16
125 120 11
102 97 16
112 108 0
122 118 16
114 110 16
118 113 11
123 118 25
106 100 11
118 113 11
112 108 19
119 114 19
121 117 0
110 106 19
114 108 16
124 117 32
112 106 22
124 118 16
121 114 22
116 111 19
128 123 32
117 114 16
114 111 11
116 113 19
120 117 0
118 116 11
126 125 0
123 118 16
125 120 19
124 122 16
124 123 16
137 138 16
130 131 22
135 139 19
127 130 19
139 143 28
138 141 16
135 140 0
144 150 19
141 147 19
143 149 11
152 161 0
150 159 0
148 154 0
151 159 11
151 160 0
146 155 0
156 168 0
155 166 0
163 175 0
152 164 0
164 178 0
152 162 0
165 179 0
159 171 0
155 169 0
163 177 0
160 174 0
159 172 0
160 175 0
163 179 0
164 179 0
161 175 0
165 182 0
160 176 0
164 182 0
157 172 0
159 174 0
160 176 0
165 180 0
169 186 0
165 184 0
159 174 0
163 178 0
169 188 0
165 184 0
167 186 0
167 185 0
163 179 0
167 185 0
164 182 0
169 187 0
168 187 0
203 222 212
207 225 227
207 225 227
204 223 220
206 224 220
207 224 223
207 225 223
207 225 227
210 227 233
206 224 220
211 228 236
212 229 237
209 226 230
206 224 231
205 222 226
209 227 233
208 225 223
204 223 220
207 224 220
207 224 221
210 227 227
206 224 223
205 223 220
195 215 182
200 218 193
205 224 220
196 216 194
201 220 206
203 221 214
193 213 177
201 219 201
198 218 198
197 216 191
196 215 193
197 216 193
195 216 188
199 218 199
198 218 194
197 217 193
198 218 196
196 216 194
199 218 199
198 217 201
193 214 188
195 215 191
196 216 193
198 218 189
195 214 184
194 215 179
196 216 193
194 213 175
199 218 196
196 216 193
198 217 191
198 218 193
194 213 179
198 217 191
197 217 184
197 216 194
194 214 191
200 219 198
199 218 196
203 221 211
201 220 201
202 221 214
200 219 204
202 220 215
198 217 198
203 221 207
202 220 217
204 222 211
199 217 214
196 214 220
184 203 213
184 202 226
181 199 220
170 189 217
161 181 214
163 184 212
172 191 217
147 168 205
166 186 214
150 171 203
135 157 198
140 162 206
121 145 192
125 148 198
139 161 203
134 157 203
121 145 197
108 134 185
110 136 190
93 121 181
107 133 185
104 130 187
99 126 174
88 118 178
88 118 176
70 104 165
66 101 167
82 113 170
67 102 166
67 101 154
76 108 164
86 115 167
66 101 159
62 96 147
68 101 155
67 101 156
67 100 147
59 94 148
62 98 162
71 104 158
60 95 154
63 98 163
62 98 158
62 98 160
60 95 147
60 96 159
59 95 160
60 96 154
60 96 153
60 96 157
62 98 162
61 97 158
59 95 147
61 97 163
59 95 156
61 97 160
61 96 156
61 97 161
61 97 159
60 96 161
61 96 162
60 96 156
61 97 158
61 97 160
62 98 162
61 97 154
61 97 162
61 97 160
61 97 152
60 96 157
61 98 161
62 98 168
61 97 162
61 97 160
60 96 158
60 96 154
61 97 160
61 98 161
61 97 160
61 97 161
62 97 157
60 96 160
61 97 159
62 98 165
62 98 168
63 98 158
61 96 153
62 98 163
61 98 168
62 98 156
61 97 159
61 97 160
61 97 156
61 97 156
62 98 159
60 96 150
61 97 156
61 96 152
61 97 155
62 98 160
62 99 163
61 97 157
61 97 153
61 97 155
62 97 157
61 97 157
61 97 154
62 98 164
62 98 161
60 96 152
62 98 164
63 99 165
62 98 160
61 97 159
61 97 148
61 97 159
62 98 160
61 97 153
62 98 155
61 97 154
62 98 158
60 96 148
62 98 158
61 97 154
61 97 156
62 98 159
62 98 161
61 97 152
61 97 151
62 97 157
62 98 157
61 96 152
61 97 155
60 96 145
62 98 160
62 98 156
62 98 150
62 98 157
61 97 154
61 97 153
61 97 154
62 97 153
61 96 155
62 98 157
62 98 163
62 98 158
62 98 157
62 98 159
61 97 151
61 97 153
60 96 143
62 98 158
60 96 140
62 97 154
63 98 161
60 95 147
62 98 158
62 98 158
62 97 154
61 97 152
60 96 148
60 95 141
62 97 151
62 97 155
61 97 152
61 96 147
62 97 154
61 96 149
62 98 157
61 97 149
61 95 143
61 96 145
61 96 147
61 96 149
59 94 140
60 95 135
60 95 140
61 96 148
61 96 146
61 96 144
60 95 140
61 96 148
61 95 141
58 92 136
59 93 127
59 93 135
58 91 127
57 89 126
74 96 114
100 109 74
104 110 41
107 111 22
103 104 0
115 119 0
106 108 0
94 97 0
94 95 0
100 102 0
101 102 0
104 105 8
102 101 0
112 111 0
102 102 11
86 85 11
82 83 8
91 89 8
98 98 11
92 88 0
98 94 11
95 92 8
108 105 0
89 87 0
97 96 0
101 96 0
101 96 0
103 100 0
91 85 0
96 90 0
101 96 11
96 92 0
106 103 8
90 89 8
97 93 12
106 102 0
101 100 14
110 105 0
102 99 0
95 93 16
113 109 0
103 98 0
109 103 0
116 110 0
93 91 11
119 115 16
104 100 14
100 98 0
111 108 16
112 107 11
107 104 0
116 112 11
111 106 8
117 113 18
117 113 21
115 111 11
110 106 16
116 113 11
104 100 22
109 105 0
110 104 8
116 112 16
122 117 16
115 111 16
113 109 19
116 110 19
113 108 16
112 108 11
123 118 11
124 120 22
119 114 0
113 111 16
121 116 25
105 100 0
122 116 11
110 109 0
122 121 16
122 115 28
122 117 11
118 115 19
122 119 22
127 124 22
118 115 11
125 120 19
121 120 19
124 125 0
127 130 11
134 135 25
139 139 30
132 135 19
138 141 0
136 138 22
138 140 19
138 145 11
139 143 11
143 145 11
147 155 0
138 144 0
148 155 0
148 157 11
159 169 11
155 166 0
157 167 0
156 167 0
155 167 0
157 168 0
156 167 0
159 172 0
158 168 0
160 176 0
163 179 0
161 176 0
160 174 0
157 170 0
161 177 0
160 176 0
163 178 0
163 177 0
165 180 0
162 179 0
166 183 0
159 174 0
162 178 0
160 175 0
163 179 0
160 173 0
161 177 0
170 188 0
167 181 0
168 188 0
165 182 0
165 180 0
166 182 0
169 188 0
167 186 0
167 186 0
163 180 0
164 183 0
170 187 0
204 222 211
205 223 212
206 224 220
206 224 226
211 228 233
210 228 236
209 226 228
209 226 230
210 227 230
211 228 241
207 225 227
207 225 227
209 227 228
206 223 221
204 222 215
205 223 217
207 225 227
203 221 215
205 223 220
199 218 196
204 222 215
206 224 226
200 219 196
202 221 206
198 218 199
196 216 186
197 216 201
198 217 191
199 218 194
196 216 191
198 218 196
195 215 179
195 215 182
190 210 161
193 214 177
192 212 169
193 213 173
196 215 184
195 215 186
193 213 173
196 216 184
195 215 184
192 212 167
190 210 159
190 211 169
191 212 169
193 213 169
194 214 179
197 217 189
194 214 179
190 210 177
195 215 177
191 211 171
194 213 179
199 218 196
196 216 193
194 214 181
191 211 175
192 212 165
195 215 184
200 219 198
198 218 193
198 217 193
199 218 196
199 218 201
195 214 184
198 218 191
202 220 203
202 220 196
201 219 207
204 223 221
198 217 211
194 212 211
194 212 227
175 194 208
181 200 222
168 188 210
166 186 214
161 181 209
145 166 200
151 172 207
154 175 207
142 164 202
147 169 203
150 171 206
126 150 195
140 162 203
123 147 198
119 144 195
121 145 196
116 140 189
103 130 185
107 133 188
106 132 184
107 133 186
88 117 181
99 126 182
80 111 175
81 112 168
74 106 164
73 107 173
68 103 171
78 109 165
68 102 163
80 111 162
80 110 158
68 101 150
71 104 160
72 105 164
70 102 154
64 98 149
68 101 161
64 99 157
59 94 149
60 96 157
63 98 156
60 95 145
60 96 159
61 97 156
60 96 152
60 96 156
62 97 157
61 96 159
65 99 157
60 96 158
61 97 158
61 97 163
61 97 160
59 94 154
60 95 149
59 94 143
59 94 146
62 98 161
61 97 157
60 95 154
62 98 166
60 96 153
60 96 157
60 95 152
60 96 158
61 97 161
61 96 159
62 97 155
61 97 158
61 97 155
60 96 145
61 98 166
61 97 158
61 97 159
62 97 160
63 99 163
61 97 159
61 98 167
62 97 156
61 97 157
61 97 157
61 96 153
61 97 163
61 97 160
61 97 158
61 96 155
61 97 155
62 98 158
61 97 162
61 97 148
61 97 165
62 98 162
61 97 153
62 98 158
61 97 157
61 97 157
62 97 154
62 98 163
61 97 159
63 98 161
61 97 161
61 97 157
62 98 155
62 98 160
61 98 158
61 96 143
62 98 162
60 96 150
61 97 157
62 98 163
62 98 159
62 97 157
62 98 159
61 98 159
62 97 157
61 97 147
62 98 156
62 98 160
62 98 160
61 96 154
62 98 160
62 98 159
62 98 165
62 98 162
61 97 156
61 96 153
61 97 148
61 97 157
61 97 155
62 98 158
60 96 150
61 97 149
61 97 158
63 98 160
63 99 160
61 96 152
61 96 148
62 97 154
61 97 152
62 97 149
62 98 157
61 97 156
62 98 160
61 97 156
61 97 157
60 96 150
61 97 150
62 97 154
62 98 159
63 98 156
62 98 157
61 96 151
61 96 152
61 96 150
61 97 153
60 96 144
61 96 150
61 96 147
61 97 149
60 96 143
62 97 150
62 97 150
61 96 141
62 97 153
61 97 147
61 97 152
62 97 155
61 97 150
62 97 149
61 97 154
60 94 138
60 95 142
61 96 140
60 95 136
60 95 140
58 93 139
61 96 147
60 95 140
60 94 135
60 94 147
60 94 140
59 93 134
60 94 132
58 91 124
58 90 118
60 90 115
83 101 95
95 105 70
109 119 47
110 113 18
110 114 0
116 118 0
106 108 14
97 100 0
106 106 0
103 105 0
98 101 0
115 117 0
92 90 0
92 94 0
94 94 0
98 95 0
102 102 0
107 103 16
90 90 0
105 102 14
95 94 2
78 73 0
92 86 0
98 94 0
92 93 0
80 78 0
88 86 0
100 96 8
88 84 8
85 81 12
94 90 0
107 103 18
97 95 8
106 101 8
93 88 0
102 99 0
104 99 14
102 95 0
95 92 0
97 94 0
111 107 0
101 99 8
104 101 18
103 99 0
104 98 11
103 99 19
103 99 0
110 106 11
109 104 11
103 97 0
102 97 0
111 104 11
108 103 0
114 109 22
110 105 0
115 112 16
107 102 0
115 110 16
111 107 22
109 104 16
112 109 11
116 113 0
119 114 16
109 106 11
119 114 25
117 112 22
127 122 19
114 110 19
116 111 0
118 112 28
127 119 22
119 114 22
124 120 11
116 115 11
126 121 30
118 114 19
126 123 19
116 114 22
121 118 11
118 115 11
122 119 16
125 124 22
136 136 16
134 134 19
127 126 0
131 131 19
131 132 0
134 133 19
131 132 16
133 135 11
142 145 19
144 149 0
139 144 11
140 145 11
146 155 16
153 162 16
148 156 0
146 154 16
155 165 0
153 163 0
151 161 0
156 168 0
152 161 0
157 169 0
148 157 0
159 170 0
157 169 0
157 169 0
162 175 0
160 172 0
163 175 0
158 172 0
159 171 0
161 176 0
163 177 0
157 170 0
166 182 0
157 170 0
161 177 0
163 180 0
166 182 0
166 184 0
154 167 0
166 182 0
160 176 0
165 181 0
161 179 0
165 183 0
160 176 0
163 180 0
166 184 0
164 181 0
167 187 0
165 182 0
164 179 0
165 182 0
165 182 0
164 182 0
166 186 0
206 224 221
206 224 221
206 223 221
207 225 220
208 226 228
211 228 237
209 227 234
205 223 221
203 222 220
205 224 220
204 222 223
206 224 221
205 223 220
204 222 214
204 222 217
204 221 211
204 222 212
201 220 207
203 222 211
203 221 209
203 222 214
200 220 207
195 215 182
197 217 194
193 213 179
197 217 194
197 216 191
196 216 182
197 216 189
195 215 181
195 215 177
190 210 163
194 215 175
192 213 175
196 216 182
198 218 191
196 215 175
191 211 153
191 211 167
185 206 144
189 209 155
186 208 149
190 211 163
191 211 157
191 211 175
189 209 163
193 214 177
188 208 147
191 211 159
189 210 163
188 209 161
189 209 163
185 206 149
189 209 161
193 213 177
189 209 159
192 213 167
192 212 165
190 210 167
194 214 179
196 216 188
195 215 177
193 213 173
198 217 193
192 212 175
193 213 184
196 216 193
201 219 194
197 216 188
201 219 196
194 212 201
188 206 212
188 207 213
179 198 209
177 196 215
167 187 210
179 198 220
160 180 209
167 188 214
145 166 201
141 163 201
149 170 204
138 160 197
143 165 203
143 165 208
134 156 201
142 164 205
119 143 188
127 150 196
123 147 188
126 149 195
118 142 196
106 132 180
99 126 185
116 141 196
90 119 181
96 124 184
100 127 182
63 98 163
92 121 173
84 114 175
71 105 170
64 99 158
72 104 155
69 103 167
67 101 163
73 106 164
70 103 165
78 109 157
68 102 154
63 99 162
65 100 164
60 96 160
72 105 148
69 102 161
65 100 150
63 99 165
60 96 157
60 96 157
60 95 157
59 94 154
63 98 156
61 96 155
61 97 162
63 97 153
62 98 163
63 99 164
61 97 156
60 97 161
60 95 153
60 96 156
60 96 155
61 97 158
62 98 162
60 96 152
60 95 148
60 96 153
60 96 155
59 95 145
60 96 155
61 97 154
60 95 144
60 96 153
59 95 145
62 98 163
61 96 155
61 96 158
60 96 156
61 97 160
61 97 160
62 98 163
62 98 165
61 97 161
60 96 158
62 98 162
62 98 158
61 96 158
61 97 155
60 95 154
62 98 157
61 96 150
62 98 157
62 98 158
61 96 155
62 99 165
61 97 155
60 95 153
62 98 161
61 98 160
61 96 154
62 98 158
61 97 156
61 97 153
62 98 158
61 97 158
62 98 161
61 97 154
61 96 153
62 98 158
61 97 156
62 98 160
62 98 167
61 97 154
61 96 147
62 98 161
61 98 162
62 98 166
62 98 158
62 98 156
61 97 153
61 96 151
62 98 160
61 96 152
61 97 154
61 97 152
62 98 161
62 98 163
62 97 153
61 97 158
61 97 151
60 96 144
61 97 154
62 98 159
60 96 143
62 97 153
61 97 162
62 98 157
62 98 161
63 99 164
61 96 151
62 97 153
61 97 156
61 97 148
61 96 151
62 97 157
61 96 153
62 98 157
62 98 156
63 99 160
61 96 149
61 96 149
62 98 154
62 98 160
62 97 157
63 99 161
61 97 149
62 97 151
62 98 160
61 96 147
61 96 144
63 98 158
61 97 155
62 98 149
61 97 155
61 96 151
61 97 151
61 96 148
62 97 148
60 95 143
60 95 142
61 97 151
62 98 155
61 95 139
61 96 145
61 97 151
61 96 143
60 95 139
62 97 152
62 97 146
61 95 148
61 95 145
60 94 140
60 96 147
59 94 136
60 95 136
60 94 129
60 95 143
60 94 145
59 92 135
59 93 127
60 89 111
90 106 109
92 99 63
111 116 25
113 117 0
107 111 0
106 109 0
106 108 0
108 111 0
99 101 0
101 103 0
100 101 0
103 106 0
95 96 0
108 110 0
95 94 0
109 109 11
96 96 8
103 102 11
102 101 0
97 96 0
97 96 0
92 89 0
91 91 11
92 91 0
88 87 0
99 97 0
109 103 0
94 91 8
95 90 11
102 97 0
98 94 0
99 95 0
92 89 0
102 99 8
91 86 0
102 96 8
97 95 0
109 103 0
103 101 0
102 100 0
98 94 0
104 98 0
107 102 16
91 88 0
106 100 0
100 95 11
106 101 0
103 98 0
108 104 11
110 106 0
104 97 11
117 112 0
107 102 11
118 113 0
112 106 0
110 105 0
105 100 16
120 112 11
111 106 0
113 107 11
110 104 11
112 107 11
118 112 19
106 101 0
116 110 19
110 103 25
115 110 11
126 122 25
121 118 11
123 121 16
113 109 16
118 113 16
114 109 16
114 109 11
117 114 11
110 108 11
120 114 11
128 127 16
129 129 11
124 124 16
117 115 11
135 135 22
129 128 16
137 136 16
128 129 0
129 132 16
134 136 0
136 140 0
136 139 16
142 144 16
136 142 11
142 146 11
144 150 11
146 153 0
153 161 16
147 156 0
150 159 11
159 172 0
153 163 0
151 160 0
142 148 0
156 166 0
152 163 0
157 168 0
160 171 0
155 169 0
163 177 0
157 170 0
155 167 0
159 172 0
156 170 0
156 170 0
160 176 0
168 183 0
159 172 0
163 175 0
159 174 0
155 171 0
163 177 0
164 178 0
156 168 0
164 179 0
161 176 0
166 183 0
161 176 0
160 176 0
165 181 0
161 175 0
160 175 0
161 179 0
166 183 0
163 180 0
168 187 0
163 180 0
169 188 0
169 189 0
163 181 0
165 184 0
167 186 0
208 226 226
206 224 223
206 223 223
206 224 226
205 223 221
208 226 230
205 223 218
203 221 218
203 221 218
204 222 217
202 221 212
202 221 203
200 218 203
208 226 224
208 226 228
200 219 203
199 218 203
199 219 199
197 216 191
198 218 194
196 216 189
189 209 167
196 215 179
196 215 188
194 213 179
192 212 167
184 205 147
191 211 165
187 208 157
190 210 157
193 213 177
187 208 167
186 208 147
188 210 155
189 209 155
186 207 159
187 208 157
181 203 125
186 208 142
187 208 142
188 209 135
187 208 151
184 206 142
188 209 147
187 208 153
186 207 133
186 207 142
185 207 147
188 209 161
187 208 151
186 207 147
185 207 142
188 209 149
186 208 144
188 209 147
185 206 133
190 210 155
191 211 171
186 208 142
186 207 137
187 208 159
193 213 179
192 212 169
191 211 175
192 212 161
193 213 171
189 210 159
192 211 163
197 217 194
191 210 180
183 203 187
183 202 189
176 196 203
179 198 213
171 190 203
164 185 203
159 179 203
151 172 201
151 172 203
148 169 196
149 170 199
137 158 198
133 155 190
140 162 199
121 145 194
121 146 189
134 157 191
129 152 194
114 138 190
104 130 186
119 143 194
120 144 193
94 122 182
104 131 190
98 125 181
94 122 177
96 123 181
100 127 184
98 126 183
93 121 182
73 106 174
68 102 169
74 107 172
69 103 165
71 103 157
72 106 166
71 104 157
66 100 161
76 108 156
69 102 161
65 99 157
70 103 155
66 100 157
64 99 161
64 98 160
69 102 158
64 99 163
61 97 156
60 96 157
60 96 154
60 96 151
62 97 156
64 99 161
61 97 160
60 96 153
61 96 153
60 96 159
61 96 151
60 96 145
59 95 148
60 95 157
61 97 158
61 96 158
61 97 153
61 96 153
61 97 160
62 98 159
60 95 150
61 97 161
61 96 153
60 96 152
60 96 160
61 96 160
62 98 161
62 97 156
61 97 161
61 97 163
61 97 157
62 97 158
61 97 157
62 98 166
60 96 154
60 96 156
60 95 149
61 96 153
62 98 159
62 98 161
62 97 153
60 96 152
62 98 158
61 97 157
62 97 161
61 97 158
61 97 158
62 97 159
61 97 157
62 98 158
61 97 155
62 97 157
61 96 156
61 97 158
62 98 159
62 98 161
62 98 161
61 97 153
62 98 163
62 97 152
62 98 157
62 98 159
61 97 150
61 97 153
63 98 160
61 97 156
62 98 164
63 99 163
62 98 159
61 97 157
62 98 157
62 98 163
61 96 149
60 96 151
61 97 154
62 98 159
62 98 161
61 96 152
63 98 162
61 97 153
60 95 145
60 95 147
62 98 160
62 98 154
61 97 152
63 98 159
62 98 155
62 98 157
62 98 160
62 98 154
62 98 154
62 97 159
62 98 154
62 98 159
62 98 156
63 98 158
61 96 150
61 96 148
62 97 151
62 97 159
62 97 153
62 97 149
62 98 157
62 97 150
61 97 154
60 95 147
61 97 151
61 97 147
62 98 156
60 96 150
60 95 142
62 97 148
62 97 157
61 97 159
61 96 148
62 97 151
62 97 153
61 96 148
62 98 150
60 95 141
61 97 143
61 97 150
60 95 143
61 97 152
60 95 141
60 95 140
61 96 147
60 95 140
60 95 141
60 95 141
60 95 143
60 95 141
58 92 132
61 96 142
59 93 139
59 92 134
59 93 134
60 95 139
61 95 142
60 94 141
58 92 133
60 93 129
59 91 123
77 102 115
92 108 94
106 114 44
103 106 25
114 117 0
101 106 0
118 121 11
97 100 0
104 108 0
111 115 0
95 97 0
117 119 0
104 107 3
114 116 11
96 98 0
102 101 11
92 89 0
99 100 0
102 101 0
93 92 0
92 91 14
99 95 11
107 105 0
101 101 0
95 92 0
101 95 0
106 106 0
88 83 0
89 88 0
102 100 0
84 81 8
92 88 0
94 93 0
104 102 0
97 92 0
96 93 0
92 90 8
110 105 8
107 105 8
102 98 0
108 102 0
102 97 0
100 96 0
105 100 0
99 96 0
99 95 0
109 105 14
104 97 0
113 108 11
90 84 0
106 99 16
107 101 0
101 95 0
104 100 0
113 107 11
107 102 16
109 104 16
121 116 16
109 105 0
110 106 12
106 99 11
106 102 0
112 108 11
113 108 11
109 104 11
104 103 16
109 104 11
106 102 16
114 108 11
114 108 11
121 118 11
125 123 11
124 123 16
112 108 11
116 111 0
117 114 11
111 106 16
124 122 0
133 135 11
111 110 11
132 134 22
117 117 0
124 127 0
129 131 11
137 140 0
141 141 0
132 132 0
126 124 11
133 137 11
141 146 0
134 137 19
143 148 11
150 158 0
149 154 11
141 145 0
149 158 0
146 155 0
145 153 11
150 159 0
149 158 0
156 167 0
154 166 0
152 164 0
157 169 0
154 166 0
158 169 0
159 168 0
157 168 0
160 171 0
157 170 0
159 173 0
162 175 0
159 172 0
155 167 0
158 171 0
156 169 0
166 181 0
160 173 0
162 175 0
158 173 0
164 180 0
157 170 0
163 179 0
165 180 0
157 172 0
168 184 0
160 177 0
156 171 0
167 186 0
161 176 0
160 175 0
163 180 0
164 181 0
167 184 0
168 186 0
166 183 0
166 184 0
163 182 0
165 184 0
165 184 0
207 225 226
207 224 226
208 226 227
204 223 217
206 224 223
207 224 220
203 222 217
207 225 227
205 224 227
203 222 211
206 224 221
202 220 209
201 220 206
197 216 194
199 218 199
200 219 196
199 219 199
197 216 191
197 216 194
193 213 171
196 215 177
192 212 171
190 211 167
191 211 171
189 210 155
191 211 163
195 215 179
190 211 161
188 209 157
183 205 125
187 208 149
185 206 151
179 201 128
187 208 149
183 205 130
184 206 135
184 206 120
183 204 137
185 206 137
185 206 130
179 201 114
185 207 137
183 203 125
185 206 147
182 204 133
179 202 117
185 206 144
178 201 122
178 200 108
185 207 133
181 203 120
179 201 114
182 204 125
179 202 111
181 203 117
184 205 128
189 209 147
185 206 133
184 206 137
186 208 144
181 204 122
184 206 140
189 210 159
188 209 151
183 205 157
189 210 157
191 211 159
190 210 157
196 215 181
185 205 165
184 203 188
173 193 185
178 197 205
171 191 203
169 188 214
155 175 198
154 175 199
155 176 201
142 164 199
134 156 191
145 166 200
139 161 197
138 160 200
128 151 192
123 147 188
138 161 195
117 143 190
120 144 181
124 148 198
120 145 188
123 147 198
112 137 192
111 137 188
115 139 186
107 134 190
96 124 181
96 124 181
102 129 184
93 122 182
96 124 181
84 115 177
74 107 170
74 107 169
68 102 164
69 103 171
68 102 161
70 103 159
67 100 162
74 106 162
72 105 163
65 99 156
61 96 153
69 102 165
66 100 157
66 100 155
63 98 156
63 98 163
63 98 156
59 95 156
61 95 144
62 97 162
60 96 158
60 96 157
63 98 156
60 95 153
61 97 157
61 97 159
60 96 153
61 97 151
60 95 151
60 96 155
61 97 156
60 95 158
60 96 158
60 95 153
61 97 156
60 95 158
61 97 159
60 96 153
60 95 154
61 97 161
61 96 156
62 98 161
61 97 158
62 98 164
59 95 147
61 97 156
62 98 164
61 96 148
60 96 147
60 95 148
61 97 162
60 96 148
61 96 156
61 97 156
61 97 156
62 98 161
61 96 153
62 98 158
62 98 162
62 97 158
61 97 154
61 96 158
62 98 160
61 97 158
60 96 158
62 98 164
61 97 159
62 98 162
61 97 152
61 97 150
61 96 152
62 98 160
61 97 156
61 96 153
62 98 158
62 98 155
61 96 153
62 97 158
62 98 164
61 96 149
61 97 154
61 97 157
61 97 155
62 98 159
61 97 159
62 98 163
61 97 153
61 97 158
61 97 151
62 98 163
61 97 153
62 97 155
61 97 150
60 96 151
61 97 151
62 97 158
61 97 152
61 96 147
62 98 158
62 98 156
61 97 152
62 98 163
61 97 152
61 97 154
60 96 147
61 97 152
61 96 145
62 98 159
61 97 151
62 97 154
61 97 153
61 97 155
60 95 149
61 96 150
62 98 155
62 97 145
62 98 160
61 97 150
62 98 159
61 97 154
60 96 147
62 97 155
60 95 148
61 96 143
61 96 148
60 96 141
61 96 150
62 98 153
61 96 142
60 95 149
60 95 142
61 96 137
61 96 152
61 96 144
61 96 143
60 95 144
61 96 140
61 97 147
61 97 151
60 95 137
62 97 150
60 95 139
61 96 152
60 95 141
60 95 139
61 96 150
59 93 135
60 95 136
61 95 142
60 95 139
60 96 142
59 93 136
60 95 145
59 93 133
59 92 128
59 92 128
59 92 132
58 92 130
62 91 119
79 97 93
97 110 70
98 105 45
106 112 18
106 111 0
122 130 0
114 117 0
103 108 0
109 113 0
107 109 0
108 110 0
109 112 11
107 111 0
105 105 0
103 106 0
111 113 0
108 107 0
100 100 0
104 104 0
96 97 11
99 98 0
100 96 11
103 102 0
96 94 11
96 93 0
98 96 0
97 92 8
108 103 0
102 96 0
92 93 0
88 86 0
92 89 0
90 85 0
98 95 3
95 92 0
99 96 11
101 97 0
98 95 0
101 93 0
107 103 0
103 98 0
107 103 0
107 102 11
107 100 0
106 101 0
101 97 0
95 91 0
101 98 0
113 110 0
104 101 11
108 101 11
111 108 0
116 111 0
101 95 11
93 92 0
106 101 0
112 107 0
116 111 0
112 108 11
114 112 16
106 102 0
119 113 11
109 105 11
109 105 11
118 114 16
118 118 0
123 120 19
125 123 11
107 104 16
120 114 0
119 112 0
124 121 11
127 123 16
124 122 11
130 129 16
121 119 0
120 118 11
123 122 16
128 129 0
125 123 0
127 127 16
136 135 11
136 140 11
130 134 0
138 138 0
130 130 16
136 136 16
136 139 11
135 136 11
136 140 11
139 142 11
147 151 0
148 154 0
146 155 11
146 151 11
152 160 0
150 159 0
148 155 0
155 167 0
153 162 0
158 168 0
156 169 0
158 170 0
153 161 0
158 171 0
155 166 0
159 171 0
153 167 0
160 174 0
163 176 0
157 171 0
155 167 0
157 168 0
154 166 0
160 174 0
164 181 0
162 177 0
157 172 0
163 177 0
162 177 0
161 178 0
155 169 0
156 169 0
158 174 0
159 176 0
167 183 0
162 179 0
163 178 0
163 178 0
163 179 0
163 182 0
157 170 0
165 183 0
162 180 0
165 183 0
163 183 0
168 186 0
168 189 0
165 181 0
166 183 0
209 227 234
207 224 227
204 223 214
202 221 211
210 227 231
205 224 226
198 218 198
204 222 215
200 218 207
203 221 209
204 222 215
198 217 196
197 217 194
192 213 167
193 212 181
195 214 184
197 216 189
193 214 177
189 210 159
194 214 188
191 211 161
190 211 163
187 208 157
183 204 135
187 208 133
183 205 130
180 202 144
192 212 163
182 204 125
181 202 125
184 206 147
185 207 142
181 202 137
187 208 137
180 202 108
180 203 108
176 199 102
180 202 125
180 202 114
178 201 99
181 204 135
182 205 114
181 203 102
171 194 99
176 199 95
182 204 122
179 202 102
181 203 120
177 200 114
176 198 105
178 200 105
177 201 88
180 201 122
177 200 111
179 202 108
178 201 105
180 202 122
183 205 125
183 205 128
178 200 128
183 205 135
184 205 133
188 209 151
187 208 144
188 209 159
186 207 155
184 205 144
190 210 149
187 207 167
183 203 156
175 196 164
168 189 181
167 187 186
163 183 194
162 182 200
149 170 198
136 158 181
157 177 192
146 168 188
141 164 194
143 165 197
130 153 191
123 146 187
132 155 185
126 149 194
139 161 197
122 146 187
113 139 180
123 147 186
106 132 181
108 135 191
104 131 186
111 137 186
106 132 188
107 132 183
94 122 181
92 120 180
97 125 181
91 120 181
88 118 184
86 116 181
83 114 170
67 102 171
79 110 174
72 105 168
67 101 166
72 105 168
76 108 165
79 111 163
64 98 155
71 104 163
66 101 167
63 99 158
66 100 158
65 100 161
64 99 158
60 95 158
64 99 157
61 96 156
62 97 160
60 95 157
63 98 143
70 103 148
59 94 148
61 96 155
61 96 149
61 97 159
61 96 153
62 97 153
61 97 158
61 96 153
61 96 160
60 96 152
62 97 159
61 96 151
60 96 158
60 96 157
61 96 153
59 94 145
60 96 147
60 96 154
60 95 149
62 98 156
62 98 161
61 97 164
61 97 160
60 95 148
62 98 162
62 97 155
61 97 163
62 98 156
61 97 156
60 96 151
61 97 158
61 96 154
62 98 159
61 97 159
61 97 163
62 97 156
60 96 153
61 97 158
60 95 147
61 97 158
62 98 160
61 96 151
61 97 158
61 97 157
61 97 159
62 98 162
63 99 160
61 97 160
62 98 152
62 98 162
61 97 154
60 96 152
61 97 152
62 97 155
61 97 156
61 97 158
61 97 153
61 96 154
61 97 152
61 97 148
62 98 156
60 96 151
61 97 153
62 98 155
61 97 148
61 97 154
62 97 152
62 98 157
62 98 160
62 97 154
61 97 149
62 97 152
62 97 156
61 97 156
61 97 150
62 98 158
61 97 153
62 98 155
61 96 142
61 97 157
62 98 159
61 97 153
62 98 157
60 96 147
62 98 162
61 97 152
62 97 151
62 98 161
61 97 153
62 97 154
61 97 155
60 96 150
61 97 154
62 98 156
62 98 162
62 98 157
60 96 147
63 98 160
60 96 152
61 97 143
61 96 154
60 96 143
62 97 148
60 95 142
61 96 151
61 96 141
61 96 144
60 95 141
61 97 155
61 96 147
62 97 152
61 96 144
61 96 153
61 97 152
60 95 136
61 97 148
61 96 157
61 96 147
60 95 137
61 97 154
61 96 147
60 95 142
61 96 142
61 95 143
60 95 143
60 95 136
60 95 139
61 95 145
59 94 134
60 94 136
61 96 147
60 95 141
59 93 136
60 94 135
58 91 119
58 91 131
69 96 111
90 107 77
98 111 66
106 114 37
125 133 18
119 124 0
115 121 0
117 122 0
100 100 0
110 116 0
118 123 0
107 109 0
106 110 0
115 121 0
109 112 0
95 98 0
114 116 0
99 100 0
96 97 0
101 101 0
106 109 11
91 90 3
103 102 0
105 104 0
94 94 0
91 91 0
98 101 0
98 96 8
98 97 11
104 98 0
90 90 0
100 99 0
106 104 0
100 94 0
95 91 0
101 98 0
100 96 11
106 102 0
96 92 0
95 91 0
98 94 0
106 101 0
101 95 0
106 103 0
105 101 0
96 93 0
103 102 0
102 99 0
113 108 0
97 93 0
109 104 0
92 86 11
111 106 11
112 105 11
101 99 0
114 109 11
112 108 11
111 108 0
109 104 0
107 102 11
109 104 0
113 109 0
112 107 0
119 116 11
116 114 11
116 111 0
112 109 11
118 114 0
121 116 11
118 115 16
113 113 11
125 124 16
114 113 0
118 117 0
121 122 11
121 118 11
116 115 0
129 127 16
137 138 19
123 122 0
118 118 0
121 118 16
121 123 11
131 134 16
130 131 0
132 134 0
128 131 0
137 140 0
131 136 0
140 144 16
145 152 0
142 147 0
137 144 0
145 152 11
147 153 0
151 157 11
144 148 0
150 156 0
142 150 0
154 162 0
158 170 0
156 165 0
151 161 0
154 167 0
156 167 0
158 171 0
149 158 0
161 175 0
156 168 0
161 173 0
151 162 0
163 173 0
152 163 0
158 171 0
159 172 0
159 173 0
159 174 0
165 180 0
165 180 0
156 172 0
158 172 0
156 173 0
164 180 0
162 177 0
158 173 0
158 172 0
159 174 0
160 177 0
165 182 0
165 183 0
160 176 0
159 175 0
164 181 0
164 182 0
160 177 0
165 182 0
167 184 0
158 174 0
160 179 0
164 182 0
161 178 0
208 225 223
203 221 206
204 223 214
204 222 215
204 222 212
202 221 207
200 218 199
200 220 204
197 217 188
201 219 193
192 212 173
195 215 181
193 213 182
192 213 173
192 212 169
188 209 147
191 212 173
191 212 169
193 213 163
187 208 149
184 206 137
187 208 144
186 207 144
188 209 153
184 205 135
186 207 135
183 205 122
181 202 122
183 205 133
181 204 128
182 204 117
177 200 99
178 200 108
180 202 114
177 200 105
180 201 120
180 202 120
177 200 105
175 198 92
178 200 92
177 199 88
174 197 88
180 203 105
177 200 80
176 199 88
175 198 84
176 199 92
174 197 62
179 202 111
177 199 95
178 201 102
178 200 95
182 204 117
174 197 80
174 197 72
176 198 76
181 203 111
179 201 114
178 201 105
178 200 99
174 198 88
182 204 114
178 200 114
180 203 122
181 203 105
183 205 128
185 207 137
178 201 117
181 202 141
181 202 141
171 192 176
166 187 175
148 170 176
144 166 187
139 161 185
132 155 184
144 166 194
155 176 202
136 158 188
139 161 198
130 154 187
126 150 179
130 154 188
130 154 194
124 148 183
131 154 192
125 150 188
110 136 186
103 130 181
110 135 191
103 129 182
99 127 184
106 132 188
110 136 190
102 128 187
91 120 182
100 127 186
106 133 185
89 118 184
85 115 174
86 116 180
76 109 177
91 119 179
79 111 174
78 109 170
76 107 164
62 98 164
79 109 158
74 106 171
67 101 163
63 99 164
72 106 163
72 105 167
60 96 158
65 100 154
67 101 160
66 100 167
65 98 146
61 97 161
61 97 151
62 97 154
62 97 150
63 98 160
62 97 154
60 96 154
62 98 157
60 96 151
59 95 150
61 96 157
61 97 162
61 97 154
60 95 154
61 97 156
60 96 154
59 94 147
59 94 153
60 95 156
59 94 153
61 97 159
60 96 153
60 95 154
61 97 154
61 97 157
61 97 156
60 95 150
62 98 162
60 96 153
60 95 151
60 96 149
61 97 164
61 98 160
61 97 152
62 98 162
61 97 158
62 98 164
61 97 153
61 97 159
61 97 154
59 95 147
60 95 154
61 97 152
62 98 158
62 97 156
63 99 161
61 97 156
61 96 148
61 97 152
61 97 159
61 97 155
61 97 153
61 97 150
61 96 155
62 98 157
62 98 156
61 97 156
61 96 147
61 97 153
61 97 155
62 98 158
61 96 144
61 97 149
61 97 154
61 97 157
62 97 156
61 97 153
61 97 151
61 97 156
61 97 147
62 98 156
61 97 153
61 97 153
62 98 159
61 97 154
61 97 145
63 98 155
61 97 154
61 97 156
62 98 156
61 96 145
61 97 152
61 97 153
62 97 153
61 97 157
62 98 156
61 96 151
62 97 154
63 99 167
61 97 151
61 97 149
60 96 144
62 98 159
61 96 147
61 96 147
61 97 152
61 96 154
62 97 151
61 97 155
61 97 154
62 97 149
62 98 153
61 96 149
61 96 148
62 97 149
61 97 153
61 96 153
61 96 148
60 96 145
61 96 142
60 95 144
60 96 141
61 97 143
61 96 145
61 97 150
61 97 145
60 95 142
62 97 149
62 97 153
61 96 143
60 95 142
61 96 145
60 95 145
61 97 154
61 96 150
61 95 145
61 96 152
61 96 142
61 96 141
59 93 129
60 95 138
60 95 146
60 94 141
61 95 141
59 93 128
60 94 133
60 94 134
60 94 142
58 92 126
59 92 134
58 91 127
76 98 116
93 108 84
110 120 65
112 118 0
117 124 0
112 117 0
122 128 0
113 116 0
112 116 0
112 117 0
105 109 0
120 127 0
109 114 0
103 104 0
109 114 0
105 105 11
116 118 0
112 114 0
103 105 0
101 101 0
101 99 0
103 101 0
97 95 0
89 88 0
95 95 0
89 88 0
107 106 0
96 94 8
106 106 0
98 97 0
102 101 0
96 95 0
100 96 0
101 99 0
101 100 0
91 88 0
99 94 0
98 91 0
88 85 0
99 97 0
98 93 0
109 104 0
99 96 0
110 105 0
112 106 0
109 106 11
97 94 0
98 96 0
116 114 0
95 92 0
114 110 0
104 101 0
107 103 0
111 109 11
108 104 0
115 110 0
95 91 16
108 105 0
113 111 11
103 96 0
104 99 0
110 108 0
117 112 11
112 110 0
114 111 0
115 112 16
107 101 11
113 109 11
122 122 11
122 120 0
114 113 11
116 112 0
115 115 11
117 115 19
128 127 0
129 128 11
120 120 0
127 126 0
128 127 11
127 128 0
130 128 19
133 136 0
139 142 0
137 141 11
131 132 0
133 136 11
140 142 0
142 143 16
140 147 0
143 149 11
141 148 11
151 160 0
146 150 0
152 162 11
147 155 0
154 165 11
148 158 0
153 165 0
152 161 0
154 165 0
151 161 0
159 169 0
159 172 0
160 170 0
157 169 0
159 171 0
153 163 0
156 168 0
160 172 0
163 177 0
147 159 0
157 169 0
154 167 0
158 171 0
159 170 0
159 173 0
163 178 0
160 175 0
162 177 0
159 173 0
157 172 0
167 183 0
164 180 0
162 177 0
163 179 0
163 178 0
161 173 0
161 178 0
164 181 0
163 181 0
162 179 0
167 183 0
162 179 0
166 185 0
164 181 0
168 186 0
166 183 0
169 187 0
161 176 0
168 187 0
165 184 0
204 222 217
205 223 221
201 220 204
202 221 212
201 219 203
200 219 199
206 224 214
195 214 186
192 211 171
196 216 181
190 211 167
194 214 186
186 208 149
193 213 167
188 208 151
189 210 157
186 207 151
188 210 147
187 208 147
182 204 120
186 208 140
188 208 135
182 203 133
181 204 125
184 206 133
186 207 135
175 199 80
181 203 105
182 204 120
186 208 147
180 202 108
177 199 111
177 200 95
179 201 102
178 201 105
176 199 105
176 199 99
176 199 84
176 200 92
177 200 92
179 202 88
176 200 84
175 197 67
181 203 99
178 201 84
174 197 84
171 195 62
175 198 88
176 198 95
172 196 72
175 198 62
174 197 92
171 194 67
176 199 88
174 197 72
173 196 88
178 201 102
173 196 84
175 197 80
179 201 99
176 199 95
180 202 128
181 203 105
175 198 76
176 198 92
177 200 108
181 202 137
179 201 114
179 200 135
167 188 134
160 182 161
154 177 153
152 174 165
139 162 174
132 155 182
130 153 171
138 161 189
150 171 189
134 157 188
131 154 182
129 152 189
127 151 180
125 150 184
118 142 177
114 140 187
109 135 184
129 152 184
116 141 181
116 141 185
109 135 191
103 130 181
105 131 181
97 125 185
111 136 188
88 117 181
98 125 186
114 139 192
92 120 176
88 117 174
92 120 180
91 120 182
89 118 178
82 113 177
82 113 176
75 108 173
69 103 169
75 107 171
65 101 168
72 105 166
72 105 161
68 102 165
69 103 163
72 104 154
65 100 158
66 100 155
74 106 155
65 100 162
60 96 155
64 99 159
62 97 158
60 95 149
60 96 153
61 98 165
61 96 149
61 97 161
60 96 157
63 99 162
63 98 156
64 99 158
60 95 151
61 96 154
61 97 158
61 96 148
60 96 155
61 96 153
60 96 154
62 97 164
60 96 149
61 97 157
60 96 151
61 97 159
61 97 158
61 97 157
62 98 160
60 95 150
61 96 156
62 97 155
63 99 165
62 97 158
62 98 160
62 98 155
61 96 156
61 97 154
60 96 150
61 97 155
61 97 150
61 97 155
61 97 156
62 98 156
60 96 150
61 97 153
61 96 151
62 98 156
61 96 153
61 97 153
61 97 156
60 95 149
61 96 145
62 97 154
61 97 154
62 98 160
61 97 152
61 97 154
61 96 157
61 97 155
61 97 149
61 97 147
61 97 151
62 98 156
61 97 157
62 98 158
61 97 154
61 96 145
62 98 158
60 96 156
61 96 150
61 97 155
62 97 157
61 96 143
61 97 156
61 96 155
61 97 153
61 97 150
61 96 151
62 97 155
62 97 153
61 96 150
61 97 151
61 97 154
62 98 159
61 97 149
62 98 152
62 98 159
62 98 156
61 97 152
60 96 150
62 97 154
62 98 156
62 97 155
61 96 155
62 98 152
61 97 151
61 97 153
63 98 154
62 97 151
62 98 158
61 97 149
61 97 155
61 97 148
62 98 154
61 97 153
61 96 142
61 96 143
61 97 145
61 96 151
62 97 151
61 96 147
61 96 154
60 96 144
61 96 144
61 96 148
61 96 144
62 98 155
61 97 151
60 95 139
61 97 151
61 96 144
61 96 151
61 96 141
61 97 145
60 95 134
60 95 136
60 95 142
60 94 134
61 97 149
62 98 154
60 95 137
60 94 133
59 94 133
59 94 136
60 95 142
59 92 129
61 96 138
58 92 128
58 92 126
62 96 150
58 92 136
59 92 134
63 94 130
72 93 98
103 114 77
100 108 47
110 119 0
107 113 0
116 121 0
118 123 0
112 119 0
111 117 0
122 125 0
104 108 0
111 113 0
120 125 0
112 117 0
110 113 0
111 116 0
105 109 0
112 115 0
97 98 0
108 109 0
101 99 0
93 93 0
105 107 0
97 98 0
91 89 0
104 106 0
97 97 0
101 103 0
101 99 0
100 98 0
104 100 11
96 97 0
97 95 0
105 103 0
111 110 0
92 88 0
95 92 0
93 89 0
96 93 0
95 93 0
97 95 0
91 86 0
109 105 0
103 98 0
113 109 0
101 100 0
109 106 0
107 103 0
104 101 0
114 110 0
106 102 0
101 97 11
94 90 0
111 108 16
110 105 0
111 108 11
108 107 0
116 112 0
110 106 16
108 104 0
111 110 0
111 107 11
107 103 0
120 118 0
113 111 0
113 111 0
126 123 11
116 115 0
117 113 0
119 117 0
114 112 16
126 123 16
128 124 11
120 116 11
125 125 0
127 124 11
130 132 0
120 124 0
118 117 11
133 133 0
122 123 11
133 136 11
135 138 0
137 140 11
123 124 11
136 141 0
136 139 11
145 152 0
137 141 0
139 142 11
149 157 0
150 156 11
144 153 0
138 144 0
144 150 11
150 158 0
144 152 0
153 163 0
152 164 0
152 164 0
154 164 0
152 163 0
152 161 0
160 174 0
157 171 0
153 165 0
155 166 0
157 171 0
155 166 0
168 183 0
155 168 0
161 175 0
156 168 0
163 178 0
161 177 0
160 176 0
159 172 0
162 177 0
161 174 0
161 177 0
162 177 0
164 180 0
160 172 0
160 176 0
164 180 0
158 176 0
157 172 0
161 176 0
163 180 0
161 177 0
152 166 0
162 177 0
165 182 0
160 175 0
164 181 0
166 182 0
161 177 0
171 189 0
162 180 0
167 185 0
169 188 0
202 220 211
204 222 209
196 216 182
195 214 189
197 217 189
197 216 193
195 216 188
193 213 184
190 210 163
196 216 186
192 212 177
186 208 157
191 211 157
185 206 149
188 208 157
185 206 153
184 205 135
181 203 120
182 204 133
182 204 117
188 209 147
184 206 144
178 201 114
178 202 111
179 202 105
181 203 111
180 203 111
178 201 99
176 199 84
177 200 102
177 200 84
175 197 72
176 199 72
176 200 84
173 197 88
177 200 84
172 196 92
174 197 72
173 197 84
174 198 99
173 197 72
177 201 88
175 198 84
175 199 92
172 195 95
173 197 62
176 200 88
173 197 76
172 196 67
173 197 72
176 199 80
172 196 51
175 199 84
172 196 76
173 196 84
169 192 44
174 198 84
177 200 95
172 194 57
178 200 72
176 199 99
175 198 80
173 197 76
175 198 76
175 199 84
173 195 80
178 201 99
176 198 84
173 196 118
166 189 118
154 177 128
143 167 128
140 163 149
113 138 162
135 158 182
133 156 172
122 146 175
120 145 175
114 139 169
119 144 181
123 147 183
128 152 187
119 144 181
96 123 165
125 148 181
120 144 182
110 136 183
96 124 169
111 137 188
111 137 185
101 128 180
113 138 182
107 133 176
98 126 177
91 120 178
85 115 173
95 123 182
89 119 179
95 123 181
98 125 184
83 114 175
82 113 177
91 120 183
76 108 173
83 114 175
79 110 168
74 106 164
68 102 168
62 98 162
79 110 168
74 106 166
63 98 159
64 98 157
68 102 160
75 107 160
68 102 157
63 97 151
63 97 153
62 97 155
68 101 154
63 98 153
60 95 155
63 98 157
59 95 147
63 98 153
60 95 157
60 95 153
59 95 145
60 95 151
60 95 157
61 97 158
60 95 147
62 98 155
63 98 147
61 97 150
59 95 153
60 95 154
61 96 151
60 96 158
60 96 154
61 97 156
61 96 153
60 96 158
61 96 149
61 97 160
61 97 159
60 94 144
60 96 156
61 97 156
62 98 158
61 96 155
61 97 159
61 96 153
61 97 159
61 97 159
60 96 150
61 97 156
62 97 157
62 98 160
62 97 157
62 98 156
60 96 148
62 98 160
62 98 161
61 97 154
61 97 154
61 97 150
61 97 152
61 97 157
61 96 152
62 98 155
61 97 160
62 98 159
61 97 155
61 97 155
61 97 153
61 97 156
62 97 156
62 99 165
61 97 155
62 98 157
61 97 159
61 96 149
61 97 158
62 98 162
61 97 152
62 97 154
61 98 158
62 98 158
61 96 150
61 97 150
62 98 153
61 96 150
62 97 151
61 97 155
62 98 156
62 98 161
62 98 156
61 97 156
61 97 149
62 98 155
62 98 151
62 98 157
62 97 156
61 96 148
62 97 154
62 98 157
60 95 144
61 97 151
62 98 157
61 96 147
62 97 150
63 98 154
61 97 160
60 95 140
62 98 154
61 96 149
61 96 147
61 96 145
62 97 153
62 97 157
62 97 147
62 98 156
61 96 152
60 95 142
62 98 155
60 95 148
61 95 147
61 96 147
61 96 149
61 95 143
61 96 145
62 97 143
60 96 141
61 97 148
60 95 139
59 94 137
60 95 143
60 95 140
61 96 144
60 96 141
61 96 146
60 95 139
61 96 144
61 95 140
61 96 144
58 92 124
60 95 142
60 95 140
60 95 141
59 94 135
61 95 141
60 95 140
59 93 131
60 95 141
59 93 131
59 93 134
59 93 136
61 91 123
85 103 94
96 109 58
115 125 32
116 123 0
113 119 0
109 116 0
104 109 0
112 115 0
112 117 0
101 107 0
122 124 0
121 126 0
111 117 0
108 111 0
102 108 0
113 118 0
104 108 0
106 105 0
100 105 0
103 104 0
108 110 0
102 104 0
111 115 0
90 91 0
92 90 0
104 104 0
90 87 0
99 95 0
102 100 0
103 101 0
102 100 11
106 105 0
105 105 0
116 113 0
111 112 0
106 105 0
101 98 0
94 90 0
114 110 0
104 103 0
99 95 11
110 107 0
101 96 0
94 90 0
114 109 11
104 98 0
109 104 0
105 103 0
107 105 0
114 110 0
97 93 0
110 106 0
107 103 0
99 96 0
115 112 11
97 95 0
100 96 11
117 113 0
116 117 0
114 112 0
102 99 0
109 106 16
110 109 0
111 109 0
119 115 0
123 123 0
126 124 0
118 118 0
123 121 0
119 118 0
114 111 16
123 124 0
120 121 0
123 121 16
127 127 11
132 130 11
124 125 0
130 129 0
131 129 16
138 144 0
133 135 0
136 140 0
132 136 0
134 135 0
132 135 0
134 139 11
140 143 11
145 150 0
141 148 11
145 155 0
141 144 0
152 159 0
148 158 0
154 162 11
149 158 0
146 153 0
146 153 0
153 161 0
150 160 0
154 165 0
152 162 0
154 165 0
157 171 0
150 162 0
149 159 0
148 159 0
160 172 0
155 167 0
155 169 0
157 169 0
157 169 0
153 166 0
154 167 0
157 170 0
157 172 0
160 174 0
162 176 0
163 179 0
164 176 0
161 174 0
160 173 0
158 172 0
163 180 0
160 177 0
164 182 0
160 178 0
159 173 0
162 178 0
163 180 0
161 176 0
162 179 0
161 177 0
170 184 0
162 179 0
168 185 0
166 184 0
166 182 0
163 182 0
169 189 0
164 182 0
163 180 0
197 217 186
197 217 193
197 215 177
197 216 193
192 213 175
190 210 169
192 212 179
193 213 177
191 211 175
190 210 155
188 209 155
186 207 137
187 208 147
189 210 155
187 208 151
181 203 114
182 204 114
185 205 120
182 204 120
182 204 122
176 200 108
182 203 120
177 200 105
173 196 88
180 202 117
176 200 80
176 199 72
177 199 92
172 196 88
173 197 84
176 198 88
173 197 88
173 198 84
177 201 92
176 201 92
175 198 80
175 199 99
174 197 84
172 195 57
176 199 80
173 197 92
174 198 76
174 198 67
175 198 80
175 199 51
171 194 84
175 198 84
172 196 72
175 199 72
173 197 76
173 197 67
172 196 72
174 198 80
173 196 76
173 196 76
173 196 62
174 198 76
172 196 76
173 197 72
176 199 57
177 199 92
173 197 84
174 198 62
174 197 67
174 197 80
175 198 102
176 199 84
172 194 94
170 194 100
167 190 100
147 170 128
146 169 141
128 152 152
112 138 160
123 148 172
127 151 169
118 143 170
116 141 162
124 148 174
117 141 170
122 146 175
119 144 169
110 137 175
107 134 169
117 141 171
97 124 171
117 142 185
106 132 172
117 142 170
100 127 174
100 127 184
101 128 181
95 124 178
101 128 181
99 126 180
82 113 176
99 127 179
86 116 169
83 114 178
87 117 174
102 128 182
86 116 178
86 116 179
93 121 175
81 112 174
79 110 173
76 107 169
82 113 176
69 102 160
75 107 164
70 103 165
64 100 164
71 103 161
69 103 166
65 99 156
66 100 153
73 105 165
67 101 155
63 98 158
64 98 149
62 97 145
60 95 145
61 97 154
62 96 147
61 97 161
60 96 151
62 97 153
60 96 151
62 97 145
61 96 151
60 95 147
60 96 149
61 96 154
61 96 157
59 95 150
61 97 158
59 94 148
60 95 148
60 96 156
60 95 154
61 97 158
60 96 149
61 97 153
61 97 158
59 94 142
61 96 154
61 97 153
60 96 153
60 96 151
62 98 162
61 97 156
60 95 146
61 97 153
60 95 151
60 95 150
61 97 155
61 97 154
61 96 152
60 96 148
63 98 159
61 97 154
61 97 149
61 98 163
61 97 156
61 97 153
61 97 155
60 95 150
63 99 168
61 97 154
61 97 152
62 98 154
62 98 155
61 97 150
60 96 147
62 98 156
61 96 147
60 95 148
62 98 155
61 96 154
60 96 153
61 96 148
61 97 154
61 96 148
60 95 147
62 97 156
61 97 157
63 98 158
61 97 151
60 96 149
62 97 150
60 96 152
62 98 158
62 98 156
61 96 154
61 97 155
61 96 148
62 97 156
62 97 157
61 96 148
61 96 147
61 97 151
61 96 151
62 97 156
62 98 160
61 96 149
61 96 149
60 96 140
60 96 141
61 97 143
63 98 158
61 97 153
60 96 142
61 97 152
62 97 154
62 98 159
61 97 150
60 94 142
61 96 148
61 96 149
61 96 149
60 95 135
62 97 154
62 98 154
62 97 158
61 96 145
63 98 159
61 96 141
61 96 145
61 95 141
60 96 145
61 96 150
61 97 147
61 97 147
61 96 143
61 96 150
59 94 130
60 95 140
62 97 152
62 98 151
61 96 142
60 94 137
61 96 143
60 95 131
59 94 139
59 93 135
61 96 148
60 95 138
61 96 147
59 93 130
58 93 128
61 95 142
60 94 138
59 93 129
58 92 118
59 93 128
60 95 136
58 91 127
59 93 132
80 103 110
85 101 85
103 116 60
114 122 36
116 124 0
105 111 0
109 115 0
123 133 0
119 128 0
110 114 0
109 115 0
113 119 0
119 123 0
113 116 0
103 107 0
108 112 0
114 119 0
106 107 0
110 114 0
108 110 0
105 108 0
108 112 0
102 103 0
98 97 0
104 104 0
109 110 0
96 95 0
91 88 0
109 110 0
94 93 0
94 92 0
114 113 0
102 102 0
98 98 0
100 97 0
102 100 0
101 101 0
103 100 0
94 92 0
112 110 0
114 113 0
100 94 0
111 108 0
107 105 0
104 101 0
101 99 0
112 109 0
101 100 0
114 110 0
97 94 0
115 112 0
102 101 0
105 103 0
115 114 0
108 106 0
113 112 0
109 107 0
111 109 0
104 102 0
108 103 0
112 113 0
118 113 0
122 122 0
107 107 0
122 117 0
117 113 0
113 111 16
125 122 0
119 118 0
122 122 11
121 121 11
116 115 11
127 124 16
118 118 0
126 131 0
119 122 11
134 137 11
137 136 0
137 142 0
135 139 0
133 135 11
131 134 0
131 131 0
136 140 11
132 134 11
144 148 0
142 147 0
141 146 0
140 146 0
140 146 0
146 153 0
149 155 0
149 156 0
155 164 0
151 159 0
151 160 0
156 163 0
153 165 0
152 162 0
154 163 0
155 166 0
153 163 0
158 168 0
155 165 0
149 159 0
157 171 0
157 168 0
157 165 0
163 176 0
154 165 0
153 167 0
154 166 0
162 175 0
156 171 0
159 172 0
161 175 0
160 177 0
164 180 0
154 168 0
160 174 0
160 175 0
161 175 0
163 177 0
159 173 0
162 177 0
164 179 0
161 175 0
163 179 0
164 179 0
163 178 0
159 176 0
155 173 0
167 184 0
165 183 0
162 180 0
166 182 0
170 188 0
164 183 0
162 179 0
161 180 0
168 187 0
165 183 0
195 214 177
194 214 179
194 214 177
190 210 169
190 211 161
193 212 169
192 213 171
187 208 144
188 209 153
186 207 147
182 205 128
186 207 149
183 205 137
187 208 140
184 205 130
181 204 133
177 200 105
177 200 108
178 201 117
178 201 88
176 200 88
178 201 88
177 199 102
174 198 62
177 200 99
177 200 92
176 199 88
175 199 95
175 199 62
175 198 76
176 199 62
173 197 80
175 198 57
172 196 62
173 197 84
173 197 72
170 193 57
175 199 76
174 198 95
171 196 80
175 198 67
176 199 57
172 196 72
177 200 67
172 196 72
175 199 95
174 198 62
171 194 51
173 197 67
172 196 62
171 196 72
172 196 72
172 196 72
175 198 72
172 196 67
175 199 84
173 197 92
173 198 80
175 198 76
169 193 62
171 195 80
173 196 84
175 198 72
171 195 62
174 198 80
175 198 76
173 196 62
171 195 47
171 194 105
161 184 80
149 172 107
136 160 136
131 156 148
112 137 147
101 128 151
106 133 166
107 133 165
130 155 171
113 139 163
117 142 173
114 139 167
112 138 161
119 143 172
115 140 164
114 139 174
98 126 173
101 129 162
110 136 177
104 131 172
94 122 166
110 136 172
100 128 181
102 129 172
102 129 183
98 126 179
93 121 168
99 126 177
86 116 173
82 112 169
84 115 175
91 120 179
88 117 174
76 109 178
71 105 170
87 117 181
86 117 181
76 108 175
74 107 171
68 102 172
70 104 170
63 99 162
75 107 171
76 108 174
72 105 164
65 99 160
70 103 159
71 103 150
66 101 160
66 100 155
64 98 154
63 97 143
61 97 157
63 97 147
68 102 150
60 95 143
63 99 153
61 95 139
61 96 151
61 96 152
65 99 151
61 97 157
62 98 153
62 97 151
60 96 155
60 96 154
61 97 157
61 96 160
60 95 149
61 97 152
61 97 156
62 98 162
62 98 158
60 95 148
59 95 148
61 96 153
61 96 152
60 96 155
62 98 159
61 96 152
60 95 156
61 97 149
61 97 154
60 95 146
60 96 147
61 97 156
61 96 154
61 97 151
60 96 154
61 97 150
61 97 154
61 97 153
61 97 151
61 97 156
62 98 159
61 97 158
61 96 153
61 97 153
61 96 152
61 97 154
61 96 149
60 95 154
61 97 159
61 97 158
61 96 154
61 96 148
60 96 152
62 98 157
61 97 150
61 97 159
62 97 155
62 97 156
61 96 149
61 97 151
61 95 144
62 98 158
62 98 156
61 97 152
61 97 149
62 98 158
62 98 154
60 95 148
61 97 153
61 96 148
62 98 156
61 97 153
61 97 151
61 97 158
62 97 154
60 96 147
62 97 152
61 96 148
60 96 144
61 97 150
60 96 147
61 97 151
62 97 150
62 98 153
61 96 142
60 95 140
61 97 153
62 97 151
61 97 148
63 99 160
62 98 151
61 97 149
61 97 144
61 96 151
61 96 147
61 96 142
60 95 143
62 98 152
62 98 157
62 97 153
62 97 152
61 96 140
62 97 153
62 97 153
60 96 140
62 97 147
61 97 144
60 95 139
61 96 152
60 96 143
59 93 135
62 97 152
61 96 142
61 96 148
60 96 137
62 98 149
61 97 148
61 96 143
62 97 149
60 95 145
61 96 147
59 94 137
60 95 133
60 95 144
60 95 140
60 94 132
59 93 124
60 95 141
60 94 138
60 95 137
60 94 128
59 93 127
59 93 123
59 92 124
62 93 127
67 92 110
97 112 68
118 128 51
125 131 0
121 127 0
111 115 0
115 120 0
106 112 0
114 121 0
115 117 0
120 125 0
114 120 0
111 116 0
108 112 0
128 132 0
96 99 0
116 122 0
121 122 0
106 108 0
108 108 0
111 112 0
120 125 0
100 103 0
98 99 0
122 124 11
101 101 0
105 107 0
112 115 0
99 98 0
115 119 0
104 106 0
105 102 0
103 102 0
111 111 0
95 94 0
100 100 0
104 107 0
105 103 0
108 109 0
106 105 0
101 102 0
114 114 0
101 98 0
117 115 0
107 104 0
100 96 0
110 109 0
103 102 0
104 103 0
118 117 0
111 108 0
97 95 0
110 106 0
115 114 0
113 109 0
103 99 11
105 102 0
107 104 0
121 119 0
115 114 0
120 119 0
118 118 11
118 122 0
108 104 11
118 116 0
116 116 11
112 110 0
125 125 0
123 123 11
126 126 0
121 121 0
127 124 0
129 132 16
127 127 0
127 130 11
129 128 0
134 133 11
128 130 0
139 141 0
132 136 0
133 136 0
140 144 0
132 134 0
136 137 0
144 147 11
145 153 0
145 155 0
150 156 0
146 153 0
150 160 0
149 156 0
154 165 0
152 163 0
147 154 0
157 168 0
152 159 0
144 153 0
149 157 0
151 160 0
148 156 0
147 155 0
146 154 0
152 164 0
154 163 0
153 165 0
155 165 0
160 170 0
159 172 0
159 171 0
156 172 0
159 172 0
154 165 0
161 175 0
153 167 0
163 179 0
157 167 0
156 167 0
161 175 0
155 169 0
161 175 0
159 176 0
158 173 0
156 172 0
157 173 0
163 180 0
160 174 0
160 176 0
165 181 0
164 180 0
161 176 0
165 181 0
163 181 0
162 179 0
165 181 0
161 178 0
162 180 0
167 185 0
164 183 0
164 181 0
165 182 0
163 182 0
168 186 0
195 215 177
195 214 177
192 212 171
187 208 147
193 213 173
191 212 171
191 211 165
187 209 163
188 209 144
186 207 142
186 207 135
185 206 128
180 202 111
182 205 122
178 200 108
181 204 128
178 201 95
175 198 105
177 199 80
178 200 72
177 199 76
176 199 84
175 197 76
175 199 84
171 195 92
173 196 84
175 198 72
174 198 67
172 196 51
174 198 76
172 196 67
174 198 62
174 198 88
175 199 67
172 195 62
173 197 80
173 197 84
174 197 57
170 194 62
176 199 72
173 195 44
173 197 62
173 196 76
172 196 62
175 199 95
173 197 80
175 199 80
171 194 72
173 197 80
173 197 88
172 195 84
173 197 84
172 195 84
175 198 92
177 200 76
173 197 62
175 198 92
175 199 67
174 198 88
173 197 76
168 192 62
178 201 92
176 200 92
175 199 76
170 193 76
168 191 62
175 198 72
173 196 78
161 185 97
156 180 90
148 172 114
134 159 125
116 142 154
111 137 156
97 125 154
102 129 153
107 133 144
111 138 160
104 131 155
110 136 157
99 127 163
112 138 173
97 125 168
113 137 159
103 130 175
97 125 160
115 140 180
94 123 159
104 132 170
104 131 165
100 126 167
102 129 180
87 117 167
96 124 170
88 118 171
102 129 181
88 118 181
87 117 178
90 120 168
84 114 169
82 113 175
82 113 174
89 119 182
86 116 179
80 111 175
76 108 173
75 107 165
67 101 157
77 108 164
74 107 173
71 104 171
78 109 164
67 101 160
74 106 161
72 106 172
61 97 158
63 99 160
66 100 157
74 107 157
68 101 149
64 98 154
65 99 153
58 93 150
64 98 151
60 96 154
62 97 151
60 96 154
62 96 151
59 94 150
60 95 149
64 99 152
60 95 148
60 95 151
59 94 149
60 96 145
60 96 153
60 95 151
60 95 154
61 96 155
58 92 141
60 95 149
60 95 140
62 98 163
61 96 153
60 96 152
61 97 159
61 97 154
61 97 154
61 97 159
61 96 153
61 97 155
61 97 155
60 95 151
61 97 151
61 97 160
60 95 147
60 96 153
61 96 151
61 97 155
62 97 154
61 97 152
61 96 150
61 96 155
60 95 151
61 96 158
61 97 158
61 97 151
62 98 162
60 96 149
60 95 150
61 97 150
60 96 152
61 97 152
61 96 151
60 95 142
61 97 150
61 97 153
60 96 150
62 98 160
61 97 152
60 96 154
60 95 150
61 96 151
61 96 148
62 98 161
61 97 152
61 96 149
61 97 155
61 97 153
62 98 155
62 97 159
60 96 142
62 97 153
62 97 152
60 95 147
60 95 141
62 97 153
62 97 157
62 97 148
61 96 147
62 97 149
61 97 149
62 97 155
62 98 156
62 97 149
60 95 148
61 97 152
60 95 139
60 95 142
61 97 149
62 97 156
60 95 148
61 96 152
60 95 145
61 96 145
61 96 139
61 95 136
61 96 142
62 98 158
61 96 144
62 97 156
62 97 150
61 96 147
62 98 151
60 95 144
60 95 142
61 96 144
62 97 149
60 95 147
62 97 153
60 95 147
62 97 150
62 97 144
63 98 157
60 95 147
60 95 143
62 97 148
61 96 143
59 95 136
60 95 141
61 95 140
61 95 139
59 94 132
60 96 141
60 94 140
61 96 144
61 96 145
59 93 134
60 95 141
60 95 130
59 93 128
61 95 141
59 93 127
60 95 135
59 93 131
57 90 120
59 93 132
65 92 111
75 97 94
102 118 81
113 122 40
112 120 0
104 107 0
110 116 0
117 127 0
112 121 0
112 119 0
118 124 0
107 113 0
111 115 0
111 117 0
117 123 0
120 124 0
106 112 0
115 121 0
110 114 0
112 118 0
118 121 0
98 101 0
104 106 0
105 106 0
109 110 0
106 110 0
110 110 0
110 110 0
104 104 0
103 103 0
99 99 0
113 112 0
110 110 0
114 114 0
105 105 0
105 103 0
112 107 0
98 98 0
104 106 0
108 111 0
108 109 0
112 115 0
105 106 0
116 114 0
116 114 0
114 114 0
110 109 0
104 100 0
99 95 0
116 112 0
101 97 0
105 101 11
103 101 0
113 113 0
126 123 0
112 110 0
117 116 0
110 108 0
116 113 0
124 125 11
114 109 0
102 98 0
124 125 0
118 117 0
114 112 0
116 115 0
121 120 0
121 119 0
119 119 0
132 133 0
122 123 11
117 118 0
121 122 0
128 129 0
128 130 0
129 130 0
130 135 0
130 128 0
126 131 0
125 124 0
138 143 0
132 136 0
138 142 11
136 139 0
142 145 11
143 150 0
146 151 0
149 155 0
144 152 0
145 153 0
140 143 0
154 161 0
152 161 0
150 156 0
153 164 0
150 157 0
143 154 0
152 161 0
144 153 0
154 164 0
150 160 0
157 169 0
153 164 0
151 160 0
151 160 0
151 163 0
149 161 0
151 163 0
158 173 0
158 168 0
159 171 0
158 172 0
158 172 0
161 175 0
162 176 0
161 176 0
153 165 0
165 180 0
164 177 0
155 168 0
157 170 0
160 176 0
163 178 0
159 173 0
159 175 0
167 185 0
163 178 0
161 177 0
166 183 0
161 177 0
159 174 0
159 174 0
164 181 0
162 179 0
166 185 0
167 186 0
167 184 0
164 182 0
162 178 0
164 183 0
170 189 0
168 186 0
164 180 0
191 211 165
189 209 157
190 211 161
190 210 159
188 208 144
188 209 144
188 209 149
186 207 133
187 209 151
183 206 130
181 203 114
177 200 88
180 202 95
178 201 102
179 203 105
175 198 84
180 202 95
176 199 67
174 198 62
176 200 92
176 198 62
176 199 57
173 197 80
174 198 95
174 198 62
173 196 88
173 197 80
174 198 62
173 196 67
176 200 92
174 198 67
177 200 88
174 198 72
170 194 57
172 196 76
175 199 76
173 196 88
174 198 92
175 199 72
172 195 67
175 199 80
173 197 95
173 197 57
174 199 99
174 197 72
172 196 84
172 196 84
175 199 92
174 197 84
173 197 88
171 195 84
174 198 67
173 197 80
175 199 62
175 198 76
175 199 76
174 197 67
172 197 76
170 194 57
173 195 67
175 199 92
173 196 67
174 198 76
171 195 80
174 197 76
172 196 76
174 197 62
172 196 84
167 191 94
155 179 105
149 173 107
122 147 124
127 152 136
109 135 156
98 126 155
96 124 144
94 122 148
103 130 157
95 123 159
111 137 161
105 131 154
113 140 169
96 124 156
110 136 167
111 138 165
97 125 160
84 114 166
106 132 177
102 129 178
107 134 171
93 123 166
96 124 164
97 125 169
93 121 167
99 127 179
86 117 174
88 117 175
97 125 178
79 111 172
88 118 175
74 106 166
86 116 169
79 111 171
81 113 179
80 111 179
64 100 165
77 109 174
75 107 170
67 101 167
71 104 166
74 106 174
71 104 165
67 101 158
71 104 166
72 105 161
63 98 163
73 105 156
60 96 155
66 100 162
62 96 143
66 100 159
62 97 153
61 96 155
66 99 159
58 94 150
61 97 159
61 96 154
60 96 156
61 97 155
62 97 149
59 94 151
61 96 153
59 94 151
60 95 151
63 97 149
61 97 157
61 97 157
60 96 151
59 94 146
60 95 145
61 97 158
61 96 150
60 95 148
60 96 147
62 97 159
61 97 163
62 98 162
61 97 158
61 97 159
61 97 156
61 96 149
61 96 153
60 95 150
61 97 153
60 96 160
61 97 157
60 96 156
62 98 160
62 97 154
59 95 148
61 97 155
61 97 153
60 95 153
61 97 158
61 96 153
61 96 149
61 97 154
60 95 144
61 97 157
61 97 154
60 96 148
61 96 149
62 97 154
62 98 160
62 98 158
62 98 160
62 98 157
62 98 159
61 97 153
61 97 155
61 96 148
61 97 150
61 97 157
61 97 151
62 98 160
62 98 158
60 95 140
63 98 161
61 96 156
61 97 152
62 98 155
61 97 145
62 98 159
62 98 155
62 98 158
61 96 152
61 96 143
61 97 152
61 96 145
61 96 147
62 98 161
59 94 134
61 97 153
61 97 145
61 97 151
61 97 149
61 97 148
61 96 145
61 97 150
61 97 147
60 95 137
61 97 152
61 96 143
62 97 156
62 98 151
62 97 151
61 96 143
61 96 150
60 95 141
62 98 157
61 96 143
61 96 149
61 97 144
62 98 153
62 97 153
61 97 148
61 96 148
61 96 151
61 96 147
61 96 145
60 95 150
61 97 154
60 95 133
61 96 143
60 94 135
61 96 145
60 95 148
61 96 144
61 96 143
60 95 137
61 96 141
60 95 139
58 91 126
59 94 131
60 94 145
59 93 126
59 94 136
59 93 130
60 94 134
60 94 133
59 93 133
59 92 130
58 92 131
60 93 141
61 95 135
58 92 133
61 95 140
71 96 108
89 106 83
100 115 75
120 130 26
123 132 0
113 122 0
107 114 0
111 120 0
118 123 0
115 122 0
129 137 0
104 112 0
111 119 0
118 125 0
114 121 0
111 115 0
105 108 0
97 104 0
107 113 0
114 115 0
108 111 0
98 104 0
102 104 0
105 109 0
106 110 0
117 124 0
111 114 0
103 104 0
109 112 0
99 99 0
106 107 0
101 101 0
109 111 0
102 104 0
98 96 0
112 116 0
106 105 0
102 102 0
112 110 0
111 112 0
98 97 0
107 109 0
107 106 0
103 101 0
108 107 0
115 116 0
102 98 0
109 107 0
114 114 0
114 114 0
105 102 0
110 108 0
114 112 0
112 112 0
111 111 0
112 112 0
116 115 0
121 122 0
114 111 0
121 121 0
119 117 0
113 111 0
118 119 0
128 128 0
126 127 0
131 134 0
118 116 16
124 124 0
120 121 0
126 126 11
117 116 0
126 130 0
129 128 0
123 123 0
128 128 0
130 131 0
121 122 0
139 144 0
137 139 0
125 130 0
137 138 0
137 141 0
147 153 0
141 146 0
147 154 0
152 158 0
149 156 0
147 153 0
149 154 0
145 154 0
138 145 0
146 153 0
153 162 0
151 157 0
148 156 0
145 153 0
158 168 0
150 159 0
149 156 0
156 168 0
152 162 0
156 166 0
151 162 0
151 162 0
154 165 0
154 164 0
162 174 0
157 169 0
153 166 0
151 163 0
160 173 0
157 168 0
158 170 0
158 174 0
160 173 0
163 179 0
160 174 0
162 176 0
156 167 0
167 183 0
163 179 0
166 183 0
162 176 0
161 176 0
158 172 0
165 181 0
160 176 0
159 173 0
162 179 0
161 177 0
160 175 0
168 185 0
163 180 0
167 184 0
159 175 0
163 182 0
164 183 0
163 178 0
163 179 0
164 181 0
162 180 0
171 190 0
167 185 0
189 210 167
189 210 163
190 211 151
190 210 157
185 206 140
185 206 125
180 202 105
181 203 105
181 203 128
179 201 102
176 199 117
173 195 92
179 201 92
174 197 84
177 200 95
177 200 99
174 197 76
176 199 62
178 201 84
175 198 76
171 195 57
172 195 67
174 198 80
177 200 84
173 197 72
171 194 67
176 200 84
174 198 72
173 197 72
172 196 92
175 199 57
175 198 62
170 193 67
172 196 72
170 194 80
174 198 67
171 195 36
176 200 80
171 194 67
173 198 76
172 196 80
171 194 57
170 194 67
170 194 72
173 197 80
172 196 80
175 197 76
175 198 76
170 193 51
170 193 44
176 200 88
173 196 51
170 194 80
172 195 62
174 197 80
173 197 88
171 195 72
174 197 57
174 197 62
173 198 72
169 193 80
167 191 57
174 198 76
176 199 57
172 195 62
174 197 72
171 196 92
171 195 67
164 188 94
160 184 95
152 175 100
140 165 130
126 151 130
119 143 131
106 133 160
94 122 147
104 131 168
97 125 149
90 119 145
104 132 149
101 129 159
100 127 164
102 129 152
87 117 153
109 135 166
104 131 153
100 128 152
91 120 156
93 121 163
97 125 162
90 119 171
103 130 162
87 117 170
94 123 173
98 126 170
89 118 158
85 116 172
89 119 171
80 112 175
88 117 174
78 110 172
81 112 164
86 116 170
72 105 169
70 104 173
80 111 174
88 117 175
73 106 167
73 106 164
74 107 171
71 104 165
73 106 166
70 104 167
68 102 165
72 106 172
68 102 161
69 103 163
73 105 153
69 102 160
67 100 157
62 97 152
63 97 156
61 96 157
68 102 160
61 96 156
63 97 147
58 94 148
60 96 154
63 98 159
60 96 155
59 95 141
60 95 154
61 96 156
60 96 152
60 96 153
60 96 151
60 96 154
60 95 145
60 96 152
59 95 149
60 95 147
60 95 149
61 97 151
61 96 156
59 94 138
61 96 155
60 95 148
61 97 159
61 96 142
60 96 151
61 96 154
60 95 148
61 97 151
61 97 157
61 96 158
59 94 139
60 96 152
60 95 149
62 97 151
60 95 147
62 98 162
60 96 157
60 95 148
61 96 149
61 97 153
61 96 149
61 96 148
60 95 147
61 96 153
62 98 155
61 97 155
62 97 149
61 96 149
60 96 148
62 98 155
61 96 149
62 97 157
61 97 152
62 98 160
61 96 149
62 98 157
60 95 143
61 96 145
63 98 156
62 98 156
60 96 150
60 96 139
61 96 149
62 97 155
61 97 148
61 97 152
61 97 153
61 96 144
60 96 152
61 97 149
62 98 154
61 95 147
61 97 156
62 98 156
62 97 152
61 97 150
61 96 155
61 97 150
61 97 150
61 97 156
61 97 152
61 97 147
61 96 145
61 97 154
62 97 152
61 96 150
61 96 147
61 96 151
61 96 147
63 98 157
61 96 147
62 97 148
62 97 148
62 97 149
61 97 149
61 96 135
61 96 148
61 97 148
62 97 154
60 95 135
62 97 148
61 96 143
60 95 141
61 95 136
62 97 147
61 96 151
60 96 140
59 93 131
61 96 145
61 97 152
62 97 148
60 96 137
61 96 141
59 94 130
61 96 133
61 96 141
60 95 142
59 94 130
61 96 147
59 94 139
62 97 149
59 94 136
60 94 141
60 95 134
60 94 125
60 94 139
60 94 131
60 94 137
60 94 139
59 93 131
59 92 128
61 93 113
87 106 93
94 111 93
115 125 51
112 117 25
117 123 0
115 121 0
108 116 0
116 123 0
115 121 0
117 122 0
121 128 0
126 133 0
104 109 0
113 116 0
116 120 0
115 122 0
124 128 0
120 127 0
108 111 0
118 124 0
117 121 0
112 116 0
103 107 0
107 113 0
112 116 0
106 107 0
108 112 0
105 105 0
117 119 0
99 102 0
109 111 0
100 99 0
109 110 0
107 108 0
105 108 0
114 117 0
118 122 0
117 116 0
101 100 0
105 101 0
113 115 0
105 105 0
114 116 0
105 103 0
105 105 0
103 102 0
117 116 0
110 110 0
121 122 0
114 116 0
113 112 0
115 116 0
106 106 0
104 106 0
117 114 0
117 120 0
117 116 0
120 118 0
108 106 0
111 111 0
117 118 11
126 125 0
111 113 0
116 114 0
125 126 0
125 125 0
121 121 0
122 123 0
125 128 0
131 132 0
117 115 0
126 126 0
132 134 0
132 134 0
137 141 0
135 140 0
137 145 0
138 143 0
137 142 0
143 146 11
134 139 0
135 141 0
144 151 0
134 139 0
139 144 0
146 150 0
139 142 0
146 155 0
141 148 0
149 159 0
146 151 0
145 153 0
140 148 0
147 156 0
153 162 0
157 165 0
154 163 0
151 160 0
149 161 0
153 164 0
148 158 0
159 174 0
154 166 0
159 172 0
148 160 0
154 165 0
159 171 0
154 166 0
154 167 0
152 163 0
155 164 0
156 166 0
157 169 0
154 166 0
160 172 0
165 179 0
158 172 0
153 166 0
160 174 0
157 171 0
166 183 0
164 178 0
161 173 0
158 173 0
163 180 0
163 177 0
159 175 0
161 175 0
163 178 0
164 183 0
155 170 0
160 175 0
165 181 0
165 181 0
164 180 0
163 181 0
161 175 0
165 184 0
167 187 0
156 173 0
167 184 0
160 177 0
162 179 0
188 208 157
185 207 149
183 205 137
185 206 137
181 203 122
183 204 133
183 205 122
183 206 133
179 201 99
173 196 67
178 201 99
173 196 76
178 201 95
173 197 76
175 199 62
174 198 72
173 197 72
172 196 62
171 195 51
173 197 72
176 198 62
174 196 72
176 199 84
173 196 44
174 198 67
173 196 62
172 197 92
173 196 72
172 196 67
173 197 51
174 197 76
172 196 84
172 195 84
171 195 84
175 199 72
172 196 72
171 194 76
172 196 92
171 194 44
174 197 76
173 196 80
171 194 62
170 194 57
174 197 57
170 193 76
172 195 51
174 198 57
171 195 67
170 194 67
174 198 51
169 193 25
172 195 88
170 194 57
175 199 88
171 195 67
172 196 72
171 194 72
172 196 84
174 197 72
172 196 84
173 196 76
174 196 67
174 197 72
174 197 88
170 194 67
172 195 67
171 195 67
172 195 92
170 193 99
156 180 86
155 179 110
143 167 114
128 154 117
112 137 135
98 126 153
95 123 152
110 137 161
93 122 144
108 135 159
105 132 144
88 118 154
100 128 151
82 112 153
112 138 159
104 132 154
96 124 158
91 120 159
91 120 173
105 132 158
97 126 164
86 116 163
92 121 162
98 127 172
93 121 167
83 114 166
82 113 163
81 113 170
88 117 162
87 117 170
72 105 168
91 119 160
84 115 170
82 113 169
68 103 170
80 111 173
84 115 175
73 106 170
73 106 169
71 104 173
75 107 168
68 103 169
82 112 175
74 107 172
64 99 161
67 101 166
65 100 167
73 106 165
63 98 158
64 99 159
64 99 160
75 107 161
66 99 148
62 97 155
64 98 151
64 98 150
59 94 148
60 96 151
61 96 158
63 98 154
63 98 154
61 97 155
62 97 147
59 95 153
60 95 157
59 94 150
59 94 151
61 97 155
61 97 156
60 95 148
61 97 158
61 97 155
61 96 154
61 96 150
59 95 141
61 97 149
60 95 150
60 96 156
60 95 149
61 96 154
60 95 150
59 94 142
62 97 161
61 97 158
59 94 143
61 97 155
61 97 153
61 97 155
59 95 145
61 96 153
61 96 152
61 97 152
61 96 151
61 97 154
60 96 150
62 97 164
61 96 153
61 96 150
61 96 149
61 96 153
61 96 141
61 97 153
61 96 145
61 96 149
61 97 158
62 98 156
61 97 154
62 97 149
62 97 158
62 98 159
61 97 152
60 96 145
60 96 149
62 97 154
61 97 154
61 97 154
62 98 156
62 98 159
60 95 148
61 96 151
62 98 154
61 96 145
61 97 154
61 96 151
61 97 154
62 98 157
60 95 147
60 96 143
61 97 145
61 97 152
62 97 154
60 95 136
61 96 151
60 95 135
61 97 152
60 95 140
61 97 150
61 96 149
62 97 152
61 97 143
61 96 151
61 97 150
61 96 140
61 97 152
61 96 148
61 96 143
61 97 147
60 95 141
61 97 150
61 96 145
60 95 136
62 97 148
61 96 143
60 95 139
60 95 144
61 96 140
61 97 150
60 95 141
60 95 137
61 97 143
62 97 147
60 95 136
61 97 150
62 97 150
61 96 139
61 96 143
61 96 143
60 95 139
60 95 135
61 96 142
59 94 140
62 97 150
60 95 135
60 94 139
61 95 143
60 94 135
61 96 141
59 94 139
60 94 139
60 94 138
60 94 129
60 93 134
58 92 129
60 94 135
59 92 131
58 91 123
58 91 125
64 94 121
97 116 85
110 123 62
116 125 25
105 113 0
109 119 0
128 137 0
116 123 0
110 117 0
112 121 0
120 127 0
110 118 0
118 126 0
118 124 0
111 116 0
109 114 0
114 119 0
115 118 0
105 110 0
114 120 0
107 112 0
119 126 0
105 111 0
110 114 0
104 107 0
104 107 0
119 125 0
112 117 0
114 119 0
109 110 0
112 115 0
119 123 0
102 104 0
114 119 0
101 105 0
112 115 0
113 115 0
109 112 0
108 110 0
112 111 0
111 112 0
99 99 0
116 118 0
108 104 0
112 111 0
111 111 0
110 111 0
115 117 0
108 108 0
123 125 0
103 104 0
117 118 0
109 108 0
115 116 0
112 108 0
113 113 0
128 130 0
119 117 0
118 120 0
120 124 0
126 126 0
121 122 0
116 116 0
118 118 0
113 114 0
113 112 0
128 130 0
129 129 0
136 140 0
135 136 0
131 134 0
135 138 0
137 140 0
127 130 0
127 129 0
122 123 0
138 142 0
137 138 0
141 144 0
140 140 0
140 146 0
145 150 0
140 145 0
146 154 0
149 155 0
137 144 0
148 155 0
147 151 0
145 151 0
143 149 0
145 153 0
142 149 0
144 153 0
150 161 0
153 162 0
146 152 0
144 150 0
158 170 0
150 159 0
149 160 0
155 165 0
147 155 0
155 166 0
153 164 0
154 166 0
153 165 0
154 166 0
159 172 0
151 164 0
148 158 0
161 175 0
156 168 0
155 166 0
159 173 0
158 170 0
161 176 0
160 176 0
161 174 0
157 172 0
159 171 0
160 174 0
162 177 0
165 179 0
159 174 0
161 177 0
159 173 0
160 176 0
166 182 0
162 179 0
164 180 0
165 180 0
155 168 0
164 181 0
163 181 0
159 177 0
163 180 0
162 177 0
167 184 0
167 184 0
166 184 0
163 181 0
165 182 0
166 184 0
168 185 0
184 205 133
190 209 149
187 208 144
185 205 125
176 199 92
180 202 111
178 200 99
180 203 117
177 200 72
177 200 84
175 199 102
178 201 95
177 200 72
173 197 88
174 198 51
176 199 51
173 196 62
174 198 80
173 196 51
174 198 72
176 200 92
171 195 67
175 198 72
170 195 76
174 197 88
173 197 80
173 195 51
174 198 76
174 198 80
175 198 76
175 199 102
171 195 51
174 197 76
173 196 72
171 194 67
172 196 72
170 193 51
172 195 67
173 196 88
175 199 95
171 195 51
173 196 62
174 197 80
171 195 67
171 195 67
172 195 72
174 197 57
171 195 76
172 195 72
173 198 67
173 196 80
171 194 57
170 193 76
170 194 102
169 193 51
169 193 76
172 195 76
175 198 72
170 193 67
170 194 72
166 190 57
167 191 36
175 198 72
173 196 62
173 195 62
173 196 80
175 199 92
170 193 72
168 191 54
167 190 110
157 181 84
144 168 95
131 156 126
123 148 129
98 126 149
104 131 145
96 124 154
105 132 149
101 128 144
97 125 150
105 133 157
92 120 145
112 138 156
109 135 149
92 121 153
104 132 156
105 132 163
96 125 159
94 122 157
106 134 162
94 123 154
101 129 159
95 123 160
96 124 157
94 123 163
86 116 169
86 116 169
87 116 164
95 123 173
88 117 169
78 110 172
99 128 186
78 110 168
78 109 160
73 106 163
73 106 167
82 113 175
80 111 168
76 108 165
74 107 177
74 107 172
77 108 168
71 104 168
63 99 161
71 104 163
66 100 158
66 101 161
73 106 165
72 105 159
60 96 152
72 104 157
63 98 157
62 96 147
63 98 158
67 99 145
68 102 150
66 100 156
63 99 161
60 96 157
63 98 156
60 95 154
60 95 145
60 95 152
61 96 148
61 97 160
59 94 143
60 95 150
60 96 149
61 97 156
60 96 150
60 95 151
61 96 153
61 97 153
60 95 150
61 96 158
61 96 143
60 95 143
61 97 157
60 95 148
61 97 153
61 97 152
60 96 149
60 96 146
60 96 144
62 97 157
61 96 149
60 95 145
61 96 145
61 97 155
60 96 140
61 96 152
60 96 149
62 97 156
61 96 145
61 97 155
60 95 149
61 97 152
60 96 142
61 97 151
60 95 146
61 96 148
61 97 154
61 96 155
61 96 143
61 97 152
61 97 149
62 97 155
61 97 147
61 96 151
62 98 154
61 97 150
62 97 151
59 94 147
61 97 150
60 95 137
61 97 150
61 97 151
60 96 147
61 97 147
61 96 144
61 96 144
61 96 154
61 96 147
61 96 154
61 97 153
62 98 156
60 96 147
60 95 140
62 98 151
61 97 154
61 96 147
61 96 149
61 97 143
61 96 142
60 96 143
62 98 151
60 96 149
63 99 164
60 95 136
61 96 145
61 97 152
61 96 148
61 96 147
61 96 145
60 95 143
62 97 149
61 97 147
63 98 159
61 97 145
61 97 147
61 96 144
61 96 147
61 97 149
61 96 148
59 94 135
62 97 142
61 97 149
61 97 148
61 96 144
60 95 141
61 96 144
61 96 145
60 95 141
61 96 143
62 98 151
60 95 136
60 95 130
61 96 143
58 93 133
61 96 143
61 96 145
60 95 137
61 96 149
60 95 139
61 95 142
61 96 141
60 94 139
60 95 133
59 94 140
60 94 131
58 92 126
60 94 126
60 95 132
58 91 124
58 91 123
58 87 104
71 97 107
104 119 60
108 121 60
106 110 18
116 126 0
125 134 0
110 120 0
107 113 0
109 119 0
123 132 0
118 126 0
107 113 0
103 108 0
102 108 0
111 118 0
119 123 0
122 130 0
116 122 0
111 119 0
104 108 0
125 134 0
114 116 0
116 121 0
116 118 0
106 111 0
119 126 0
116 120 0
118 122 0
113 118 0
99 102 0
105 111 0
116 122 0
112 114 0
102 105 0
114 117 0
109 107 0
127 130 0
110 113 0
117 117 0
109 114 0
117 119 0
110 110 0
100 103 0
114 117 0
116 116 0
101 101 0
106 107 0
114 113 0
103 104 0
118 121 0
122 121 0
124 125 0
110 108 0
116 117 0
113 112 0
116 120 0
119 121 0
114 113 0
126 130 0
126 128 0
120 124 0
123 125 0
126 130 0
127 128 0
126 126 0
122 126 0
135 136 11
134 137 0
135 137 0
132 137 0
133 137 0
133 138 0
135 137 0
133 135 0
140 146 0
125 127 0
128 129 0
138 142 0
135 139 0
137 141 0
144 149 0
134 140 0
134 136 0
145 153 0
138 142 0
153 162 0
144 150 0
147 153 0
142 147 0
147 155 0
144 149 0
157 167 0
156 167 0
148 158 0
146 153 0
154 168 0
148 157 0
151 159 0
149 161 0
154 164 0
144 156 0
156 166 0
156 165 0
157 167 0
158 170 0
145 155 0
155 166 0
151 161 0
157 170 0
156 168 0
156 170 0
154 166 0
159 172 0
164 178 0
158 173 0
160 172 0
156 170 0
156 168 0
156 170 0
161 173 0
162 177 0
163 177 0
157 169 0
160 177 0
157 174 0
160 178 0
161 176 0
162 179 0
162 177 0
164 181 0
159 175 0
151 166 0
158 175 0
161 177 0
161 178 0
163 181 0
161 180 0
163 179 0
166 184 0
169 188 0
162 181 0
158 176 0
168 186 0
163 180 0
186 207 128
181 204 114
179 202 99
175 198 84
178 201 99
175 199 95
177 199 80
177 200 84
175 198 84
175 198 67
173 196 62
173 196 67
171 195 57
175 199 62
176 199 72
174 198 80
172 196 84
174 198 62
168 191 57
174 198 72
171 194 67
174 197 72
172 196 80
173 197 84
177 201 99
174 198 80
171 194 80
172 196 67
173 196 76
173 196 51
170 194 57
172 195 44
174 198 72
172 196 76
169 193 36
171 195 72
171 196 72
172 197 67
173 197 67
172 195 51
170 195 80
172 195 67
174 197 72
171 194 76
175 199 108
168 192 80
169 192 72
171 195 76
174 197 80
169 192 76
167 191 76
173 196 44
172 196 84
172 196 62
175 198 95
169 193 57
173 197 88
173 196 67
173 196 57
169 192 57
171 195 76
173 197 76
171 194 44
169 193 51
172 195 80
172 196 76
164 188 67
168 192 72
172 195 80
165 189 80
152 176 90
141 166 115
133 157 125
124 150 133
108 136 161
93 121 143
108 135 157
95 124 157
97 126 150
92 121 152
109 135 154
98 126 151
111 137 157
101 129 160
104 131 149
96 123 151
97 125 153
85 116 156
89 118 163
104 131 149
107 133 168
104 131 151
92 120 159
93 122 163
98 126 172
90 119 157
100 127 172
98 125 166
77 109 167
96 124 169
80 111 160
87 117 169
78 110 164
81 111 170
77 109 173
78 110 177
84 114 171
71 105 172
77 109 171
89 117 179
83 113 167
69 103 169
74 106 163
61 98 163
69 103 162
68 102 164
68 103 170
62 98 164
74 106 167
67 101 161
70 103 164
61 97 160
66 99 150
68 101 151
70 103 163
63 98 151
60 96 153
65 99 152
61 96 149
60 96 143
59 94 146
61 95 149
62 96 144
61 96 155
61 97 155
61 96 149
62 97 144
59 94 146
60 95 153
62 97 148
60 96 150
61 96 153
59 94 142
61 97 159
60 95 152
61 96 154
61 97 153
60 95 144
61 96 144
60 96 149
61 96 149
60 96 144
60 95 152
62 97 156
61 96 152
59 95 147
60 95 147
61 96 149
60 94 143
61 96 149
61 97 154
60 96 143
61 97 150
60 96 147
61 96 151
60 96 149
61 96 149
62 98 156
61 97 151
61 97 161
61 96 149
61 96 144
59 95 143
60 96 149
61 97 150
61 97 147
61 97 155
60 96 153
61 97 153
61 96 148
60 96 147
60 95 142
61 96 143
61 96 151
60 95 145
60 96 148
62 97 152
61 96 145
61 97 153
61 97 154
61 96 151
61 97 151
60 96 139
60 96 147
60 95 139
61 97 154
61 96 145
61 97 148
61 97 148
61 96 149
62 98 154
62 97 154
62 98 152
61 96 143
61 96 149
61 96 150
62 97 150
61 97 155
61 96 150
60 96 140
60 95 143
61 96 145
62 98 154
61 96 145
62 97 157
61 97 149
61 96 139
61 96 143
62 97 148
61 96 144
61 97 143
60 95 140
60 95 133
60 96 143
61 97 142
61 96 148
61 96 142
60 96 144
61 97 148
60 95 140
61 96 145
61 96 145
61 96 144
61 96 143
60 95 135
60 95 144
60 94 130
61 96 145
60 95 139
60 96 147
60 96 135
60 94 132
61 96 142
59 93 133
59 93 126
61 96 134
60 95 139
60 94 141
61 95 134
59 93 128
59 93 125
58 91 128
57 90 124
57 90 118
58 91 129
61 91 115
84 103 83
107 122 57
117 127 44
111 119 18
128 136 0
111 119 0
107 117 0
117 127 0
119 128 0
109 117 0
123 129 0
119 126 0
108 113 0
109 118 0
108 111 0
117 126 0
115 122 0
109 114 0
113 119 0
123 128 0
129 134 0
115 121 0
106 110 0
113 119 0
104 110 0
123 129 0
115 122 0
120 124 0
115 120 0
110 111 0
112 119 0
118 121 0
107 111 0
121 127 0
105 108 0
115 118 0
109 112 0
114 118 0
119 121 0
116 117 0
117 118 0
115 117 0
114 117 0
108 111 0
112 113 0
114 120 0
112 115 0
122 124 0
127 129 0
124 126 0
115 116 0
121 122 0
125 126 0
114 114 0
112 115 0
119 121 0
121 122 0
114 116 0
115 118 0
121 122 0
125 128 0
113 112 0
122 126 0
123 124 0
122 125 0
127 130 0
119 118 0
126 129 0
130 131 0
127 132 0
133 136 0
135 141 0
129 133 0
138 144 0
139 144 0
133 136 0
137 143 0
143 149 0
135 139 0
142 146 0
137 146 0
138 146 0
146 153 0
146 152 0
142 148 0
143 150 0
146 152 0
140 146 0
142 148 0
140 148 0
142 151 0
148 158 0
151 161 0
149 158 0
155 164 0
154 163 0
147 153 0
150 159 0
155 168 0
151 159 0
148 160 0
152 162 0
151 166 0
152 164 0
160 173 0
157 169 0
152 164 0
160 172 0
159 172 0
160 172 0
155 168 0
158 171 0
159 174 0
164 180 0
158 171 0
153 166 0
160 171 0
158 171 0
159 174 0
164 177 0
156 171 0
156 169 0
157 169 0
163 179 0
162 178 0
161 176 0
165 181 0
159 176 0
163 177 0
163 179 0
160 177 0
164 180 0
168 185 0
160 175 0
162 177 0
161 177 0
158 175 0
167 185 0
162 180 0
167 186 0
160 178 0
168 184 0
166 185 0
166 184 0
181 203 122
181 203 122
177 200 105
176 199 72
177 201 99
174 196 84
174 197 67
175 198 72
176 199 72
173 196 72
173 196 72
177 199 84
173 197 57
171 195 51
175 198 57
171 195 51
174 198 92
175 197 62
173 197 51
173 197 72
173 196 36
173 197 72
170 194 80
173 196 57
168 192 76
173 198 72
174 198 88
172 196 84
172 196 67
172 196 67
172 196 92
171 195 67
173 197 51
170 194 76
172 195 76
168 192 67
173 196 72
173 196 76
173 196 57
170 194 62
170 194 72
173 197 99
173 197 95
173 197 76
168 192 62
172 195 51
173 197 72
170 192 44
173 197 80
169 193 80
172 197 67
172 194 80
170 194 62
172 196 67
167 190 62
170 193 80
168 192 88
170 193 72
170 194 84
174 198 99
173 196 76
168 191 72
167 190 80
171 195 62
165 188 57
172 195 80
168 191 76
172 195 72
172 195 62
169 193 74
159 184 89
151 174 88
144 168 114
118 144 133
112 138 148
99 127 145
91 120 149
87 115 148
97 125 153
91 120 149
99 127 158
102 129 151
87 116 143
88 117 154
100 128 150
100 128 138
94 122 144
91 120 155
89 118 152
109 135 147
91 119 151
108 134 153
96 124 161
94 122 164
87 116 153
89 119 160
84 114 164
94 122 162
90 119 160
91 120 163
94 122 168
90 119 175
87 117 174
85 116 168
78 110 169
77 108 164
86 116 165
84 114 175
74 106 166
75 107 169
73 105 172
66 101 171
67 100 156
64 99 165
71 105 168
70 104 167
65 100 162
69 102 154
67 100 155
66 101 166
64 99 160
66 100 158
70 102 161
72 104 160
63 97 149
61 96 153
60 95 154
62 96 135
61 97 155
66 99 145
62 97 148
62 96 141
60 95 150
59 94 148
61 97 158
61 96 153
60 96 148
60 96 151
59 95 147
59 94 153
60 95 141
60 96 151
60 95 145
60 96 144
62 98 157
59 93 135
61 97 153
61 96 155
59 94 137
61 97 152
60 96 149
61 96 152
60 95 150
61 97 151
60 95 143
61 96 150
61 96 144
61 97 154
60 96 150
61 97 145
61 97 153
61 96 149
60 94 144
60 96 149
60 95 142
61 96 154
59 94 144
62 97 156
60 96 147
61 96 151
62 97 155
61 96 145
61 96 152
62 97 155
61 96 148
61 96 149
60 96 150
61 96 145
62 98 156
60 96 149
61 96 144
62 98 152
61 97 159
60 95 139
61 96 160
60 95 142
61 96 147
61 96 146
60 96 145
61 96 149
60 95 148
62 98 156
61 97 151
60 96 143
61 96 151
61 97 152
62 97 158
61 96 149
60 96 147
61 96 142
62 97 154
61 97 148
60 96 143
61 97 148
60 95 143
60 95 142
62 98 150
61 96 145
61 96 147
62 97 147
61 96 150
62 98 161
61 96 139
62 97 149
62 97 147
62 98 154
62 98 151
60 96 140
60 95 144
60 96 144
61 96 143
60 95 141
61 96 137
61 96 143
61 96 144
61 96 147
62 97 144
60 95 136
61 96 150
60 95 131
60 95 134
59 94 129
60 95 140
61 96 140
61 96 143
60 95 131
59 94 134
60 95 131
61 96 143
59 94 135
60 95 133
59 93 129
60 94 130
58 92 120
60 95 140
60 94 136
60 94 133
60 94 133
59 93 131
60 94 136
59 93 129
59 93 130
57 90 116
59 92 118
60 92 110
74 99 113
90 108 97
112 125 61
117 128 18
119 128 0
125 135 0
116 124 0
120 127 0
115 126 0
107 116 0
116 124 0
116 126 0
120 129 0
123 133 0
119 129 0
120 126 0
119 125 0
108 112 0
119 126 0
117 123 0
117 122 0
119 126 0
114 121 0
114 118 0
101 105 0
121 126 0
106 111 0
111 116 0
114 117 0
111 115 0
115 120 0
125 131 0
106 110 0
118 121 0
121 127 0
125 130 0
115 116 0
118 121 0
106 109 0
117 121 0
116 118 0
113 115 0
116 116 0
115 120 0
129 132 0
118 119 0
111 113 0
130 134 0
129 132 0
123 130 0
110 111 0
111 111 0
121 121 0
126 130 0
125 126 0
124 128 0
117 117 0
120 124 0
128 129 0
116 117 0
128 131 0
126 129 0
121 123 0
128 131 0
119 124 0
131 137 0
132 135 0
129 133 0
134 137 0
121 124 0
134 137 0
128 131 0
132 134 0
132 136 0
143 147 0
136 141 0
138 142 0
142 147 0
134 140 0
139 145 0
137 142 0
134 140 0
138 141 0
139 145 0
144 152 0
138 143 0
139 146 0
150 157 0
143 151 0
143 150 0
149 158 0
147 155 0
147 155 0
143 151 0
156 167 0
154 164 0
156 162 0
152 163 0
156 166 0
152 165 0
159 171 0
155 167 0
150 159 0
155 166 0
152 165 0
153 166 0
160 173 0
155 167 0
158 170 0
161 175 0
155 169 0
155 168 0
156 167 0
156 170 0
157 172 0
157 170 0
158 172 0
161 175 0
149 160 0
153 168 0
161 178 0
159 173 0
161 176 0
160 176 0
158 174 0
163 178 0
163 178 0
154 168 0
162 179 0
166 184 0
160 175 0
159 175 0
162 179 0
164 180 0
162 178 0
169 186 0
162 182 0
162 180 0
166 184 0
164 183 0
164 182 0
163 181 0
165 182 0
163 183 0
167 185 0
177 199 80
176 198 105
175 199 80
175 199 72
176 199 76
172 196 51
175 198 44
175 199 88
175 198 67
175 198 67
173 197 62
174 197 57
176 199 67
171 195 57
172 196 62
174 197 57
174 199 88
175 198 67
176 199 84
174 198 76
177 201 95
174 197 92
175 199 88
171 195 72
169 193 72
170 195 76
174 197 95
174 197 76
172 195 84
173 197 67
172 195 57
174 198 95
174 198 92
169 193 57
174 197 72
172 197 67
169 193 67
172 196 67
172 195 72
169 193 62
169 193 92
171 195 88
172 195 72
172 196 72
174 198 76
172 196 76
171 194 67
171 194 62
171 194 62
167 192 62
169 191 67
169 192 76
167 192 80
170 193 76
172 195 80
171 195 80
171 195 76
173 197 72
173 196 76
168 193 72
169 192 62
175 198 92
169 192 57
170 194 51
168 191 51
175 198 80
166 188 67
168 192 44
168 191 76
167 191 36
162 186 84
163 186 99
137 162 100
140 165 115
106 133 140
94 122 144
88 117 136
97 125 148
95 124 139
88 117 154
95 123 149
91 121 154
98 126 155
95 124 158
92 121 162
93 121 149
85 114 145
89 118 145
93 122 149
100 127 154
92 120 156
103 130 143
107 133 164
87 116 162
82 112 157
92 121 154
86 115 156
97 125 156
76 108 159
92 120 163
82 113 165
89 119 166
85 115 166
85 116 163
90 119 170
78 110 167
71 105 169
71 105 167
74 106 162
72 106 170
79 110 172
76 107 174
76 108 172
71 105 168
70 104 166
65 99 163
64 99 164
68 102 172
71 104 162
73 105 168
60 95 159
69 101 155
70 103 158
64 98 155
67 100 150
62 97 144
62 96 140
63 98 157
61 95 143
60 95 150
60 95 150
62 98 156
60 95 145
65 99 154
60 95 145
62 97 150
59 93 144
60 94 131
61 95 152
59 94 142
60 95 148
59 94 140
60 95 140
61 96 149
60 96 147
61 97 154
60 95 145
60 95 152
60 96 145
60 96 148
60 95 149
62 97 156
61 97 151
61 96 145
60 95 151
60 95 143
60 95 139
62 97 155
61 96 150
61 97 152
61 97 147
61 96 148
60 95 145
59 94 139
60 95 139
61 97 150
60 95 146
61 96 145
60 95 141
62 98 152
62 97 152
60 95 143
59 95 139
60 95 144
62 97 150
61 96 152
60 95 143
61 96 147
61 96 149
61 97 155
61 96 149
60 96 147
62 97 150
60 96 150
62 97 154
61 96 151
61 97 157
61 95 139
61 96 149
60 95 141
61 97 152
61 97 147
61 97 150
60 96 145
61 96 147
61 96 147
59 94 136
62 98 153
61 96 150
60 95 141
60 95 143
61 96 152
60 95 148
61 96 150
61 96 148
61 96 147
62 97 149
61 97 147
62 98 149
62 97 151
61 97 150
60 95 139
61 97 144
61 97 152
61 96 144
61 96 139
60 95 144
62 97 154
61 96 136
60 94 137
60 96 140
61 96 148
61 96 147
60 96 142
61 96 147
61 96 145
61 96 147
61 97 150
60 95 135
61 96 141
61 96 140
61 96 139
61 96 141
58 93 129
60 95 141
60 94 143
60 95 135
59 94 134
61 96 143
60 95 135
60 94 130
59 93 132
60 94 134
60 95 133
61 95 136
59 93 133
60 95 134
59 92 125
61 95 133
59 93 134
58 91 128
59 93 134
58 91 121
59 92 129
69 98 126
88 109 103
105 120 60
108 119 32
119 131 18
119 128 0
119 129 0
122 133 0
102 110 0
102 109 0
124 132 0
117 124 0
108 118 0
116 123 0
121 130 0
117 126 0
110 119 0
121 126 0
107 115 0
109 116 0
114 122 0
116 124 0
120 124 0
127 133 0
112 114 0
116 121 0
125 132 0
127 134 0
122 124 0
114 119 0
118 123 0
125 134 0
114 119 0
111 115 0
116 117 0
110 114 0
118 124 0
105 108 0
118 122 0
122 129 0
120 124 0
111 111 0
117 122 0
124 127 0
112 118 0
121 126 0
118 122 0
117 121 0
118 119 0
124 127 0
123 126 0
127 131 0
122 126 0
107 109 0
116 119 0
128 130 0
121 122 0
121 124 0
125 127 0
130 135 0
114 117 0
130 132 0
131 137 0
120 122 0
134 141 0
132 137 0
128 132 0
115 120 0
128 131 0
137 141 0
137 142 0
126 128 0
131 135 0
136 141 0
141 143 0
133 138 0
142 146 0
136 142 0
130 135 0
137 144 0
142 147 0
142 146 0
136 143 0
145 152 0
143 150 0
150 158 0
144 150 0
144 149 0
145 149 0
152 162 0
142 150 0
151 159 0
153 163 0
147 154 0
146 155 0
148 159 0
159 170 0
150 160 0
148 155 0
150 159 0
146 156 0
148 158 0
157 168 0
154 165 0
155 164 0
152 167 0
154 167 0
159 173 0
161 174 0
162 177 0
147 156 0
157 168 0
154 169 0
153 166 0
159 175 0
157 169 0
161 175 0
156 169 0
158 172 0
158 172 0
157 171 0
162 178 0
165 179 0
163 180 0
161 177 0
160 174 0
161 178 0
155 170 0
166 183 0
158 173 0
160 175 0
163 179 0
164 178 0
162 179 0
164 181 0
167 185 0
166 185 0
164 181 0
162 177 0
163 181 0
159 177 0
169 186 0
162 179 0
162 181 0
164 182 0
165 182 0
177 200 95
177 200 88
176 198 88
176 199 84
175 199 72
177 200 72
175 199 88
170 193 36
174 197 76
175 198 62
173 196 92
172 195 72
174 198 72
173 197 76
174 197 62
172 196 72
173 196 57
172 194 62
174 197 72
174 197 67
174 199 88
171 194 67
172 195 51
172 196 72
172 196 80
170 194 57
171 195 51
173 197 67
169 193 72
174 197 84
168 192 72
174 197 57
169 192 62
172 195 72
173 196 76
173 197 76
171 196 92
172 195 80
169 193 62
170 193 80
169 192 62
174 198 80
171 194 44
171 194 51
170 194 84
173 196 72
173 197 84
172 196 57
170 194 72
171 195 62
172 196 80
170 193 72
172 196 51
171 195 72
166 190 76
172 195 44
170 194 72
171 196 67
169 192 57
167 191 67
168 191 51
171 194 67
172 196 99
169 191 44
168 191 76
171 194 62
171 195 92
168 192 44
170 194 76
170 194 76
167 191 74
151 174 97
157 181 103
147 170 99
134 158 126
114 141 152
90 118 148
98 126 154
97 125 142
90 120 159
100 128 143
99 128 145
92 120 147
98 126 163
104 130 145
114 139 159
95 124 163
87 116 153
88 117 152
100 127 159
92 121 151
105 132 162
94 122 155
89 118 145
102 130 166
95 123 153
86 116 164
105 132 153
89 118 156
90 120 165
96 125 167
89 118 166
82 113 167
82 112 156
101 128 168
83 113 171
80 112 167
84 114 172
81 112 169
65 100 171
68 102 167
76 108 167
79 110 169
77 108 168
75 107 170
75 107 165
73 105 166
70 103 158
67 101 164
70 103 160
68 102 166
67 100 161
63 97 148
62 97 144
62 96 150
61 96 158
64 98 157
62 97 154
61 96 150
60 95 147
60 96 157
64 98 149
60 95 154
61 96 156
60 95 151
60 95 146
60 95 151
60 96 152
59 94 144
60 96 149
60 95 148
60 95 144
60 96 149
60 95 152
60 95 141
59 94 143
60 94 150
60 95 144
59 94 137
60 94 147
61 96 149
60 96 152
61 97 158
60 96 148
61 96 153
61 97 149
60 96 148
61 96 152
61 96 156
61 96 141
60 94 142
61 96 149
59 94 140
61 97 151
59 94 142
61 96 147
61 96 150
60 96 152
59 94 139
61 97 151
60 96 148
61 96 149
61 96 151
61 96 143
61 97 154
60 95 153
61 97 158
60 96 150
62 97 149
60 96 147
61 97 155
61 97 152
62 98 152
61 96 142
59 95 133
62 97 145
60 95 143
62 97 155
61 96 150
61 96 148
60 95 141
60 95 144
60 95 148
61 96 148
60 95 137
62 97 151
61 96 139
60 95 150
61 96 142
61 96 147
61 96 140
60 95 137
61 96 148
60 95 142
61 96 151
62 97 147
60 96 140
61 96 141
60 95 141
60 96 143
59 94 136
61 96 142
60 95 144
60 95 137
62 97 149
60 96 144
60 95 139
62 98 149
62 97 145
62 97 145
60 95 140
60 95 136
61 96 154
59 94 133
62 97 148
62 97 153
61 96 145
61 96 141
59 94 139
60 95 137
61 96 141
60 95 142
59 93 133
60 95 136
60 95 131
61 96 142
61 95 139
60 95 136
59 94 130
61 96 139
60 94 134
61 96 137
59 93 136
61 96 140
60 94 132
59 93 126
59 93 139
58 92 117
58 92 125
60 94 135
58 92 124
61 96 141
59 93 129
59 93 122
78 104 114
86 104 89
109 123 44
125 135 25
114 124 0
117 128 0
115 123 0
119 129 0
117 129 0
127 133 0
116 123 0
111 119 0
118 126 0
102 109 0
110 119 0
112 121 0
119 126 0
121 131 0
117 125 0
121 130 0
118 125 0
120 124 0
108 115 0
127 135 0
109 112 0
123 130 0
118 124 0
125 130 0
113 117 0
120 129 0
115 122 0
111 114 0
113 120 0
118 125 0
115 121 0
111 118 0
118 122 0
121 125 0
117 124 0
119 123 0
119 124 0
124 129 0
122 128 0
120 125 0
114 119 0
115 119 0
123 127 0
112 114 0
123 129 0
119 123 0
118 121 0
115 117 0
120 123 0
126 129 0
118 123 0
124 127 0
125 128 0
119 123 0
133 138 0
131 134 0
135 141 0
130 132 0
128 133 0
132 136 0
130 134 0
130 137 0
124 128 0
140 146 0
124 128 0
136 141 0
140 144 0
130 135 0
128 132 0
136 140 0
133 138 0
134 138 0
138 143 0
135 140 0
132 139 0
144 151 0
146 154 0
147 153 0
145 153 0
135 144 0
145 154 0
137 142 0
147 153 0
150 159 0
143 152 0
144 152 0
144 147 0
145 155 0
145 154 0
154 163 0
150 158 0
151 162 0
147 157 0
153 163 0
144 151 0
151 161 0
152 162 0
162 175 0
157 168 0
161 173 0
152 163 0
154 166 0
154 168 0
156 170 0
156 168 0
156 169 0
157 170 0
156 168 0
159 170 0
154 165 0
161 174 0
155 169 0
157 168 0
158 173 0
163 176 0
156 171 0
162 175 0
160 173 0
163 179 0
160 175 0
161 176 0
160 175 0
166 183 0
159 176 0
169 186 0
160 175 0
163 180 0
163 178 0
164 182 0
158 175 0
163 179 0
161 179 0
163 182 0
165 182 0
159 176 0
165 184 0
166 184 0
165 184 0
163 179 0
163 181 0
169 189 0
165 185 0
173 196 84
171 195 80
173 196 51
173 197 57
172 196 76
173 196 57
175 198 84
171 194 76
172 195 51
173 195 44
173 197 67
173 197 80
172 196 72
176 200 80
172 195 67
173 197 88
171 195 57
171 195 80
174 198 84
172 196 88
173 196 62
172 195 80
170 194 80
176 199 80
172 197 84
173 197 76
170 195 92
174 198 80
169 193 72
173 197 76
172 196 57
172 197 76
170 195 76
171 196 84
173 197 72
170 194 51
169 194 80
174 198 76
172 196 84
171 194 72
171 196 76
171 194 80
171 195 67
171 195 57
172 195 67
170 193 51
167 191 84
168 192 67
167 190 62
167 191 57
172 196 92
170 194 67
171 193 67
167 191 57
168 191 62
169 193 67
170 194 72
168 191 62
171 195 72
167 190 44
169 192 57
170 192 62
173 197 80
174 198 84
171 195 84
169 191 72
170 193 62
165 188 67
171 194 72
166 188 51
167 191 72
163 186 82
158 182 97
146 170 131
131 156 126
121 146 133
97 125 139
89 118 154
85 114 143
96 123 153
84 114 146
94 121 149
95 123 146
102 129 156
90 118 141
87 116 154
97 124 144
100 128 160
89 118 157
100 127 165
106 133 157
101 129 155
91 119 163
100 127 149
96 124 148
86 115 153
91 119 161
89 119 161
94 122 161
96 123 163
93 122 155
97 125 172
84 114 158
86 115 163
96 125 165
98 125 168
85 115 167
82 112 165
91 120 172
87 116 161
84 114 167
81 112 172
73 105 159
75 107 160
71 104 167
73 106 168
76 108 166
66 100 149
70 103 162
74 106 161
74 106 162
60 96 154
70 103 157
66 99 157
61 96 157
64 98 157
73 105 154
63 97 148
62 96 151
60 93 142
60 95 149
63 97 151
60 96 149
59 94 143
63 97 143
59 94 131
63 97 156
59 95 148
60 95 139
59 94 144
59 95 147
59 93 141
61 96 149
59 95 137
60 96 153
61 97 157
61 96 149
60 95 145
60 96 155
60 95 145
59 95 146
60 95 144
59 94 145
62 97 154
60 96 145
60 95 151
60 96 147
59 95 146
60 96 150
61 96 153
60 96 147
60 96 148
61 97 152
61 96 148
61 96 147
61 96 143
59 94 131
59 94 148
59 94 134
60 95 155
62 98 157
60 95 142
60 96 149
60 96 147
60 96 139
60 95 142
61 96 148
61 96 149
62 97 159
60 96 139
60 96 148
60 95 139
60 95 152
59 95 144
62 97 150
62 97 154
61 97 151
61 96 148
61 97 151
61 96 144
61 96 150
61 96 145
60 96 148
59 94 142
61 96 140
60 96 144
61 96 151
61 96 147
61 97 145
62 97 155
60 95 139
62 97 147
61 96 145
60 95 136
60 95 143
59 95 140
61 96 143
62 97 150
61 96 151
62 97 150
61 97 152
62 98 153
61 96 145
61 96 142
62 97 148
62 97 148
62 97 154
60 95 139
60 95 147
61 95 144
60 95 147
61 97 147
62 97 148
60 95 133
61 96 141
61 96 141
60 95 143
60 95 141
60 95 143
60 94 139
59 93 122
61 96 141
59 94 131
61 96 149
61 96 141
61 96 145
61 95 139
60 94 139
61 95 135
61 95 135
60 95 142
59 93 131
60 94 135
60 94 128
59 94 126
58 92 122
60 95 135
58 92 128
58 91 121
58 92 124
59 92 123
59 92 122
60 93 131
62 93 121
82 104 97
94 113 86
101 113 51
104 113 18
118 129 0
116 124 0
105 113 0
118 127 0
116 127 0
105 113 0
114 124 0
114 124 0
129 141 0
113 123 0
122 131 0
120 130 0
113 119 0
119 126 0
117 128 0
116 122 0
118 123 0
118 130 0
125 136 0
117 124 0
121 128 0
117 125 0
115 121 0
112 119 0
122 128 0
118 123 0
126 134 0
120 126 0
125 134 0
123 128 0
117 122 0
118 126 0
120 127 0
116 123 0
128 135 0
121 127 0
112 115 0
127 132 0
122 128 0
116 118 0
125 128 0
113 116 0
123 129 0
112 114 0
126 130 0
125 128 0
123 128 0
123 127 0
117 119 0
123 127 0
123 126 0
123 128 0
140 149 0
134 139 0
136 141 0
132 135 0
134 140 0
131 134 0
133 138 0
130 136 0
134 139 0
130 133 0
130 132 0
123 128 0
130 136 0
135 139 0
141 147 0
139 144 0
136 140 0
132 137 0
137 143 0
126 129 0
137 143 0
140 147 0
144 152 0
141 145 0
143 150 0
141 149 0
141 149 0
153 162 0
143 148 0
148 156 0
144 151 0
146 154 0
146 154 0
151 163 0
145 155 0
144 152 0
150 162 0
149 158 0
146 155 0
147 156 0
154 166 0
150 159 0
142 151 0
148 158 0
158 170 0
158 170 0
157 170 0
154 165 0
154 164 0
156 167 0
148 160 0
157 168 0
158 170 0
157 170 0
161 172 0
158 170 0
159 171 0
157 170 0
159 174 0
160 173 0
160 174 0
156 168 0
161 176 0
159 174 0
161 176 0
163 179 0
162 177 0
161 178 0
159 175 0
161 176 0
161 175 0
166 181 0
162 176 0
162 176 0
160 175 0
159 179 0
162 177 0
164 179 0
166 185 0
165 183 0
161 178 0
165 181 0
164 182 0
161 177 0
163 179 0
166 185 0
160 179 0
162 179 0
162 179 0
166 184 0
174 197 67
173 197 62
176 199 62
174 198 67
173 197 92
170 194 51
172 196 67
176 199 72
173 196 72
175 197 62
174 198 67
177 199 62
170 194 76
171 194 51
171 196 72
171 195 72
173 196 25
173 196 62
175 197 51
172 197 62
171 194 76
174 198 72
169 193 84
171 195 84
168 192 67
172 196 72
173 197 76
170 194 72
172 196 84
171 195 62
174 197 76
170 193 62
168 192 57
171 194 67
170 193 76
170 194 67
170 194 57
169 192 62
172 196 72
171 194 51
170 194 62
171 195 88
175 199 76
169 193 62
168 191 67
167 191 57
170 194 76
172 196 84
167 191 80
167 190 62
167 191 67
170 193 76
169 192 84
172 196 95
167 191 62
170 194 67
164 188 72
169 193 84
172 196 84
165 188 62
164 187 80
167 190 57
173 197 102
165 187 76
171 195 72
171 194 95
169 192 67
169 192 80
172 195 80
166 189 67
165 189 76
162 185 82
156 180 88
143 167 95
135 160 102
127 152 129
113 140 152
92 120 144
98 126 164
83 113 145
92 121 156
90 118 141
95 123 159
100 127 147
102 130 158
98 126 152
90 119 153
89 118 148
99 126 148
92 120 144
105 132 157
96 124 149
101 128 149
100 127 141
89 118 149
83 113 157
88 117 151
107 134 164
101 128 163
87 116 158
99 127 164
86 115 158
83 113 157
85 114 158
86 115 167
83 113 168
82 112 157
86 116 166
80 110 161
82 112 176
72 105 152
74 106 166
76 108 170
72 104 159
76 108 165
68 102 163
65 101 168
66 101 161
73 105 163
65 100 168
60 96 158
63 97 148
75 106 158
63 97 154
67 101 157
63 98 156
62 98 161
65 99 156
62 97 154
65 99 149
60 95 154
68 101 142
59 94 141
61 97 153
60 95 146
63 97 150
59 94 137
58 92 141
61 96 144
59 93 139
61 97 154
60 95 144
61 96 153
61 96 144
61 97 152
61 96 150
60 95 150
62 98 155
59 93 135
59 94 141
60 95 144
61 96 153
60 96 148
61 97 150
59 95 151
59 94 140
61 97 152
60 95 152
59 95 145
60 95 146
60 95 149
61 96 144
61 96 154
61 96 149
62 97 145
58 93 142
60 96 145
60 95 142
62 98 155
60 95 141
60 95 146
60 96 150
62 97 154
62 98 157
61 97 147
61 97 152
60 95 140
60 95 143
61 96 147
60 95 147
61 96 145
61 97 150
63 98 158
61 97 147
61 96 148
59 94 136
61 97 153
60 95 143
61 97 151
60 95 140
61 97 145
61 97 147
61 97 152
61 97 150
62 98 155
60 95 137
61 97 147
60 94 134
58 93 135
59 94 133
60 96 149
61 96 147
62 97 149
61 95 143
61 96 142
61 96 142
61 96 144
60 95 131
61 96 147
61 96 145
62 97 153
61 96 142
62 97 150
60 95 137
61 96 141
61 96 147
61 96 143
61 96 142
62 97 150
61 96 145
60 94 141
61 96 141
61 97 141
61 96 147
59 92 128
61 96 140
61 96 144
61 97 145
60 95 141
61 96 139
60 94 130
60 95 137
61 96 144
60 94 139
60 94 139
59 93 125
60 94 143
59 93 129
61 95 139
60 95 134
59 94 129
58 92 121
60 95 131
61 95 137
58 92 120
61 95 137
59 92 129
59 93 128
59 93 125
58 92 117
60 94 137
59 92 128
58 90 103
72 98 102
101 118 76
106 120 54
113 122 25
106 116 18
115 124 0
116 129 0
124 135 0
126 139 0
121 131 0
118 127 0
112 120 0
114 124 0
108 117 0
123 133 0
103 114 0
124 132 0
117 126 0
118 127 0
115 126 0
118 128 0
115 125 0
125 137 0
119 128 0
112 118 0
116 126 0
120 129 0
119 128 0
121 129 0
124 132 0
118 123 0
126 132 0
114 119 0
119 126 0
104 110 0
128 136 0
114 119 0
110 116 0
119 124 0
125 132 0
126 132 0
122 127 0
112 116 0
119 126 0
120 123 0
125 131 0
104 107 0
130 134 0
125 129 0
127 133 0
121 125 0
118 123 0
128 134 0
127 132 0
126 130 0
127 128 0
126 132 0
128 133 0
128 135 0
127 133 0
132 138 0
125 132 0
125 130 0
125 130 0
137 141 0
119 127 0
142 149 0
137 141 0
140 149 0
133 137 0
130 134 0
132 140 0
135 140 0
141 149 0
128 135 0
132 138 0
144 152 0
140 148 0
143 149 0
139 146 0
141 144 0
141 151 0
144 151 0
148 156 0
133 141 0
144 153 0
154 164 0
141 148 0
144 150 0
149 157 0
154 161 0
144 154 0
148 154 0
143 153 0
151 162 0
144 154 0
144 152 0
150 160 0
159 173 0
151 164 0
147 157 0
148 159 0
157 168 0
155 164 0
154 167 0
151 163 0
152 162 0
147 159 0
157 171 0
163 176 0
160 174 0
156 170 0
162 176 0
154 166 0
154 167 0
162 178 0
158 172 0
158 171 0
159 173 0
154 168 0
154 167 0
155 169 0
157 172 0
164 181 0
160 177 0
156 171 0
160 176 0
159 177 0
158 174 0
156 172 0
160 176 0
163 179 0
162 177 0
164 180 0
163 180 0
163 180 0
167 185 0
162 181 0
163 180 0
161 180 0
166 184 0
164 182 0
167 186 0
163 183 0
167 184 0
165 184 0
163 182 0
175 198 72
175 199 80
173 196 57
173 196 76
172 195 67
176 199 84
171 194 57
174 197 57
171 195 57
171 194 62
175 198 67
171 195 51
175 198 88
172 196 72
173 196 76
175 198 67
167 190 51
170 194 57
171 194 62
172 196 72
171 195 84
174 197 72
172 195 84
174 198 62
170 195 72
171 194 72
167 192 62
171 195 92
170 194 67
172 196 80
172 196 72
171 195 57
169 193 72
170 195 92
169 193 67
171 195 67
172 195 57
169 193 67
171 195 57
170 193 57
167 192 76
172 196 72
169 192 62
164 188 80
169 194 84
168 192 72
168 192 62
168 193 84
170 193 67
170 194 62
173 197 80
171 195 76
171 195 76
172 195 80
171 194 62
165 189 62
170 193 57
169 193 80
169 193 72
165 189 76
170 194 76
169 192 62
170 192 62
162 185 62
168 192 67
166 189 88
168 192 76
167 191 72
169 192 51
168 191 62
167 190 80
169 193 70
165 189 90
158 181 76
144 169 103
136 161 123
110 136 125
100 128 152
100 126 139
96 124 159
88 117 139
99 126 151
85 115 144
104 132 157
101 127 152
100 127 150
86 114 143
94 123 157
100 127 158
108 134 145
90 118 143
88 117 147
101 127 147
99 126 144
105 132 145
99 127 159
98 126 157
94 122 148
92 119 156
92 121 154
96 124 160
95 124 167
104 130 154
96 124 174
86 116 157
90 118 159
74 107 161
87 116 164
88 118 168
85 116 166
88 117 163
80 111 170
69 103 168
89 118 172
74 106 161
73 106 172
68 102 161
75 106 165
80 110 164
80 111 166
68 102 168
66 100 153
67 100 148
62 97 157
73 105 160
68 102 160
67 100 154
66 100 151
65 98 150
62 96 142
64 98 148
61 96 153
62 96 140
64 98 148
59 94 143
61 97 156
57 92 134
59 93 143
61 96 150
60 95 147
60 95 145
60 95 143
60 95 135
61 94 136
61 96 149
59 94 149
60 95 150
60 96 145
59 94 128
59 94 141
60 96 144
61 96 151
62 97 152
60 95 147
61 96 140
60 95 145
61 96 152
61 97 154
60 95 144
59 94 150
60 95 144
60 95 144
60 96 144
60 95 149
60 95 142
60 94 142
62 97 149
61 96 151
59 94 138
61 96 145
62 97 150
61 96 143
60 96 144
60 95 148
60 95 142
62 97 150
60 95 145
62 97 152
60 95 136
60 95 137
60 95 146
60 95 141
60 94 128
61 96 143
60 96 144
60 95 147
61 97 151
61 96 153
62 97 149
61 97 148
61 96 150
61 96 144
60 95 141
59 94 142
62 97 145
62 97 147
60 95 139
60 95 137
62 97 148
60 96 148
60 96 142
61 96 143
61 96 144
60 95 137
62 97 151
61 96 142
60 95 140
61 96 142
60 94 133
61 97 142
60 95 137
60 95 140
61 96 143
61 96 147
61 96 145
59 94 135
60 95 135
60 95 141
60 95 141
61 97 149
60 95 133
60 95 137
60 95 145
61 96 139
62 98 156
61 96 147
60 95 137
61 96 143
61 96 139
61 96 142
60 95 131
60 95 141
60 94 126
59 93 124
60 95 139
60 95 131
60 94 139
59 94 135
60 94 129
59 93 129
60 94 128
59 93 125
61 95 145
59 93 121
61 95 143
58 92 126
60 95 145
60 94 134
58 92 117
58 92 118
59 93 125
58 91 114
59 89 101
79 102 92
101 115 67
109 122 18
111 122 0
122 135 0
117 128 0
129 142 0
111 121 0
121 131 0
117 126 0
115 128 0
119 130 0
120 126 0
120 131 0
106 117 0
117 125 0
118 128 0
112 120 0
121 128 0
125 135 0
124 134 0
129 137 0
126 136 0
125 134 0
120 130 0
121 129 0
120 129 0
126 136 0
118 124 0
124 133 0
118 125 0
112 121 0
125 131 0
120 130 0
119 125 0
116 123 0
110 116 0
111 120 0
110 115 0
125 129 0
127 134 0
126 132 0
107 108 0
127 131 0
124 130 0
126 131 0
121 127 0
130 138 0
121 127 0
128 135 0
131 140 0
126 132 0
128 137 0
126 132 0
123 127 0
127 134 0
132 137 0
135 143 0
134 137 0
134 139 0
131 139 0
125 128 0
131 136 0
128 135 0
130 135 0
131 136 0
124 128 0
133 138 0
128 134 0
137 144 0
143 149 0
145 152 0
130 137 0
141 149 0
138 145 0
140 147 0
137 144 0
134 141 0
144 154 0
140 147 0
140 148 0
147 156 0
139 147 0
148 158 0
146 154 0
147 155 0
134 138 0
145 152 0
150 160 0
141 150 0
142 149 0
146 154 0
141 150 0
145 155 0
147 157 0
152 162 0
151 163 0
155 164 0
153 162 0
154 164 0
153 164 0
155 166 0
150 159 0
151 160 0
155 166 0
153 163 0
157 167 0
162 177 0
161 176 0
160 172 0
145 157 0
153 166 0
155 168 0
158 171 0
157 170 0
149 163 0
162 177 0
164 179 0
160 174 0
153 164 0
162 179 0
160 176 0
162 180 0
155 169 0
156 170 0
163 178 0
158 174 0
159 175 0
160 175 0
165 182 0
161 178 0
157 171 0
165 183 0
159 176 0
164 180 0
164 181 0
164 182 0
161 178 0
156 174 0
163 178 0
164 179 0
165 183 0
169 190 0
164 183 0
164 185 0
161 178 0
162 180 0
173 196 44
174 198 57
177 200 76
172 195 72
175 198 84
169 193 62
175 199 76
173 197 67
174 198 84
173 197 88
174 197 92
172 196 88
175 199 76
168 192 72
173 197 72
174 197 80
172 196 51
175 197 76
173 197 62
175 198 102
172 196 88
170 195 80
171 195 51
173 197 76
172 195 88
170 194 76
171 196 72
171 195 67
171 195 76
172 195 51
169 193 67
169 192 57
170 194 72
170 194 57
169 193 72
171 195 76
172 196 80
168 192 76
165 188 62
168 191 62
173 197 51
173 198 92
166 190 62
166 189 76
168 191 80
171 194 51
170 194 76
169 193 76
168 191 72
172 195 88
170 194 76
174 197 51
169 194 84
171 195 95
168 192 76
171 194 84
171 194 62
169 192 80
170 193 62
172 197 95
172 195 84
167 192 80
167 190 72
167 191 62
168 191 76
170 194 72
171 193 92
166 190 72
169 192 76
166 189 51
171 194 72
166 190 84
167 189 76
163 186 80
155 179 102
148 172 101
126 150 124
96 123 130
85 115 150
95 123 149
92 121 144
104 130 152
97 125 136
94 121 139
92 121 153
101 127 154
88 117 144
97 124 146
103 129 150
96 124 152
114 139 149
101 127 137
97 124 150
102 128 151
91 119 142
97 125 148
97 123 144
93 120 151
107 133 159
107 133 166
96 124 165
100 127 156
83 113 156
86 115 153
98 126 161
79 110 166
96 124 169
79 110 160
90 119 168
85 114 165
82 112 163
86 115 162
69 103 164
68 102 168
77 109 172
70 103 151
76 108 166
68 102 167
76 108 167
64 99 163
65 99 156
72 104 158
65 99 155
64 99 160
66 99 157
70 102 153
69 102 150
63 97 149
70 101 145
62 97 147
59 94 143
67 99 146
60 95 144
64 98 149
59 94 153
60 95 149
65 98 148
63 97 148
61 95 148
60 95 146
60 96 145
60 95 145
61 96 142
60 95 149
60 95 143
60 95 144
61 97 150
60 95 142
60 94 144
61 96 148
59 94 145
61 96 149
61 96 148
60 95 141
60 96 149
59 93 137
60 95 148
61 96 142
62 97 153
61 96 144
61 96 143
60 96 144
59 94 141
61 97 148
59 95 145
61 96 143
60 95 139
60 95 143
61 97 148
60 95 146
60 96 143
62 98 156
60 95 139
60 95 146
60 94 143
59 94 135
60 96 145
61 96 144
61 96 143
61 96 148
60 96 141
61 96 148
62 97 147
60 96 145
60 94 137
61 96 142
61 96 151
60 95 142
60 95 147
59 94 137
59 94 141
61 96 148
60 96 148
61 97 151
61 96 140
60 95 141
61 97 144
61 96 149
61 97 149
61 96 150
61 96 150
61 96 145
60 95 141
61 96 147
60 94 139
61 96 145
60 95 143
62 97 148
60 96 139
61 97 145
61 96 136
61 96 145
60 95 135
61 95 139
61 96 141
60 95 135
61 96 145
60 95 140
61 95 140
59 94 131
60 95 137
60 95 140
60 95 133
60 95 139
60 95 144
60 95 142
61 96 139
59 93 129
60 95 136
61 96 139
60 95 135
60 95 136
60 94 139
60 95 134
59 94 135
60 94 133
59 94 126
61 96 148
60 95 134
61 96 139
58 92 126
60 94 136
60 94 133
60 95 137
60 94 134
59 93 135
59 93 123
58 91 120
59 93 120
58 90 123
58 91 120
65 96 121
78 102 92
90 109 87
119 134 70
109 122 40
124 137 0
104 116 0
110 118 0
117 129 0
112 120 0
113 123 0
119 132 0
112 123 0
116 123 0
118 127 0
121 131 0
124 135 0
119 130 0
110 119 0
124 135 0
129 137 0
114 124 0
122 131 0
116 126 0
117 126 0
119 125 0
122 131 0
119 126 0
117 125 0
110 117 0
126 135 0
129 137 0
120 128 0
127 135 0
131 139 0
127 134 0
117 124 0
120 126 0
123 131 0
114 119 0
125 133 0
126 135 0
130 138 0
137 147 0
120 127 0
122 129 0
119 123 0
117 122 0
124 129 0
128 134 0
129 136 0
127 132 0
128 135 0
119 122 0
128 135 0
132 138 0
126 133 0
126 134 0
132 138 0
134 140 0
127 134 0
131 139 0
131 138 0
132 141 0
136 141 0
128 131 0
144 150 0
131 135 0
140 148 0
133 140 0
127 131 0
136 145 0
144 152 0
141 150 0
136 143 0
140 147 0
137 141 0
146 153 0
140 148 0
134 140 0
147 156 0
143 152 0
143 150 0
141 149 0
142 153 0
137 146 0
145 154 0
138 148 0
151 162 0
136 146 0
144 152 0
141 149 0
153 161 0
151 161 0
141 150 0
153 165 0
144 154 0
149 158 0
148 157 0
159 171 0
160 170 0
157 169 0
160 171 0
153 167 0
155 168 0
147 157 0
155 168 0
157 168 0
150 161 0
156 170 0
156 170 0
151 162 0
161 176 0
155 168 0
152 166 0
157 171 0
155 169 0
158 173 0
159 173 0
163 176 0
151 164 0
158 170 0
159 173 0
162 177 0
163 179 0
165 182 0
162 177 0
163 179 0
163 178 0
158 173 0
159 174 0
161 175 0
162 178 0
159 175 0
160 174 0
167 185 0
162 180 0
167 185 0
154 168 0
161 177 0
166 184 0
163 181 0
163 180 0
163 179 0
162 180 0
161 180 0
166 183 0
166 186 0
167 186 0
173 197 72
175 198 57
175 198 76
174 197 72
176 200 76
173 196 67
173 197 72
171 194 57
171 195 67
172 196 76
172 195 80
170 194 76
169 193 57
169 192 51
170 194 62
172 196 67
170 193 72
173 197 88
172 196 84
169 193 84
172 197 95
172 196 80
168 192 72
172 196 62
173 197 57
167 191 62
173 196 67
171 196 88
171 195 57
170 193 62
169 193 72
167 191 72
171 195 67
168 192 72
168 191 51
167 191 57
171 195 72
170 193 51
172 195 67
170 193 57
169 193 57
169 193 67
167 190 76
168 191 84
170 194 62
166 190 36
170 194 67
171 195 88
167 191 84
170 193 67
170 194 95
169 192 67
169 193 76
166 190 80
173 196 67
169 193 57
167 190 57
165 188 62
170 193 76
170 194 105
167 191 72
166 190 80
170 194 92
173 196 76
169 193 72
169 192 76
165 189 72
167 190 76
167 191 72
164 188 92
171 194 72
167 191 92
165 188 67
167 190 90
159 182 84
148 171 82
131 156 122
117 143 141
99 126 136
95 124 149
97 124 146
85 114 136
88 117 149
86 115 139
95 124 140
88 117 151
93 120 144
85 114 153
103 130 157
80 110 143
87 116 153
100 128 160
87 115 143
96 123 150
81 110 141
99 126 147
89 118 154
98 126 157
90 118 159
86 116 154
91 120 158
91 120 163
103 129 147
83 112 149
94 122 155
88 117 164
93 121 154
94 122 171
88 117 170
89 118 165
80 110 158
82 112 170
91 120 167
82 113 161
81 112 170
78 109 166
70 103 163
70 103 163
76 108 168
72 105 161
64 99 159
71 104 159
82 113 166
69 102 153
68 101 158
67 100 155
64 98 150
63 98 152
62 97 150
64 97 144
59 95 152
63 97 154
64 97 139
63 97 145
64 98 150
62 97 149
60 96 152
60 95 147
59 95 139
62 97 141
59 93 133
60 96 148
59 94 140
59 94 145
59 93 141
58 92 135
59 94 143
61 96 149
61 96 149
60 94 140
60 95 135
60 95 145
60 95 144
61 96 147
60 96 145
60 96 151
61 97 152
61 97 150
59 93 137
61 96 143
60 95 136
61 96 147
61 96 144
60 95 142
62 97 150
61 96 145
62 97 153
61 96 149
60 96 141
61 96 153
61 96 143
60 95 141
60 95 145
62 97 152
62 98 154
61 97 149
62 98 156
60 95 143
61 97 153
60 95 146
59 94 137
60 95 144
61 96 141
61 96 144
61 96 140
61 96 145
60 94 136
60 95 147
61 96 147
61 97 142
61 97 149
61 96 142
60 95 143
61 97 149
60 95 137
61 96 149
61 97 151
61 97 150
61 96 145
62 98 152
61 96 145
60 95 137
60 95 131
61 96 144
61 97 148
61 96 142
62 98 151
61 96 143
61 96 143
60 95 134
62 97 151
61 97 147
59 95 140
60 94 135
60 95 136
60 95 139
60 96 145
60 95 142
60 95 136
59 93 133
61 96 141
61 95 136
61 96 140
61 95 139
61 96 143
61 96 143
61 96 137
59 93 137
60 95 139
60 94 134
61 95 135
61 96 137
60 95 136
61 95 135
59 94 133
61 95 143
60 94 133
60 94 136
60 94 130
59 93 128
60 94 132
59 93 128
59 94 131
57 90 113
60 94 134
59 92 118
59 93 131
57 90 108
59 93 129
59 93 129
57 90 114
70 99 113
87 110 102
94 111 72
115 127 47
128 140 25
119 129 0
116 124 0
116 130 0
112 122 0
122 134 0
115 127 0
106 118 0
118 130 0
111 122 0
118 128 0
118 129 0
114 124 0
126 139 0
121 129 0
126 135 0
112 120 0
114 124 0
123 131 0
130 141 0
109 118 0
120 129 0
126 137 0
116 125 0
126 134 0
122 129 0
128 136 0
124 135 0
129 138 0
125 135 0
127 135 0
125 136 0
132 142 0
131 139 0
118 125 0
121 129 0
120 129 0
127 134 0
115 122 0
126 133 0
121 130 0
121 127 0
121 128 0
129 136 0
131 138 0
120 125 0
124 130 0
128 139 0
134 142 0
130 139 0
125 131 0
129 135 0
127 134 0
129 135 0
132 138 0
134 141 0
134 140 0
122 128 0
132 140 0
135 140 0
135 142 0
139 146 0
129 135 0
146 156 0
138 144 0
137 147 0
143 152 0
133 139 0
132 140 0
137 145 0
137 144 0
143 154 0
133 137 0
137 146 0
142 148 0
139 149 0
147 156 0
147 154 0
141 151 0
145 154 0
151 158 0
145 153 0
144 152 0
151 160 0
149 159 0
154 164 0
146 155 0
144 155 0
151 161 0
143 153 0
155 166 0
146 156 0
143 151 0
153 165 0
155 166 0
150 161 0
149 159 0
149 160 0
152 165 0
153 164 0
154 165 0
158 171 0
153 165 0
149 161 0
156 169 0
158 171 0
159 174 0
155 170 0
159 175 0
155 170 0
159 173 0
156 171 0
155 169 0
157 169 0
159 173 0
159 175 0
163 178 0
157 169 0
163 176 0
162 178 0
157 172 0
165 180 0
155 168 0
159 174 0
158 173 0
166 180 0
161 175 0
159 175 0
163 179 0
163 179 0
162 182 0
161 178 0
162 177 0
160 175 0
160 177 0
162 180 0
166 183 0
162 180 0
161 176 0
160 177 0
161 177 0
167 185 0
168 185 0
168 184 0
158 176 0
174 197 92
174 198 92
169 193 67
171 195 62
173 196 44
176 199 88
174 197 76
172 196 95
174 198 88
174 197 57
172 196 57
170 194 67
174 198 67
170 194 80
170 195 80
172 196 67
169 193 76
173 196 80
170 194 84
169 192 76
170 193 72
173 197 88
167 190 72
169 194 80
173 197 72
172 195 51
172 197 62
170 193 62
171 195 80
170 195 88
175 199 88
170 194 80
172 196 76
172 196 84
172 196 88
169 193 44
170 194 72
172 195 67
166 191 67
170 194 67
172 195 44
167 192 84
169 193 51
174 198 84
169 195 95
170 194 62
166 191 92
169 192 76
165 188 72
168 193 62
160 183 76
170 195 84
168 193 51
174 198 84
166 190 72
167 191 99
167 190 51
168 192 84
170 193 72
168 192 57
169 193 80
166 191 80
161 185 44
168 192 76
161 184 76
164 187 76
164 188 51
168 191 62
169 192 76
169 192 51
168 191 67
169 192 57
167 190 76
163 186 72
151 175 78
150 174 82
140 164 113
120 145 137
98 126 144
85 115 145
92 120 147
73 104 133
107 134 147
88 117 147
91 119 149
92 119 129
90 118 147
86 116 149
89 118 143
95 123 148
105 131 148
99 126 139
97 124 152
103 129 147
94 120 143
102 128 142
113 138 151
97 124 158
83 111 147
87 116 152
104 131 159
88 117 156
102 129 161
85 114 157
89 117 159
93 122 163
90 119 169
91 119 164
87 116 167
85 115 167
89 117 161
85 115 165
83 113 165
73 106 171
72 104 162
65 100 161
74 107 172
83 113 169
79 109 154
73 105 163
76 107 163
74 106 170
70 103 156
61 97 149
64 98 154
68 101 160
67 100 153
67 100 147
69 101 150
65 99 155
64 97 140
63 96 135
59 94 149
61 95 142
60 95 131
61 94 128
60 95 141
61 97 153
59 94 139
59 93 151
61 95 141
61 97 154
60 95 147
58 93 137
60 95 141
60 96 150
60 95 141
60 95 143
60 95 144
60 95 143
60 95 141
60 95 140
60 95 148
61 96 158
59 94 129
61 96 152
61 96 152
61 96 148
59 94 140
60 95 135
60 95 142
62 98 158
61 96 148
61 96 150
61 96 148
61 96 140
60 95 149
60 96 143
59 93 137
61 96 143
61 97 152
60 96 147
60 95 139
61 97 150
60 95 140
61 97 149
60 96 147
60 95 134
62 97 156
61 96 142
61 96 150
60 96 152
61 96 147
59 93 141
60 95 141
62 97 149
60 96 143
61 96 147
60 95 140
60 96 140
61 96 145
60 96 150
61 96 140
61 96 145
61 96 139
62 97 153
61 96 149
61 96 146
61 96 147
62 97 144
61 96 149
62 98 152
61 96 144
60 95 140
60 95 139
61 96 142
60 95 140
59 94 141
61 96 140
61 96 144
61 96 149
60 95 143
59 94 142
62 97 151
58 92 128
60 94 139
61 96 144
61 96 143
60 94 134
60 95 134
60 95 135
62 96 141
59 93 129
60 95 133
61 95 140
62 97 145
61 96 137
60 95 140
60 95 145
61 96 136
61 96 144
60 94 133
60 95 137
60 94 136
60 94 134
59 93 133
59 93 129
60 95 143
61 95 134
59 93 125
61 95 138
59 93 126
57 91 111
59 92 133
57 90 122
59 92 125
58 92 128
57 90 108
59 92 128
57 91 111
60 93 107
88 112 102
87 107 63
118 131 47
119 134 31
112 123 0
122 134 0
121 132 0
115 127 0
102 111 0
122 135 0
115 127 0
127 140 0
117 129 0
115 126 0
117 128 0
122 135 0
129 139 0
120 132 0
120 130 0
126 136 0
127 137 0
122 132 0
121 129 0
126 136 0
123 131 0
126 136 0
122 130 0
115 122 0
111 119 0
113 118 0
135 145 0
115 125 0
124 133 0
112 122 0
112 119 0
105 113 0
126 136 0
125 134 0
120 126 0
125 135 0
127 133 0
129 141 0
129 137 0
128 136 0
128 136 0
127 133 0
127 133 0
126 135 0
131 138 0
137 144 0
120 129 0
132 139 0
136 144 0
128 137 0
132 142 0
133 141 0
135 143 0
132 137 0
124 131 0
138 146 0
133 137 0
141 149 0
137 143 0
134 140 0
131 137 0
137 145 0
131 135 0
140 147 0
139 145 0
141 149 0
132 138 0
149 158 0
134 140 0
145 156 0
142 152 0
144 153 0
138 148 0
136 143 0
146 154 0
144 151 0
141 150 0
136 142 0
142 151 0
145 155 0
147 156 0
147 159 0
144 154 0
142 150 0
144 152 0
152 161 0
150 159 0
142 152 0
147 157 0
145 156 0
143 153 0
150 162 0
143 150 0
151 161 0
153 165 0
150 162 0
152 161 0
156 171 0
145 157 0
153 166 0
154 168 0
159 172 0
154 166 0
157 172 0
149 160 0
154 166 0
157 168 0
154 169 0
158 171 0
155 167 0
159 172 0
160 172 0
154 168 0
150 162 0
160 172 0
157 172 0
161 174 0
162 177 0
157 172 0
159 175 0
159 175 0
161 177 0
158 176 0
157 173 0
162 180 0
159 174 0
162 178 0
164 180 0
159 174 0
163 182 0
162 180 0
165 183 0
161 177 0
160 177 0
166 185 0
164 182 0
163 182 0
168 186 0
166 184 0
158 173 0
162 179 0
165 182 0
168 186 0
163 181 0
163 182 0
173 196 62
175 199 80
172 195 76
167 191 51
173 196 67
172 195 67
173 196 51
174 197 67
173 197 72
170 194 57
170 194 67
173 197 72
170 195 67
172 197 67
172 196 88
173 197 62
174 198 92
172 196 80
171 196 80
171 195 84
172 197 80
170 193 57
170 195 72
168 192 76
171 196 88
169 192 62
171 195 76
169 193 80
171 196 88
170 193 51
172 196 76
169 192 57
166 191 88
170 193 62
169 194 88
169 193 57
170 194 76
171 195 76
170 194 76
172 195 76
170 194 67
168 192 36
170 194 88
169 193 92
171 195 84
169 192 51
169 193 72
166 190 72
173 197 67
168 192 76
162 187 67
167 192 72
168 193 67
170 194 80
166 190 72
167 191 76
166 190 62
169 193 92
169 194 72
162 186 62
168 191 72
167 190 72
166 189 51
167 192 88
163 186 67
167 190 62
167 190 84
168 191 88
169 193 76
166 190 67
167 190 62
166 190 72
166 190 76
167 190 67
152 176 76
153 176 82
144 168 107
131 154 118
110 136 130
82 112 132
104 130 139
84 112 140
98 125 141
80 110 134
89 117 140
102 129 156
79 109 139
89 117 143
97 124 150
94 121 145
92 120 148
95 123 156
100 126 149
98 125 148
95 122 144
95 122 143
80 110 148
105 131 154
99 126 144
106 133 159
91 119 151
88 117 155
97 124 154
99 127 157
95 123 161
81 112 148
89 118 161
88 117 160
96 123 159
85 114 160
85 114 157
82 112 160
76 107 151
82 112 162
76 107 159
76 108 173
77 108 168
82 112 174
76 108 159
75 107 154
63 99 161
73 105 162
62 97 153
72 104 158
68 101 154
67 100 153
72 103 153
60 95 152
64 98 153
60 95 145
62 96 148
63 97 145
62 96 143
62 97 147
59 93 141
60 94 134
58 93 139
62 97 141
64 98 130
59 93 133
59 94 144
60 95 136
59 94 137
59 94 139
59 94 140
62 96 144
61 96 145
61 96 150
60 95 141
60 96 150
59 94 140
60 95 135
59 94 150
59 94 138
60 96 149
61 96 144
60 95 143
60 94 138
60 95 146
60 96 149
61 96 144
60 95 140
60 95 143
60 96 148
61 96 148
61 96 145
62 97 154
61 96 143
61 96 149
60 95 139
60 95 143
60 95 141
60 95 148
60 95 140
61 96 141
60 95 144
61 96 140
60 95 135
60 95 136
60 95 149
60 95 142
61 96 145
58 93 128
61 96 141
60 95 143
61 96 146
61 96 139
60 95 136
60 95 145
62 97 147
59 94 141
61 96 145
61 96 142
60 96 140
61 96 137
60 96 139
62 97 147
61 97 150
61 96 148
61 96 141
60 94 137
60 96 148
61 96 140
59 93 130
61 96 142
61 96 148
60 95 136
61 96 142
60 94 136
60 94 137
61 96 142
59 94 131
60 95 130
61 96 139
61 96 148
61 96 144
60 94 133
60 95 140
60 94 139
61 96 142
60 95 134
60 95 140
59 94 128
60 95 140
59 94 131
59 94 133
60 94 135
60 94 134
60 95 141
59 94 133
59 94 128
59 94 133
59 93 134
59 94 136
60 94 139
59 93 129
59 93 134
60 94 137
61 95 137
61 96 143
60 94 133
59 93 125
59 93 133
60 94 124
60 94 129
58 92 121
58 91 118
60 93 128
57 90 124
58 91 121
74 99 101
97 116 89
112 129 54
95 108 47
107 120 18
118 130 0
118 129 0
112 123 0
126 140 0
109 118 0
115 126 0
99 110 0
109 121 0
121 132 0
110 119 0
122 132 0
118 129 0
119 133 0
123 133 0
126 137 0
122 133 0
121 132 0
127 137 0
121 130 0
126 135 0
115 123 0
126 136 0
126 135 0
125 139 0
122 131 0
118 126 0
121 128 0
121 129 0
131 140 0
123 133 0
122 130 0
133 145 0
126 136 0
121 126 0
128 136 0
123 130 0
125 133 0
124 133 0
130 135 0
121 130 0
127 136 0
134 144 0
126 132 0
133 143 0
128 135 0
129 136 0
131 140 0
134 143 0
130 140 0
126 134 0
132 140 0
142 151 0
134 140 0
136 143 0
131 139 0
134 140 0
139 148 0
135 145 0
141 150 0
138 146 0
141 149 0
131 135 0
136 145 0
137 146 0
137 144 0
143 153 0
138 147 0
135 141 0
133 140 0
143 153 0
139 147 0
147 157 0
146 154 0
132 141 0
140 146 0
143 154 0
140 148 0
146 155 0
147 156 0
144 153 0
145 152 0
136 146 0
143 151 0
146 157 0
145 159 0
149 157 0
150 160 0
145 156 0
147 158 0
151 161 0
151 165 0
151 163 0
152 162 0
152 162 0
157 169 0
150 163 0
144 155 0
149 163 0
153 165 0
153 164 0
157 169 0
159 173 0
163 177 0
159 177 0
163 178 0
158 170 0
152 165 0
155 170 0
159 172 0
165 180 0
155 169 0
158 170 0
151 163 0
159 175 0
160 175 0
162 179 0
170 187 0
164 179 0
160 172 0
167 184 0
164 180 0
161 177 0
160 176 0
161 179 0
160 177 0
161 179 0
159 174 0
159 175 0
164 182 0
159 175 0
166 183 0
160 176 0
159 175 0
164 179 0
168 184 0
167 186 0
167 185 0
164 183 0
161 181 0
165 184 0
165 182 0
164 183 0
161 178 0
165 183 0
163 180 0
175 199 80
169 192 36
175 198 62
173 197 72
171 195 51
171 194 62
172 195 80
172 197 92
171 195 76
173 197 57
173 196 76
171 195 84
171 196 88
175 199 88
172 196 44
171 195 72
169 192 72
172 196 62
171 195 67
173 197 80
170 193 51
172 196 62
170 194 84
172 197 76
171 194 76
169 192 57
170 194 62
170 194 88
169 193 57
169 194 92
172 197 80
168 191 57
169 194 72
170 195 76
169 193 72
173 197 62
171 195 88
166 190 57
169 193 51
167 192 72
168 192 62
166 191 72
173 197 80
166 189 57
167 190 72
166 191 62
166 190 76
166 190 62
168 191 57
168 192 84
165 190 92
171 194 57
168 192 80
167 191 80
171 194 72
167 190 80
166 189 95
169 192 72
164 187 72
165 188 57
165 188 62
162 187 88
168 190 62
170 194 92
166 188 44
168 191 57
163 187 72
169 192 62
166 189 88
165 189 62
166 189 72
165 188 62
163 187 84
161 183 44
164 187 67
164 187 111
154 177 86
141 165 114
111 137 137
101 128 134
78 109 137
92 120 136
94 122 142
92 120 144
87 116 131
86 114 149
93 121 148
87 116 141
97 125 154
85 115 138
86 115 145
89 118 144
100 126 147
102 129 151
94 122 153
84 114 153
90 118 143
99 126 147
100 127 150
103 130 160
96 123 154
99 126 146
98 125 154
88 117 152
98 123 152
92 120 153
96 123 164
105 131 168
89 118 160
91 120 165
95 123 161
87 116 168
79 110 161
97 124 159
80 109 159
69 103 165
69 103 157
83 112 150
76 108 163
75 107 159
71 105 166
70 102 162
62 97 155
62 98 159
69 102 160
68 102 158
62 97 150
66 100 150
62 97 151
68 101 158
71 104 151
69 100 147
61 96 148
65 98 144
59 93 139
61 95 137
61 95 134
61 96 146
63 97 140
59 95 140
61 95 142
60 95 143
59 94 139
60 95 145
60 95 147
61 96 148
59 95 134
58 92 137
60 95 140
59 95 144
60 96 149
60 95 139
60 95 141
60 96 143
59 93 129
60 94 135
59 94 141
60 96 142
60 95 147
60 95 144
60 95 147
58 93 126
63 98 156
61 97 147
60 95 144
62 97 150
60 95 139
60 96 145
60 95 142
60 95 139
60 94 139
59 94 136
61 96 143
60 96 147
59 94 137
61 96 147
59 94 139
60 95 142
61 97 144
60 95 149
60 95 142
59 94 132
61 96 148
61 96 145
61 96 142
61 96 150
60 94 140
61 97 152
60 95 129
61 96 144
59 95 133
59 94 139
59 94 133
60 95 137
59 94 133
60 95 143
60 95 143
61 96 145
61 97 149
60 95 140
61 96 141
60 95 137
60 95 136
61 96 135
60 95 139
61 96 147
60 95 142
59 94 142
60 95 143
61 97 147
61 96 140
60 95 136
59 94 135
61 97 152
61 95 136
61 96 142
60 94 141
60 95 133
60 95 141
61 96 144
60 95 137
60 95 136
59 94 135
60 94 130
61 95 135
60 95 135
60 94 135
60 94 131
59 93 135
61 96 136
58 92 122
59 93 126
60 94 134
59 93 125
60 94 120
59 93 128
59 93 129
59 94 134
60 95 135
58 92 128
58 92 121
59 93 124
60 94 134
58 92 116
58 91 122
58 91 124
58 92 125
57 90 118
57 90 114
63 93 103
76 100 88
88 109 74
103 115 44
122 135 25
118 130 0
120 132 0
119 130 0
120 131 0
115 126 0
112 124 0
126 139 0
127 137 0
125 137 0
121 133 0
127 139 0
122 132 0
118 131 0
120 132 0
110 121 0
119 133 0
121 130 0
117 128 0
122 132 0
127 136 0
128 138 0
120 130 0
124 134 0
124 136 0
126 136 0
124 134 0
119 129 0
117 128 0
131 139 0
132 142 0
126 136 0
128 138 0
129 138 0
123 130 0
128 136 0
125 132 0
128 136 0
130 140 0
135 146 0
131 138 0
124 134 0
130 140 0
127 137 0
141 152 0
131 141 0
136 146 0
135 142 0
132 139 0
121 129 0
141 149 0
133 138 0
131 140 0
133 145 0
131 137 0
135 144 0
126 135 0
135 146 0
139 145 0
132 141 0
142 150 0
132 140 0
142 150 0
131 136 0
134 142 0
145 154 0
129 139 0
144 153 0
142 150 0
142 151 0
151 160 0
134 144 0
141 150 0
144 150 0
140 148 0
134 141 0
142 149 0
142 152 0
147 155 0
148 156 0
144 154 0
143 152 0
141 152 0
154 166 0
147 160 0
155 166 0
148 158 0
145 158 0
150 163 0
150 161 0
150 157 0
151 163 0
151 164 0
153 164 0
143 153 0
150 163 0
151 162 0
152 162 0
154 166 0
153 167 0
150 164 0
154 166 0
153 168 0
153 166 0
155 168 0
156 168 0
159 169 0
162 178 0
153 168 0
160 173 0
159 172 0
156 168 0
157 171 0
159 174 0
159 175 0
159 176 0
162 177 0
165 181 0
157 171 0
158 175 0
162 178 0
161 178 0
162 177 0
158 171 0
160 176 0
158 172 0
165 182 0
157 174 0
163 181 0
164 181 0
162 180 0
161 177 0
160 176 0
167 184 0
163 181 0
161 178 0
160 177 0
163 183 0
165 183 0
164 182 0
163 180 0
170 188 0
164 183 0
163 181 0
167 184 0
157 175 0
157 176 0
177 200 80
171 195 67
174 198 76
171 195 67
169 193 67
175 198 80
171 194 67
169 191 51
175 198 72
175 198 84
169 192 80
171 195 76
170 193 67
169 194 62
171 195 76
175 199 72
171 194 80
172 196 67
172 196 76
170 194 67
170 193 80
173 198 84
168 192 57
170 194 62
170 193 72
172 196 67
169 193 51
171 195 76
172 196 84
169 193 62
169 194 67
169 193 72
169 194 84
172 195 76
170 194 62
170 194 72
171 194 72
170 195 84
168 192 62
167 191 76
166 189 57
164 188 57
167 190 76
169 193 80
170 193 67
165 189 84
166 190 72
167 191 72
169 193 67
167 190 51
167 190 72
165 189 72
167 191 92
168 193 84
167 190 76
167 191 76
172 196 76
164 187 67
167 190 62
170 195 67
167 190 76
166 190 84
165 186 57
166 190 76
167 191 57
168 192 88
165 189 80
163 186 67
167 191 105
161 186 80
168 191 88
164 187 72
164 188 67
159 182 76
168 191 76
163 186 82
158 181 78
142 166 102
118 143 105
103 129 121
86 115 133
90 119 141
97 125 143
97 125 135
91 120 142
97 124 139
105 131 147
82 112 140
94 122 148
88 116 144
95 122 149
88 117 149
93 120 145
84 113 131
93 121 144
96 123 137
96 124 143
91 119 152
97 125 155
102 128 148
90 118 143
82 112 155
93 120 139
93 120 153
99 126 162
89 118 154
81 110 150
97 125 157
90 119 160
85 114 165
93 121 161
84 113 159
90 119 152
75 107 163
75 107 157
87 115 154
90 118 162
82 113 166
71 104 161
72 104 148
75 107 162
69 102 154
67 101 158
64 99 157
62 97 156
66 99 155
63 97 150
68 100 154
60 95 149
71 102 151
66 98 147
60 95 139
64 98 145
62 98 154
61 95 144
61 96 143
65 97 129
61 96 156
61 95 131
59 94 140
62 95 139
61 96 141
59 94 147
58 92 129
59 94 147
59 94 136
60 96 144
59 93 134
58 93 140
61 96 152
62 97 153
60 94 144
58 93 138
61 96 144
61 96 142
59 94 144
60 95 139
60 95 145
60 95 144
60 96 147
59 94 135
59 93 131
60 95 141
59 93 134
61 96 149
59 95 141
60 95 137
61 95 148
60 95 154
59 94 140
59 93 131
61 96 148
59 94 133
60 95 137
60 96 151
61 96 142
61 95 134
61 97 148
59 94 140
61 96 151
62 97 151
60 95 144
57 92 128
60 95 134
62 97 147
60 95 141
60 95 135
60 95 135
61 97 151
61 96 147
60 96 145
60 95 140
59 94 137
60 95 137
61 96 139
60 96 148
61 96 145
61 97 149
60 95 145
60 95 140
61 96 144
59 94 134
60 95 134
60 94 136
61 96 148
60 95 140
59 93 124
61 96 140
60 95 137
60 96 141
60 95 139
60 95 139
60 95 135
61 96 142
60 95 141
61 95 141
60 94 136
61 96 149
60 95 134
60 94 131
59 93 140
60 94 128
60 95 141
61 96 141
59 94 124
60 94 134
60 94 136
60 94 134
59 93 125
59 93 121
60 95 140
59 94 134
59 94 129
60 95 131
60 94 128
60 94 135
60 95 133
59 93 129
59 92 124
60 95 136
59 93 134
58 91 118
59 92 120
59 93 126
59 92 128
59 94 133
57 90 114
57 89 108
57 90 115
72 97 100
79 99 86
113 130 44
119 133 32
107 121 0
112 121 0
117 130 0
124 139 0
115 127 0
123 135 0
124 138 0
116 126 0
107 121 0
116 126 0
116 124 0
125 137 0
120 132 0
117 129 0
122 133 0
121 131 0
124 136 0
108 118 0
123 132 0
126 138 0
135 144 0
120 133 0
118 127 0
127 139 0
116 124 0
125 137 0
116 127 0
122 131 0
126 138 0
131 140 0
128 139 0
120 129 0
124 133 0
131 141 0
124 134 0
124 133 0
122 132 0
135 143 0
125 134 0
124 132 0
124 134 0
130 141 0
134 144 0
128 137 0
127 137 0
136 146 0
128 136 0
127 137 0
127 137 0
120 130 0
129 138 0
134 143 0
138 147 0
135 144 0
135 146 0
136 145 0
142 153 0
142 152 0
138 148 0
139 149 0
142 151 0
138 147 0
135 144 0
145 153 0
139 147 0
140 149 0
130 139 0
138 145 0
139 148 0
132 142 0
136 144 0
149 160 0
142 153 0
135 142 0
144 155 0
143 150 0
140 152 0
146 156 0
146 157 0
145 155 0
141 151 0
140 150 0
145 154 0
151 161 0
144 156 0
153 163 0
152 163 0
151 164 0
148 161 0
147 155 0
148 161 0
155 167 0
154 166 0
151 163 0
148 162 0
154 168 0
154 170 0
152 164 0
154 166 0
155 167 0
153 165 0
152 167 0
156 167 0
155 167 0
158 171 0
155 168 0
164 178 0
165 181 0
159 174 0
155 170 0
158 173 0
165 182 0
157 172 0
159 172 0
157 174 0
155 168 0
162 179 0
161 174 0
160 177 0
164 181 0
159 175 0
164 181 0
158 174 0
159 175 0
160 176 0
159 174 0
159 175 0
160 176 0
159 177 0
162 179 0
161 177 0
164 179 0
162 179 0
162 180 0
165 183 0
165 183 0
166 184 0
170 188 0
162 176 0
164 183 0
167 184 0
166 186 0
164 182 0
165 185 0
161 177 0
165 184 0
161 177 0
176 200 99
174 197 67
171 196 84
170 194 62
173 196 0
171 196 80
171 195 62
171 195 57
170 194 72
171 194 62
170 194 57
173 198 84
174 198 76
169 194 84
171 196 84
172 196 80
173 196 88
169 193 62
167 190 67
172 196 67
167 190 25
169 194 72
171 196 76
168 192 72
169 193 72
171 195 88
166 191 72
172 195 84
168 192 67
169 192 57
170 195 72
174 198 84
170 195 84
170 195 76
163 187 72
170 194 76
172 196 57
173 197 84
166 191 67
165 189 76
168 191 84
174 198 76
167 190 51
168 192 76
169 193 72
170 195 72
171 195 84
168 190 80
169 192 72
166 189 62
165 189 57
164 187 76
170 194 80
166 190 62
166 189 76
167 191 84
165 189 57
164 188 76
162 187 92
170 195 76
164 188 44
165 190 80
168 192 88
167 192 102
168 192 102
168 192 72
163 187 57
164 188 72
168 192 72
166 189 72
162 186 62
162 185 57
160 183 72
165 190 76
168 191 84
158 180 76
163 186 74
151 175 80
147 172 99
117 143 130
94 121 124
91 119 137
89 118 133
87 115 131
90 119 150
97 124 139
99 126 137
81 110 144
96 124 151
87 115 139
103 130 157
91 119 144
102 129 148
92 118 136
86 114 141
83 112 127
92 118 147
103 130 155
96 123 151
102 129 150
96 122 144
89 118 140
100 126 151
86 115 143
96 124 154
111 137 172
98 125 150
90 119 167
86 115 152
98 126 160
79 108 153
85 115 159
85 114 158
87 116 159
79 110 164
74 107 163
86 115 161
72 105 157
77 108 160
72 104 162
78 109 162
82 111 157
67 101 151
69 102 155
77 106 156
68 101 163
66 99 152
67 101 153
62 97 145
63 98 146
63 97 142
66 99 150
66 97 136
63 97 154
63 96 143
59 92 141
64 97 141
59 93 135
59 93 135
64 98 141
64 99 153
60 95 145
59 94 142
61 96 136
60 95 150
60 94 139
60 94 133
60 94 143
60 94 140
59 94 140
59 94 141
60 95 140
60 94 145
60 96 148
59 94 141
59 93 136
58 92 135
61 96 137
60 95 140
59 93 134
61 96 145
61 96 144
61 96 151
60 95 135
60 96 139
60 95 143
60 95 149
60 95 131
61 96 151
59 94 143
60 95 142
60 95 136
60 95 133
60 95 136
60 95 136
60 95 144
60 95 137
60 95 140
62 97 145
60 95 137
59 94 139
60 95 137
59 94 140
61 96 141
60 95 140
60 95 141
61 96 148
61 97 145
62 97 145
59 94 139
60 95 136
61 96 151
60 95 142
60 95 136
60 95 137
61 96 144
59 93 125
60 95 136
59 94 135
60 94 137
60 94 140
61 96 144
59 93 135
61 96 142
60 95 136
60 95 140
60 95 140
61 96 143
60 95 135
60 95 136
60 94 139
60 95 135
60 95 137
60 95 133
61 96 139
60 95 135
61 95 145
58 92 126
61 97 147
59 94 133
61 96 141
59 93 126
59 93 124
61 95 141
60 95 139
61 95 135
59 94 125
59 93 128
59 93 135
60 95 141
60 94 135
60 94 140
59 93 121
59 93 128
61 95 139
57 91 128
60 94 135
59 93 122
58 92 122
58 92 129
59 93 128
60 94 130
59 94 129
59 92 121
57 89 116
59 93 133
58 91 120
56 89 111
72 98 108
79 103 94
93 109 70
108 122 51
108 121 25
119 132 0
108 116 0
127 136 0
118 133 0
122 135 0
118 130 0
123 136 0
115 128 0
115 128 0
118 132 0
120 132 0
131 143 0
126 137 0
111 122 0
126 139 0
119 132 0
119 130 0
106 115 0
120 130 0
127 139 0
131 144 0
123 136 0
118 129 0
130 143 0
129 139 0
118 127 0
130 140 0
129 140 0
127 138 0
128 140 0
126 137 0
125 135 0
118 128 0
133 147 0
125 135 0
127 136 0
121 130 0
125 135 0
116 126 0
128 138 0
132 144 0
132 143 0
132 139 0
125 131 0
131 139 0
127 133 0
122 129 0
129 138 0
134 144 0
129 138 0
136 147 0
135 146 0
129 137 0
127 137 0
140 152 0
135 144 0
135 145 0
135 140 0
132 139 0
142 151 0
141 151 0
145 155 0
142 152 0
140 148 0
128 135 0
140 150 0
140 152 0
133 142 0
135 144 0
142 152 0
141 150 0
144 156 0
147 156 0
148 157 0
146 155 0
148 159 0
143 155 0
141 151 0
145 155 0
150 159 0
144 153 0
142 154 0
146 155 0
142 153 0
151 162 0
147 158 0
148 160 0
149 161 0
143 153 0
147 156 0
150 160 0
153 166 0
153 166 0
161 174 0
148 161 0
151 164 0
152 164 0
151 165 0
158 172 0
151 162 0
152 164 0
157 170 0
152 166 0
149 163 0
161 177 0
158 172 0
152 165 0
152 163 0
157 171 0
157 171 0
158 174 0
157 170 0
158 174 0
157 170 0
159 175 0
155 172 0
157 171 0
160 176 0
157 173 0
162 177 0
158 174 0
158 175 0
162 180 0
162 177 0
162 179 0
159 174 0
163 179 0
159 176 0
161 176 0
160 177 0
161 180 0
163 179 0
157 176 0
162 178 0
160 178 0
158 174 0
160 179 0
166 184 0
164 183 0
162 179 0
166 183 0
169 188 0
161 179 0
166 183 0
161 180 0
163 180 0
163 184 0
172 195 72
172 195 72
177 201 95
170 194 62
167 191 36
170 193 44
172 196 72
171 196 57
169 194 84
174 197 80
174 197 76
168 192 95
173 197 92
170 193 62
172 196 57
173 196 84
167 191 62
170 193 72
172 196 80
170 195 95
173 196 57
171 196 80
172 197 99
169 194 92
171 196 111
168 191 67
170 195 80
170 195 67
171 195 80
169 193 62
168 193 76
168 192 76
168 192 76
167 191 67
171 195 57
163 187 84
172 195 84
170 193 57
171 196 88
169 194 80
169 193 80
167 190 51
168 192 44
169 193 67
171 195 76
173 197 67
168 192 92
166 190 76
167 191 76
171 194 72
171 194 67
168 192 67
167 192 67
168 193 92
170 194 84
167 191 84
167 190 57
164 188 57
165 189 84
168 192 84
165 188 62
161 185 76
165 189 84
165 189 44
165 189 57
166 189 72
161 184 72
163 186 62
167 189 72
163 186 72
167 191 92
162 186 62
163 185 57
164 186 51
168 191 72
164 188 76
163 186 57
159 181 76
147 170 92
121 146 113
101 128 131
95 123 136
90 119 137
90 117 129
105 132 154
99 125 134
94 122 151
89 116 138
97 124 147
87 116 152
85 112 139
89 116 143
91 119 149
100 126 146
87 115 141
89 117 140
85 114 144
101 127 122
102 128 148
106 131 141
93 120 147
99 126 144
89 117 153
94 122 155
106 131 160
97 125 151
85 114 152
92 120 159
90 118 156
91 119 154
84 114 159
94 121 167
75 107 160
79 110 151
87 116 159
85 115 158
78 109 155
72 105 162
83 113 166
80 108 156
70 103 155
72 103 154
73 105 161
66 100 158
62 97 150
78 108 159
66 99 152
74 104 160
67 100 148
62 97 153
66 99 152
66 98 144
68 99 146
59 94 140
59 93 134
60 95 141
62 96 143
60 96 145
64 97 129
58 93 134
59 95 145
62 96 134
58 93 127
59 94 136
59 94 144
59 94 141
62 96 137
60 95 144
60 95 144
61 96 149
59 94 135
59 94 134
60 94 140
61 96 142
59 94 139
60 95 139
58 93 137
60 95 142
59 94 144
60 96 144
60 95 136
60 95 130
61 96 150
61 97 148
60 95 140
59 93 138
59 94 142
61 96 141
59 93 126
60 95 141
61 96 134
60 95 137
61 96 142
60 95 142
61 96 142
60 95 136
60 95 136
60 95 137
60 94 140
59 94 136
59 94 131
60 95 143
61 96 140
60 96 142
61 96 139
59 94 137
60 94 136
61 96 142
60 94 137
61 97 147
60 95 140
61 96 144
60 95 139
61 96 139
60 95 139
61 96 143
59 94 131
61 95 134
61 96 141
59 94 133
61 96 140
60 95 144
61 96 137
60 95 136
59 94 139
61 96 148
60 95 139
60 95 134
60 95 142
60 94 135
58 93 125
59 94 131
60 94 137
59 93 126
59 94 135
61 96 135
60 94 139
60 95 141
60 95 142
60 95 139
61 96 145
60 95 131
60 95 135
59 93 133
60 94 136
59 93 130
60 95 137
60 95 137
58 92 122
61 96 141
60 95 135
57 90 118
60 94 131
59 94 126
60 94 135
59 93 129
61 95 135
59 93 128
59 92 113
60 94 122
58 92 130
59 93 122
58 91 118
56 89 124
58 92 118
57 89 115
58 90 115
67 96 113
74 98 85
97 116 60
110 126 60
116 131 36
111 124 0
119 133 0
129 140 0
123 136 0
124 138 0
120 130 0
123 134 0
112 126 0
123 137 0
122 133 0
119 132 0
118 127 0
127 139 0
122 131 0
121 131 0
123 135 0
122 134 0
128 140 0
127 140 0
119 128 0
130 141 0
125 138 0
129 140 0
137 150 0
119 130 0
130 141 0
126 138 0
119 131 0
127 140 0
127 140 0
131 144 0
126 136 0
118 129 0
127 136 0
128 138 0
130 140 0
123 136 0
131 144 0
134 146 0
131 141 0
123 132 0
137 149 0
128 136 0
127 136 0
133 141 0
130 143 0
125 136 0
130 141 0
124 132 0
128 135 0
136 146 0
138 150 0
131 140 0
134 144 0
139 150 0
139 147 0
131 140 0
134 143 0
138 146 0
135 145 0
140 150 0
133 141 0
129 140 0
141 150 0
135 144 0
154 165 0
143 152 0
140 150 0
145 157 0
142 152 0
137 146 0
143 154 0
143 153 0
143 152 0
141 151 0
150 161 0
142 152 0
140 149 0
150 162 0
140 150 0
148 163 0
151 162 0
151 163 0
142 153 0
152 163 0
151 163 0
148 158 0
142 152 0
142 155 0
152 165 0
153 163 0
150 161 0
147 161 0
150 162 0
156 171 0
143 153 0
157 172 0
150 162 0
158 172 0
151 163 0
151 164 0
153 165 0
150 162 0
155 169 0
150 162 0
156 169 0
154 165 0
152 166 0
160 173 0
156 171 0
154 167 0
156 170 0
156 171 0
161 177 0
158 173 0
154 167 0
158 171 0
153 167 0
157 173 0
153 169 0
158 175 0
158 173 0
163 180 0
162 179 0
159 176 0
160 176 0
161 178 0
162 178 0
157 173 0
158 175 0
160 178 0
160 178 0
164 183 0
160 178 0
162 180 0
161 179 0
167 184 0
161 179 0
164 183 0
162 180 0
165 183 0
165 183 0
165 184 0
161 179 0
167 188 0
163 181 0
162 179 0
167 187 0
173 197 95
173 196 67
173 197 72
170 193 67
169 192 72
173 197 84
173 196 88
170 194 62
168 192 67
172 194 51
171 196 72
169 194 84
174 198 72
171 195 72
172 196 72
170 194 62
173 197 76
172 196 76
172 197 84
170 195 80
169 193 72
169 193 62
171 195 76
169 193 57
171 194 72
172 195 80
172 195 57
171 195 57
173 196 67
167 192 67
168 192 84
167 191 57
166 190 76
172 197 80
169 194 67
170 193 44
168 192 67
167 191 76
165 189 72
169 194 67
165 189 51
170 195 67
169 193 72
170 194 67
171 195 76
167 190 57
163 187 62
169 193 88
168 193 72
170 194 72
170 193 76
166 189 44
165 188 57
163 187 84
169 193 72
167 191 80
168 193 88
159 182 72
165 189 80
168 191 67
161 185 51
164 188 67
172 195 57
168 192 84
162 186 67
167 190 67
164 188 72
166 189 67
165 189 62
164 187 72
164 189 95
162 186 51
161 183 67
163 187 95
165 189 99
164 186 57
164 188 72
153 175 74
154 177 90
137 160 88
117 142 110
107 133 136
92 119 134
90 118 130
85 114 135
85 113 128
86 115 140
85 113 136
98 125 143
89 117 145
83 112 136
100 126 151
96 123 152
100 127 150
84 112 135
99 126 151
94 122 143
113 138 145
81 110 145
97 124 151
104 131 162
96 123 131
91 119 148
97 124 153
96 122 143
90 119 151
92 120 144
100 127 153
100 126 147
90 119 147
93 121 166
96 123 158
80 110 159
90 119 158
89 117 157
83 112 163
78 110 157
71 103 154
74 106 163
79 109 161
71 104 159
64 99 160
70 103 161
72 104 158
66 100 151
68 102 157
69 102 154
60 95 141
64 97 147
71 102 146
60 95 149
64 98 141
62 97 144
60 94 135
59 94 144
61 96 149
61 95 136
61 96 144
59 94 133
60 96 143
62 96 139
64 97 144
63 96 133
62 96 131
59 94 140
60 95 144
61 95 129
61 96 141
60 95 141
62 96 141
58 93 137
58 92 124
60 94 144
59 93 139
60 95 133
60 95 145
58 93 145
60 94 134
61 95 137
60 95 137
60 95 139
59 95 137
60 95 144
59 95 139
61 96 149
60 95 140
60 95 139
60 94 139
61 96 147
60 95 148
59 94 135
60 95 147
59 94 129
59 94 140
60 95 143
60 96 137
60 95 133
59 94 133
60 95 130
60 95 140
60 95 135
61 96 143
61 96 145
61 96 145
62 98 152
60 96 145
59 94 135
60 94 139
60 95 136
62 97 147
60 96 141
62 97 150
60 95 135
59 94 130
60 95 139
61 96 147
59 94 135
59 94 135
61 96 149
60 94 135
60 94 136
61 96 142
59 94 131
61 96 148
60 95 135
59 94 130
60 95 139
60 95 131
60 94 134
60 95 145
61 96 143
59 94 122
62 97 145
61 96 144
61 95 135
61 95 135
61 95 136
60 95 134
59 94 136
61 95 133
59 94 130
59 94 133
60 95 141
60 95 126
59 94 133
60 95 134
61 95 139
58 93 115
59 94 130
60 95 133
58 91 115
58 92 122
60 95 134
60 95 133
59 94 131
59 93 118
58 92 120
58 92 122
58 92 126
58 91 113
59 92 121
58 92 113
59 93 123
59 93 133
59 92 124
56 88 108
56 88 105
74 99 94
93 114 79
93 112 75
104 116 31
117 129 0
123 135 0
114 126 0
116 128 0
117 132 0
118 132 0
126 139 0
117 132 0
126 138 0
124 137 0
123 135 0
115 128 0
110 122 0
124 136 0
135 150 0
125 138 0
126 139 0
112 123 0
121 134 0
121 132 0
130 142 0
114 124 0
129 142 0
122 134 0
127 141 0
123 135 0
129 144 0
138 150 0
135 149 0
137 149 0
119 130 0
122 134 0
122 134 0
130 143 0
128 139 0
131 143 0
136 146 0
123 132 0
127 138 0
133 146 0
140 150 0
136 147 0
130 139 0
140 150 0
135 147 0
128 138 0
131 142 0
125 135 0
134 146 0
130 142 0
125 134 0
138 151 0
146 157 0
133 143 0
141 151 0
130 141 0
134 143 0
132 142 0
147 157 0
141 152 0
152 162 0
141 152 0
131 141 0
128 138 0
136 146 0
136 145 0
143 154 0
139 148 0
139 149 0
141 152 0
148 159 0
139 150 0
141 151 0
140 148 0
145 155 0
145 156 0
147 160 0
146 157 0
140 151 0
146 157 0
152 163 0
144 153 0
148 159 0
148 157 0
155 166 0
149 160 0
145 158 0
145 156 0
148 159 0
148 159 0
149 162 0
148 158 0
148 161 0
150 164 0
146 160 0
147 157 0
147 161 0
146 156 0
150 164 0
148 159 0
152 167 0
153 166 0
159 174 0
155 169 0
156 166 0
153 167 0
162 176 0
157 171 0
157 171 0
157 170 0
160 175 0
158 174 0
157 172 0
156 170 0
161 174 0
160 176 0
160 177 0
159 177 0
157 170 0
157 175 0
154 170 0
157 173 0
160 177 0
159 172 0
160 178 0
163 180 0
155 171 0
157 171 0
164 180 0
163 176 0
161 178 0
166 183 0
161 177 0
162 178 0
166 184 0
162 179 0
162 179 0
165 181 0
164 180 0
166 184 0
164 182 0
166 186 0
167 186 0
167 184 0
155 170 0
166 185 0
172 192 0
164 181 0
164 184 0
171 195 62
170 194 57
175 198 72
170 194 76
172 196 80
172 195 72
175 199 80
173 197 67
174 198 72
168 192 80
169 193 67
168 192 57
169 193 67
171 195 67
171 195 80
172 196 62
174 198 80
171 196 67
166 190 76
172 196 67
172 197 92
168 192 67
172 195 51
169 193 72
170 194 76
168 191 67
170 194 57
172 196 72
167 190 44
166 191 72
171 194 36
171 195 57
161 185 51
170 194 72
163 186 51
172 196 51
164 188 57
168 191 72
172 196 67
171 195 84
168 192 80
168 191 62
166 191 84
172 195 36
164 188 84
170 193 62
167 191 88
165 189 62
165 189 72
162 187 80
170 194 72
170 194 76
168 191 80
169 192 80
168 193 67
164 188 84
163 187 80
166 191 67
164 188 67
169 193 72
165 189 72
164 188 88
168 192 57
162 185 57
163 188 72
165 189 88
170 193 80
165 189 88
161 185 67
160 184 76
168 191 76
164 188 92
160 183 80
163 185 92
163 185 76
167 190 92
163 186 67
161 184 76
151 172 84
146 169 90
131 156 103
110 136 128
94 121 120
95 122 134
87 116 135
95 122 137
91 119 132
91 118 137
105 131 149
92 121 149
92 119 141
93 120 140
98 125 136
97 124 156
89 117 139
94 120 133
99 125 151
89 117 155
87 115 150
87 115 149
93 121 144
88 116 147
94 122 143
91 119 142
95 122 143
96 123 145
98 125 154
96 123 156
80 110 147
93 120 164
92 121 153
113 137 155
96 123 157
85 115 162
69 102 156
84 112 148
89 118 158
67 101 155
72 105 158
67 101 153
79 109 163
63 97 155
71 103 162
77 108 159
74 104 154
66 101 159
73 105 161
68 101 158
71 102 141
66 99 149
73 105 152
64 97 134
58 93 137
69 100 147
61 95 138
60 94 141
64 97 139
65 98 143
60 93 131
65 98 144
60 95 144
63 98 145
61 95 143
64 98 128
59 94 147
60 95 139
59 93 139
59 94 131
60 94 137
59 93 134
60 94 129
60 95 141
61 96 147
58 92 124
60 95 146
60 94 137
58 93 139
59 94 140
59 94 138
60 95 134
62 97 152
60 95 147
59 93 126
62 97 145
60 95 137
60 94 137
59 93 129
61 96 143
59 94 136
60 96 141
60 95 150
59 94 135
60 95 139
60 95 137
59 94 129
61 96 147
60 95 135
60 95 142
60 95 135
60 95 139
58 93 130
60 95 141
60 95 139
59 93 124
60 95 145
60 95 143
61 95 142
59 94 126
59 93 134
61 96 145
60 95 137
60 95 144
58 93 125
61 96 142
60 95 139
62 97 145
59 94 141
58 93 124
60 95 136
62 97 145
61 96 141
61 96 144
60 94 139
59 94 135
61 96 139
61 96 142
60 96 141
61 96 142
59 94 134
61 95 137
60 94 133
61 95 136
61 96 140
59 93 128
59 93 124
60 94 136
61 96 140
59 94 130
61 95 141
60 95 135
60 95 131
59 93 128
59 94 131
59 94 129
59 94 133
59 93 129
61 96 136
60 95 137
58 92 121
58 92 126
59 94 134
60 94 133
60 94 130
60 94 130
59 94 128
60 94 135
59 92 124
59 93 129
59 92 129
60 94 134
58 91 118
57 91 117
58 91 121
58 91 117
57 91 115
58 91 115
68 95 100
81 105 80
106 124 67
116 128 45
117 128 0
119 131 0
123 134 0
111 126 0
116 127 0
106 116 0
126 139 0
117 131 0
131 141 0
125 138 0
117 130 0
118 127 0
132 146 0
118 133 0
120 133 0
125 139 0
127 139 0
133 148 0
134 149 0
118 127 0
133 145 0
119 131 0
126 138 0
121 133 0
130 142 0
133 145 0
137 149 0
127 139 0
136 148 0
124 135 0
133 145 0
124 137 0
126 138 0
139 154 0
134 148 0
133 142 0
115 124 0
132 143 0
125 136 0
121 131 0
133 144 0
130 141 0
121 133 0
134 146 0
129 139 0
131 142 0
126 138 0
133 142 0
136 150 0
128 138 0
141 154 0
144 156 0
137 147 0
141 151 0
146 159 0
129 139 0
135 146 0
133 143 0
144 157 0
137 148 0
141 151 0
141 152 0
135 145 0
143 157 0
135 146 0
138 146 0
144 153 0
144 156 0
152 163 0
140 149 0
142 154 0
133 144 0
135 148 0
138 149 0
138 149 0
147 159 0
147 159 0
144 154 0
140 148 0
148 158 0
146 157 0
143 155 0
149 160 0
148 159 0
144 154 0
155 166 0
152 165 0
145 156 0
139 150 0
150 165 0
155 167 0
149 160 0
145 156 0
154 169 0
147 160 0
154 166 0
149 162 0
148 158 0
157 171 0
156 168 0
149 164 0
155 168 0
155 169 0
155 169 0
155 170 0
151 164 0
155 169 0
153 165 0
156 171 0
158 174 0
154 169 0
153 167 0
160 175 0
161 176 0
157 172 0
159 173 0
158 171 0
159 173 0
157 173 0
159 174 0
163 179 0
158 173 0
155 172 0
164 180 0
165 184 0
165 182 0
161 178 0
157 174 0
157 173 0
164 183 0
163 179 0
159 175 0
160 178 0
163 177 0
163 181 0
165 182 0
163 182 0
165 185 0
160 176 0
161 180 0
168 188 0
164 183 0
164 183 0
169 188 0
158 176 0
166 185 0
163 180 0
160 176 0
160 179 0
161 180 0
170 194 67
172 196 80
170 194 72
170 194 76
170 194 76
171 195 80
174 198 76
171 195 67
172 195 80
170 194 84
173 197 80
174 198 76
172 196 84
174 198 80
168 193 84
172 196 76
170 195 57
173 197 80
170 193 67
172 196 67
171 195 76
170 194 62
171 195 67
168 192 76
172 196 99
173 197 67
173 196 80
173 197 76
165 188 57
168 192 62
168 191 80
166 189 67
168 192 67
171 196 99
169 193 95
167 190 44
172 196 80
171 196 99
167 191 72
172 196 76
167 190 80
171 195 80
169 194 62
165 188 67
160 184 36
168 192 88
168 192 76
170 194 76
163 187 62
169 193 67
160 183 51
166 189 62
166 190 72
166 190 62
169 192 88
162 186 88
166 190 51
169 192 51
160 183 72
168 192 67
168 192 72
166 190 51
166 190 95
161 185 76
169 192 76
167 190 57
158 182 76
165 188 80
164 187 72
161 184 51
166 189 76
160 183 67
161 184 44
167 191 105
161 183 62
162 184 62
157 180 67
162 185 76
157 180 88
156 179 78
143 167 86
125 150 111
106 132 120
87 116 137
96 123 141
88 115 133
98 125 122
89 117 140
78 108 143
87 116 140
90 117 134
79 108 140
100 126 144
90 117 145
82 110 127
99 124 139
105 130 140
90 118 129
98 126 148
100 126 136
89 117 139
101 126 136
98 124 133
84 112 133
89 117 150
91 118 149
92 120 148
91 119 150
93 121 148
94 122 146
99 125 150
95 122 156
92 121 145
88 116 153
91 120 157
87 116 156
74 105 151
80 109 153
80 109 161
76 107 152
72 104 158
68 101 147
73 104 155
73 105 163
66 99 155
68 102 164
74 105 165
67 100 151
65 97 149
63 97 152
73 104 153
68 100 147
59 94 143
64 97 142
66 99 141
62 96 141
62 96 135
63 96 140
64 97 144
63 97 133
59 93 133
62 97 148
63 96 126
60 94 137
59 93 133
59 93 136
59 94 136
59 93 128
60 94 144
58 93 136
59 93 133
59 93 133
60 95 137
59 94 141
59 94 138
59 94 130
60 95 135
60 95 142
60 95 143
59 93 131
59 93 128
60 95 136
59 94 139
59 93 130
59 93 135
59 94 130
60 94 140
60 94 141
60 95 131
60 95 139
59 93 133
59 94 128
59 93 134
60 95 138
60 95 141
59 94 136
60 95 134
59 94 124
62 97 150
60 95 137
59 93 134
58 93 133
59 94 130
60 95 134
61 96 144
61 96 145
61 95 135
60 95 141
60 95 141
59 94 131
60 95 137
60 95 135
62 97 150
58 92 118
61 96 141
60 95 133
60 95 136
59 93 128
59 94 131
61 96 137
58 92 121
60 95 137
59 94 125
60 94 135
60 95 133
60 95 134
59 94 135
60 95 130
59 94 130
59 94 128
60 95 133
61 95 140
59 93 126
61 95 134
59 94 122
60 95 137
59 93 122
60 95 136
62 96 140
58 92 130
59 93 130
60 95 131
59 94 124
58 92 126
59 93 136
60 94 135
61 95 134
60 94 133
60 95 134
59 93 129
59 94 131
59 93 124
58 92 121
58 92 124
58 91 115
60 94 126
57 90 122
57 90 111
58 92 118
61 95 134
58 92 121
59 93 124
59 93 115
58 91 121
59 93 122
56 87 104
86 107 80
93 112 60
100 116 47
113 129 18
127 137 0
117 127 0
127 142 0
114 128 0
114 127 0
121 135 0
111 126 0
131 144 0
119 130 0
120 133 0
130 143 0
117 132 0
123 137 0
114 126 0
132 145 0
132 143 0
133 147 0
126 139 0
133 148 0
118 130 0
112 125 0
123 136 0
123 135 0
128 143 0
129 140 0
126 138 0
117 126 0
136 150 0
130 143 0
130 143 0
121 135 0
142 156 0
137 146 0
139 152 0
134 145 0
135 147 0
137 149 0
133 146 0
139 151 0
135 147 0
133 145 0
128 136 0
132 145 0
119 129 0
126 136 0
134 146 0
136 147 0
130 142 0
135 147 0
127 136 0
124 135 0
128 138 0
134 144 0
137 150 0
136 148 0
138 148 0
134 146 0
134 144 0
135 146 0
136 145 0
138 150 0
139 151 0
143 155 0
150 159 0
139 151 0
142 153 0
145 156 0
146 157 0
138 150 0
138 151 0
138 147 0
146 160 0
142 155 0
144 154 0
139 150 0
142 155 0
148 160 0
150 163 0
141 151 0
136 147 0
145 160 0
145 158 0
150 160 0
148 160 0
148 161 0
152 165 0
145 157 0
143 155 0
158 172 0
155 170 0
144 155 0
155 168 0
153 166 0
151 163 0
142 154 0
155 166 0
156 172 0
153 167 0
154 167 0
155 169 0
144 157 0
154 168 0
149 163 0
153 164 0
158 173 0
150 163 0
160 175 0
149 161 0
152 168 0
159 175 0
160 176 0
155 168 0
154 170 0
159 176 0
159 173 0
151 168 0
158 175 0
153 168 0
155 169 0
152 166 0
158 176 0
162 177 0
160 177 0
161 178 0
158 173 0
158 176 0
163 178 0
162 179 0
162 178 0
160 179 0
160 177 0
161 178 0
165 184 0
163 181 0
160 175 0
162 180 0
164 182 0
166 184 0
163 181 0
161 177 0
161 179 0
165 182 0
160 178 0
157 175 0
167 187 0
161 180 0
165 184 0
166 186 0
164 182 0
166 185 0
171 195 57
171 196 80
167 190 62
172 196 80
171 194 76
171 194 62
172 196 76
169 194 51
169 193 44
172 197 95
171 195 72
171 196 84
174 198 92
168 192 62
173 197 88
170 194 62
172 196 72
169 193 80
172 197 84
168 193 80
171 195 67
168 192 51
166 191 88
171 195 57
167 190 67
170 194 72
172 195 67
168 193 76
170 196 95
166 191 80
170 195 80
168 192 57
170 194 76
170 195 72
165 189 72
172 196 80
167 191 67
167 191 80
169 193 51
168 192 62
166 189 67
171 195 76
167 192 88
169 192 88
159 183 72
167 191 62
167 192 72
165 190 84
166 190 67
167 192 105
167 191 80
168 193 72
168 192 92
165 189 57
161 185 80
163 187 72
164 188 84
167 190 80
167 191 92
166 191 72
163 187 84
165 188 72
163 186 80
162 186 44
160 183 76
165 188 72
160 183 62
164 188 62
164 186 80
159 182 80
161 184 72
159 182 72
169 191 67
159 181 51
154 178 80
162 186 72
156 178 62
166 190 88
163 185 62
157 179 47
140 162 74
131 154 76
121 147 124
68 99 121
92 119 134
82 110 110
79 109 129
93 121 140
99 126 139
95 122 137
90 118 138
97 124 144
99 125 143
89 117 133
95 122 144
94 121 139
91 119 144
95 122 150
98 125 147
97 123 138
98 125 141
93 121 151
102 127 154
102 127 154
100 127 156
98 125 147
101 127 145
85 114 137
97 124 136
88 117 146
99 125 146
90 118 147
101 127 158
78 107 146
81 111 161
92 120 162
85 115 169
92 120 159
71 102 147
80 110 147
79 109 162
71 103 152
76 107 158
73 105 156
75 106 155
76 107 160
71 103 161
66 100 157
65 99 152
66 100 148
70 100 145
63 97 150
60 95 145
66 98 142
60 95 143
65 98 146
62 96 141
65 98 140
64 97 133
61 95 137
60 94 138
66 99 137
61 96 140
60 94 122
58 92 133
59 93 141
57 91 129
60 94 124
58 92 138
59 94 134
59 94 126
59 94 136
59 94 136
59 94 131
58 93 135
59 94 135
59 93 138
59 93 130
58 93 134
59 93 136
60 94 128
59 92 131
59 94 138
60 95 140
61 96 141
61 96 144
59 94 139
59 93 129
59 94 137
58 92 141
60 95 141
60 95 137
61 96 142
60 95 142
60 94 124
59 93 132
59 94 131
60 95 137
60 94 141
61 95 142
60 95 130
61 96 137
59 93 130
59 94 137
60 95 140
60 95 139
60 94 134
60 95 134
60 95 139
61 96 147
60 94 139
59 94 133
60 95 139
59 94 133
61 96 144
61 96 141
59 94 128
60 95 140
59 93 129
60 95 135
59 94 136
61 96 140
60 94 129
59 94 126
60 95 139
59 94 130
60 94 139
59 93 135
59 94 130
60 95 135
60 94 136
59 92 129
61 96 139
60 94 131
60 94 134
59 94 136
59 93 122
59 92 131
60 95 139
59 94 128
60 94 133
59 94 134
59 94 131
60 95 133
60 94 133
60 95 131
60 94 130
59 93 130
58 92 126
57 91 118
59 93 125
59 93 128
59 93 128
57 90 120
59 93 133
57 90 113
58 92 118
58 91 117
59 92 122
60 93 125
60 94 126
57 91 116
56 89 115
58 91 117
62 91 107
73 97 99
100 119 60
108 124 51
111 125 31
107 121 0
106 119 0
118 133 0
106 120 0
127 141 0
122 135 0
119 132 0
114 128 0
118 131 0
130 145 0
125 137 0
115 125 0
126 139 0
125 138 0
123 135 0
123 136 0
124 136 0
126 138 0
132 146 0
126 138 0
133 144 0
124 136 0
120 132 0
129 141 0
127 136 0
138 154 0
129 143 0
126 139 0
132 145 0
123 132 0
127 139 0
128 142 0
122 135 0
134 147 0
133 146 0
133 147 0
131 144 0
127 139 0
141 154 0
131 145 0
133 145 0
126 138 0
138 148 0
132 143 0
133 144 0
135 146 0
134 144 0
136 150 0
136 148 0
140 153 0
131 141 0
137 149 0
134 145 0
140 154 0
136 147 0
142 156 0
139 151 0
130 142 0
138 149 0
137 148 0
135 146 0
144 156 0
139 150 0
137 149 0
140 151 0
142 153 0
139 151 0
138 150 0
138 148 0
141 153 0
143 152 0
144 154 0
144 155 0
141 152 0
144 155 0
148 160 0
133 143 0
143 154 0
148 159 0
154 168 0
144 153 0
152 164 0
154 169 0
142 155 0
144 156 0
144 155 0
140 150 0
149 161 0
148 159 0
149 160 0
152 165 0
148 160 0
145 155 0
147 160 0
149 162 0
147 161 0
152 163 0
149 162 0
158 173 0
159 173 0
152 165 0
155 169 0
157 171 0
158 173 0
147 162 0
154 168 0
156 171 0
152 165 0
154 171 0
149 161 0
154 169 0
158 175 0
161 176 0
159 171 0
155 169 0
157 172 0
158 174 0
160 176 0
155 170 0
157 174 0
160 177 0
161 177 0
160 180 0
158 174 0
156 172 0
165 181 0
156 171 0
163 179 0
165 182 0
156 170 0
161 179 0
158 176 0
164 181 0
161 178 0
159 177 0
162 179 0
161 179 0
161 178 0
164 181 0
164 181 0
165 182 0
163 182 0
166 186 0
167 187 0
167 187 0
162 180 0
164 183 0
163 182 0
158 178 0
169 188 0
161 180 0
172 195 88
169 193 51
171 195 84
172 196 76
172 196 67
173 196 80
167 189 84
174 198 67
171 195 62
175 198 76
168 192 67
167 190 51
168 192 62
169 193 88
172 196 67
171 195 67
175 199 72
169 193 44
169 193 67
171 195 76
175 197 76
170 193 67
167 191 51
171 194 72
169 192 51
169 193 80
170 194 57
166 190 51
165 190 72
168 192 72
166 190 102
171 195 67
171 195 76
164 187 57
171 195 84
167 191 57
168 192 57
171 195 80
164 187 72
162 187 67
170 194 67
166 190 57
171 196 84
166 190 44
171 195 84
166 190 62
161 185 67
166 190 80
164 188 57
163 188 92
168 192 67
164 188 72
168 192 84
162 186 72
169 194 88
157 180 51
163 187 62
165 188 57
167 191 95
164 187 80
163 187 76
165 189 67
163 187 80
165 188 76
163 186 67
161 185 72
164 188 84
161 184 67
160 184 62
161 184 57
166 189 72
156 179 70
160 183 76
160 183 76
161 184 67
161 184 67
160 183 67
165 189 80
159 182 84
166 190 92
155 179 76
148 171 105
128 152 95
114 139 113
90 116 129
92 121 144
84 111 124
91 118 131
88 115 131
89 117 144
76 106 130
85 114 137
102 128 140
90 116 138
96 123 150
90 118 147
88 116 148
91 119 149
91 118 143
93 120 143
83 111 139
92 119 129
87 115 151
98 123 152
86 115 143
100 126 135
89 117 148
85 112 135
88 116 137
98 125 142
87 116 146
91 119 151
99 124 141
75 106 147
97 123 156
94 122 146
80 109 142
80 110 152
86 115 162
84 112 157
83 111 153
79 109 158
84 112 155
67 101 164
75 105 154
71 103 162
69 101 160
70 102 156
75 105 158
67 99 152
71 104 158
68 100 153
64 98 144
72 103 145
62 97 140
66 98 141
59 94 129
58 92 134
69 101 139
61 96 142
60 94 128
61 95 135
59 93 136
66 98 139
61 95 129
64 97 139
62 95 134
59 94 137
66 99 133
59 93 134
59 93 133
58 92 136
59 93 133
59 93 131
60 95 139
61 96 142
59 94 131
60 95 136
58 92 129
59 94 137
61 96 143
60 95 140
59 93 136
60 95 143
58 93 132
59 94 136
59 93 133
60 94 133
59 94 141
61 96 139
60 95 143
59 93 134
60 95 140
60 95 129
61 96 144
60 95 141
60 95 140
61 97 147
61 96 141
58 92 126
60 95 144
60 95 136
60 94 137
60 95 140
60 95 134
61 96 140
60 94 133
60 95 137
60 95 133
60 95 139
59 94 136
60 95 136
59 93 122
60 94 137
59 93 129
58 92 120
59 93 134
60 95 137
60 95 139
60 94 136
60 95 139
60 94 137
59 94 130
61 96 131
62 96 150
60 95 135
60 95 126
59 94 137
60 95 133
59 93 124
60 94 140
61 96 139
59 93 118
60 95 129
58 92 129
60 94 128
60 95 134
59 93 126
60 94 135
59 93 128
60 95 129
59 93 131
59 93 136
59 93 122
60 94 130
59 92 126
58 93 126
60 95 139
59 93 128
59 93 133
58 92 121
59 93 131
59 92 128
58 92 122
60 94 131
57 91 113
57 91 120
58 92 120
58 92 113
58 92 121
58 92 122
56 88 114
58 91 120
60 93 125
74 102 105
85 106 85
106 123 60
110 125 25
123 135 0
110 124 0
112 124 0
115 127 0
119 133 0
121 136 0
116 128 0
123 135 0
124 138 0
123 137 0
121 136 0
129 143 0
125 140 0
127 142 0
114 127 0
119 132 0
127 139 0
123 138 0
131 146 0
121 133 0
128 142 0
120 133 0
119 131 0
140 154 0
128 141 0
128 141 0
130 142 0
139 153 0
124 135 0
125 137 0
138 150 0
127 139 0
130 145 0
128 141 0
134 148 0
136 148 0
131 143 0
130 143 0
130 141 0
123 135 0
128 139 0
133 145 0
140 154 0
134 145 0
134 148 0
137 151 0
129 141 0
135 146 0
139 151 0
131 145 0
141 154 0
132 144 0
134 146 0
142 155 0
137 149 0
141 153 0
140 151 0
138 150 0
135 146 0
150 164 0
147 159 0
144 156 0
145 155 0
137 148 0
142 157 0
149 162 0
138 151 0
143 155 0
140 153 0
142 153 0
147 159 0
141 150 0
138 148 0
144 158 0
144 155 0
146 157 0
148 162 0
147 160 0
144 157 0
138 148 0
151 166 0
144 156 0
140 152 0
141 154 0
148 157 0
150 161 0
145 157 0
146 157 0
139 149 0
145 157 0
144 157 0
148 161 0
144 155 0
149 163 0
154 168 0
151 165 0
153 167 0
158 173 0
157 172 0
157 170 0
149 163 0
154 168 0
156 168 0
154 170 0
155 168 0
157 171 0
154 168 0
154 170 0
158 172 0
153 167 0
149 161 0
161 177 0
156 173 0
164 183 0
153 167 0
157 171 0
160 175 0
159 176 0
158 177 0
158 174 0
163 179 0
161 175 0
159 175 0
153 170 0
160 176 0
156 173 0
159 177 0
154 172 0
155 171 0
163 178 0
164 180 0
159 177 0
158 175 0
160 175 0
159 177 0
161 178 0
163 180 0
158 175 0
163 181 0
163 182 0
164 181 0
165 183 0
164 181 0
166 182 0
164 182 0
161 179 0
162 177 0
165 183 0
165 184 0
166 187 0
163 181 0
164 183 0
169 193 72
168 192 76
177 200 84
167 191 72
167 192 76
171 197 102
171 194 57
171 195 57
170 193 72
171 195 62
172 196 62
169 192 62
173 197 67
170 194 88
170 193 76
171 195 80
170 194 76
169 192 72
169 192 51
169 193 80
169 193 67
170 194 84
171 195 62
172 195 67
173 197 72
172 196 84
169 194 57
167 192 62
172 196 80
169 193 84
170 195 67
168 193 84
170 193 72
169 194 67
169 193 72
165 189 84
166 191 72
167 192 84
169 194 72
169 194 67
166 191 72
164 188 67
166 190 67
169 192 67
166 190 51
158 182 62
166 190 62
166 190 72
165 189 76
164 188 88
168 192 57
163 187 67
166 190 72
168 192 72
166 190 76
165 188 57
165 189 57
169 192 72
169 192 95
166 190 99
167 190 62
163 188 76
165 188 72
158 182 72
161 184 67
165 188 80
160 184 72
167 191 76
163 186 72
157 181 76
161 183 67
159 184 44
162 185 72
156 180 84
163 186 84
161 184 76
155 178 67
162 185 72
153 176 57
159 182 80
160 183 74
157 181 94
141 164 102
114 139 107
92 120 126
93 120 145
95 121 117
92 119 141
103 130 137
80 110 129
99 126 139
91 118 149
90 117 132
107 132 150
87 115 126
91 118 131
91 118 145
94 121 142
97 124 135
85 114 139
103 128 146
93 121 151
99 125 140
90 118 142
88 116 148
98 123 140
82 110 140
97 124 138
88 116 141
87 116 144
105 131 149
97 124 137
97 122 150
86 113 144
92 119 150
80 111 143
92 120 148
76 107 146
78 108 151
88 116 160
84 113 148
81 111 153
78 108 156
70 101 142
75 105 148
78 108 157
72 102 153
68 101 154
65 99 154
71 103 152
69 102 154
64 98 147
64 97 134
70 101 144
70 102 146
59 93 136
64 96 137
61 95 131
60 95 146
68 99 138
64 98 133
61 96 139
64 97 139
63 97 145
59 94 144
61 95 134
58 92 125
63 96 137
60 94 130
61 95 134
62 96 134
58 93 130
60 94 137
58 92 132
59 94 138
59 93 134
58 93 125
59 93 136
60 95 139
59 94 136
59 94 137
58 92 127
59 94 121
60 95 139
60 94 139
61 96 144
60 95 141
59 93 128
60 94 128
61 95 134
60 95 139
60 94 136
60 95 143
60 95 136
59 94 131
60 94 126
59 93 131
60 96 144
62 97 148
61 96 142
60 95 130
61 96 143
60 95 137
60 95 140
58 93 133
60 95 136
59 93 129
60 94 136
60 95 136
58 93 139
59 94 133
60 95 137
59 93 134
60 95 137
60 95 144
59 94 130
59 94 128
60 95 131
60 94 133
59 94 126
58 92 115
59 93 139
60 95 139
58 92 121
60 95 135
59 93 130
58 92 123
61 96 148
61 96 147
59 94 125
60 95 140
59 94 136
59 93 131
60 95 133
59 93 118
59 94 126
59 93 129
60 95 135
61 96 141
59 93 125
60 95 136
59 93 124
60 94 126
59 94 124
59 93 122
61 96 141
61 96 134
60 94 133
59 93 126
60 94 142
60 94 126
57 90 120
57 91 120
58 92 115
56 89 99
59 93 133
59 93 126
55 88 107
56 89 105
57 90 118
57 90 111
58 91 115
58 90 114
69 99 108
87 109 89
100 118 62
101 116 40
123 138 0
116 129 0
125 139 0
118 132 0
106 120 0
119 132 0
126 141 0
121 134 0
118 132 0
125 138 0
119 131 0
125 137 0
127 142 0
123 137 0
126 140 0
135 148 0
124 136 0
125 139 0
121 135 0
135 149 0
120 133 0
126 138 0
123 138 0
131 144 0
125 138 0
130 144 0
131 145 0
131 143 0
141 155 0
125 137 0
134 146 0
132 146 0
134 147 0
132 144 0
129 142 0
141 155 0
134 146 0
131 144 0
136 149 0
125 135 0
128 142 0
137 150 0
131 146 0
128 139 0
125 138 0
126 138 0
137 149 0
142 155 0
124 136 0
122 134 0
129 142 0
145 158 0
129 144 0
136 147 0
133 145 0
139 153 0
135 146 0
137 148 0
145 161 0
133 143 0
135 149 0
135 145 0
130 143 0
142 154 0
137 150 0
147 161 0
141 155 0
144 155 0
147 158 0
147 160 0
145 159 0
141 152 0
138 151 0
146 160 0
141 153 0
148 161 0
136 147 0
142 153 0
149 161 0
150 165 0
147 157 0
138 151 0
146 161 0
147 158 0
145 156 0
148 162 0
150 164 0
150 165 0
151 164 0
152 165 0
149 159 0
148 160 0
150 164 0
138 150 0
153 167 0
143 155 0
152 165 0
153 166 0
154 167 0
154 168 0
149 162 0
154 168 0
154 171 0
155 167 0
154 167 0
154 169 0
154 168 0
162 177 0
158 173 0
159 176 0
157 173 0
155 169 0
158 172 0
161 177 0
155 170 0
161 176 0
156 173 0
161 178 0
160 177 0
156 172 0
160 174 0
159 175 0
153 170 0
159 175 0
153 169 0
161 177 0
161 179 0
162 178 0
163 180 0
158 177 0
155 172 0
162 180 0
160 177 0
160 177 0
162 181 0
165 184 0
153 171 0
161 177 0
160 180 0
165 183 0
163 180 0
162 179 0
159 175 0
161 179 0
165 183 0
158 177 0
160 179 0
164 182 0
167 185 0
164 183 0
161 179 0
162 182 0
169 187 0
175 199 80
176 200 99
172 195 67
170 195 80
173 196 76
172 196 72
171 194 51
166 191 80
174 197 84
174 197 72
171 195 57
171 195 72
170 195 51
172 195 62
170 194 80
170 194 99
170 194 67
168 191 36
168 192 57
170 193 72
166 191 80
172 196 72
170 194 57
172 197 95
168 192 67
167 191 72
168 192 76
170 194 84
168 192 51
169 192 57
166 190 67
165 189 84
169 193 95
170 193 51
166 190 51
164 188 76
166 190 80
168 192 80
167 192 72
167 191 67
168 192 76
168 192 57
167 192 76
168 193 72
168 192 80
171 195 76
169 194 92
166 190 76
165 188 62
170 193 72
163 187 72
170 194 88
163 186 67
162 185 67
165 188 72
167 190 72
166 191 80
163 187 67
166 189 80
160 184 84
167 191 72
164 187 76
167 192 67
163 186 76
159 182 80
163 186 72
164 187 76
158 182 62
159 183 51
152 176 51
156 179 67
161 183 92
167 190 84
151 174 72
157 181 67
150 173 57
159 183 84
160 182 76
162 184 99
161 184 84
153 177 44
156 178 44
146 170 111
136 160 111
110 135 110
104 131 131
97 123 125
90 118 129
79 109 139
81 109 104
93 120 143
87 114 139
95 121 134
102 128 145
85 112 124
96 123 135
86 114 132
93 119 136
89 117 153
85 114 147
92 119 139
79 108 133
81 110 134
101 127 140
82 111 144
85 112 139
95 123 144
100 126 143
94 120 142
90 118 145
91 117 143
78 108 137
99 126 149
98 124 149
89 118 149
88 118 152
78 108 146
81 110 144
86 114 155
82 111 155
79 108 141
76 107 152
71 103 151
79 110 163
79 109 162
69 102 159
76 106 150
61 96 157
61 96 152
70 100 146
63 96 148
69 101 146
63 97 141
64 97 141
72 104 151
67 99 133
62 95 136
62 96 134
62 96 133
60 95 143
62 95 131
63 96 129
64 98 141
59 94 137
63 96 137
59 94 133
59 94 136
60 94 126
59 93 137
62 96 140
59 94 133
59 94 133
59 94 143
58 93 124
59 94 134
58 92 126
60 95 140
60 95 144
59 93 139
59 93 128
59 94 134
59 93 134
60 95 137
60 95 140
60 95 133
60 95 137
59 93 125
59 93 137
59 93 141
59 94 135
57 91 126
61 95 140
61 96 145
59 94 136
60 95 135
61 96 148
61 96 143
59 94 130
59 94 130
60 95 134
60 94 139
59 94 136
61 96 145
60 94 129
59 93 130
62 96 150
59 94 130
61 96 148
60 94 130
60 95 140
59 93 133
60 95 139
61 96 142
60 95 135
59 94 126
60 95 136
61 96 137
60 95 139
60 94 133
59 93 131
60 94 133
59 93 129
59 93 131
60 94 129
59 94 136
60 94 125
60 95 136
60 94 120
59 94 129
58 93 124
59 94 130
60 94 129
60 95 133
58 92 122
59 94 124
59 93 125
60 95 140
60 95 134
58 92 117
59 93 126
59 93 118
59 94 121
59 93 128
59 93 125
61 95 131
59 93 120
59 93 126
58 92 124
59 93 128
58 92 124
58 92 114
60 95 133
60 94 125
58 92 110
57 90 118
58 92 122
59 93 128
55 88 107
58 92 124
56 89 102
57 89 115
59 91 118
69 97 108
76 101 82
92 111 62
101 116 65
111 126 25
113 128 0
118 132 0
113 128 0
115 129 0
121 135 0
127 140 0
124 141 0
120 135 0
127 142 0
130 143 0
122 135 0
123 137 0
110 123 0
115 130 0
136 150 0
133 147 0
129 143 0
125 141 0
130 144 0
125 141 0
126 142 0
128 142 0
133 148 0
139 154 0
131 147 0
121 135 0
131 146 0
138 151 0
135 148 0
129 141 0
140 154 0
128 142 0
125 137 0
137 150 0
132 144 0
134 149 0
137 150 0
134 147 0
141 156 0
139 152 0
132 144 0
118 131 0
131 144 0
135 149 0
133 147 0
130 144 0
126 137 0
136 150 0
136 149 0
132 143 0
134 148 0
140 155 0
138 149 0
133 146 0
138 152 0
142 155 0
139 152 0
142 155 0
135 147 0
141 153 0
138 147 0
140 151 0
136 147 0
139 152 0
135 148 0
144 156 0
145 158 0
139 151 0
139 151 0
138 150 0
144 156 0
144 155 0
145 159 0
154 168 0
153 166 0
149 162 0
139 151 0
143 157 0
141 154 0
137 146 0
156 169 0
145 157 0
148 164 0
145 156 0
154 168 0
149 161 0
145 158 0
148 159 0
146 157 0
155 168 0
157 173 0
140 150 0
149 160 0
146 161 0
150 163 0
148 163 0
149 162 0
150 167 0
143 156 0
151 165 0
153 167 0
156 170 0
152 167 0
157 171 0
151 164 0
149 161 0
150 164 0
150 164 0
146 161 0
164 181 0
162 181 0
159 174 0
157 174 0
152 168 0
153 168 0
161 178 0
156 170 0
163 180 0
157 175 0
159 173 0
160 175 0
158 175 0
161 179 0
161 177 0
162 179 0
158 175 0
158 175 0
165 181 0
157 172 0
159 176 0
162 177 0
160 177 0
163 181 0
166 183 0
160 177 0
162 181 0
160 178 0
160 179 0
155 172 0
162 178 0
165 184 0
157 175 0
165 183 0
165 183 0
161 179 0
163 181 0
169 187 0
159 179 0
168 187 0
159 177 0
164 184 0
170 190 0
168 187 0
172 197 88
170 194 72
171 195 84
171 195 80
169 193 92
172 195 72
173 197 102
169 193 76
174 198 72
168 192 76
169 193 67
171 195 67
170 194 44
172 197 88
165 189 51
166 190 72
172 195 76
172 197 92
170 194 88
168 191 72
164 188 67
172 195 62
169 193 44
170 194 67
170 194 76
167 191 57
165 190 67
170 194 80
170 194 72
172 196 67
170 194 80
164 189 76
168 193 80
168 193 84
169 194 84
162 186 67
165 189 76
165 189 76
164 189 84
173 197 80
165 189 80
165 189 62
169 193 67
163 186 44
168 192 67
169 192 62
163 187 67
167 191 67
166 190 57
166 189 72
161 185 76
159 184 80
164 188 88
157 181 67
161 184 62
162 186 72
162 184 62
159 183 84
167 190 51
162 185 62
162 186 62
162 186 57
165 190 102
153 176 62
160 183 62
167 190 67
162 186 67
161 185 72
157 181 72
160 183 67
158 181 44
154 178 76
162 186 67
159 182 80
159 183 67
155 178 62
162 185 80
159 182 80
164 187 44
153 175 84
165 188 67
155 177 72
157 179 78
146 169 90
134 157 95
115 140 141
91 118 126
84 113 124
88 116 133
95 122 136
88 116 124
88 115 128
93 119 143
91 118 136
88 114 129
96 122 140
81 110 143
105 131 139
91 118 137
91 117 139
96 123 144
99 124 145
106 131 147
96 123 158
100 127 139
98 123 138
97 124 143
94 121 157
102 127 152
98 124 144
89 117 144
85 112 133
87 114 131
82 110 137
95 122 145
82 112 138
99 125 150
86 114 147
81 110 153
88 117 162
84 113 154
74 106 150
75 106 158
79 109 157
76 107 158
74 104 145
70 101 149
67 100 157
71 102 149
68 100 150
70 101 144
68 101 148
69 101 143
66 99 152
64 97 140
58 93 129
67 99 140
65 98 133
67 99 142
66 98 129
72 102 131
63 97 142
67 100 138
63 96 128
61 94 132
60 94 131
59 93 125
64 97 126
59 93 135
58 93 134
60 95 139
59 93 133
59 93 122
59 94 137
60 95 142
59 93 125
59 93 124
59 94 134
59 94 132
59 94 133
59 93 128
59 93 125
59 94 132
61 96 141
61 96 140
57 90 122
59 94 139
60 95 135
59 93 122
61 96 143
60 95 141
60 95 131
59 94 130
59 94 131
59 94 133
60 95 141
60 95 143
62 97 142
59 94 122
58 92 124
60 94 133
61 96 142
59 94 132
59 94 133
59 93 134
59 94 135
59 94 135
59 94 130
59 93 125
60 95 135
60 94 130
60 95 140
61 96 142
61 96 143
59 94 129
60 94 126
61 95 136
58 93 133
61 96 142
59 93 126
58 92 124
59 94 134
59 94 131
60 95 135
61 96 141
60 95 135
58 92 129
59 93 131
59 92 129
59 94 128
61 96 139
59 93 130
60 95 133
59 93 126
60 94 133
61 96 145
61 95 140
58 93 124
60 94 130
59 93 121
59 93 133
58 92 120
59 93 136
57 91 120
60 95 136
61 95 140
61 96 140
59 93 120
59 94 128
59 93 121
58 92 114
59 93 131
59 92 120
58 91 115
59 92 117
59 93 128
57 91 121
57 91 111
57 90 117
57 90 111
57 89 108
69 97 114
85 107 88
94 111 72
109 126 57
106 122 40
123 136 0
121 135 0
118 131 0
120 135 0
128 143 0
116 131 0
125 139 0
120 135 0
114 126 0
112 126 0
117 130 0
122 136 0
129 144 0
110 123 0
126 141 0
129 143 0
115 127 0
131 144 0
128 143 0
119 131 0
135 151 0
128 143 0
128 142 0
130 145 0
125 138 0
127 137 0
133 146 0
128 141 0
137 153 0
132 146 0
134 147 0
132 144 0
131 144 0
128 141 0
127 141 0
138 154 0
128 142 0
140 153 0
139 151 0
135 147 0
132 146 0
137 150 0
135 149 0
128 141 0
116 126 0
124 135 0
140 153 0
138 152 0
129 143 0
137 150 0
137 151 0
139 154 0
144 160 0
135 148 0
138 150 0
134 145 0
135 149 0
142 157 0
144 154 0
135 146 0
135 148 0
132 141 0
140 154 0
139 152 0
144 156 0
149 162 0
150 166 0
148 160 0
148 160 0
146 160 0
144 158 0
140 155 0
136 149 0
141 153 0
152 165 0
138 151 0
146 160 0
147 158 0
146 162 0
142 155 0
146 157 0
144 154 0
152 167 0
142 155 0
147 160 0
142 155 0
145 158 0
147 160 0
149 162 0
152 167 0
153 168 0
152 164 0
153 166 0
150 164 0
149 162 0
143 158 0
155 169 0
152 166 0
153 167 0
152 166 0
150 163 0
153 169 0
151 167 0
155 170 0
159 176 0
154 168 0
159 174 0
160 177 0
160 175 0
161 176 0
153 169 0
155 168 0
154 169 0
160 179 0
163 179 0
156 171 0
154 169 0
160 175 0
155 172 0
163 178 0
154 170 0
160 178 0
163 183 0
153 170 0
163 180 0
159 178 0
158 177 0
161 178 0
160 176 0
159 177 0
159 176 0
166 185 0
163 181 0
160 177 0
154 171 0
163 181 0
159 177 0
169 186 0
160 180 0
164 181 0
160 176 0
160 178 0
161 178 0
163 179 0
164 184 0
164 185 0
163 180 0
167 187 0
158 176 0
162 180 0
167 187 0
162 180 0
163 183 0
167 186 0
166 191 57
169 193 51
173 197 72
169 193 67
169 193 67
173 198 76
169 193 72
170 194 67
174 197 51
173 195 67
175 199 72
172 196 80
169 193 76
170 194 88
168 192 62
168 191 62
167 191 62
168 192 62
170 194 80
172 198 99
170 194 57
168 192 57
171 195 72
168 192 57
170 194 67
170 194 92
169 194 76
174 198 84
165 188 76
166 190 76
165 189 51
168 193 62
166 190 76
165 189 62
165 188 72
167 190 62
170 194 62
166 191 76
165 189 84
168 192 88
163 188 92
167 191 88
166 189 51
168 192 44
167 191 51
168 192 76
168 192 88
163 187 57
165 189 84
168 193 72
168 192 72
159 183 67
162 185 57
162 186 72
161 185 57
163 187 67
164 188 76
165 188 62
161 184 57
160 184 80
165 189 80
163 186 57
161 185 76
162 186 57
165 189 72
164 188 76
164 188 72
156 179 67
162 187 99
161 185 88
163 186 67
155 178 76
154 177 88
164 187 72
162 184 57
162 184 57
155 179 67
153 176 51
162 185 67
155 178 72
151 174 67
149 172 65
146 169 54
146 169 72
127 150 99
116 140 110
102 128 131
96 123 135
83 112 133
81 110 130
91 118 134
77 106 123
89 116 133
97 123 143
91 117 124
91 117 136
84 111 131
83 111 133
92 119 141
95 121 136
99 125 146
97 124 145
93 119 149
78 107 129
92 118 147
91 118 143
102 127 141
97 124 144
89 116 144
85 113 135
95 122 142
97 123 141
103 129 147
81 110 134
96 122 146
93 120 159
95 122 158
94 121 150
86 113 142
89 117 162
83 112 157
82 112 159
84 113 151
88 117 158
73 105 156
66 100 155
65 98 149
79 107 149
73 103 152
80 107 151
76 104 143
65 98 149
65 98 145
75 104 135
63 97 147
69 100 137
63 96 140
64 96 130
65 97 127
68 100 136
58 93 123
58 92 123
60 94 128
60 94 136
58 92 122
60 94 121
58 92 128
60 95 141
59 93 125
65 98 137
59 93 138
58 92 136
59 94 143
60 94 133
59 93 135
58 92 118
59 94 139
59 93 131
59 94 129
60 95 135
59 94 129
60 95 144
60 95 140
60 95 139
59 93 131
60 94 141
58 92 129
60 94 135
59 94 128
60 95 142
59 94 140
59 93 124
59 93 133
60 95 133
61 96 143
59 94 135
60 95 142
59 94 126
59 94 124
59 93 122
60 94 134
59 94 130
60 95 137
59 93 134
60 95 139
58 93 126
59 94 133
60 95 139
60 95 128
60 95 143
60 95 136
61 96 148
60 94 128
60 94 137
60 95 134
60 95 136
60 94 134
59 93 129
60 94 124
60 95 136
58 92 117
60 94 134
58 93 131
61 96 141
60 94 129
58 92 125
59 94 128
60 94 131
58 92 125
58 92 115
59 93 133
59 94 125
59 93 121
59 94 129
60 94 133
60 94 134
59 93 125
60 94 130
60 94 130
59 93 129
60 94 124
58 91 118
59 93 126
59 93 120
59 92 124
57 91 117
58 93 108
60 94 125
58 91 121
59 93 120
60 94 129
59 93 120
57 89 107
57 90 113
57 90 108
59 93 117
58 92 121
58 90 114
58 91 118
57 90 114
58 90 114
71 96 97
90 112 96
101 118 51
114 129 25
115 129 18
119 134 0
118 133 0
109 122 0
118 133 0
117 130 0
123 138 0
118 129 0
122 137 0
120 132 0
129 144 0
115 129 0
124 140 0
116 129 0
126 139 0
121 130 0
120 130 0
118 132 0
128 142 0
125 139 0
126 140 0
135 150 0
133 146 0
133 148 0
121 135 0
127 140 0
128 144 0
125 140 0
120 131 0
119 133 0
132 146 0
128 142 0
135 150 0
134 148 0
136 150 0
134 148 0
129 144 0
124 136 0
134 145 0
135 151 0
135 148 0
140 152 0
133 147 0
130 141 0
134 149 0
136 151 0
133 147 0
136 148 0
143 158 0
130 143 0
143 156 0
133 147 0
130 143 0
136 148 0
144 160 0
136 150 0
146 160 0
141 156 0
142 154 0
142 154 0
125 138 0
140 152 0
146 161 0
141 154 0
139 151 0
141 153 0
148 163 0
140 154 0
147 159 0
147 161 0
142 154 0
144 159 0
141 154 0
146 157 0
143 156 0
147 160 0
143 155 0
152 165 0
144 159 0
144 158 0
145 159 0
146 161 0
146 159 0
144 158 0
152 166 0
151 164 0
155 171 0
151 164 0
148 161 0
147 161 0
142 153 0
150 162 0
153 167 0
150 164 0
148 164 0
149 165 0
149 164 0
154 170 0
151 164 0
157 171 0
153 168 0
155 171 0
157 175 0
148 162 0
147 163 0
154 169 0
158 175 0
156 171 0
155 171 0
155 168 0
155 170 0
157 174 0
160 175 0
152 167 0
157 173 0
150 164 0
163 182 0
160 177 0
157 172 0
161 177 0
155 172 0
162 178 0
160 177 0
156 175 0
159 174 0
161 175 0
162 179 0
163 178 0
152 167 0
165 183 0
164 183 0
160 178 0
159 175 0
160 177 0
160 177 0
161 179 0
162 179 0
166 186 0
164 183 0
164 181 0
161 178 0
166 185 0
162 180 0
163 181 0
160 178 0
159 179 0
164 183 0
160 177 0
163 182 0
163 180 0
161 180 0
164 183 0
162 179 0
161 179 0
163 181 0
171 194 72
173 197 72
173 196 57
171 195 76
168 190 44
174 198 95
168 192 67
171 195 72
172 196 80
170 195 67
168 191 67
171 195 72
169 193 88
171 195 80
169 192 67
172 196 88
168 192 67
172 197 88
170 193 76
170 195 80
171 196 80
168 193 92
169 193 72
168 191 44
170 194 57
165 190 99
171 195 76
168 192 84
168 191 80
167 190 80
171 196 88
171 195 80
163 187 62
168 192 76
170 195 76
166 190 72
163 188 72
165 188 67
171 196 76
162 186 62
172 196 72
170 193 72
166 191 76
169 193 76
162 186 76
163 187 72
164 187 51
164 188 72
169 192 62
167 191 92
166 190 72
161 185 80
158 182 67
164 188 62
158 181 72
161 185 67
164 187 57
166 189 76
160 184 72
163 186 72
156 180 72
166 191 95
164 188 88
163 186 84
167 189 67
165 188 84
156 179 57
160 183 67
162 187 76
160 184 80
162 185 80
158 181 67
164 188 108
150 174 80
160 183 62
161 184 80
162 186 76
154 178 67
157 180 62
157 179 72
159 181 57
157 180 72
159 181 86
145 167 47
147 170 74
135 157 107
105 130 105
82 110 115
92 119 128
97 123 134
90 116 133
90 117 126
87 115 136
99 125 129
87 114 128
87 115 128
96 123 145
106 130 141
75 105 121
99 125 138
88 115 125
81 109 124
97 123 139
96 123 134
97 122 141
95 120 133
99 125 135
97 123 147
93 119 134
98 124 145
102 128 144
100 125 134
92 119 150
92 120 134
106 131 146
95 122 139
84 113 141
97 124 153
90 116 154
85 115 149
87 115 147
90 117 145
76 107 147
73 103 142
79 107 139
72 104 144
67 99 145
71 103 151
74 104 148
66 98 139
66 99 150
74 102 136
72 102 144
67 98 143
68 98 137
63 96 135
62 95 144
64 98 135
70 101 138
59 91 121
65 97 131
59 94 135
64 97 128
62 95 125
63 95 123
61 94 121
60 94 133
57 91 115
61 94 130
62 95 131
59 93 118
57 91 125
59 93 123
57 91 113
59 92 124
60 94 133
59 93 129
59 93 134
57 91 124
58 92 126
61 96 141
59 93 136
58 93 118
58 92 115
60 95 134
60 94 139
61 96 137
60 95 135
60 95 135
60 95 134
60 95 137
59 93 134
59 93 135
59 93 121
59 93 126
60 95 140
60 95 134
61 96 147
59 94 131
58 92 124
60 94 128
59 93 130
59 93 128
59 93 131
59 94 135
58 93 115
59 94 134
61 96 142
59 93 133
57 91 120
58 92 125
59 94 129
59 93 125
60 94 126
59 93 137
60 95 131
60 95 134
59 93 122
59 93 129
59 94 135
60 94 129
59 93 129
60 95 130
60 95 137
59 93 129
59 93 131
58 92 129
60 95 131
58 92 122
59 93 120
58 92 121
60 95 131
59 93 128
59 93 124
60 95 128
58 91 125
58 92 115
58 92 120
58 92 121
59 93 128
61 95 137
59 94 126
58 92 118
60 94 135
59 93 126
60 94 131
59 93 118
58 92 125
58 92 113
58 91 111
57 91 108
57 91 121
58 92 118
56 89 111
58 91 108
57 89 115
57 90 111
57 90 115
56 88 103
55 86 102
65 92 90
104 124 76
100 117 60
115 129 0
121 135 0
115 130 0
110 123 0
121 135 0
111 123 0
117 132 0
118 134 0
121 135 0
139 155 0
116 128 0
123 134 0
135 152 0
135 151 0
110 125 0
138 154 0
118 131 0
133 148 0
131 145 0
126 141 0
133 149 0
123 137 0
121 135 0
120 134 0
126 137 0
133 148 0
128 142 0
136 150 0
136 152 0
126 140 0
141 153 0
134 147 0
126 138 0
129 141 0
133 147 0
131 144 0
130 144 0
138 150 0
137 152 0
135 147 0
132 146 0
137 151 0
138 152 0
138 152 0
138 153 0
135 150 0
145 159 0
143 159 0
143 158 0
146 163 0
132 145 0
142 153 0
148 162 0
135 149 0
132 145 0
148 163 0
137 150 0
130 143 0
139 150 0
134 143 0
138 151 0
141 154 0
134 147 0
147 164 0
143 157 0
144 157 0
140 153 0
141 153 0
144 156 0
150 163 0
142 156 0
139 152 0
150 165 0
149 164 0
148 163 0
147 160 0
150 164 0
146 160 0
145 158 0
152 166 0
148 161 0
150 164 0
143 157 0
139 153 0
144 159 0
149 163 0
144 158 0
146 162 0
145 159 0
145 156 0
150 166 0
155 169 0
146 161 0
159 175 0
151 165 0
157 172 0
154 167 0
152 165 0
152 165 0
149 163 0
155 170 0
156 173 0
149 164 0
158 174 0
158 172 0
152 165 0
156 171 0
144 156 0
154 172 0
159 176 0
155 170 0
155 168 0
157 172 0
153 167 0
158 175 0
158 173 0
153 169 0
165 183 0
154 169 0
161 178 0
160 174 0
160 178 0
162 178 0
165 181 0
165 182 0
158 175 0
164 182 0
162 181 0
155 171 0
161 178 0
154 169 0
160 178 0
165 183 0
162 179 0
166 185 0
165 184 0
155 172 0
162 178 0
159 178 0
165 184 0
157 174 0
164 184 0
164 181 0
164 183 0
161 179 0
165 184 0
159 178 0
164 183 0
161 180 0
164 184 0
165 186 0
164 182 0
165 183 0
164 183 0
162 180 0
169 190 0
164 183 0
173 197 88
172 197 84
176 199 80
171 195 88
171 194 67
169 193 76
175 199 62
172 196 67
172 195 67
168 191 57
174 198 67
167 191 62
172 195 76
168 193 57
171 195 57
168 193 76
170 195 102
171 195 57
167 192 80
169 194 92
168 193 57
170 194 67
171 194 72
169 193 72
172 196 72
168 193 95
171 195 95
170 194 62
170 193 57
164 188 57
167 190 62
167 191 57
163 187 72
171 195 80
166 189 67
168 192 76
167 192 76
168 192 76
163 188 76
166 190 51
168 192 76
171 196 92
167 190 57
163 187 51
161 186 51
169 193 67
169 194 72
165 188 62
166 190 51
168 193 95
165 190 72
166 191 67
166 190 67
169 193 72
164 189 92
162 186 51
167 193 80
163 186 84
162 186 51
164 188 76
166 191 80
159 182 62
163 186 88
160 183 62
161 183 72
166 191 95
157 180 72
157 181 76
161 184 88
161 185 80
157 180 80
154 176 80
155 178 51
162 186 84
151 174 44
160 183 76
160 183 84
157 180 80
162 185 84
165 188 67
152 174 57
157 180 51
155 178 76
161 183 84
148 170 82
154 176 99
125 149 88
105 129 115
88 116 117
87 113 112
85 113 129
86 114 130
91 117 128
93 119 125
95 121 141
90 117 139
81 109 127
86 114 137
100 126 121
95 121 137
99 125 152
88 116 140
102 128 150
100 125 143
84 111 129
87 113 118
99 123 137
94 120 136
103 129 146
82 112 149
94 120 137
98 124 133
86 114 145
102 127 135
95 121 156
93 120 151
101 127 153
97 123 139
88 115 155
104 128 146
86 114 153
86 114 155
67 100 144
83 110 145
75 104 144
84 110 153
71 103 143
68 101 144
74 104 149
76 104 148
76 106 156
71 102 144
74 104 145
63 96 136
64 98 145
67 99 133
68 101 146
58 93 131
70 100 132
74 105 139
58 91 131
63 96 128
60 92 123
65 97 124
58 92 120
59 91 121
62 96 143
62 96 137
58 91 122
56 89 120
59 92 129
57 91 124
59 93 126
57 90 118
60 94 130
61 96 144
60 95 136
59 93 134
58 92 120
59 94 130
59 94 135
58 92 126
57 91 116
60 94 130
60 94 126
60 94 134
59 93 139
58 92 125
60 94 131
59 93 136
59 93 128
58 92 122
59 93 129
59 93 126
59 94 126
58 92 129
58 92 124
59 94 130
60 95 133
59 94 134
60 94 133
60 94 131
60 95 136
59 93 125
60 94 131
57 91 120
59 94 122
59 93 129
60 94 134
59 93 122
59 93 122
58 93 128
59 94 128
59 93 126
60 95 133
59 93 128
59 94 130
60 94 125
58 92 124
58 92 129
59 94 124
58 92 125
60 95 131
58 92 121
60 94 134
60 95 131
60 94 135
60 94 129
60 94 129
59 92 118
59 93 125
59 94 128
59 93 135
59 94 135
60 95 133
59 94 125
58 91 128
59 93 129
59 93 125
60 94 118
59 93 120
58 92 120
58 92 118
58 92 126
58 92 121
58 91 118
57 91 95
60 95 126
59 92 120
57 90 114
57 90 111
59 93 133
56 90 107
58 91 115
59 93 125
57 90 114
57 90 107
57 90 113
68 97 113
80 103 89
79 101 86
95 112 78
110 127 36
114 131 31
126 140 0
123 138 0
123 137 0
121 136 0
127 142 0
114 130 0
115 129 0
120 135 0
121 137 0
117 132 0
123 138 0
125 139 0
131 144 0
133 148 0
128 144 0
127 142 0
133 149 0
127 143 0
124 137 0
140 156 0
120 134 0
132 147 0
132 147 0
116 132 0
128 143 0
132 147 0
123 138 0
122 135 0
135 150 0
122 136 0
122 136 0
133 148 0
137 150 0
125 139 0
138 151 0
135 151 0
132 145 0
126 142 0
137 151 0
136 150 0
133 148 0
138 153 0
145 161 0
138 153 0
135 149 0
146 158 0
137 151 0
129 142 0
147 161 0
136 151 0
138 154 0
133 147 0
135 147 0
138 153 0
128 139 0
147 160 0
146 163 0
139 154 0
138 152 0
134 150 0
142 157 0
139 151 0
146 163 0
145 157 0
137 151 0
145 157 0
150 163 0
146 160 0
145 159 0
140 153 0
143 158 0
142 158 0
143 156 0
144 158 0
143 157 0
150 166 0
142 154 0
141 155 0
150 168 0
152 167 0
141 154 0
143 156 0
147 162 0
155 172 0
150 163 0
148 163 0
150 165 0
149 161 0
150 164 0
151 165 0
155 168 0
157 169 0
154 168 0
152 165 0
152 166 0
153 168 0
158 175 0
152 164 0
153 169 0
153 167 0
153 169 0
154 169 0
154 168 0
150 164 0
156 173 0
148 163 0
149 166 0
161 180 0
152 167 0
158 175 0
159 172 0
159 177 0
151 167 0
154 169 0
153 171 0
159 174 0
153 171 0
158 173 0
152 169 0
153 169 0
152 168 0
164 182 0
157 175 0
158 175 0
161 177 0
162 180 0
161 178 0
156 172 0
165 181 0
165 182 0
159 177 0
155 173 0
161 179 0
163 181 0
163 181 0
157 174 0
163 180 0
167 184 0
162 180 0
158 176 0
163 182 0
163 183 0
163 181 0
165 183 0
166 185 0
165 181 0
165 181 0
164 183 0
168 188 0
165 184 0
170 189 0
162 182 0
163 181 0
170 190 0
167 188 0
169 188 0
170 193 62
172 196 67
170 195 88
173 197 72
172 196 76
170 195 92
173 197 67
174 198 99
171 196 76
171 195 72
171 195 67
173 196 88
170 193 72
168 192 72
173 198 84
169 193 76
171 195 72
170 195 80
169 194 84
172 197 80
170 194 72
168 192 76
164 188 62
170 194 80
168 191 67
169 194 67
170 194 72
168 192 62
164 188 62
167 191 67
167 191 57
167 191 67
170 194 67
168 193 80
162 186 44
166 190 80
169 193 84
166 191 92
162 187 76
165 189 62
168 192 72
166 189 62
169 193 80
165 189 67
167 191 67
164 188 62
160 184 67
167 192 92
162 187 72
161 186 72
170 194 72
162 186 72
168 191 72
168 191 67
162 185 62
165 189 67
164 187 88
167 191 76
165 189 62
167 190 57
166 191 88
157 180 54
162 185 67
161 185 44
157 180 57
164 187 44
162 185 84
158 181 72
158 181 62
162 185 51
158 180 62
161 185 92
158 182 67
159 182 76
158 181 76
159 182 57
159 182 44
158 181 67
149 171 82
155 178 62
144 165 67
160 182 67
151 174 76
157 179 88
146 168 65
148 170 90
136 161 97
126 149 100
98 125 122
84 111 120
107 133 137
97 123 133
88 116 134
90 117 131
87 114 119
95 121 133
93 119 125
86 114 131
85 113 128
95 122 132
85 112 136
84 113 137
90 117 133
85 112 126
97 122 143
97 122 130
89 116 140
96 122 145
95 121 135
87 113 131
97 123 138
90 118 147
102 127 139
99 125 140
84 111 130
99 125 139
89 116 143
89 117 145
90 117 145
89 117 155
85 113 144
84 111 148
77 107 140
82 112 162
83 111 153
65 99 149
70 99 136
79 108 150
78 108 156
81 109 146
81 107 149
70 100 141
70 100 140
71 100 138
61 96 148
66 98 141
64 96 129
63 95 134
74 102 124
62 96 133
63 95 123
59 92 125
63 95 122
61 93 120
59 94 136
64 97 136
62 96 129
62 96 126
60 94 136
62 95 118
63 96 133
60 94 124
59 93 127
63 97 124
59 94 125
58 92 118
60 94 136
57 91 118
60 95 133
59 94 138
58 91 114
59 93 122
58 92 118
60 95 134
58 91 120
58 92 124
59 93 128
61 96 141
60 95 143
58 93 123
58 92 125
60 95 126
59 94 132
58 93 126
59 93 128
60 95 129
60 95 134
60 94 136
59 94 139
59 94 135
60 94 141
60 94 135
58 92 133
59 94 124
58 92 125
58 92 124
58 92 128
60 94 136
58 93 129
60 94 128
58 93 130
59 93 130
59 92 120
59 93 129
59 94 133
58 92 122
60 94 136
60 94 131
60 95 131
60 95 131
60 95 135
58 92 113
60 94 128
59 93 115
60 94 135
59 93 125
58 92 120
60 93 136
58 92 124
58 92 117
58 92 125
59 93 131
60 95 130
58 93 126
60 94 129
59 93 126
57 91 118
58 92 121
60 94 129
59 93 121
57 91 113
59 92 124
60 94 128
60 95 133
57 91 120
57 91 110
57 91 111
58 91 114
56 90 108
58 91 118
58 91 114
58 91 111
58 91 115
56 89 105
58 92 111
57 90 108
57 89 115
58 90 108
77 101 100
85 106 80
85 104 68
99 116 57
109 125 18
111 127 0
102 115 0
116 129 0
124 138 0
119 134 0
125 138 0
122 136 0
122 136 0
123 137 0
120 136 0
130 145 0
129 144 0
125 139 0
133 149 0
114 129 0
118 132 0
119 135 0
125 138 0
136 151 0
113 128 0
126 143 0
128 143 0
130 147 0
127 140 0
127 142 0
129 143 0
118 135 0
137 153 0
128 143 0
120 133 0
125 141 0
131 148 0
133 149 0
140 156 0
141 156 0
136 151 0
144 160 0
128 143 0
140 156 0
144 156 0
140 155 0
140 154 0
125 138 0
140 155 0
134 148 0
135 150 0
141 155 0
138 153 0
139 153 0
126 139 0
132 148 0
140 153 0
133 147 0
138 154 0
135 147 0
140 156 0
137 149 0
155 171 0
131 145 0
134 149 0
138 154 0
144 157 0
143 155 0
148 162 0
146 161 0
142 156 0
145 157 0
141 157 0
152 169 0
134 147 0
147 162 0
139 152 0
147 163 0
150 164 0
145 158 0
136 148 0
148 161 0
144 159 0
153 167 0
140 152 0
150 167 0
145 160 0
149 163 0
148 161 0
147 161 0
149 162 0
153 167 0
150 165 0
149 165 0
148 160 0
147 164 0
152 167 0
152 166 0
153 168 0
149 164 0
155 169 0
155 169 0
146 161 0
157 173 0
150 164 0
151 166 0
148 161 0
156 173 0
160 177 0
148 162 0
152 166 0
153 169 0
153 170 0
159 177 0
156 171 0
153 168 0
152 169 0
155 172 0
157 174 0
158 176 0
156 172 0
163 179 0
158 176 0
160 178 0
159 176 0
161 178 0
156 173 0
159 175 0
161 178 0
161 178 0
163 181 0
158 176 0
158 176 0
156 174 0
159 176 0
164 183 0
163 182 0
163 179 0
160 179 0
159 176 0
162 181 0
160 178 0
160 179 0
165 184 0
157 173 0
155 173 0
160 177 0
164 182 0
162 181 0
162 182 0
163 182 0
167 185 0
163 181 0
166 185 0
165 186 0
164 182 0
166 183 0
164 181 0
164 182 0
159 180 0
168 188 0
167 187 0
172 196 92
170 194 67
173 196 57
168 192 44
171 195 80
172 196 88
167 191 44
172 196 88
168 192 44
170 194 76
171 196 80
171 194 62
166 191 51
170 194 62
171 195 72
169 193 62
169 193 72
169 193 72
167 192 88
170 194 84
169 193 72
169 192 57
170 195 72
166 190 72
168 193 80
168 192 72
170 194 84
164 188 67
170 193 44
163 188 62
166 190 67
168 192 36
169 193 67
166 191 72
165 189 80
164 189 72
167 191 72
168 192 76
167 192 72
164 188 72
166 191 72
171 196 92
165 189 67
162 187 99
168 190 44
165 189 76
156 180 76
170 195 92
168 193 67
163 187 44
164 188 57
163 187 76
165 189 72
167 190 57
163 186 72
162 186 25
166 189 72
162 186 67
157 181 57
161 186 76
163 186 62
164 188 62
162 185 67
165 188 76
162 186 114
161 184 84
163 186 72
166 189 80
156 180 84
158 181 44
161 185 72
150 173 57
162 186 76
160 185 72
161 184 67
160 183 57
157 181 62
159 183 76
159 182 84
165 188 67
160 183 76
151 174 76
156 178 51
152 175 84
144 166 44
149 171 62
142 164 57
131 154 88
107 131 107
93 119 113
88 114 108
87 115 124
81 109 126
97 123 128
97 123 120
103 130 137
76 104 124
88 115 124
85 112 136
86 114 131
89 116 133
90 117 137
101 127 135
100 125 140
98 124 130
87 114 125
90 117 136
89 116 140
98 124 137
94 120 130
88 115 129
93 119 134
102 127 148
104 130 150
96 123 145
94 121 139
82 111 148
84 113 145
88 115 140
91 116 142
97 122 142
95 122 147
85 112 152
85 113 151
79 109 156
72 103 143
69 102 145
79 108 151
66 99 151
72 102 140
73 104 133
63 96 143
70 101 139
67 97 137
65 99 150
69 102 147
67 99 134
61 96 147
62 95 134
70 100 134
76 104 124
62 94 126
67 99 126
70 101 131
59 92 125
63 95 126
62 95 123
62 95 127
58 92 123
59 93 131
66 98 133
58 92 121
57 91 120
59 93 136
57 91 124
59 93 126
59 93 122
58 92 130
59 93 130
59 93 126
59 93 118
59 93 128
59 92 128
57 92 126
58 92 118
58 93 126
59 94 134
57 91 128
59 94 135
60 94 126
59 94 131
59 93 122
59 93 131
59 93 133
58 92 129
60 94 130
59 94 128
60 95 137
59 93 125
58 92 129
60 94 129
60 95 133
59 93 129
59 94 131
59 93 128
59 94 130
61 95 134
59 93 122
59 93 128
59 94 135
60 95 138
58 93 124
57 91 115
59 94 129
59 94 126
59 94 124
58 92 126
60 94 135
58 92 128
59 92 126
59 93 128
58 91 114
60 95 135
58 92 121
58 91 118
58 92 115
60 95 139
59 93 131
60 94 125
59 94 118
58 91 115
59 93 126
57 90 111
58 92 118
58 92 113
58 91 122
60 94 130
58 91 122
60 95 133
58 91 111
59 93 128
58 91 118
58 92 120
58 92 118
58 92 124
59 92 126
58 92 113
58 91 121
57 91 120
57 90 107
59 92 117
57 90 111
58 91 114
58 91 113
55 88 110
55 87 107
58 90 116
81 108 97
78 101 76
96 111 60
111 126 36
128 145 25
109 124 0
114 128 0
114 129 0
105 118 0
127 143 0
116 130 0
117 132 0
114 127 0
120 135 0
118 134 0
125 140 0
118 133 0
119 134 0
119 134 0
130 145 0
119 135 0
128 143 0
127 141 0
119 132 0
125 139 0
130 145 0
116 131 0
130 145 0
122 135 0
124 139 0
130 142 0
135 151 0
133 148 0
125 139 0
141 156 0
136 152 0
130 147 0
133 148 0
123 140 0
135 149 0
122 136 0
127 139 0
140 154 0
129 145 0
134 148 0
137 152 0
142 155 0
139 156 0
124 139 0
137 152 0
140 154 0
138 152 0
141 157 0
140 157 0
138 154 0
138 153 0
139 153 0
143 159 0
140 152 0
140 156 0
144 159 0
145 160 0
138 155 0
137 153 0
150 167 0
140 158 0
142 156 0
139 154 0
133 148 0
143 158 0
134 148 0
146 156 0
147 160 0
147 160 0
147 162 0
147 159 0
148 162 0
142 154 0
152 165 0
154 168 0
146 162 0
145 160 0
141 153 0
148 163 0
153 168 0
147 161 0
145 160 0
150 165 0
154 170 0
146 160 0
147 162 0
152 167 0
150 166 0
148 162 0
155 169 0
151 164 0
146 162 0
147 160 0
151 165 0
161 178 0
158 174 0
152 168 0
154 170 0
150 166 0
149 166 0
158 175 0
149 162 0
159 175 0
160 178 0
149 165 0
155 171 0
156 172 0
152 164 0
160 175 0
157 173 0
154 166 0
154 168 0
155 173 0
155 173 0
162 177 0
157 175 0
155 171 0
157 175 0
157 173 0
161 177 0
165 184 0
160 178 0
156 173 0
152 168 0
158 174 0
158 174 0
159 179 0
158 174 0
167 185 0
154 169 0
166 185 0
161 180 0
159 180 0
161 178 0
166 185 0
163 181 0
162 180 0
163 181 0
158 176 0
164 180 0
162 179 0
162 181 0
161 178 0
164 182 0
164 180 0
163 182 0
160 178 0
165 185 0
166 184 0
167 186 0
159 179 0
167 187 0
164 184 0
161 178 0
163 181 0
163 181 0
164 184 0
162 181 0
174 198 84
170 195 80
174 197 67
168 192 67
169 192 57
168 191 67
167 191 76
172 196 57
173 197 88
166 190 72
168 192 57
170 194 51
171 194 57
172 196 92
169 194 57
170 194 62
168 192 51
170 193 67
168 191 57
168 192 84
166 190 84
170 194 67
168 192 76
171 196 84
165 190 72
167 191 67
163 186 57
170 194 62
165 189 62
168 193 80
162 185 51
167 191 57
167 191 62
167 192 76
169 192 51
166 190 80
166 189 51
169 194 88
171 196 84
167 191 72
171 195 67
164 187 51
167 191 80
162 186 57
168 193 92
168 192 72
165 189 67
156 180 62
167 191 84
165 188 62
167 190 84
162 187 80
165 189 95
168 192 80
162 187 76
163 186 80
156 181 76
163 187 76
164 188 72
162 185 62
162 186 76
163 187 72
162 186 76
164 188 80
161 184 105
159 183 80
160 184 80
153 177 76
164 188 88
161 185 88
157 180 88
162 186 76
161 185 72
155 178 57
162 185 80
155 178 44
154 177 62
154 178 67
155 178 74
151 172 70
155 178 76
147 170 57
147 169 65
145 167 62
154 177 84
158 182 84
151 173 62
136 159 94
141 164 100
102 127 97
99 125 132
92 118 129
87 114 127
82 110 118
89 116 125
85 113 134
83 111 117
94 120 124
94 119 133
90 118 140
105 130 150
91 119 131
94 120 114
93 119 134
97 122 137
94 120 140
80 107 131
96 122 146
82 110 131
94 120 131
91 118 135
97 122 128
84 113 140
92 118 147
94 121 132
89 116 131
87 115 139
84 113 140
83 112 142
82 111 143
91 117 150
76 106 140
78 107 135
78 107 139
67 100 141
79 108 152
80 109 150
80 108 150
77 105 148
65 98 140
73 103 149
71 102 148
77 106 149
74 104 148
69 100 144
73 102 142
71 101 141
69 100 134
65 98 138
70 101 128
63 95 127
70 99 120
67 100 131
63 97 135
68 100 133
66 98 124
68 100 126
68 100 120
59 93 136
58 92 129
59 93 124
61 95 128
61 94 122
58 93 129
60 93 115
59 94 136
58 92 121
57 91 121
59 93 121
60 94 128
59 94 133
57 91 118
59 94 137
59 93 134
58 91 122
57 91 125
58 92 122
59 93 135
59 93 130
58 92 120
59 93 136
59 93 125
60 94 128
59 93 125
58 92 124
58 92 117
58 93 122
59 94 134
59 93 124
58 93 120
59 94 126
58 93 120
58 91 128
59 94 130
60 95 134
59 94 125
59 93 126
59 93 124
59 93 122
58 92 120
59 93 120
57 91 115
59 93 122
58 92 129
60 95 136
60 95 125
60 94 135
59 93 122
59 92 133
58 93 121
59 93 129
58 92 124
59 93 122
58 92 126
59 93 129
59 92 126
58 92 126
60 94 130
58 91 125
60 94 131
59 94 133
59 93 131
59 93 130
58 92 121
56 90 117
58 92 128
58 92 122
58 92 120
57 90 108
59 93 124
59 94 122
58 92 110
58 91 120
60 94 131
58 92 122
58 92 124
57 90 118
59 93 118
57 89 107
56 89 110
57 91 107
57 90 117
56 89 108
57 89 108
56 88 100
60 92 102
72 98 80
91 114 82
99 118 70
97 112 51
102 117 18
121 136 0
102 116 0
109 124 0
113 127 0
106 121 0
114 129 0
112 128 0
117 134 0
120 134 0
114 129 0
120 136 0
125 141 0
123 138 0
116 130 0
127 141 0
125 140 0
128 143 0
127 142 0
125 141 0
131 147 0
121 136 0
134 151 0
127 143 0
133 149 0
126 143 0
139 155 0
132 149 0
138 156 0
133 149 0
134 148 0
130 145 0
138 154 0
138 154 0
138 154 0
143 159 0
132 146 0
137 151 0
130 145 0
138 155 0
141 155 0
130 144 0
134 148 0
128 143 0
122 137 0
137 150 0
142 159 0
137 153 0
146 160 0
134 149 0
149 164 0
139 155 0
139 154 0
137 152 0
143 158 0
138 152 0
138 152 0
131 146 0
144 160 0
136 151 0
146 161 0
128 144 0
139 154 0
143 155 0
139 153 0
147 162 0
144 160 0
139 152 0
140 155 0
141 157 0
143 158 0
138 153 0
139 152 0
145 162 0
146 159 0
144 161 0
147 161 0
152 167 0
154 170 0
148 163 0
145 158 0
141 156 0
144 159 0
151 168 0
146 159 0
149 165 0
147 162 0
149 164 0
146 160 0
144 161 0
151 168 0
149 163 0
138 153 0
150 168 0
153 170 0
150 163 0
149 163 0
152 167 0
157 173 0
151 165 0
147 160 0
153 171 0
151 165 0
160 176 0
156 171 0
147 162 0
150 165 0
155 169 0
156 174 0
153 169 0
156 173 0
161 180 0
156 173 0
162 179 0
161 179 0
153 170 0
156 174 0
161 178 0
160 176 0
160 178 0
161 178 0
160 178 0
158 172 0
157 173 0
156 175 0
162 179 0
165 184 0
154 172 0
156 171 0
157 174 0
158 177 0
162 181 0
161 178 0
160 177 0
163 182 0
164 182 0
162 181 0
164 183 0
163 181 0
165 182 0
167 185 0
165 184 0
166 183 0
169 187 0
165 185 0
164 181 0
160 180 0
162 181 0
166 185 0
160 179 0
162 179 0
164 182 0
162 180 0
165 184 0
167 185 0
168 187 0
164 184 0
165 183 0
164 183 0
167 186 0
173 196 62
173 196 76
170 194 84
173 196 76
170 195 57
171 195 51
169 194 88
171 196 67
173 197 80
170 193 36
170 195 76
169 194 62
169 193 67
170 195 102
167 192 76
170 193 67
169 193 67
169 193 76
171 195 62
172 196 80
169 193 72
170 194 84
168 192 72
168 193 62
167 191 88
166 190 62
168 194 92
172 197 95
169 193 84
169 193 57
169 193 76
169 193 72
168 191 57
170 194 88
164 188 57
164 188 62
166 190 67
167 192 84
161 185 76
168 193 76
166 190 76
165 189 84
167 191 62
169 194 88
162 187 67
165 190 80
173 197 88
169 194 92
169 194 62
167 191 88
166 191 67
168 191 72
160 183 67
160 184 51
165 187 51
162 186 67
165 189 76
166 190 88
166 190 88
162 184 51
160 184 72
164 187 67
160 184 76
158 182 76
164 187 84
166 190 84
155 179 72
158 182 57
164 188 76
159 182 62
159 182 62
155 179 62
150 173 62
156 179 62
155 178 62
161 185 76
157 181 57
158 181 80
156 179 80
153 176 67
148 170 80
150 173 88
146 168 72
153 177 92
153 175 80
148 171 80
145 166 67
148 169 70
142 163 86
122 145 74
100 126 115
98 123 131
99 125 120
93 119 120
82 108 103
97 123 119
89 116 123
82 111 131
82 109 118
109 134 133
101 126 140
83 110 114
102 127 131
96 123 133
86 114 132
93 120 145
89 116 130
88 116 136
85 113 127
93 120 137
89 116 133
81 110 125
96 122 138
112 136 148
95 122 147
98 124 155
96 122 148
82 111 142
99 125 134
89 116 137
94 120 142
90 117 139
93 119 153
75 106 147
88 113 138
73 102 142
82 110 143
82 112 155
74 105 144
73 103 144
78 106 148
69 102 151
80 107 145
74 102 142
78 105 137
68 99 142
70 101 141
68 99 144
69 100 135
68 99 127
67 98 126
63 94 132
73 102 125
66 98 131
61 95 136
58 93 124
60 94 139
63 96 126
60 93 120
65 96 118
59 92 127
63 96 115
65 97 118
59 93 134
56 89 117
58 92 126
59 93 133
61 96 142
59 94 131
59 94 133
59 93 129
59 93 131
58 92 125
59 94 121
59 94 126
59 93 128
57 91 123
58 92 118
59 93 122
59 93 128
59 93 130
58 92 114
58 92 125
59 93 121
57 91 120
57 89 129
59 93 130
59 93 120
59 93 122
59 94 125
59 94 133
59 93 125
60 94 125
59 93 125
59 93 122
58 93 125
58 92 122
60 94 136
59 94 126
60 94 125
59 93 129
59 93 130
60 95 135
58 91 117
58 93 129
60 94 133
60 95 131
59 93 128
58 92 122
60 94 135
58 92 121
60 94 128
59 93 124
60 94 118
59 94 133
60 94 128
58 91 118
58 92 115
58 91 118
58 92 126
58 92 121
59 93 130
58 92 114
59 93 117
58 92 125
59 93 130
59 93 121
56 88 113
59 93 130
59 92 118
59 93 131
58 91 124
58 91 113
58 91 121
58 92 111
58 91 117
58 92 113
56 89 107
57 91 114
56 88 102
56 88 95
54 86 100
56 89 102
55 86 103
64 95 108
69 96 86
89 111 74
103 121 62
104 120 36
120 134 25
113 127 18
121 137 0
107 120 0
126 140 0
116 131 0
118 133 0
123 140 0
113 126 0
123 138 0
127 141 0
132 145 0
125 139 0
120 136 0
125 141 0
123 137 0
130 146 0
117 131 0
120 137 0
122 137 0
131 146 0
112 128 0
115 128 0
122 138 0
129 144 0
139 155 0
124 141 0
134 151 0
143 161 0
128 145 0
124 140 0
118 134 0
134 149 0
130 146 0
129 143 0
131 146 0
137 150 0
130 146 0
135 150 0
124 140 0
140 154 0
134 148 0
130 145 0
136 153 0
140 157 0
135 150 0
135 147 0
141 156 0
140 155 0
137 153 0
139 154 0
132 145 0
137 151 0
139 156 0
136 149 0
135 149 0
137 152 0
141 156 0
144 159 0
138 154 0
133 149 0
145 160 0
143 159 0
145 161 0
148 163 0
142 157 0
145 158 0
147 163 0
145 161 0
142 158 0
143 158 0
150 165 0
142 159 0
142 158 0
152 168 0
150 168 0
145 160 0
151 168 0
148 162 0
147 161 0
150 165 0
146 161 0
145 160 0
146 160 0
145 159 0
151 165 0
151 166 0
150 166 0
154 172 0
149 164 0
158 172 0
144 159 0
149 165 0
151 165 0
153 168 0
158 176 0
159 176 0
152 168 0
149 164 0
155 170 0
156 172 0
154 172 0
156 171 0
155 172 0
157 174 0
152 165 0
152 168 0
152 166 0
155 173 0
156 172 0
153 167 0
157 170 0
152 168 0
158 176 0
163 183 0
154 170 0
155 173 0
155 172 0
156 172 0
155 171 0
156 173 0
154 172 0
158 175 0
157 176 0
155 172 0
162 177 0
156 173 0
163 180 0
163 181 0
161 178 0
158 175 0
163 179 0
163 181 0
163 178 0
160 177 0
164 182 0
161 179 0
164 182 0
162 179 0
163 183 0
162 181 0
163 181 0
162 181 0
161 180 0
158 176 0
162 179 0
161 179 0
166 183 0
165 184 0
162 181 0
169 190 0
161 179 0
162 181 0
168 188 0
166 185 0
161 178 0
162 182 0
162 181 0
166 186 0
163 181 0
165 184 0
170 193 57
173 196 62
171 195 72
170 193 57
170 194 67
168 193 51
166 190 80
169 192 88
170 194 76
170 194 88
169 193 72
168 193 57
169 193 76
167 192 80
167 192 62
172 196 72
167 191 51
168 192 51
167 191 67
168 192 80
165 190 76
170 194 80
167 192 57
168 192 72
165 189 62
173 197 72
167 191 62
168 193 72
169 194 92
167 191 76
164 187 62
170 193 80
165 188 72
165 189 62
165 189 76
163 186 76
165 189 72
167 190 76
167 191 92
170 194 84
165 189 80
165 189 84
163 187 72
167 191 84
163 187 67
158 183 80
162 186 72
166 190 72
168 192 80
165 189 92
161 185 72
168 192 88
166 190 95
167 191 72
160 185 76
165 188 62
162 186 62
165 189 80
156 180 80
159 182 57
162 186 92
165 189 102
159 182 67
157 181 84
160 184 80
152 175 57
163 187 76
158 181 88
158 181 84
162 185 76
154 177 67
162 185 88
158 180 62
162 185 80
149 172 57
155 178 80
157 180 76
161 183 76
154 177 62
158 181 80
156 177 84
150 173 67
159 182 92
160 182 67
159 181 76
147 169 72
150 173 80
150 172 72
150 171 51
137 158 70
131 155 113
97 122 113
90 117 117
90 117 121
103 129 130
96 122 118
95 121 134
79 106 103
90 117 127
95 121 133
96 122 125
90 116 115
80 108 137
92 118 131
89 115 133
96 122 141
87 114 128
96 122 131
92 117 135
103 128 141
99 124 137
98 123 140
94 121 143
98 122 131
105 129 138
103 127 139
87 115 142
103 127 151
85 112 132
88 114 135
89 115 142
86 115 130
96 122 145
83 112 152
82 111 156
71 102 134
90 117 156
83 111 150
81 109 144
81 107 128
79 107 147
79 105 139
80 106 145
77 105 143
70 101 147
67 99 139
61 95 135
71 102 137
64 97 132
69 100 135
66 98 131
69 99 113
67 98 121
67 97 121
62 95 124
61 95 130
67 98 127
62 94 124
62 95 124
61 94 120
62 96 124
59 92 106
57 91 129
57 90 121
57 91 122
58 92 121
58 93 124
58 93 124
58 92 126
58 93 131
58 92 113
58 92 129
59 93 129
58 92 121
57 91 119
59 93 134
58 92 122
60 95 139
60 94 135
58 92 123
59 93 117
59 93 128
60 94 136
58 93 131
59 94 140
59 94 126
58 92 121
58 92 136
58 91 114
57 91 122
60 94 133
58 92 127
60 94 128
59 93 126
60 95 135
58 93 127
59 94 121
59 93 124
58 92 125
59 93 125
59 93 125
59 93 131
59 94 125
59 94 125
58 92 115
58 92 131
60 94 131
60 94 124
60 95 129
56 89 111
58 92 129
57 90 124
59 92 125
58 91 115
60 94 134
60 94 131
58 92 125
59 93 124
60 94 128
58 91 122
57 91 114
59 93 125
60 94 137
59 93 120
58 92 122
58 92 125
57 91 103
58 92 111
58 92 117
57 90 114
57 90 115
58 92 114
57 90 114
58 91 122
57 91 113
58 91 114
58 91 125
56 89 107
57 90 118
57 89 105
57 91 120
57 91 100
57 89 110
55 85 97
66 93 92
87 110 90
95 112 44
102 118 44
109 124 25
108 124 18
103 117 0
107 121 0
112 128 0
112 127 0
121 135 0
115 129 0
121 137 0
109 126 0
117 133 0
128 145 0
132 146 0
121 136 0
135 151 0
125 139 0
119 135 0
121 139 0
127 142 0
123 138 0
121 133 0
127 143 0
123 139 0
117 133 0
126 143 0
127 140 0
143 160 0
123 139 0
129 143 0
134 150 0
139 157 0
129 143 0
133 150 0
137 151 0
132 147 0
120 136 0
130 145 0
142 158 0
125 139 0
137 153 0
138 152 0
129 144 0
136 152 0
135 151 0
133 149 0
132 146 0
144 159 0
141 158 0
140 156 0
137 152 0
141 156 0
134 149 0
127 142 0
147 163 0
145 160 0
149 164 0
145 160 0
134 148 0
135 151 0
141 156 0
140 155 0
135 149 0
148 164 0
138 152 0
137 151 0
148 164 0
148 165 0
146 163 0
148 162 0
150 165 0
145 159 0
140 156 0
139 155 0
143 160 0
151 166 0
144 159 0
144 161 0
149 165 0
149 165 0
142 156 0
147 161 0
150 167 0
154 171 0
144 160 0
155 172 0
146 160 0
152 167 0
149 164 0
150 165 0
151 169 0
157 172 0
154 171 0
152 169 0
152 170 0
150 166 0
153 171 0
160 175 0
149 165 0
152 168 0
154 172 0
155 171 0
151 167 0
145 162 0
152 167 0
159 176 0
156 172 0
149 167 0
156 171 0
156 172 0
146 161 0
150 169 0
164 182 0
157 174 0
151 166 0
158 174 0
155 171 0
162 179 0
156 174 0
156 174 0
159 179 0
162 181 0
161 180 0
160 177 0
159 178 0
156 175 0
162 181 0
161 180 0
158 177 0
157 175 0
153 172 0
159 177 0
159 176 0
161 181 0
160 178 0
165 183 0
159 177 0
165 183 0
155 172 0
163 181 0
161 178 0
161 179 0
164 182 0
165 184 0
161 179 0
161 182 0
165 182 0
161 180 0
162 181 0
167 185 0
164 182 0
162 180 0
158 178 0
161 179 0
166 186 0
160 179 0
167 186 0
164 184 0
163 183 0
165 182 0
166 185 0
165 186 0
165 183 0
171 195 62
168 191 72
171 195 76
169 193 76
171 195 99
171 195 62
168 192 72
170 195 67
168 192 80
170 193 72
169 194 80
171 194 62
169 194 67
169 193 72
167 190 44
169 193 72
172 197 76
168 192 57
170 193 62
167 192 99
168 192 44
171 196 95
171 195 67
172 196 62
170 194 67
168 193 76
166 190 57
170 194 84
166 190 67
167 192 80
167 191 57
165 188 44
168 192 62
169 193 67
168 192 72
165 190 72
168 191 57
169 193 76
159 184 92
166 191 72
164 188 72
167 191 72
170 193 72
166 191 76
164 189 76
166 188 92
166 191 88
166 189 84
169 192 72
161 185 76
162 187 62
160 183 67
166 189 62
160 184 76
160 183 67
160 184 72
162 185 84
162 186 84
167 190 84
165 189 76
160 183 67
164 188 92
164 187 67
159 182 57
165 188 62
155 178 67
163 187 84
156 180 67
165 188 99
156 178 67
153 177 88
156 179 84
151 175 67
160 183 72
149 171 62
157 180 92
159 182 80
158 181 92
156 178 86
153 176 76
151 174 84
152 174 72
156 179 57
147 170 95
157 178 67
154 176 67
153 175 80
141 162 57
144 166 67
146 168 88
130 153 72
122 144 108
88 113 86
81 108 110
88 115 119
84 112 125
98 123 111
84 112 128
91 116 122
85 111 117
93 119 119
82 109 119
94 120 133
78 107 122
95 122 130
95 121 141
96 121 138
81 108 119
97 123 136
93 118 128
93 117 131
93 119 137
80 109 120
104 128 146
92 119 128
91 118 126
98 124 124
110 133 143
98 123 137
88 116 141
96 122 143
94 120 150
91 118 154
82 112 151
84 112 145
78 107 145
83 110 138
73 103 146
84 112 154
87 113 152
74 102 136
80 107 140
79 105 136
81 107 139
84 108 134
66 97 133
69 100 143
68 100 144
76 104 134
72 102 139
76 106 131
67 96 127
69 98 117
65 98 130
66 97 122
60 93 133
61 92 109
61 94 133
60 93 126
59 91 120
59 92 109
59 92 120
58 91 118
59 93 128
61 94 123
58 92 125
59 93 125
57 91 113
58 92 124
59 94 128
57 91 120
60 94 131
58 91 125
59 94 126
59 92 131
58 91 113
58 92 121
60 94 134
59 93 122
58 92 129
59 93 121
60 94 128
57 91 111
60 95 131
57 91 111
59 93 122
58 92 121
58 91 118
57 90 117
57 90 120
59 93 130
60 94 126
61 96 142
58 92 118
58 92 122
56 90 107
58 92 118
60 94 124
59 93 124
59 93 124
60 94 126
59 93 121
59 93 131
58 92 114
60 93 122
57 91 115
59 93 124
58 92 120
58 92 125
60 94 133
59 94 126
60 95 134
59 93 126
60 94 128
59 92 120
58 92 124
59 93 129
59 93 121
59 92 121
58 91 117
59 93 126
60 94 129
61 95 131
57 90 117
58 92 110
58 91 118
58 91 120
57 90 120
58 92 113
57 90 110
58 92 114
58 91 115
57 90 115
57 90 115
58 91 105
57 90 114
56 89 113
57 89 113
55 88 102
56 89 115
55 87 95
55 87 105
60 92 108
61 86 76
86 107 60
86 103 57
102 117 31
110 123 18
122 136 0
113 128 0
121 135 0
120 134 0
120 135 0
117 131 0
123 137 0
118 133 0
123 139 0
110 125 0
114 129 0
134 151 0
129 143 0
128 143 0
130 147 0
116 131 0
123 138 0
114 130 0
124 138 0
130 146 0
130 143 0
120 137 0
126 141 0
121 139 0
132 149 0
123 138 0
127 141 0
132 148 0
135 153 0
130 146 0
135 152 0
122 139 0
134 151 0
135 150 0
139 155 0
142 159 0
138 155 0
136 152 0
137 153 0
137 152 0
131 145 0
141 158 0
136 150 0
137 154 0
136 152 0
133 148 0
137 153 0
138 154 0
131 146 0
142 159 0
141 159 0
141 159 0
141 157 0
138 154 0
142 156 0
140 158 0
147 166 0
139 153 0
138 154 0
138 153 0
144 160 0
144 161 0
140 155 0
142 157 0
142 158 0
146 165 0
140 155 0
145 162 0
149 167 0
143 161 0
143 158 0
147 163 0
145 164 0
146 161 0
144 159 0
140 155 0
143 157 0
136 151 0
141 154 0
150 165 0
144 161 0
151 167 0
146 161 0
143 160 0
153 169 0
150 164 0
144 159 0
150 167 0
141 155 0
144 156 0
151 165 0
142 156 0
152 166 0
155 172 0
153 171 0
150 166 0
152 169 0
154 170 0
154 170 0
160 174 0
156 171 0
149 165 0
156 174 0
147 160 0
151 167 0
152 168 0
157 176 0
149 166 0
152 166 0
152 168 0
156 173 0
158 175 0
160 176 0
156 173 0
152 169 0
153 169 0
155 172 0
156 173 0
156 174 0
151 167 0
157 173 0
163 180 0
160 176 0
161 180 0
156 175 0
158 175 0
164 184 0
156 175 0
159 178 0
161 179 0
156 173 0
159 177 0
162 177 0
160 180 0
158 176 0
159 175 0
165 184 0
160 178 0
161 180 0
164 183 0
165 185 0
164 181 0
162 181 0
163 180 0
160 177 0
156 175 0
161 178 0
158 175 0
166 185 0
161 182 0
157 174 0
164 183 0
166 185 0
163 182 0
169 190 0
163 182 0
166 184 0
161 179 0
166 187 0
161 181 0
166 186 0
162 182 0
170 193 67
170 194 76
168 191 80
171 195 57
168 192 80
171 195 80
169 193 62
172 197 76
168 192 76
173 197 88
169 192 44
169 193 84
172 196 62
168 192 72
169 193 84
168 193 92
165 188 84
170 194 67
170 193 67
167 191 72
165 190 76
165 190 72
166 191 88
171 195 76
168 191 67
169 193 72
166 191 76
165 189 76
167 192 76
163 187 72
165 189 67
166 190 57
167 191 57
167 191 62
165 190 76
161 185 57
168 192 84
165 189 76
170 194 72
165 189 57
167 190 72
164 188 72
165 189 84
165 189 72
162 187 72
159 182 67
165 189 72
162 186 88
168 191 72
168 192 76
158 181 76
167 190 99
157 181 84
165 190 76
158 181 57
166 189 67
153 176 84
160 183 76
165 189 88
155 178 62
157 180 80
166 190 88
161 184 51
164 188 80
159 182 67
162 186 84
155 179 84
156 180 84
153 176 51
160 183 84
159 183 67
151 174 76
157 179 72
162 185 88
153 177 76
156 179 57
150 173 62
155 178 88
147 169 57
140 163 57
148 171 62
150 173 84
156 178 72
151 173 80
150 172 62
153 174 88
149 171 72
143 164 57
143 164 67
150 171 67
149 171 57
133 156 86
106 129 84
90 117 114
92 119 118
81 108 108
97 122 126
90 115 125
92 119 133
86 113 119
76 104 116
77 105 111
89 116 131
102 128 136
89 115 122
98 123 131
93 119 139
92 118 131
70 101 129
86 112 125
91 117 129
86 112 122
92 118 126
94 121 132
93 119 121
97 124 147
91 119 140
86 115 132
96 122 124
97 122 148
93 120 137
95 122 145
88 115 144
94 121 145
86 114 143
87 114 143
86 114 155
78 107 139
86 113 143
78 106 146
72 101 144
71 99 138
87 113 149
80 105 133
86 109 133
74 102 128
74 102 129
75 103 135
73 103 132
79 107 142
59 92 118
67 99 125
72 101 122
68 98 120
66 96 113
70 98 118
62 95 120
64 95 106
61 93 121
69 100 120
61 95 129
58 93 124
60 94 126
58 91 124
57 90 117
58 92 133
57 90 113
59 93 128
58 93 128
58 92 122
58 91 117
59 93 128
58 92 114
56 89 105
57 91 118
58 92 117
57 91 110
60 95 133
59 93 126
59 93 125
57 90 111
59 93 125
58 92 129
58 92 118
57 92 112
58 92 120
58 92 111
58 92 121
59 94 126
59 93 126
60 95 128
56 90 111
58 92 131
59 92 126
60 94 129
58 92 120
60 94 125
58 92 125
60 94 130
60 94 134
59 93 115
58 93 122
58 92 124
56 90 103
60 95 134
58 92 122
59 93 122
58 92 115
58 91 115
57 90 113
59 92 128
59 93 115
57 91 115
59 93 115
58 92 115
58 91 107
58 91 115
60 94 129
59 92 122
58 92 118
58 92 115
59 93 122
58 91 114
58 92 120
58 92 121
57 91 115
57 90 110
57 90 113
58 92 122
58 92 118
58 92 120
57 91 114
57 90 110
56 88 95
58 92 111
57 89 111
55 87 107
56 89 111
58 90 121
56 88 111
54 86 84
68 97 95
69 93 81
70 91 51
98 116 40
110 126 47
99 116 31
102 118 0
119 133 0
128 143 0
119 133 0
115 130 0
111 125 0
117 132 0
120 137 0
115 130 0
119 133 0
114 129 0
118 134 0
114 131 0
128 144 0
129 145 0
130 145 0
112 129 0
127 143 0
122 138 0
124 141 0
124 139 0
129 146 0
134 149 0
122 138 0
137 155 0
125 140 0
133 150 0
129 146 0
130 145 0
130 146 0
121 136 0
133 149 0
130 146 0
126 142 0
145 163 0
142 159 0
126 141 0
128 144 0
131 147 0
123 139 0
128 142 0
138 154 0
140 158 0
135 150 0
134 149 0
135 150 0
125 139 0
137 154 0
140 156 0
127 142 0
140 156 0
145 163 0
140 157 0
143 156 0
140 154 0
139 152 0
138 155 0
138 154 0
144 160 0
143 158 0
142 158 0
149 166 0
146 161 0
140 154 0
139 154 0
149 164 0
147 164 0
143 158 0
143 157 0
144 158 0
148 166 0
143 157 0
148 165 0
147 162 0
146 161 0
148 165 0
150 168 0
156 172 0
140 155 0
148 164 0
145 161 0
151 166 0
154 169 0
143 157 0
150 167 0
142 158 0
147 163 0
149 165 0
157 174 0
142 156 0
140 157 0
147 163 0
155 170 0
152 167 0
149 166 0
153 170 0
146 160 0
159 176 0
156 173 0
150 168 0
143 159 0
149 166 0
152 168 0
154 172 0
162 181 0
150 168 0
154 172 0
151 168 0
156 173 0
158 175 0
158 173 0
151 167 0
160 178 0
152 169 0
148 164 0
153 168 0
157 175 0
163 178 0
154 171 0
158 176 0
156 174 0
159 177 0
157 175 0
166 183 0
154 169 0
160 177 0
156 173 0
162 179 0
164 182 0
158 175 0
157 174 0
164 182 0
161 179 0
163 181 0
164 182 0
167 186 0
154 171 0
160 180 0
155 172 0
163 181 0
159 179 0
159 178 0
163 183 0
161 181 0
164 182 0
160 178 0
159 177 0
168 188 0
159 178 0
161 179 0
164 183 0
159 178 0
162 180 0
164 185 0
165 185 0
164 184 0
167 187 0
166 186 0
166 186 0
168 189 0
162 182 0
163 183 0
168 187 0
172 196 67
167 191 80
169 193 84
170 194 62
168 193 76
171 194 88
171 195 67
170 195 62
170 193 62
166 190 57
174 198 76
166 189 44
169 193 67
166 190 57
169 195 102
171 195 72
168 192 92
170 194 88
169 194 84
168 193 76
172 196 51
167 191 76
167 191 67
171 195 80
171 195 57
170 194 76
168 192 57
168 191 88
159 183 72
166 191 95
170 194 72
169 193 76
165 190 76
165 189 80
169 191 36
165 189 67
168 192 62
169 193 67
168 192 88
168 193 88
163 187 76
165 189 88
168 192 76
161 185 102
163 186 72
167 191 76
170 193 102
166 190 76
166 190 92
167 190 76
168 193 99
165 189 88
163 187 72
161 185 84
161 185 67
167 190 62
164 187 76
165 189 99
155 179 88
163 187 99
167 190 76
162 186 105
165 189 88
159 184 99
159 182 76
162 185 67
166 188 80
165 189 76
160 183 72
159 183 67
160 184 88
162 184 62
153 176 80
150 172 72
157 180 84
155 177 80
152 173 80
155 178 72
154 176 76
155 178 67
144 167 76
150 172 80
150 172 76
150 171 95
152 173 72
155 177 67
151 173 84
143 164 72
151 172 84
144 166 80
141 161 67
132 152 80
120 142 95
106 130 103
92 117 114
90 116 113
90 115 110
87 113 114
88 114 120
88 114 115
87 113 121
90 116 120
88 114 130
83 110 114
87 113 119
87 114 122
95 121 144
80 106 111
85 111 115
80 108 132
101 126 140
94 120 133
88 115 129
86 113 135
96 122 129
89 114 132
91 118 133
94 121 130
92 118 131
99 125 143
90 118 147
90 117 137
88 115 139
99 125 148
90 117 146
88 115 146
82 110 147
89 114 145
98 121 143
77 105 145
88 113 150
85 112 145
86 110 134
76 102 133
94 117 135
70 101 142
72 101 132
62 96 140
74 103 139
73 102 122
71 101 132
67 97 120
66 97 117
66 97 115
74 103 129
69 100 119
68 98 115
64 94 115
69 99 103
59 94 126
65 97 128
58 91 122
59 94 135
57 91 115
54 87 106
57 91 123
64 96 126
58 92 121
55 89 99
58 92 124
59 93 126
58 92 117
56 89 114
57 90 122
57 91 108
57 91 115
60 95 139
58 91 126
60 94 120
60 94 129
58 92 118
57 91 115
59 93 125
57 91 111
59 93 124
58 92 115
59 94 128
59 93 122
58 92 121
58 92 121
58 92 117
59 93 120
60 95 131
57 91 108
58 91 115
57 90 108
58 92 115
59 93 125
57 91 124
59 93 129
59 93 124
60 94 129
58 92 124
58 92 118
58 92 121
59 94 128
57 90 122
59 93 129
56 89 103
59 93 122
59 93 122
57 91 118
59 93 120
60 94 129
58 91 115
58 91 117
58 91 118
56 90 114
58 92 129
58 92 115
58 91 107
58 92 118
58 92 118
57 91 102
57 90 111
57 90 111
57 90 107
59 92 117
59 93 117
57 90 114
55 88 114
56 89 105
57 91 111
58 91 103
56 88 108
57 90 111
56 89 108
55 87 105
59 93 117
57 87 105
67 94 88
75 99 74
93 111 65
97 115 36
108 126 47
105 121 18
126 142 0
105 119 0
110 124 0
115 130 0
106 118 0
115 130 0
114 129 0
119 135 0
126 142 0
109 123 0
109 123 0
120 136 0
116 131 0
124 140 0
118 133 0
121 136 0
113 128 0
120 135 0
127 143 0
123 137 0
137 154 0
122 138 0
132 148 0
129 145 0
122 140 0
132 148 0
130 146 0
129 145 0
132 148 0
135 152 0
132 146 0
138 156 0
127 144 0
141 156 0
126 142 0
140 154 0
133 150 0
132 147 0
147 164 0
140 156 0
143 160 0
128 143 0
132 150 0
132 146 0
137 154 0
134 148 0
136 152 0
141 158 0
123 138 0
133 147 0
137 152 0
142 160 0
141 158 0
135 150 0
137 154 0
139 153 0
148 166 0
143 158 0
147 162 0
139 155 0
135 151 0
146 164 0
147 163 0
144 160 0
149 164 0
147 162 0
143 158 0
147 164 0
145 157 0
144 161 0
142 159 0
146 162 0
155 172 0
153 170 0
147 163 0
147 162 0
140 156 0
153 170 0
157 173 0
145 163 0
148 164 0
145 161 0
150 166 0
154 170 0
146 161 0
149 166 0
149 164 0
150 167 0
150 167 0
151 168 0
152 169 0
152 168 0
153 171 0
150 164 0
152 169 0
150 167 0
155 170 0
152 169 0
150 167 0
150 166 0
148 164 0
153 171 0
153 168 0
157 174 0
156 173 0
157 176 0
160 179 0
155 172 0
151 167 0
154 171 0
155 174 0
154 171 0
156 170 0
159 177 0
156 173 0
154 173 0
156 173 0
161 180 0
157 176 0
153 170 0
155 171 0
151 167 0
155 173 0
159 175 0
164 184 0
157 176 0
163 182 0
164 183 0
159 177 0
159 178 0
163 182 0
162 180 0
159 176 0
159 178 0
161 179 0
160 179 0
164 183 0
154 171 0
159 178 0
166 185 0
161 180 0
161 179 0
160 177 0
163 183 0
158 175 0
162 181 0
161 180 0
166 186 0
167 187 0
159 177 0
160 178 0
162 182 0
166 185 0
163 184 0
162 181 0
162 181 0
163 182 0
166 186 0
158 178 0
164 183 0
168 187 0
167 187 0
164 184 0
166 184 0
173 197 72
171 196 88
170 195 92
167 190 62
169 194 67
170 194 80
170 194 67
168 192 51
169 194 84
170 195 84
164 188 76
168 192 88
171 194 72
172 195 67
166 191 92
168 192 62
165 189 62
167 191 84
165 189 57
170 194 67
171 194 51
168 192 62
169 193 76
172 195 57
173 196 57
170 194 84
169 192 72
171 194 67
169 194 67
167 190 84
166 190 72
167 192 95
166 191 88
158 182 80
167 191 80
168 193 88
167 192 92
167 191 76
167 193 95
168 192 72
167 191 80
168 192 67
161 185 76
166 189 99
169 192 88
167 192 84
163 186 67
169 192 62
169 192 102
165 188 76
165 188 67
168 192 92
165 190 84
157 181 67
165 189 84
165 187 72
160 183 72
166 189 84
158 181 88
161 184 67
155 178 80
160 183 44
155 179 72
160 183 88
165 189 84
164 188 88
155 178 76
160 183 92
156 179 76
158 182 92
155 178 57
151 174 72
158 180 76
156 177 62
150 173 67
157 180 72
154 176 76
152 175 67
163 184 84
158 180 92
156 178 84
152 175 88
145 167 67
140 162 51
150 172 72
146 167 72
142 163 67
142 163 76
158 180 105
148 170 76
145 166 84
140 162 60
139 160 78
133 155 94
108 131 99
88 114 114
82 109 125
95 120 125
73 103 124
93 118 118
83 110 105
91 116 123
73 101 120
96 122 120
94 120 124
89 114 133
93 119 140
85 109 113
98 123 137
97 122 131
102 127 140
97 123 141
88 115 136
95 119 125
99 124 136
97 123 131
111 134 132
97 122 137
98 123 123
97 123 140
91 117 140
84 111 121
91 117 137
93 120 141
83 110 130
83 112 141
90 117 139
89 114 141
87 114 141
91 115 145
90 114 141
78 106 129
77 105 145
98 118 125
97 118 131
81 106 138
72 99 133
75 104 136
66 97 126
65 96 120
65 97 130
73 101 122
69 98 120
60 92 125
63 95 115
62 94 111
63 95 111
66 96 108
63 95 113
58 91 111
63 95 118
62 94 114
60 93 122
57 91 121
62 94 110
59 92 115
60 93 110
58 91 115
57 91 112
58 92 122
59 94 124
59 93 133
58 92 120
59 93 122
58 92 117
55 88 103
59 94 126
56 89 109
58 92 115
58 92 125
57 90 115
58 92 122
57 90 111
59 93 120
59 93 118
60 94 130
59 93 122
60 94 134
59 93 128
59 94 129
59 92 117
58 92 120
59 94 133
56 90 100
58 91 121
59 93 125
57 91 110
60 95 135
58 91 124
60 94 130
57 91 118
59 94 117
59 93 117
59 93 115
59 93 114
57 90 110
60 94 129
57 91 117
58 93 121
60 95 134
58 92 117
58 92 113
59 93 125
59 92 122
57 90 124
59 93 125
59 93 122
58 91 115
57 90 105
57 90 108
58 91 121
55 87 111
58 92 108
58 92 118
57 90 103
57 90 111
54 87 103
58 92 105
57 90 113
57 90 121
56 89 107
56 88 102
57 89 113
55 88 97
56 89 111
56 89 100
54 86 105
55 87 103
59 90 107
63 92 103
88 111 80
91 110 65
111 128 54
111 127 31
96 111 31
105 121 0
107 122 0
108 123 0
112 126 0
114 130 0
112 128 0
111 124 0
123 137 0
122 138 0
114 131 0
106 119 0
123 140 0
126 141 0
131 145 0
127 143 0
119 135 0
115 130 0
120 133 0
122 138 0
129 146 0
120 135 0
120 136 0
126 143 0
127 144 0
118 133 0
129 146 0
127 141 0
129 146 0
131 147 0
128 145 0
128 144 0
134 151 0
130 147 0
133 151 0
129 144 0
133 150 0
139 157 0
134 150 0
139 152 0
137 153 0
134 151 0
133 150 0
142 159 0
142 159 0
141 156 0
136 152 0
142 157 0
140 155 0
137 154 0
136 154 0
142 160 0
136 154 0
135 152 0
149 166 0
135 148 0
133 149 0
143 161 0
144 160 0
142 160 0
147 163 0
147 163 0
140 157 0
140 156 0
144 163 0
148 164 0
148 165 0
148 165 0
137 154 0
151 168 0
145 163 0
138 154 0
146 165 0
149 167 0
143 159 0
142 159 0
153 170 0
152 169 0
145 159 0
150 167 0
145 162 0
145 161 0
147 164 0
153 168 0
148 165 0
151 168 0
156 173 0
150 167 0
149 163 0
148 164 0
150 163 0
148 166 0
149 166 0
150 168 0
155 172 0
148 165 0
151 167 0
145 159 0
159 179 0
148 164 0
150 165 0
147 164 0
158 176 0
154 173 0
159 176 0
157 176 0
152 168 0
151 169 0
161 179 0
157 174 0
156 172 0
158 177 0
157 176 0
161 176 0
156 173 0
155 171 0
158 174 0
154 170 0
159 176 0
156 173 0
160 178 0
155 172 0
154 172 0
161 181 0
161 178 0
158 176 0
161 178 0
156 174 0
161 180 0
162 180 0
157 177 0
160 179 0
166 185 0
162 181 0
166 183 0
160 177 0
154 174 0
164 184 0
166 185 0
163 183 0
162 180 0
166 185 0
161 179 0
162 181 0
163 181 0
169 188 0
161 179 0
164 185 0
162 180 0
165 185 0
160 181 0
167 185 0
162 182 0
160 181 0
165 183 0
168 188 0
166 184 0
165 184 0
166 188 0
166 186 0
162 181 0
164 185 0
164 184 0
165 185 0
165 184 0
165 186 0
172 197 80
168 192 67
171 195 72
171 195 76
173 197 88
170 194 84
171 195 80
167 192 67
168 192 57
170 194 80
173 197 67
168 192 84
164 187 51
170 194 76
162 186 88
172 195 76
168 192 51
171 195 84
167 190 36
166 190 67
166 191 76
169 194 92
172 196 76
170 195 67
169 193 76
164 189 80
169 194 76
170 195 80
166 190 92
171 195 92
166 189 57
172 195 80
172 196 80
169 194 84
170 194 84
168 193 102
165 187 80
168 192 105
167 191 67
171 195 88
167 190 76
166 190 95
165 188 72
167 192 72
164 188 84
166 190 76
167 190 80
167 191 99
175 198 105
161 186 84
166 190 84
167 190 88
165 188 92
165 188 62
154 177 92
162 186 105
169 192 111
162 185 84
160 184 95
171 194 102
163 186 99
168 193 99
163 187 76
155 178 72
163 186 99
161 185 88
160 183 84
163 187 95
151 175 72
164 186 99
157 180 62
160 183 72
154 176 76
148 171 67
158 180 84
161 183 80
160 183 95
160 182 95
161 183 84
153 175 51
167 188 88
153 176 88
146 168 44
153 175 67
152 176 72
147 168 62
156 178 80
146 167 72
143 164 72
151 172 86
148 169 84
143 164 72
146 167 88
135 157 80
119 140 102
94 119 108
96 121 135
89 116 111
104 128 139
86 112 120
83 110 119
87 114 129
94 119 134
96 122 134
93 119 124
91 117 122
95 121 129
91 118 133
98 124 128
97 122 129
95 121 137
88 114 128
82 110 111
98 123 119
85 112 130
82 110 121
91 117 123
94 120 129
94 119 135
89 117 129
95 121 112
108 131 151
93 119 145
96 122 129
85 112 141
95 121 145
89 114 129
88 114 147
78 104 134
85 113 147
95 117 142
78 104 122
83 105 127
85 111 147
76 102 134
79 106 144
72 101 128
80 106 130
67 99 140
69 99 122
69 99 117
61 93 121
66 98 116
68 98 112
68 97 117
71 100 112
69 99 125
62 92 116
68 98 95
65 97 118
62 94 117
59 93 113
61 92 120
58 91 121
62 94 107
58 92 117
58 92 116
57 90 103
57 90 122
58 92 117
57 91 114
58 92 114
58 93 118
56 90 117
59 93 128
57 90 107
57 90 116
59 94 130
58 91 122
58 93 115
59 93 117
59 93 126
59 94 117
59 93 126
58 92 126
59 93 121
58 91 125
59 93 128
56 89 113
59 94 131
59 93 126
58 91 125
59 92 120
60 94 130
56 90 107
59 92 120
57 91 115
60 94 133
58 92 125
58 92 111
58 92 120
58 91 120
60 95 131
57 91 121
58 92 127
59 94 126
60 94 124
56 90 108
56 90 110
58 91 117
58 92 120
58 92 115
58 92 117
58 91 115
57 90 118
59 93 120
58 91 114
56 90 107
56 89 113
56 89 102
56 89 111
57 90 120
57 90 110
58 91 107
56 89 108
56 89 97
58 91 115
56 89 103
57 90 114
57 89 105
56 89 103
58 91 110
54 85 97
55 87 105
57 90 110
55 88 108
56 88 95
59 90 94
65 88 74
80 102 74
94 113 57
110 125 40
112 127 40
118 131 0
114 129 0
109 125 0
120 133 0
118 133 0
122 137 0
113 128 0
113 127 0
124 140 0
115 130 0
97 109 0
103 119 0
110 125 0
124 139 0
112 128 0
118 132 0
110 125 0
120 133 0
127 141 0
124 140 0
121 138 0
115 130 0
121 137 0
129 144 0
120 137 0
135 151 0
136 153 0
123 139 0
133 151 0
138 156 0
125 143 0
130 148 0
127 144 0
124 139 0
126 142 0
134 151 0
128 144 0
143 159 0
132 147 0
133 150 0
131 150 0
140 156 0
134 148 0
135 152 0
137 152 0
138 153 0
140 159 0
140 154 0
142 155 0
136 149 0
144 163 0
136 151 0
145 164 0
138 154 0
142 159 0
137 152 0
139 154 0
128 144 0
144 163 0
143 159 0
137 153 0
143 159 0
151 169 0
134 150 0
150 165 0
144 161 0
139 155 0
148 164 0
153 171 0
146 165 0
149 166 0
138 153 0
140 155 0
150 165 0
150 166 0
154 171 0
142 158 0
150 165 0
154 172 0
148 165 0
147 165 0
155 172 0
152 169 0
150 167 0
149 166 0
153 169 0
151 168 0
145 160 0
147 163 0
148 163 0
156 172 0
139 154 0
150 165 0
147 161 0
158 175 0
150 168 0
154 170 0
156 173 0
142 158 0
143 160 0
153 169 0
148 164 0
156 173 0
156 172 0
156 173 0
151 167 0
157 174 0
156 173 0
150 168 0
155 174 0
157 174 0
159 176 0
163 181 0
160 178 0
154 172 0
154 171 0
157 178 0
154 172 0
159 178 0
157 173 0
147 164 0
156 174 0
159 177 0
162 181 0
158 174 0
160 179 0
159 179 0
157 175 0
162 180 0
161 179 0
160 180 0
162 183 0
160 177 0
157 177 0
157 176 0
160 178 0
161 178 0
159 176 0
162 181 0
159 176 0
164 183 0
161 179 0
160 177 0
164 183 0
159 177 0
162 179 0
164 184 0
163 182 0
157 176 0
162 181 0
164 184 0
162 182 0
165 185 0
167 188 0
166 185 0
161 181 0
163 182 0
163 181 0
163 183 0
157 176 0
167 186 0
164 185 0
160 179 0
162 183 0
165 185 0
169 190 0
163 182 0
172 196 67
171 195 72
170 194 67
170 195 67
172 196 76
175 199 80
171 195 57
174 197 62
170 194 57
170 195 92
169 194 62
167 191 92
175 199 67
174 198 72
169 194 80
169 193 62
174 197 84
162 187 72
171 196 88
170 194 76
170 194 57
169 193 76
169 193 80
167 191 62
168 192 72
168 192 57
169 193 108
167 192 72
168 191 84
170 193 88
168 193 80
168 193 95
169 193 76
167 190 76
171 194 88
168 191 67
169 192 88
170 193 84
165 189 76
168 191 92
169 192 57
163 187 80
167 190 84
168 192 95
166 189 76
168 193 99
166 189 62
170 194 102
159 183 76
164 188 95
168 192 95
163 187 102
162 186 80
166 189 92
168 192 95
165 187 88
167 191 92
163 187 99
157 180 80
157 181 88
164 187 108
160 184 94
165 187 99
165 189 80
163 186 95
154 177 99
156 179 67
157 179 102
161 183 99
160 183 84
160 182 67
158 181 102
159 183 88
151 173 76
159 183 95
161 183 76
155 178 67
158 180 72
148 170 72
151 174 67
151 173 67
160 182 88
148 170 99
150 171 99
153 175 57
148 168 51
145 166 72
155 177 62
149 171 72
150 172 92
135 157 51
146 167 82
138 159 88
148 169 74
136 157 103
109 130 92
102 127 111
88 114 106
94 119 113
79 107 108
97 122 124
99 123 129
92 118 142
93 118 115
93 119 115
106 130 134
90 116 125
97 123 140
104 128 140
77 105 119
85 111 120
115 137 133
96 123 120
82 109 120
99 125 131
103 128 137
104 127 129
104 129 142
95 120 127
82 111 128
107 132 141
90 117 131
98 123 140
97 123 141
98 122 142
86 112 135
89 115 141
86 112 128
84 110 131
82 107 129
81 106 123
86 110 136
87 111 136
87 108 121
84 109 134
82 108 132
80 103 126
79 105 132
71 98 123
69 97 123
74 103 121
80 106 119
70 100 125
72 100 117
69 99 115
62 94 130
65 94 111
65 96 117
58 90 105
62 95 121
66 96 100
58 92 126
61 94 129
60 93 120
59 91 108
57 90 112
61 94 122
60 93 117
57 90 110
56 89 110
57 90 115
58 91 110
58 92 123
58 92 122
57 91 113
60 94 125
56 90 110
58 91 125
57 91 115
57 91 102
60 94 128
58 92 114
57 90 110
59 92 117
55 89 106
58 92 122
58 91 122
58 92 120
57 91 115
59 92 125
56 89 115
57 91 114
60 95 129
57 90 120
59 93 118
58 92 122
59 93 125
57 91 111
58 92 113
58 92 121
59 93 122
57 91 117
57 91 117
57 90 108
56 89 113
56 89 110
57 90 114
59 93 120
58 92 111
59 93 125
59 93 120
59 92 115
58 91 114
57 91 114
59 93 124
58 92 115
56 89 110
56 90 111
58 91 113
57 89 107
57 91 115
55 88 88
56 88 113
55 88 105
58 91 117
57 90 103
57 91 117
58 92 121
55 88 107
56 88 92
57 89 107
57 90 111
57 91 103
56 88 105
56 88 107
54 85 103
68 96 103
72 97 95
83 103 60
89 108 67
102 119 36
106 124 36
106 121 0
107 123 0
101 116 0
123 138 0
111 126 0
121 138 0
109 124 0
125 139 0
103 117 0
114 128 0
118 134 0
130 147 0
117 133 0
117 134 0
118 133 0
120 135 0
123 139 0
126 143 0
116 132 0
130 146 0
130 146 0
129 146 0
127 143 0
127 145 0
129 147 0
121 135 0
123 141 0
134 151 0
122 136 0
133 150 0
119 136 0
132 150 0
128 142 0
131 148 0
135 153 0
128 144 0
126 144 0
136 154 0
137 155 0
129 145 0
130 145 0
135 151 0
132 150 0
134 150 0
139 155 0
131 147 0
135 152 0
135 152 0
140 156 0
145 163 0
147 164 0
143 159 0
130 148 0
144 160 0
138 153 0
136 153 0
142 157 0
143 160 0
137 155 0
141 159 0
140 158 0
139 157 0
149 165 0
139 152 0
143 161 0
144 160 0
142 158 0
140 156 0
149 166 0
148 166 0
139 156 0
148 165 0
145 163 0
149 165 0
146 163 0
148 166 0
147 164 0
149 167 0
150 167 0
141 156 0
145 162 0
151 167 0
155 174 0
145 160 0
146 162 0
154 172 0
153 170 0
158 176 0
152 167 0
152 169 0
152 169 0
152 169 0
155 174 0
152 171 0
151 168 0
148 165 0
158 174 0
145 162 0
159 176 0
150 168 0
151 169 0
154 172 0
157 173 0
154 172 0
151 167 0
150 167 0
147 163 0
154 171 0
146 164 0
155 174 0
158 175 0
157 174 0
152 167 0
152 170 0
159 178 0
158 174 0
160 177 0
157 174 0
155 174 0
155 172 0
156 175 0
156 173 0
153 171 0
159 176 0
156 175 0
159 176 0
158 176 0
154 170 0
152 171 0
155 172 0
158 178 0
157 175 0
160 178 0
157 174 0
154 171 0
153 172 0
162 181 0
153 171 0
164 184 0
160 179 0
163 182 0
165 183 0
155 175 0
164 184 0
160 178 0
162 180 0
157 176 0
163 183 0
163 183 0
163 183 0
164 183 0
163 183 0
158 176 0
161 180 0
162 182 0
163 183 0
159 179 0
169 189 0
166 185 0
166 186 0
164 184 0
167 186 0
164 185 0
165 184 0
164 184 0
169 190 0
166 186 0
165 184 0
172 196 62
171 195 72
170 195 72
170 194 62
168 193 92
169 194 76
168 192 67
169 193 67
172 197 92
171 195 80
166 190 72
167 191 72
169 193 84
165 190 72
168 192 57
173 198 92
166 191 67
168 192 72
174 197 88
172 195 80
170 194 88
167 193 76
170 195 92
167 191 67
172 195 80
171 195 76
172 196 84
171 196 95
166 191 67
162 186 62
166 189 72
167 192 84
170 193 92
168 191 88
165 189 67
163 187 102
167 190 62
161 184 76
169 193 88
171 195 99
163 188 80
165 187 99
166 189 84
164 187 84
166 190 99
163 186 92
167 190 92
163 188 84
164 188 80
163 187 84
163 186 95
165 188 95
162 185 102
162 185 102
161 185 76
164 187 88
164 186 84
160 184 80
158 181 99
165 188 99
163 186 76
162 184 95
163 185 84
161 184 102
161 183 88
163 186 95
156 179 80
159 182 80
167 189 105
167 188 88
159 182 102
161 184 88
157 180 99
157 180 92
159 182 99
154 176 108
157 179 76
157 180 88
152 174 84
150 173 80
152 173 80
146 169 84
143 165 72
146 168 72
150 172 80
158 180 95
154 175 88
143 165 72
146 168 67
142 164 51
144 165 72
150 170 72
148 170 72
143 165 76
132 153 51
127 149 88
107 129 76
109 132 118
99 125 137
91 118 121
82 109 107
78 105 118
83 110 110
79 106 118
94 118 115
71 98 100
83 109 112
104 129 145
87 113 120
83 111 118
102 126 134
95 120 122
83 110 122
92 117 117
95 121 132
96 122 136
99 124 120
96 122 126
95 120 127
96 121 135
93 119 125
100 125 133
96 121 137
97 122 140
98 123 140
88 114 120
85 111 135
77 105 141
81 108 133
79 107 146
77 103 131
86 110 136
78 104 139
84 108 122
79 104 110
75 99 120
85 109 129
63 94 121
77 103 120
74 103 123
76 104 118
71 101 130
64 95 113
68 99 121
61 95 118
69 99 124
64 95 110
72 101 117
64 95 116
64 95 113
63 93 107
58 89 117
62 94 111
55 87 103
60 93 114
63 95 107
57 90 110
59 91 107
56 90 120
60 93 120
58 92 122
56 89 110
59 93 128
57 90 113
56 88 103
58 91 120
58 92 111
57 91 103
56 90 117
58 92 115
59 93 124
59 93 131
60 94 120
57 90 107
58 92 129
59 94 133
59 93 111
58 91 114
58 91 114
58 92 111
56 90 105
59 93 113
59 93 125
58 92 117
58 91 118
59 93 126
58 92 118
56 90 108
59 93 120
56 89 102
60 95 126
58 91 118
58 92 115
57 90 105
58 92 118
58 92 111
58 91 110
57 91 115
58 91 113
59 93 125
55 88 105
56 90 105
56 89 107
57 90 114
56 89 110
58 91 113
59 94 124
60 93 126
56 89 99
58 91 125
56 88 103
57 90 103
55 88 111
55 88 111
56 88 103
56 88 100
57 91 113
56 90 99
56 88 110
54 86 90
55 88 95
55 88 97
55 88 102
56 89 111
60 90 97
61 89 92
62 87 74
101 121 67
105 124 57
93 109 31
96 111 0
106 121 0
101 116 0
108 120 0
117 131 0
104 118 0
127 143 0
105 118 0
115 131 0
118 134 0
109 123 0
109 126 0
115 131 0
124 139 0
110 126 0
123 137 0
124 141 0
130 147 0
125 141 0
119 134 0
113 128 0
127 145 0
133 149 0
129 146 0
130 146 0
112 127 0
123 141 0
127 144 0
126 143 0
145 162 0
128 145 0
125 140 0
128 143 0
136 153 0
131 149 0
131 147 0
128 143 0
136 151 0
125 141 0
129 148 0
131 148 0
134 148 0
131 150 0
129 143 0
131 147 0
143 162 0
130 146 0
125 140 0
143 160 0
128 145 0
138 155 0
148 165 0
140 159 0
143 160 0
132 146 0
138 156 0
148 165 0
147 164 0
134 151 0
135 150 0
142 158 0
141 159 0
144 164 0
140 157 0
135 154 0
142 157 0
147 165 0
144 163 0
148 167 0
145 161 0
149 167 0
136 152 0
143 160 0
147 162 0
149 166 0
150 168 0
152 169 0
148 164 0
150 166 0
152 173 0
146 164 0
148 164 0
151 168 0
139 157 0
146 162 0
148 167 0
148 165 0
154 171 0
147 165 0
149 166 0
152 169 0
141 156 0
154 173 0
152 170 0
153 169 0
153 171 0
152 170 0
153 170 0
147 167 0
150 167 0
154 171 0
152 168 0
156 174 0
150 167 0
151 169 0
148 166 0
153 172 0
153 170 0
159 179 0
143 157 0
151 169 0
157 173 0
157 174 0
155 173 0
156 174 0
159 177 0
152 171 0
156 173 0
161 178 0
158 174 0
159 177 0
156 174 0
155 174 0
161 180 0
156 173 0
155 174 0
161 179 0
161 180 0
153 169 0
161 179 0
152 170 0
154 171 0
163 180 0
162 182 0
153 170 0
160 180 0
163 182 0
159 178 0
158 175 0
157 173 0
162 180 0
164 182 0
166 185 0
165 184 0
159 179 0
163 181 0
165 185 0
163 181 0
164 183 0
160 179 0
157 174 0
165 184 0
165 185 0
167 188 0
164 183 0
164 184 0
165 186 0
164 183 0
161 182 0
162 181 0
162 181 0
163 182 0
162 181 0
165 184 0
166 184 0
164 183 0
165 186 0
168 188 0
165 184 0
162 180 0
169 194 84
170 194 72
171 196 84
172 196 72
171 195 76
173 196 76
169 193 76
171 196 57
169 192 76
168 192 80
170 195 99
168 192 57
170 194 76
167 191 80
170 194 80
167 191 80
171 196 84
171 194 84
169 193 72
171 195 72
170 195 76
172 196 84
169 193 80
169 194 84
166 190 84
174 197 88
166 190 72
166 190 67
170 194 88
164 188 80
170 194 57
166 190 88
167 191 92
173 195 84
159 183 88
171 195 92
169 194 84
172 195 95
171 194 84
166 190 84
163 187 84
170 194 95
164 187 62
169 192 95
172 194 92
168 191 84
168 190 88
168 192 92
168 191 88
166 189 92
164 187 88
167 191 108
163 187 95
167 190 99
165 188 99
167 190 102
169 192 108
165 188 76
156 179 99
162 184 102
154 176 84
165 187 108
164 187 80
156 178 88
166 189 84
158 180 88
162 183 95
155 178 80
160 182 92
158 181 92
163 186 92
162 185 88
160 183 76
158 181 92
149 171 88
153 175 88
157 179 99
157 179 92
150 172 92
158 181 111
155 178 99
155 177 114
158 180 72
148 169 84
156 178 95
151 172 57
145 167 76
137 159 36
142 163 88
149 171 76
143 165 76
145 167 99
138 160 84
143 164 76
142 163 88
123 144 76
129 150 90
115 136 90
95 119 88
102 125 125
97 122 110
95 121 125
91 118 115
100 125 120
97 123 122
91 117 125
83 110 107
87 113 113
95 121 128
93 119 132
87 113 118
90 117 140
88 114 124
86 113 133
101 125 129
106 130 139
98 123 139
93 120 121
98 123 132
103 128 141
103 127 134
97 122 121
95 120 135
81 109 126
95 121 144
89 116 141
92 117 130
106 130 144
89 115 135
93 116 133
89 112 125
76 102 134
78 104 120
91 112 132
75 101 125
76 104 131
91 115 141
86 111 129
80 106 135
68 96 117
71 99 132
61 93 124
73 103 124
74 104 120
64 96 108
75 102 96
61 94 125
63 94 100
64 94 102
71 99 121
62 94 115
62 94 114
58 90 108
56 90 116
61 93 113
59 91 107
60 93 110
58 92 114
57 91 107
57 91 116
56 89 99
57 91 118
58 92 113
58 91 113
57 90 113
55 88 105
57 91 118
56 89 111
56 89 118
58 91 120
58 91 125
57 90 123
58 92 117
58 91 105
57 90 106
59 92 122
57 91 113
58 92 122
59 93 128
57 90 102
57 90 111
57 90 99
60 94 120
57 91 113
58 92 125
58 92 108
58 92 115
59 92 118
58 92 120
58 92 118
59 93 135
56 90 108
58 91 103
57 90 110
60 94 125
57 90 114
56 89 107
57 90 113
57 90 111
59 92 122
59 94 124
58 92 120
58 91 121
58 92 114
59 92 113
58 92 113
58 92 117
58 91 117
58 91 102
57 90 111
57 90 95
56 88 107
57 89 110
56 89 108
58 91 120
56 89 107
55 87 102
57 90 102
56 88 107
56 89 99
55 87 107
54 85 97
53 84 84
56 87 107
82 105 78
76 97 67
100 119 70
85 101 51
108 122 0
108 123 18
91 107 0
101 115 0
100 114 0
106 119 0
103 119 0
115 130 0
114 130 0
108 121 0
117 132 0
113 130 0
116 132 0
115 131 0
123 138 0
111 128 0
113 129 0
118 134 0
124 140 0
118 132 0
130 145 0
117 133 0
136 153 0
130 146 0
116 133 0
116 131 0
132 149 0
136 152 0
132 149 0
132 150 0
129 145 0
125 142 0
143 159 0
129 147 0
134 152 0
135 153 0
141 158 0
128 144 0
134 153 0
130 148 0
140 160 0
134 150 0
135 152 0
136 154 0
138 155 0
139 157 0
139 157 0
137 155 0
134 151 0
129 145 0
132 148 0
138 154 0
138 156 0
140 157 0
136 153 0
139 156 0
131 147 0
144 162 0
144 161 0
140 157 0
145 163 0
141 156 0
141 156 0
147 166 0
138 154 0
152 171 0
145 162 0
147 165 0
137 155 0
139 155 0
141 160 0
144 158 0
141 160 0
149 167 0
144 162 0
139 156 0
140 157 0
147 165 0
149 166 0
141 158 0
148 166 0
147 164 0
147 161 0
148 165 0
150 167 0
142 160 0
153 171 0
157 175 0
159 176 0
153 170 0
157 176 0
155 171 0
147 165 0
149 166 0
158 176 0
156 175 0
155 174 0
152 166 0
144 162 0
156 172 0
148 164 0
148 165 0
151 168 0
149 166 0
155 175 0
160 177 0
151 169 0
150 168 0
156 174 0
145 160 0
158 176 0
157 174 0
156 175 0
157 175 0
150 169 0
150 168 0
160 177 0
151 167 0
156 175 0
162 179 0
159 178 0
159 177 0
156 174 0
157 174 0
162 179 0
159 178 0
158 178 0
164 182 0
159 176 0
160 177 0
153 170 0
161 183 0
161 180 0
157 175 0
156 175 0
163 180 0
158 177 0
157 176 0
162 180 0
157 174 0
162 182 0
161 180 0
160 180 0
164 184 0
159 177 0
159 177 0
163 182 0
159 177 0
165 184 0
158 175 0
160 178 0
162 182 0
159 179 0
163 182 0
163 183 0
168 186 0
157 174 0
162 181 0
165 186 0
162 182 0
168 187 0
164 185 0
163 181 0
161 182 0
158 177 0
165 184 0
163 186 0
162 181 0
167 185 0
164 184 0
165 185 0
164 185 0
173 197 92
173 197 67
170 194 80
172 195 76
171 195 76
167 191 57
174 199 95
166 190 80
172 196 88
170 194 57
169 193 72
171 195 67
170 194 62
171 195 62
170 193 51
172 196 76
167 191 88
170 194 62
170 194 76
168 192 88
169 193 67
174 196 99
171 195 88
169 193 88
173 196 80
167 191 92
172 196 108
169 193 80
171 194 36
173 197 84
165 189 72
171 195 105
166 189 92
171 194 95
173 197 92
167 191 51
166 190 62
169 191 88
169 192 76
161 184 62
164 188 92
161 185 99
168 190 108
168 191 84
161 185 88
173 195 92
159 181 80
167 189 88
170 193 114
167 190 84
166 190 95
173 196 120
163 185 102
161 184 76
156 179 102
161 185 76
163 185 62
167 190 92
165 189 108
167 189 114
165 188 80
162 186 92
161 184 111
167 189 95
160 182 95
164 187 95
169 192 105
164 186 111
164 187 99
158 181 95
161 183 111
160 183 92
157 180 99
161 183 80
157 179 84
160 182 76
158 181 88
162 185 99
159 180 95
154 176 80
153 175 99
153 175 84
148 170 67
157 178 88
145 166 76
150 172 67
158 180 62
151 173 84
145 166 57
144 165 88
144 166 99
147 167 76
137 157 80
147 168 80
137 157 62
142 164 80
138 159 88
133 153 72
102 125 94
97 119 105
83 110 102
89 115 124
96 121 108
96 121 127
86 113 115
97 121 113
90 116 133
103 127 135
90 115 120
94 119 122
97 123 136
94 119 115
92 116 117
87 112 113
110 133 135
93 119 134
99 124 132
101 125 131
90 115 110
95 121 129
103 126 131
98 124 138
87 115 129
96 121 129
88 114 126
100 124 144
85 110 121
86 111 131
94 119 138
75 103 129
85 110 127
85 109 125
80 105 132
82 106 129
95 114 131
81 105 121
85 107 119
80 106 111
80 103 106
74 101 120
73 101 120
71 100 117
65 97 121
68 99 113
72 101 113
65 96 102
71 100 96
67 97 118
75 103 103
65 96 119
60 92 110
59 90 108
61 93 112
60 93 110
58 91 107
59 92 116
58 91 108
57 90 106
56 89 97
59 91 108
58 91 120
56 89 116
59 92 120
56 89 113
56 89 114
58 91 124
57 90 115
58 91 118
57 91 108
55 88 113
56 89 113
57 90 108
58 92 121
59 93 114
57 90 108
59 93 128
57 90 115
58 93 122
57 91 113
58 91 115
57 90 108
57 91 111
58 92 114
56 89 108
56 90 111
57 90 115
58 91 122
56 89 100
56 89 108
58 91 117
55 87 100
56 88 110
56 89 109
56 89 117
56 89 105
59 93 126
58 92 118
58 92 120
57 90 111
58 92 120
59 93 121
57 90 105
59 93 114
57 90 114
57 91 105
57 91 115
56 89 97
55 88 97
57 90 110
57 90 100
56 89 110
57 91 108
55 87 95
54 87 90
58 91 117
57 90 115
56 88 102
56 88 105
54 86 95
55 87 97
54 86 102
56 87 94
64 90 65
60 84 72
78 98 72
96 114 60
93 109 31
100 117 25
104 120 18
110 125 0
107 122 0
101 116 0
109 122 0
111 126 0
110 125 0
103 120 0
109 125 0
123 139 0
104 121 0
114 130 0
121 137 0
114 131 0
116 130 0
122 137 0
121 137 0
105 120 0
128 144 0
112 128 0
118 134 0
128 143 0
131 148 0
130 146 0
123 140 0
125 143 0
125 143 0
123 139 0
130 148 0
128 146 0
134 151 0
139 155 0
129 146 0
131 147 0
135 153 0
137 156 0
127 141 0
141 159 0
128 147 0
140 158 0
142 160 0
124 142 0
137 154 0
131 147 0
144 162 0
141 159 0
135 153 0
143 161 0
127 142 0
139 157 0
143 160 0
139 157 0
138 155 0
135 151 0
141 158 0
131 145 0
137 154 0
152 170 0
135 152 0
142 160 0
138 155 0
144 161 0
136 152 0
144 159 0
143 160 0
153 171 0
146 165 0
149 165 0
139 156 0
145 163 0
145 162 0
142 159 0
142 159 0
154 174 0
144 164 0
149 166 0
149 167 0
142 159 0
143 160 0
144 161 0
153 170 0
147 163 0
155 174 0
151 167 0
146 162 0
149 167 0
152 170 0
154 170 0
150 168 0
154 171 0
151 169 0
150 169 0
143 162 0
155 173 0
141 158 0
149 166 0
152 169 0
151 167 0
153 170 0
152 169 0
151 168 0
152 170 0
150 166 0
152 170 0
151 169 0
151 169 0
152 170 0
162 178 0
157 172 0
151 168 0
154 172 0
148 165 0
151 168 0
151 168 0
152 171 0
155 173 0
154 173 0
152 169 0
161 180 0
162 182 0
156 174 0
152 168 0
158 177 0
156 174 0
163 180 0
155 173 0
156 173 0
156 177 0
160 178 0
156 175 0
161 181 0
161 178 0
160 178 0
167 186 0
163 181 0
162 182 0
166 186 0
160 177 0
161 180 0
161 182 0
164 184 0
156 175 0
164 182 0
164 183 0
163 183 0
164 183 0
161 179 0
165 185 0
165 184 0
164 182 0
165 185 0
167 186 0
165 184 0
162 181 0
162 183 0
158 178 0
162 182 0
164 184 0
162 182 0
162 183 0
160 179 0
161 178 0
163 184 0
164 183 0
162 181 0
169 188 0
166 186 0
161 180 0
164 184 0
167 188 0
164 185 0
165 183 0
171 195 88
172 196 76
168 192 84
169 194 88
170 194 84
167 192 84
170 195 88
172 197 76
171 195 62
165 189 57
164 188 51
171 195 72
168 193 72
166 189 67
168 193 76
170 194 99
169 192 88
168 192 57
167 190 72
172 197 84
165 189 76
170 194 102
169 193 76
166 189 99
172 197 99
169 193 99
163 187 92
169 193 102
167 190 72
169 192 88
166 190 84
171 194 108
172 195 84
166 190 99
173 196 92
174 197 108
161 184 80
160 183 95
167 191 102
167 190 88
165 188 80
165 188 92
165 188 80
163 186 84
163 187 84
163 187 80
162 185 80
167 191 76
165 188 92
160 184 88
167 191 84
167 192 108
165 188 95
166 190 99
169 192 108
158 180 105
165 189 92
160 182 92
168 191 95
164 187 80
164 185 114
166 190 108
163 187 102
160 182 102
162 185 88
161 185 99
158 181 84
157 180 108
164 186 72
163 186 92
165 187 95
160 183 62
169 192 114
160 182 99
161 182 99
160 182 99
160 181 105
152 173 84
159 181 92
155 176 84
147 168 88
152 174 102
157 178 92
152 173 92
149 170 80
146 166 80
151 172 88
149 171 92
153 174 80
150 170 102
141 162 76
150 171 95
136 155 88
143 164 72
136 157 62
132 153 67
124 145 57
143 164 72
134 155 88
108 129 95
96 120 102
77 104 92
73 100 103
92 117 122
98 122 115
95 120 110
99 124 124
84 111 110
92 117 129
76 105 107
101 126 137
86 113 120
78 106 114
104 128 131
91 117 122
107 131 135
100 123 124
101 125 124
101 126 129
103 128 122
91 118 128
96 120 131
87 113 143
88 114 129
91 116 135
109 132 133
91 116 132
82 108 126
90 112 131
89 112 134
82 106 121
89 113 131
79 102 109
97 118 132
72 99 131
80 105 129
88 111 118
85 108 117
87 111 125
68 96 117
69 97 118
76 102 115
64 94 114
71 99 122
71 101 108
69 98 120
75 103 111
63 94 111
61 92 113
64 95 106
65 96 105
67 97 115
64 95 113
61 93 105
60 93 106
55 88 113
61 93 103
62 94 118
57 90 115
54 86 98
57 90 106
57 90 110
57 90 108
58 92 120
58 91 117
57 90 118
56 89 114
58 91 118
58 91 120
55 88 101
57 91 114
56 89 111
56 89 99
59 92 117
57 90 99
55 88 100
57 90 94
58 91 125
55 88 102
56 89 103
58 92 113
57 90 111
57 91 97
58 91 113
56 89 118
58 91 111
57 90 105
58 92 111
59 93 117
58 92 113
57 90 110
57 90 103
56 90 108
55 88 108
57 91 113
57 90 114
56 89 111
57 90 115
57 90 117
57 90 103
57 90 108
57 90 117
57 90 113
56 89 99
58 91 108
59 92 114
56 88 97
55 88 92
55 88 97
54 85 94
56 89 110
57 90 110
55 87 95
55 86 97
58 91 120
55 87 111
55 87 114
55 87 102
54 86 92
55 88 94
63 89 82
73 97 76
81 103 67
88 106 54
86 104 47
91 105 25
105 120 18
106 121 0
100 114 0
110 126 0
104 118 0
104 119 0
107 123 0
124 142 0
120 136 0
119 135 0
115 131 0
109 124 0
113 128 0
125 141 0
104 120 0
119 135 0
119 136 0
120 137 0
133 150 0
119 134 0
117 133 0
124 139 0
123 141 0
116 132 0
124 138 0
122 136 0
127 144 0
130 148 0
122 139 0
127 142 0
132 149 0
132 149 0
135 152 0
133 149 0
128 144 0
126 144 0
140 158 0
137 153 0
148 167 0
133 150 0
128 147 0
137 155 0
129 146 0
130 148 0
138 157 0
135 152 0
138 156 0
139 157 0
130 148 0
140 157 0
133 148 0
140 157 0
147 165 0
139 156 0
146 164 0
139 158 0
140 157 0
145 164 0
140 157 0
142 159 0
142 160 0
137 155 0
141 158 0
134 151 0
141 159 0
148 165 0
137 156 0
143 161 0
141 159 0
154 172 0
147 164 0
138 156 0
151 168 0
144 160 0
140 156 0
147 166 0
141 159 0
148 167 0
151 167 0
150 168 0
150 169 0
145 163 0
154 174 0
153 171 0
157 175 0
156 174 0
152 168 0
146 165 0
149 167 0
144 160 0
151 168 0
154 170 0
162 182 0
145 163 0
154 171 0
151 170 0
155 175 0
148 166 0
155 174 0
156 175 0
157 175 0
154 171 0
158 176 0
154 172 0
158 177 0
152 172 0
153 171 0
157 176 0
156 174 0
152 168 0
152 168 0
158 173 0
158 176 0
151 170 0
162 182 0
158 177 0
160 178 0
154 173 0
161 179 0
160 177 0
157 176 0
157 175 0
159 178 0
156 174 0
156 171 0
156 174 0
160 176 0
162 180 0
154 172 0
158 176 0
158 177 0
158 177 0
163 181 0
158 175 0
157 177 0
153 171 0
160 179 0
160 177 0
162 182 0
163 184 0
159 177 0
159 177 0
159 177 0
157 174 0
165 182 0
161 181 0
167 187 0
160 176 0
160 179 0
164 185 0
163 183 0
157 174 0
165 185 0
161 178 0
157 176 0
168 188 0
165 186 0
163 183 0
163 183 0
163 182 0
165 185 0
166 185 0
162 181 0
164 183 0
166 186 0
163 180 0
163 184 0
165 185 0
168 189 0
166 186 0
162 181 0
162 181 0
163 183 0
164 185 0
166 191 57
172 196 84
175 199 76
171 195 72
173 197 76
168 192 67
165 189 88
173 198 72
171 194 80
166 191 84
170 194 62
164 188 88
171 194 76
169 193 72
167 191 51
169 193 84
173 196 76
170 195 88
169 194 67
170 194 84
170 194 80
175 198 88
172 196 84
166 190 80
174 198 108
171 195 108
172 196 84
164 187 72
174 196 92
171 195 102
171 194 92
165 189 95
170 193 76
166 190 92
171 195 108
165 188 88
172 196 84
162 186 99
163 186 84
165 189 88
167 191 108
166 189 84
170 193 99
161 184 92
174 196 114
169 193 92
166 188 99
169 192 95
169 191 95
166 189 92
165 187 88
162 185 76
166 190 102
165 188 111
161 185 99
166 189 114
160 183 92
164 188 99
163 186 92
165 187 95
165 188 95
162 185 95
164 186 86
162 185 99
161 184 105
161 182 84
160 182 117
161 183 99
166 189 102
163 185 108
150 172 76
161 184 84
159 181 102
157 180 88
157 180 88
155 176 92
158 180 88
147 169 105
159 181 95
141 162 95
148 169 84
151 173 80
160 182 95
147 169 72
153 174 102
142 163 72
154 176 95
152 173 80
150 171 95
146 167 88
149 170 76
142 163 88
136 156 80
139 158 57
150 170 99
132 152 67
135 155 76
133 151 70
130 149 80
123 144 90
96 118 84
98 122 111
93 116 108
95 121 122
82 109 106
87 113 118
83 110 120
95 118 122
92 116 125
80 107 105
90 115 115
91 116 121
88 114 107
99 123 129
102 126 130
101 125 139
96 121 134
101 126 117
86 112 112
94 120 122
89 115 128
92 118 134
105 129 141
107 130 131
90 115 117
82 110 134
96 121 129
96 121 127
86 111 122
90 113 130
97 118 130
80 105 125
95 116 122
98 119 112
98 119 123
83 106 116
88 111 101
90 112 124
86 112 117
83 108 123
73 99 124
76 102 105
69 96 107
74 102 120
83 111 117
67 99 115
64 94 107
71 99 100
61 92 100
63 94 113
69 99 103
61 93 99
64 95 120
64 96 105
57 89 94
54 87 92
59 91 108
59 91 108
57 90 100
55 88 108
58 91 114
57 90 105
58 91 122
57 90 115
57 90 117
56 89 95
56 89 111
59 92 121
57 90 117
56 88 99
58 92 117
58 91 117
56 89 105
56 89 103
58 91 114
57 91 117
57 90 111
59 93 126
59 93 120
57 89 107
60 94 133
56 88 115
55 88 105
57 91 118
57 91 113
56 90 107
57 90 117
56 89 105
58 91 111
56 89 103
57 91 111
58 92 117
57 90 111
57 90 108
57 90 113
56 89 110
55 87 100
57 90 108
58 91 113
56 88 107
57 90 107
57 90 102
55 88 103
56 89 100
57 90 118
58 91 118
57 90 108
54 86 102
53 84 88
55 87 103
55 88 94
56 88 103
57 90 107
58 91 118
56 89 108
54 85 90
53 85 94
54 86 88
60 89 88
64 92 84
70 93 70
90 108 44
92 108 40
87 106 40
105 121 18
110 126 18
110 125 0
104 119 0
112 126 0
105 120 0
110 126 0
126 142 0
110 124 0
121 137 0
113 128 0
113 128 0
115 131 0
115 130 0
126 144 0
110 127 0
102 118 0
110 124 0
117 134 0
124 140 0
118 133 0
110 126 0
126 142 0
127 145 0
118 134 0
117 133 0
126 143 0
122 137 0
130 149 0
128 146 0
121 138 0
125 141 0
134 153 0
133 150 0
131 147 0
123 140 0
125 141 0
136 154 0
134 149 0
141 159 0
127 143 0
124 140 0
138 158 0
136 154 0
132 151 0
136 154 0
138 156 0
136 154 0
129 146 0
137 154 0
141 161 0
137 153 0
136 153 0
142 159 0
131 148 0
144 161 0
140 159 0
137 155 0
134 151 0
138 157 0
141 159 0
136 157 0
140 158 0
142 160 0
139 156 0
141 161 0
143 160 0
151 171 0
147 165 0
141 158 0
145 163 0
153 171 0
139 157 0
142 161 0
149 168 0
147 165 0
151 170 0
152 168 0
144 161 0
140 158 0
145 160 0
142 159 0
150 166 0
145 164 0
151 170 0
152 169 0
148 165 0
150 169 0
147 165 0
151 166 0
150 170 0
154 172 0
145 163 0
153 171 0
151 170 0
149 167 0
154 172 0
150 169 0
155 174 0
145 162 0
155 174 0
156 172 0
149 167 0
153 172 0
155 175 0
150 168 0
162 181 0
157 175 0
150 168 0
155 173 0
156 174 0
150 170 0
156 174 0
157 175 0
153 169 0
160 179 0
158 179 0
159 179 0
164 183 0
160 179 0
160 178 0
153 173 0
157 176 0
155 172 0
155 172 0
160 177 0
151 168 0
151 169 0
158 176 0
155 174 0
161 181 0
158 176 0
153 170 0
154 171 0
155 173 0
157 175 0
164 184 0
160 180 0
161 181 0
152 169 0
161 180 0
158 177 0
159 180 0
162 181 0
165 186 0
160 179 0
156 174 0
163 181 0
164 182 0
168 188 0
163 182 0
154 171 0
165 185 0
157 177 0
161 178 0
156 176 0
158 175 0
163 183 0
160 180 0
164 183 0
162 182 0
163 182 0
164 181 0
162 185 0
166 185 0
166 185 0
161 180 0
165 185 0
166 186 0
163 182 0
158 178 0
165 182 0
169 190 0
163 183 0
168 188 0
164 184 0
171 195 72
172 195 57
172 196 84
172 196 67
169 193 67
174 197 76
170 194 84
169 193 80
169 194 92
172 197 102
170 195 72
171 196 84
168 191 84
174 197 80
170 194 72
167 191 67
177 201 88
171 195 95
168 191 84
165 188 67
172 196 95
171 195 67
171 194 84
168 191 67
166 190 99
174 196 88
172 195 105
170 193 95
168 191 105
168 192 102
169 192 108
170 193 95
171 194 102
169 193 95
165 189 102
173 196 92
169 194 105
172 195 99
167 190 72
166 190 99
167 190 95
161 184 92
169 192 92
167 190 99
169 194 102
163 186 99
171 194 102
163 189 95
171 194 84
169 192 114
164 187 95
165 190 107
157 180 67
171 194 111
166 187 99
172 195 105
169 192 99
164 187 99
163 186 95
166 188 108
163 186 88
167 190 95
168 192 122
164 187 80
164 187 111
158 181 95
159 182 84
165 187 99
163 186 95
161 184 84
166 188 88
160 182 92
161 183 88
159 180 80
163 185 88
156 179 88
155 178 84
160 182 99
163 185 102
159 181 92
159 181 111
158 179 92
148 170 84
147 169 95
156 178 88
157 177 95
151 172 84
147 168 82
146 167 88
150 171 92
141 162 88
134 154 76
137 157 95
147 166 76
151 172 102
132 152 72
137 156 67
136 156 72
133 153 80
126 145 72
120 141 99
105 127 92
110 132 113
90 115 104
89 115 107
82 108 118
94 119 121
93 117 120
100 124 122
92 117 111
97 121 132
74 102 107
97 121 113
87 114 122
83 110 105
105 128 126
92 118 110
92 119 124
105 129 129
86 113 110
79 105 109
75 104 111
103 127 129
90 116 136
95 120 107
102 126 133
93 117 121
88 112 124
93 118 124
90 113 124
92 115 125
90 113 125
91 115 114
90 112 109
94 115 122
99 122 119
86 109 109
83 107 112
91 114 103
76 102 115
78 104 117
74 103 117
79 103 110
63 95 114
71 99 102
70 99 97
66 96 107
63 93 113
69 97 105
65 96 99
67 98 113
61 93 113
63 94 107
65 95 107
64 93 99
61 93 111
63 95 116
59 93 128
59 91 113
57 90 100
55 88 99
55 88 82
55 88 104
56 89 100
55 87 105
58 91 117
56 89 100
55 88 93
56 89 108
57 91 108
57 91 115
57 91 114
57 90 107
56 89 97
58 91 105
58 91 125
55 88 102
57 90 114
57 91 110
57 89 111
57 90 113
57 91 117
56 89 97
59 92 118
58 92 111
56 89 106
56 88 110
58 91 122
56 89 108
57 90 95
56 88 100
57 90 102
56 89 99
58 91 121
56 88 103
56 89 103
56 88 111
58 92 118
55 87 102
58 91 113
57 90 103
58 92 115
55 88 99
54 86 97
56 89 110
57 90 114
54 86 103
55 87 100
58 91 113
56 89 114
53 84 88
55 88 103
54 86 95
55 87 95
55 86 97
55 88 92
55 86 90
70 97 78
70 94 67
74 95 51
95 113 57
96 111 36
104 119 36
82 97 18
115 131 18
103 120 0
109 124 0
105 119 0
103 117 0
90 105 0
107 121 0
99 116 0
104 119 0
116 132 0
104 121 0
99 112 0
116 132 0
118 134 0
115 132 0
117 131 0
125 144 0
114 131 0
114 130 0
132 149 0
116 133 0
115 131 0
116 134 0
120 135 0
120 137 0
120 136 0
118 137 0
125 141 0
125 140 0
126 144 0
133 149 0
134 154 0
138 155 0
135 151 0
131 148 0
129 147 0
137 154 0
141 160 0
139 159 0
132 149 0
135 154 0
135 153 0
136 154 0
136 153 0
135 152 0
132 148 0
142 160 0
132 149 0
134 150 0
136 155 0
139 158 0
132 150 0
143 161 0
146 164 0
138 156 0
141 158 0
142 160 0
141 159 0
139 157 0
136 154 0
144 162 0
144 161 0
139 157 0
142 158 0
136 154 0
143 162 0
143 161 0
150 170 0
144 160 0
144 162 0
138 157 0
147 166 0
146 164 0
151 170 0
145 161 0
152 171 0
149 165 0
146 165 0
148 166 0
151 169 0
153 170 0
139 155 0
154 173 0
142 160 0
149 168 0
154 172 0
145 164 0
147 166 0
155 174 0
150 169 0
146 163 0
153 171 0
152 169 0
151 168 0
152 171 0
148 165 0
151 169 0
150 168 0
145 162 0
156 176 0
152 170 0
156 175 0
155 172 0
154 171 0
152 170 0
147 162 0
154 171 0
147 166 0
152 167 0
162 183 0
156 174 0
149 167 0
155 174 0
151 167 0
149 165 0
163 184 0
155 172 0
159 178 0
155 174 0
158 175 0
156 173 0
160 178 0
158 177 0
157 175 0
153 171 0
156 174 0
156 176 0
163 180 0
155 174 0
154 174 0
157 175 0
159 177 0
159 177 0
159 177 0
158 177 0
162 179 0
160 178 0
159 180 0
159 176 0
157 176 0
158 179 0
164 184 0
165 187 0
159 181 0
157 176 0
163 181 0
165 184 0
162 180 0
163 181 0
158 177 0
155 174 0
164 183 0
159 178 0
161 179 0
160 181 0
164 182 0
159 178 0
166 186 0
163 184 0
168 188 0
165 185 0
161 182 0
161 181 0
164 182 0
166 185 0
163 183 0
162 183 0
162 183 0
164 184 0
165 185 0
162 183 0
166 187 0
169 188 0
166 187 0
164 183 0
166 187 0
170 194 72
169 193 67
170 194 62
172 195 67
169 193 72
170 195 72
171 195 72
170 194 76
172 196 80
170 194 72
172 195 72
168 192 76
170 193 72
171 195 105
167 191 80
169 194 57
167 190 76
170 193 88
167 191 111
168 192 88
170 193 102
174 197 95
169 193 88
169 192 84
168 192 88
167 190 99
167 190 84
170 194 114
170 193 88
164 188 84
172 194 111
170 192 76
168 192 88
169 192 72
168 190 108
165 189 95
170 193 108
164 187 99
163 186 92
173 196 105
162 184 88
167 189 92
169 192 95
171 194 108
164 187 102
161 184 80
168 191 105
168 191 88
163 187 102
169 191 99
166 190 105
168 190 105
165 188 92
169 192 120
163 185 99
166 189 114
161 184 97
169 191 110
167 189 95
165 187 95
154 176 95
163 186 88
162 185 99
166 188 105
163 186 84
160 181 88
161 182 108
162 185 99
149 172 72
156 178 80
166 189 105
159 182 92
157 179 102
160 182 80
160 182 99
160 182 95
161 182 114
156 178 88
161 183 117
152 174 92
153 173 95
155 178 102
149 171 76
146 168 72
154 175 111
154 174 95
152 173 67
155 176 102
141 163 84
146 168 76
147 167 108
146 167 76
136 155 80
145 165 76
139 159 76
147 167 92
141 162 100
152 173 80
137 156 72
135 155 70
115 135 47
125 146 104
108 128 92
99 122 97
91 116 111
96 121 108
83 108 100
95 119 118
88 113 110
98 122 105
84 109 108
90 114 118
95 120 129
101 126 129
96 122 120
102 126 121
92 118 130
95 119 126
94 120 119
100 123 115
90 117 128
91 116 113
104 126 120
85 112 118
89 115 128
101 124 134
90 116 125
104 127 124
91 114 120
97 121 131
99 121 110
78 103 115
103 123 110
92 115 111
93 114 102
82 108 113
80 106 122
83 110 122
100 120 115
82 105 99
83 108 119
69 97 111
78 104 112
77 105 113
76 104 107
61 91 101
72 100 99
70 98 103
66 94 100
63 93 99
66 97 110
66 96 99
65 94 92
60 92 105
60 92 99
57 89 100
58 90 105
58 91 117
57 88 95
57 89 102
55 87 88
57 89 114
57 90 103
54 87 102
57 89 100
56 89 97
57 90 105
55 87 97
54 85 92
58 91 113
56 89 107
55 88 99
57 90 110
57 91 114
57 90 111
54 86 84
57 91 105
59 92 118
56 90 103
56 88 108
56 89 107
56 88 99
54 87 84
57 91 110
56 88 108
57 90 108
57 91 108
57 91 117
55 88 107
57 90 120
58 91 110
56 88 100
56 89 102
55 87 102
56 89 102
57 91 110
55 88 97
54 86 97
58 91 115
55 87 99
57 90 105
57 90 102
55 87 99
58 90 113
56 89 110
53 85 88
56 89 100
57 90 107
54 87 88
56 88 102
57 90 118
54 86 94
54 87 86
53 84 94
52 83 78
57 87 95
65 90 76
79 98 65
64 87 62
85 104 54
81 99 25
100 116 0
93 109 0
102 118 0
109 123 0
104 120 0
104 120 0
112 128 0
112 129 0
109 124 0
113 127 0
112 129 0
101 116 0
113 128 0
124 141 0
120 138 0
123 139 0
115 131 0
123 140 0
119 135 0
125 140 0
119 136 0
119 136 0
121 138 0
125 143 0
120 136 0
124 141 0
122 139 0
126 145 0
133 151 0
121 139 0
127 145 0
124 141 0
127 145 0
132 146 0
129 146 0
130 146 0
129 148 0
142 159 0
129 147 0
129 146 0
128 145 0
130 145 0
132 148 0
131 148 0
142 162 0
140 157 0
138 154 0
133 151 0
142 161 0
144 162 0
137 154 0
139 156 0
134 153 0
144 164 0
153 173 0
139 155 0
129 147 0
149 167 0
136 155 0
142 159 0
129 148 0
135 153 0
138 154 0
144 163 0
144 161 0
141 160 0
144 162 0
156 174 0
143 160 0
135 152 0
140 157 0
141 160 0
146 165 0
145 162 0
152 169 0
143 162 0
139 157 0
143 160 0
143 161 0
141 158 0
140 159 0
148 168 0
149 165 0
147 163 0
144 161 0
145 164 0
146 162 0
142 162 0
146 165 0
146 164 0
153 171 0
148 166 0
155 175 0
153 172 0
150 167 0
146 163 0
149 168 0
149 167 0
150 165 0
155 174 0
159 179 0
147 164 0
155 175 0
151 170 0
153 170 0
156 174 0
150 167 0
160 179 0
149 167 0
153 169 0
157 177 0
147 163 0
160 179 0
151 170 0
146 163 0
154 172 0
153 174 0
154 171 0
157 175 0
163 182 0
162 181 0
158 176 0
160 180 0
160 179 0
159 178 0
158 177 0
155 172 0
158 176 0
158 177 0
156 175 0
157 176 0
160 179 0
155 175 0
156 176 0
165 186 0
162 181 0
155 172 0
161 182 0
161 180 0
158 176 0
162 183 0
161 181 0
163 184 0
158 177 0
158 177 0
164 185 0
164 184 0
153 171 0
164 183 0
161 179 0
157 175 0
161 182 0
162 180 0
164 185 0
157 176 0
157 177 0
161 179 0
160 178 0
166 186 0
168 188 0
153 172 0
164 184 0
161 182 0
165 186 0
162 182 0
162 180 0
168 189 0
169 188 0
167 189 0
163 183 0
162 183 0
161 180 0
160 181 0
163 183 0
164 185 0
165 184 0
160 179 0
160 180 0
167 188 0
172 195 88
173 197 72
170 193 57
169 193 67
168 191 102
170 195 84
168 192 67
170 193 84
170 194 80
171 194 62
171 194 84
167 191 72
169 193 92
170 194 99
172 197 108
171 194 95
174 197 76
172 195 102
177 200 120
169 193 92
172 196 105
171 194 92
172 196 108
169 192 114
164 188 80
170 194 80
170 193 88
169 193 95
168 191 108
173 197 99
167 190 99
166 189 105
168 193 99
164 188 95
167 191 84
167 189 72
170 192 108
168 192 76
166 188 102
167 190 102
165 188 105
171 195 120
169 193 88
168 190 92
167 190 108
165 189 99
166 190 92
167 191 108
164 188 94
165 188 105
164 187 88
169 193 114
166 189 84
167 190 105
156 180 99
163 186 99
163 186 102
161 184 88
168 190 113
165 188 97
154 177 72
159 183 95
161 182 92
159 184 105
155 177 72
164 186 108
159 182 95
160 183 92
155 178 84
165 187 113
162 184 120
155 178 72
164 186 128
155 177 105
154 176 84
154 175 111
151 173 84
150 172 99
153 176 88
160 182 105
155 176 108
157 179 99
153 174 92
150 171 84
144 165 84
150 171 80
153 174 92
153 173 108
145 166 76
152 174 95
145 164 72
142 163 72
150 171 95
147 167 80
139 158 62
142 162 84
131 151 76
144 163 92
128 148 62
134 153 80
138 157 82
125 144 65
129 149 114
103 124 90
111 132 109
90 114 110
89 112 97
88 114 121
89 114 111
90 115 111
91 117 105
89 115 103
83 108 111
100 125 125
77 105 116
103 126 126
91 116 123
107 132 124
89 115 113
95 121 118
104 129 139
97 122 119
96 122 130
106 129 133
103 125 122
98 121 114
88 115 118
83 108 113
97 120 121
102 125 118
104 126 123
95 119 118
107 128 114
92 115 106
89 114 107
94 116 112
97 118 102
102 126 111
93 118 95
94 115 92
96 120 108
81 106 113
82 108 111
83 109 105
84 110 99
69 94 94
77 105 107
75 103 105
70 98 97
67 97 108
73 98 88
67 95 95
61 91 99
65 93 82
65 94 92
59 91 105
60 92 111
58 90 102
56 88 108
60 92 99
57 90 94
56 89 113
55 88 95
56 89 107
54 86 95
55 87 99
57 90 113
56 88 100
57 90 101
55 87 102
57 90 119
58 92 120
57 90 107
57 91 107
58 92 121
57 90 111
55 88 103
57 90 100
58 92 120
55 88 100
57 90 107
57 91 107
55 87 90
56 88 111
56 89 108
57 90 107
57 89 107
55 87 92
56 89 108
55 88 107
56 89 107
56 88 105
57 91 113
57 89 113
59 93 120
56 89 92
54 86 88
56 89 115
55 87 97
56 89 108
56 88 99
56 88 111
55 87 99
55 87 95
51 81 88
57 89 100
56 89 110
53 84 84
55 87 97
54 86 99
55 87 100
55 85 100
61 89 86
59 88 76
70 96 72
76 99 65
85 102 62
77 95 54
95 111 36
108 124 25
97 112 18
84 99 0
99 113 0
102 118 0
105 120 0
104 119 0
98 113 0
114 129 0
122 137 0
113 127 0
115 133 0
104 118 0
120 136 0
109 125 0
110 127 0
128 144 0
119 134 0
115 131 0
118 134 0
113 131 0
129 146 0
123 141 0
132 151 0
127 145 0
121 139 0
118 137 0
122 140 0
128 146 0
132 148 0
133 149 0
125 144 0
124 141 0
131 148 0
135 153 0
131 148 0
126 143 0
127 145 0
145 161 0
122 139 0
127 146 0
132 150 0
133 151 0
124 142 0
132 150 0
139 157 0
127 146 0
129 148 0
133 150 0
134 152 0
142 159 0
145 161 0
132 149 0
137 156 0
138 157 0
133 151 0
136 153 0
142 160 0
139 155 0
132 149 0
139 158 0
141 160 0
137 155 0
145 164 0
142 159 0
137 155 0
141 162 0
145 162 0
143 161 0
146 165 0
131 147 0
150 169 0
146 165 0
141 161 0
153 173 0
144 163 0
146 165 0
153 172 0
151 169 0
150 168 0
148 166 0
145 162 0
148 166 0
148 166 0
155 174 0
152 169 0
147 166 0
145 164 0
151 169 0
143 161 0
147 164 0
155 174 0
152 172 0
150 169 0
145 162 0
155 174 0
152 171 0
143 162 0
153 174 0
150 168 0
152 171 0
149 167 0
149 169 0
153 172 0
156 175 0
157 178 0
159 177 0
154 172 0
151 168 0
152 170 0
161 179 0
157 175 0
157 176 0
160 181 0
153 170 0
160 179 0
157 176 0
156 176 0
155 173 0
156 172 0
159 179 0
162 180 0
156 172 0
153 171 0
157 177 0
155 175 0
156 176 0
157 176 0
160 179 0
160 179 0
162 180 0
156 173 0
157 177 0
160 180 0
155 173 0
164 183 0
159 179 0
159 180 0
157 177 0
159 178 0
162 180 0
162 183 0
159 179 0
156 176 0
160 180 0
159 179 0
160 180 0
158 178 0
158 177 0
160 179 0
158 176 0
155 173 0
164 184 0
160 179 0
164 183 0
166 187 0
166 188 0
165 185 0
166 185 0
163 183 0
163 184 0
165 187 0
161 181 0
168 187 0
159 179 0
165 186 0
168 188 0
167 189 0
169 189 0
165 186 0
165 187 0
164 185 0
162 183 0
164 184 0
161 181 0
158 178 0
161 180 0
170 191 0
169 188 0
166 186 0
169 188 0
166 189 51
172 195 76
171 195 62
171 196 84
173 197 88
169 192 76
174 198 95
171 196 102
169 193 57
170 194 95
173 197 88
169 193 72
164 188 62
170 194 80
173 196 92
170 194 92
172 195 80
173 196 88
174 197 80
168 192 84
169 192 99
170 193 105
172 196 114
170 194 92
170 193 102
168 191 88
168 192 80
170 194 95
171 194 125
170 194 108
163 187 105
170 194 99
166 190 92
170 192 80
172 194 117
160 183 80
166 190 80
164 187 99
169 192 84
171 194 92
169 191 102
169 194 114
167 190 88
170 193 88
165 190 92
168 191 99
171 193 92
164 188 111
165 188 67
172 194 102
164 186 102
166 189 117
167 190 72
168 190 92
161 184 114
164 186 94
162 185 88
162 185 84
166 190 99
167 190 108
163 186 115
155 178 105
162 184 102
152 174 67
165 188 99
166 189 97
163 186 86
163 185 95
159 181 92
163 184 76
160 183 108
159 181 111
163 185 117
161 183 108
156 178 95
163 184 117
149 172 84
157 179 88
161 182 108
159 181 108
154 176 88
152 174 92
150 171 67
146 168 80
145 165 88
154 175 99
145 165 72
149 171 76
153 174 102
147 167 99
155 175 117
150 171 95
149 169 92
147 167 90
144 164 84
138 158 76
147 167 92
124 145 70
137 157 62
140 159 80
118 137 51
131 150 67
131 150 57
107 127 76
99 120 107
100 121 94
91 115 117
82 107 100
82 107 110
98 122 123
100 124 130
94 119 126
101 125 125
94 118 118
101 125 127
99 124 115
82 107 104
103 127 129
94 118 126
93 117 113
90 115 121
111 134 119
102 127 121
92 117 114
97 122 125
103 127 115
104 128 114
98 122 128
97 121 118
96 120 113
112 132 117
97 119 107
98 120 102
98 119 121
97 121 104
103 124 90
108 131 113
91 117 129
98 120 99
96 120 110
99 120 104
90 113 102
86 110 99
76 102 90
89 112 95
75 102 99
66 95 97
74 101 102
77 104 97
65 93 94
71 99 103
63 94 90
66 94 88
68 96 92
59 90 100
59 90 94
55 87 95
57 89 97
58 90 109
58 90 96
58 91 103
57 91 115
56 89 103
55 88 103
56 88 100
55 88 102
54 86 109
55 88 103
55 87 92
58 91 114
56 89 97
55 88 99
56 89 108
59 92 121
57 89 107
58 91 103
57 90 97
56 89 88
54 86 96
55 88 99
56 89 99
55 88 107
54 87 97
59 93 121
56 89 107
56 89 105
55 88 100
57 90 99
56 89 105
55 88 102
57 90 103
54 86 92
54 86 95
54 86 105
57 90 107
56 88 100
53 84 82
56 89 105
54 85 92
56 88 105
54 85 105
56 88 107
54 85 100
55 87 99
55 88 102
55 88 97
55 86 100
54 85 102
57 89 108
54 86 100
59 86 80
67 93 84
61 86 80
76 98 62
79 100 47
94 111 31
80 95 40
91 107 25
86 99 0
95 110 0
104 120 0
119 133 0
114 129 0
110 126 0
99 114 0
121 134 0
106 121 0
123 140 0
105 122 0
116 132 0
110 126 0
129 147 0
107 123 0
116 133 0
118 136 0
113 130 0
115 131 0
121 137 0
123 139 0
123 140 0
132 150 0
118 135 0
127 144 0
123 139 0
111 129 0
126 143 0
125 144 0
132 151 0
130 146 0
122 139 0
125 142 0
130 148 0
132 151 0
130 148 0
127 145 0
128 146 0
120 138 0
115 132 0
139 157 0
138 155 0
130 148 0
138 156 0
140 157 0
137 157 0
129 146 0
130 147 0
143 163 0
131 149 0
131 147 0
141 160 0
133 151 0
143 162 0
136 155 0
137 155 0
150 169 0
147 167 0
138 158 0
144 164 0
139 159 0
132 150 0
139 157 0
140 158 0
143 162 0
146 165 0
139 157 0
139 158 0
145 163 0
138 157 0
148 167 0
152 171 0
142 160 0
140 157 0
136 156 0
144 159 0
147 167 0
148 167 0
148 166 0
141 158 0
138 156 0
137 155 0
155 173 0
149 167 0
155 171 0
144 163 0
151 169 0
149 166 0
151 168 0
146 164 0
156 177 0
150 167 0
148 165 0
154 174 0
152 172 0
152 171 0
151 170 0
152 171 0
157 175 0
152 170 0
147 164 0
151 169 0
154 172 0
152 169 0
155 175 0
153 171 0
154 171 0
155 173 0
154 171 0
157 175 0
158 178 0
156 176 0
156 174 0
147 162 0
153 170 0
154 170 0
157 177 0
156 174 0
158 177 0
153 171 0
162 180 0
157 176 0
158 176 0
156 176 0
162 181 0
159 178 0
157 177 0
156 175 0
154 172 0
157 176 0
159 178 0
155 173 0
157 179 0
162 182 0
158 178 0
164 185 0
157 176 0
164 185 0
163 183 0
162 181 0
158 179 0
161 181 0
155 176 0
160 180 0
159 177 0
164 185 0
161 179 0
165 184 0
154 173 0
160 179 0
161 181 0
161 180 0
163 184 0
164 183 0
156 175 0
160 179 0
163 183 0
163 183 0
163 184 0
168 185 0
157 176 0
163 183 0
163 183 0
166 187 0
164 184 0
162 182 0
162 182 0
163 185 0
159 178 0
165 185 0
168 189 0
163 181 0
162 182 0
167 188 0
170 190 0
161 182 0
159 180 0
163 183 0
162 184 0
167 188 0
159 180 0
166 186 0
169 193 67
174 197 84
173 196 67
170 194 76
173 197 80
167 191 84
168 192 67
171 195 92
172 196 84
171 195 67
174 197 92
173 197 72
173 196 80
169 192 80
173 196 99
165 189 76
176 199 88
175 198 95
170 194 102
171 194 80
170 193 84
173 196 92
172 196 95
172 195 102
166 190 92
164 188 72
174 198 108
167 191 80
167 190 88
176 199 108
170 194 92
169 192 84
168 192 95
175 198 99
171 194 99
168 191 84
171 194 125
168 192 102
164 187 80
170 193 95
173 196 108
172 194 128
168 191 92
163 187 88
169 193 108
169 191 84
166 190 102
163 187 102
163 186 102
169 191 88
163 186 84
164 188 92
172 195 108
171 194 99
161 185 76
160 182 130
167 190 99
156 179 99
169 192 111
158 182 107
168 192 111
160 183 95
164 187 120
166 190 102
171 193 114
162 185 84
167 189 84
162 185 84
156 178 88
163 185 99
157 180 111
164 186 88
164 187 102
157 179 92
156 178 95
161 182 84
156 177 84
161 183 92
159 180 102
154 176 92
156 178 105
154 175 72
153 174 88
149 170 99
163 184 105
150 171 76
149 169 88
146 167 62
150 170 105
144 164 76
146 166 88
146 167 92
136 156 88
133 153 76
146 167 72
136 157 76
134 152 92
136 155 72
133 153 57
142 161 80
141 161 76
135 155 84
125 144 88
126 145 70
118 137 80
104 124 80
102 124 95
90 113 99
99 122 121
88 113 100
88 112 108
76 104 110
91 116 108
91 116 122
88 112 111
84 111 122
94 119 111
90 115 107
89 115 115
96 122 120
107 131 121
91 116 118
92 117 113
95 120 103
91 117 110
90 115 92
101 122 115
97 121 118
94 117 122
103 123 118
104 125 114
100 123 110
102 124 113
89 113 103
114 135 97
99 120 103
95 116 94
107 128 110
92 114 112
81 106 111
91 116 95
88 113 95
81 107 108
82 108 102
72 98 82
77 103 100
68 96 90
84 108 110
71 99 90
70 97 92
77 104 94
71 97 82
69 98 88
57 87 92
67 95 90
62 92 94
60 90 102
63 92 78
56 88 105
58 89 92
57 89 110
57 89 90
55 88 100
56 89 109
57 90 105
53 85 94
57 90 102
54 86 86
56 89 92
55 87 93
56 89 86
56 88 100
58 92 120
54 86 95
55 88 97
55 88 105
56 89 103
57 90 108
55 88 103
55 87 97
54 86 97
56 88 97
56 89 102
55 88 102
54 86 92
58 91 111
55 87 99
56 89 107
54 86 95
57 90 110
55 87 103
54 86 94
58 91 115
56 88 107
53 85 99
55 88 95
54 86 76
55 87 94
54 86 90
52 83 90
54 87 92
52 84 72
53 85 82
55 87 94
55 86 94
54 85 97
55 88 107
54 84 78
55 85 86
56 83 65
70 92 60
71 93 74
75 96 54
84 104 40
90 105 0
102 117 25
86 102 0
102 118 0
96 110 0
102 117 0
104 118 0
97 113 0
110 126 0
104 120 0
109 124 0
107 122 0
107 124 0
109 124 0
116 133 0
105 122 0
107 123 0
114 130 0
119 137 0
118 134 0
111 127 0
124 141 0
113 129 0
116 133 0
119 136 0
112 130 0
123 139 0
114 129 0
125 141 0
118 135 0
128 146 0
120 138 0
129 146 0
121 140 0
125 143 0
127 144 0
118 135 0
129 146 0
121 138 0
131 149 0
119 136 0
119 137 0
129 148 0
121 138 0
135 153 0
132 150 0
128 144 0
135 152 0
124 141 0
130 147 0
136 155 0
137 155 0
140 159 0
142 159 0
146 165 0
140 159 0
132 151 0
131 149 0
137 156 0
144 160 0
134 152 0
148 167 0
137 155 0
138 153 0
139 158 0
136 154 0
152 170 0
151 170 0
142 162 0
136 153 0
152 171 0
140 157 0
148 165 0
144 161 0
141 161 0
147 165 0
149 168 0
144 163 0
146 164 0
142 160 0
147 165 0
145 163 0
139 158 0
150 171 0
149 168 0
141 160 0
152 171 0
151 170 0
150 168 0
149 167 0
145 165 0
151 170 0
145 164 0
141 160 0
149 167 0
154 174 0
152 170 0
149 168 0
147 165 0
148 166 0
150 169 0
153 174 0
152 171 0
155 174 0
158 178 0
150 170 0
155 175 0
155 176 0
157 177 0
153 172 0
159 178 0
151 168 0
151 168 0
149 166 0
154 171 0
155 174 0
159 179 0
155 174 0
159 179 0
161 181 0
160 179 0
156 174 0
161 181 0
162 182 0
150 171 0
161 181 0
160 181 0
153 173 0
162 180 0
162 181 0
158 175 0
155 174 0
160 180 0
160 181 0
162 180 0
160 179 0
152 171 0
153 169 0
159 179 0
158 179 0
160 180 0
160 179 0
162 181 0
155 174 0
159 177 0
153 172 0
161 181 0
157 177 0
162 184 0
158 177 0
163 183 0
161 182 0
157 177 0
157 175 0
160 181 0
163 183 0
165 186 0
161 178 0
161 180 0
161 180 0
163 184 0
162 183 0
163 185 0
167 187 0
164 184 0
160 178 0
166 187 0
162 183 0
164 184 0
165 185 0
164 184 0
163 183 0
165 187 0
159 179 0
159 179 0
164 184 0
171 191 0
164 184 0
162 181 0
163 183 0
163 183 0
160 180 0
166 186 0
160 179 0
163 185 0
169 188 0
171 195 76
172 196 72
170 195 88
175 198 92
174 197 80
169 193 57
171 194 72
170 194 92
169 192 92
168 192 57
172 196 99
169 193 88
168 191 88
172 196 95
169 193 80
169 192 88
170 193 88
170 194 95
171 196 108
170 193 95
174 198 92
170 193 92
171 195 99
173 197 108
171 195 88
165 188 88
175 198 108
169 192 88
172 195 105
173 196 114
168 191 92
169 193 95
168 191 99
168 192 88
173 196 114
166 191 76
173 196 117
166 189 95
169 193 92
167 191 99
169 193 84
162 185 76
167 190 105
172 194 102
173 196 111
174 198 108
164 188 99
167 190 76
162 185 100
164 187 114
160 182 67
161 184 92
164 187 92
159 182 95
160 183 92
165 187 84
162 185 80
169 193 102
164 188 84
162 185 84
159 183 90
167 190 100
162 185 105
154 177 86
165 188 100
169 192 105
165 188 88
156 178 92
162 185 99
169 192 95
159 180 95
162 184 84
163 185 95
158 180 102
155 176 99
161 184 84
155 176 105
160 182 105
153 175 108
146 168 105
153 174 105
151 173 102
151 172 92
147 169 84
158 179 99
153 174 108
147 167 95
155 176 92
145 166 95
153 173 102
146 166 67
146 165 92
147 168 108
149 169 88
146 166 92
136 156 67
140 160 80
144 163 84
141 160 80
146 165 84
125 144 67
127 147 84
140 159 88
123 142 72
112 130 82
100 121 62
99 119 102
106 126 105
91 113 86
87 112 105
88 112 120
92 117 122
83 109 106
85 111 105
103 127 103
100 123 114
96 120 107
96 120 122
91 115 120
97 121 124
103 127 131
103 126 126
92 117 101
92 117 113
101 124 90
88 113 122
85 108 107
89 116 114
99 120 108
102 123 109
114 134 128
109 128 111
119 140 104
100 122 111
95 117 105
100 121 99
106 128 97
101 125 105
102 125 92
98 120 94
77 103 103
83 109 100
89 113 95
100 122 102
81 108 95
73 100 105
76 103 92
65 94 90
76 103 95
79 105 80
56 87 86
65 94 88
71 99 88
67 96 78
72 101 85
64 92 76
65 95 90
62 91 93
65 94 97
57 88 102
57 88 97
54 86 92
53 85 88
56 89 100
56 88 107
56 89 97
54 86 84
55 87 99
55 87 90
55 87 90
55 87 108
56 88 102
54 86 84
56 88 94
56 88 95
55 87 92
55 88 99
57 90 115
56 88 90
54 86 88
55 87 90
54 86 100
53 85 92
57 89 107
56 89 97
57 90 100
55 88 97
55 88 90
55 87 94
56 89 90
54 86 84
55 87 107
54 86 94
53 85 92
55 87 99
55 88 105
55 87 103
54 86 100
54 85 100
55 87 108
55 87 95
52 83 78
53 85 86
54 86 92
52 82 88
55 84 76
59 88 78
66 92 74
79 100 60
78 97 44
90 110 47
80 96 40
80 97 40
98 113 25
92 107 18
98 112 0
91 105 0
107 125 0
101 116 0
115 130 0
90 105 0
101 115 0
104 120 0
102 116 0
112 127 0
108 123 0
107 121 0
105 123 0
112 128 0
117 134 0
116 134 0
108 125 0
123 140 0
106 124 0
113 129 0
115 133 0
128 145 0
111 127 0
116 134 0
123 141 0
116 131 0
126 143 0
124 141 0
112 129 0
126 144 0
117 134 0
117 134 0
120 135 0
117 135 0
131 151 0
132 149 0
123 141 0
130 147 0
129 149 0
133 150 0
134 150 0
131 149 0
137 154 0
129 146 0
141 159 0
131 148 0
138 157 0
133 148 0
128 146 0
130 149 0
138 156 0
135 152 0
139 159 0
142 161 0
133 150 0
145 165 0
141 160 0
135 155 0
139 158 0
144 163 0
126 143 0
145 164 0
141 161 0
143 163 0
143 161 0
139 159 0
138 156 0
149 167 0
135 153 0
143 163 0
149 168 0
148 167 0
145 164 0
152 169 0
141 160 0
151 172 0
148 166 0
148 167 0
148 169 0
155 175 0
150 169 0
150 169 0
148 167 0
152 170 0
153 171 0
148 166 0
147 165 0
154 171 0
148 169 0
148 167 0
151 169 0
143 161 0
152 172 0
147 166 0
146 165 0
157 175 0
155 175 0
154 172 0
149 168 0
149 167 0
157 176 0
149 168 0
158 177 0
157 178 0
155 176 0
154 174 0
151 170 0
154 172 0
150 167 0
146 165 0
156 175 0
157 176 0
157 178 0
153 173 0
149 166 0
156 176 0
158 179 0
147 167 0
152 171 0
157 175 0
153 171 0
157 177 0
156 175 0
159 177 0
159 178 0
163 181 0
164 183 0
156 176 0
155 174 0
157 175 0
153 172 0
163 183 0
159 178 0
157 175 0
158 177 0
164 184 0
157 176 0
160 180 0
166 187 0
163 183 0
163 182 0
162 183 0
167 187 0
163 183 0
159 177 0
155 176 0
161 182 0
162 180 0
158 177 0
163 181 0
161 181 0
160 180 0
162 181 0
163 180 0
163 182 0
164 184 0
162 182 0
158 179 0
162 182 0
162 182 0
158 178 0
164 185 0
163 183 0
164 184 0
162 182 0
163 183 0
162 181 0
165 186 0
165 186 0
164 184 0
162 183 0
167 188 0
170 190 0
160 181 0
162 181 0
167 189 0
164 184 0
164 185 0
166 189 0
164 183 0
164 184 0
163 184 0
165 186 0
165 186 0
165 188 0
171 194 72
171 195 72
171 195 92
172 196 99
170 194 57
169 193 76
169 193 72
170 194 57
169 193 76
173 196 80
166 189 57
169 193 88
167 191 72
172 196 102
169 193 88
171 195 102
169 191 80
171 194 102
168 192 62
172 195 108
168 190 80
167 191 76
169 192 92
166 190 92
169 191 92
175 198 92
170 194 95
169 193 105
170 194 122
167 191 76
167 191 95
163 186 51
168 190 108
164 188 92
162 186 108
167 190 102
168 192 122
173 197 111
172 195 105
172 195 108
165 189 92
170 193 105
161 184 92
161 185 88
173 196 117
164 186 84
168 192 108
162 186 97
165 189 99
165 189 100
166 189 82
168 191 113
168 191 84
162 185 92
170 192 117
171 193 103
164 186 76
166 189 72
163 186 97
158 181 67
169 192 129
160 183 102
164 187 102
154 177 78
164 185 102
162 185 102
156 178 95
159 182 102
152 175 105
157 179 84
156 179 88
158 180 102
154 175 72
154 176 76
157 179 97
157 180 95
165 187 95
154 177 76
152 174 76
152 174 102
160 182 105
154 175 99
156 178 95
152 174 80
143 163 95
147 168 99
143 163 88
152 173 92
152 173 80
148 168 76
149 169 95
152 172 114
151 171 120
143 162 84
152 172 84
145 165 108
140 159 102
138 157 88
133 152 80
132 150 80
138 157 72
144 163 99
129 148 67
119 137 67
133 151 88
129 147 90
119 137 94
105 126 82
104 124 82
97 119 110
102 125 117
104 127 103
97 121 111
94 118 115
90 114 100
81 107 103
95 119 118
102 125 121
81 108 103
94 119 122
104 127 126
107 130 122
99 123 114
110 132 124
108 131 130
109 130 98
91 116 108
102 126 113
97 119 100
106 127 95
99 120 99
96 118 113
105 127 99
103 125 108
113 135 113
109 128 92
114 136 114
101 121 92
101 124 99
108 130 100
99 121 93
98 120 86
90 111 90
83 109 99
94 117 97
85 109 92
75 102 95
75 100 92
67 96 94
83 107 94
64 91 97
56 85 76
65 93 100
65 93 74
63 90 84
62 91 85
70 97 88
53 85 95
58 88 90
56 87 84
55 86 100
60 90 97
53 85 81
56 88 95
54 86 92
55 87 95
55 87 84
54 86 99
55 87 96
54 86 100
56 88 103
54 86 95
54 85 91
55 87 100
56 89 107
55 88 92
54 86 100
52 83 82
57 89 105
53 85 89
55 87 99
54 87 97
53 85 86
56 88 100
55 87 92
57 90 107
56 88 97
56 88 86
56 88 103
55 87 102
55 87 99
52 83 92
55 87 82
54 86 94
56 90 100
56 89 105
54 86 92
52 83 72
53 85 99
51 82 82
55 87 86
54 86 92
52 83 86
54 82 88
70 95 88
81 103 74
79 102 65
81 101 65
90 108 54
91 108 40
91 106 18
91 106 18
99 113 0
97 114 18
100 115 0
103 115 0
77 93 0
101 115 0
104 119 0
113 130 0
112 127 0
105 121 0
96 111 0
104 120 0
114 130 0
116 131 0
114 131 0
116 134 0
108 124 0
111 130 0
110 129 0
114 130 0
111 127 0
118 134 0
110 128 0
125 143 0
123 142 0
120 137 0
117 133 0
132 149 0
130 146 0
129 147 0
122 138 0
120 137 0
124 141 0
122 140 0
120 137 0
128 144 0
136 153 0
130 149 0
122 140 0
130 148 0
133 152 0
136 154 0
132 150 0
127 146 0
132 151 0
141 159 0
128 145 0
137 155 0
135 152 0
129 144 0
133 151 0
133 150 0
129 146 0
133 152 0
136 156 0
137 156 0
136 154 0
140 160 0
142 160 0
139 158 0
129 148 0
135 152 0
141 160 0
141 161 0
138 157 0
145 165 0
142 159 0
144 164 0
140 158 0
144 164 0
147 165 0
130 148 0
139 157 0
147 165 0
148 167 0
148 169 0
154 174 0
142 161 0
148 166 0
145 165 0
143 161 0
139 159 0
148 168 0
145 163 0
141 160 0
147 165 0
150 168 0
144 163 0
150 169 0
149 168 0
153 172 0
155 172 0
146 164 0
150 169 0
153 172 0
147 166 0
152 172 0
152 171 0
145 165 0
157 175 0
157 176 0
155 173 0
155 172 0
150 168 0
150 169 0
156 176 0
150 167 0
157 176 0
152 172 0
152 170 0
155 174 0
154 175 0
153 173 0
153 171 0
158 178 0
144 164 0
156 176 0
148 167 0
155 172 0
155 175 0
158 178 0
157 178 0
159 179 0
151 170 0
159 178 0
162 179 0
162 182 0
156 174 0
156 176 0
162 182 0
162 181 0
157 175 0
154 173 0
159 180 0
157 177 0
160 180 0
157 178 0
164 184 0
161 180 0
159 177 0
159 177 0
159 179 0
156 174 0
160 179 0
158 176 0
158 178 0
164 184 0
163 181 0
161 181 0
162 181 0
160 181 0
164 184 0
159 179 0
159 179 0
163 183 0
161 182 0
155 174 0
162 181 0
167 187 0
166 186 0
161 181 0
162 182 0
162 180 0
161 183 0
163 183 0
161 180 0
157 178 0
166 185 0
166 184 0
160 181 0
165 186 0
167 188 0
164 185 0
169 189 0
169 189 0
165 187 0
168 190 0
165 185 0
163 183 0
167 188 0
163 183 0
162 183 0
165 187 0
165 187 0
165 186 0
159 179 0
166 187 0
162 183 0
170 193 62
172 195 76
172 196 88
173 198 108
170 194 99
176 198 84
169 193 92
171 195 92
170 193 92
174 197 92
176 199 111
172 196 95
177 200 102
167 190 72
174 196 84
174 197 114
172 196 105
173 196 80
173 196 102
168 191 76
171 195 99
173 196 80
172 196 99
168 191 84
167 191 72
174 197 105
172 195 111
173 196 117
170 194 102
167 190 76
172 195 117
171 195 99
167 191 88
166 189 102
168 191 95
167 191 99
167 190 76
171 194 95
172 194 114
172 195 111
166 190 72
171 195 111
168 191 80
165 188 99
170 194 108
170 193 110
167 191 84
164 187 105
168 192 62
154 176 80
167 190 102
165 188 99
163 186 95
162 185 95
158 181 88
160 183 95
162 185 105
162 185 84
158 182 92
167 191 80
161 185 76
168 191 105
163 185 111
166 188 102
160 182 88
162 185 97
157 180 95
158 180 99
149 171 88
158 181 95
167 189 102
159 181 88
161 183 111
164 186 108
150 172 80
154 175 99
152 175 92
159 181 76
158 180 102
153 174 102
155 176 108
159 180 105
150 172 92
157 179 67
143 163 84
155 176 102
149 170 92
154 175 95
149 169 92
151 171 102
149 170 92
145 165 88
153 172 99
143 164 102
150 170 92
141 161 84
143 164 76
137 156 84
138 157 84
139 158 80
139 160 84
134 153 67
150 168 102
133 151 72
128 146 84
128 145 80
127 145 92
99 119 78
111 129 82
109 130 102
98 118 97
88 113 105
91 116 117
87 112 103
89 113 107
88 113 102
109 132 129
101 124 120
93 116 103
93 118 117
101 125 110
94 118 110
92 118 131
89 113 113
92 116 110
101 124 113
106 129 110
99 121 88
102 123 101
113 133 99
102 123 88
113 131 84
106 127 103
118 137 78
125 142 103
111 129 80
116 136 86
105 125 78
105 126 88
99 120 97
99 121 99
99 119 84
82 107 90
80 106 108
79 104 95
82 107 102
84 110 88
85 110 95
65 93 84
78 105 88
68 96 84
75 102 84
72 99 99
64 92 72
57 87 80
63 92 88
51 82 67
55 84 80
56 87 74
60 89 88
56 89 95
55 87 94
54 86 92
53 84 82
54 86 82
53 85 78
54 86 88
54 86 99
55 87 95
54 86 92
54 86 94
54 86 83
53 84 76
55 88 96
55 88 97
52 83 78
56 88 103
54 86 99
55 87 92
55 87 97
55 87 95
55 87 99
55 88 90
51 82 84
53 84 84
53 84 96
50 81 72
55 87 105
56 88 102
55 87 92
55 87 88
56 88 95
53 84 105
52 84 90
54 86 97
51 82 84
51 82 80
50 80 76
56 88 95
57 88 92
68 94 74
58 86 80
62 85 51
80 103 65
73 94 60
79 98 51
89 106 25
71 87 25
88 106 36
82 98 18
93 107 0
100 117 0
99 114 0
102 116 0
98 113 0
100 115 0
99 114 0
108 124 0
103 119 0
94 108 0
108 124 0
113 129 0
110 126 0
123 141 0
110 127 0
109 126 0
113 130 0
113 130 0
128 144 0
112 129 0
122 141 0
120 137 0
124 141 0
114 132 0
109 125 0
107 124 0
117 131 0
119 137 0
121 138 0
117 134 0
129 143 0
120 139 0
115 135 0
112 129 0
118 136 0
122 140 0
118 134 0
129 147 0
129 146 0
128 145 0
138 156 0
129 148 0
137 153 0
133 151 0
130 150 0
131 151 0
134 153 0
139 160 0
127 143 0
133 152 0
137 157 0
131 149 0
133 151 0
142 162 0
134 151 0
135 155 0
146 164 0
131 152 0
137 156 0
139 156 0
138 157 0
139 158 0
134 152 0
133 153 0
137 156 0
134 151 0
143 160 0
145 163 0
141 158 0
145 164 0
147 167 0
146 166 0
145 163 0
147 165 0
142 160 0
143 160 0
147 164 0
147 168 0
147 167 0
158 177 0
140 160 0
150 168 0
144 164 0
148 168 0
148 169 0
153 172 0
148 168 0
156 176 0
146 166 0
144 163 0
151 169 0
144 161 0
147 166 0
143 165 0
152 167 0
150 171 0
153 173 0
156 178 0
147 167 0
150 171 0
157 176 0
148 168 0
154 172 0
151 170 0
149 168 0
152 171 0
149 166 0
153 171 0
145 163 0
157 176 0
154 174 0
156 174 0
154 175 0
148 167 0
154 174 0
155 172 0
159 179 0
157 174 0
163 182 0
164 184 0
158 178 0
161 180 0
155 173 0
155 174 0
153 172 0
158 177 0
159 180 0
162 182 0
156 176 0
151 171 0
158 178 0
156 175 0
152 172 0
160 179 0
162 179 0
159 179 0
155 174 0
154 173 0
161 181 0
158 175 0
155 174 0
164 184 0
155 174 0
159 180 0
160 180 0
156 175 0
159 180 0
160 180 0
164 183 0
160 180 0
159 178 0
160 179 0
161 182 0
159 179 0
161 181 0
160 179 0
162 182 0
159 178 0
161 182 0
163 183 0
162 183 0
159 181 0
163 185 0
161 181 0
160 178 0
160 180 0
160 177 0
165 187 0
163 183 0
163 184 0
162 182 0
160 179 0
159 176 0
165 186 0
160 181 0
164 183 0
164 184 0
163 182 0
164 184 0
163 184 0
168 190 0
163 185 0
161 181 0
161 181 0
163 183 0
167 189 0
168 189 0
164 185 0
167 187 0
162 183 0
171 194 76
176 199 92
174 197 92
171 195 80
170 193 84
171 194 67
178 201 102
172 195 88
172 195 80
174 197 88
169 193 72
179 201 102
171 193 99
174 197 95
173 196 92
172 195 105
170 192 99
171 194 92
171 194 95
169 192 92
172 196 95
171 193 108
168 192 95
173 197 95
172 194 92
168 191 95
163 187 72
172 195 108
168 190 84
168 190 108
169 193 84
167 190 72
166 191 99
172 195 111
167 191 92
171 194 102
167 190 114
165 189 84
165 188 92
170 193 111
167 191 99
170 194 108
162 187 95
166 189 72
168 192 111
172 195 111
169 192 105
169 191 62
165 190 111
169 191 103
172 195 120
162 185 102
164 186 80
170 193 99
167 189 105
164 186 108
159 182 97
164 188 95
160 183 90
163 187 84
169 192 102
165 187 111
160 183 103
152 174 84
160 184 95
152 174 62
155 177 82
165 187 105
165 188 99
154 176 105
159 181 110
159 181 105
156 178 84
156 179 103
158 180 88
162 185 84
161 183 76
162 183 117
160 182 117
154 176 99
155 175 111
154 176 108
160 182 114
155 176 95
150 171 99
150 172 72
142 163 80
150 171 88
144 165 72
152 172 108
147 167 108
145 165 99
152 173 99
150 170 84
145 166 76
139 158 88
146 166 84
133 153 84
147 167 114
129 148 67
132 151 84
133 152 84
140 158 92
135 153 88
117 135 36
117 135 57
120 138 76
123 140 80
110 128 80
112 131 88
111 129 110
101 122 96
110 131 124
107 130 110
100 123 121
99 122 117
96 120 107
92 116 117
101 124 128
97 120 109
90 114 108
91 117 103
96 120 110
97 122 105
92 116 92
86 111 85
105 127 103
101 125 107
108 130 103
109 129 114
109 131 100
109 130 90
100 122 95
103 124 100
116 136 82
119 138 84
109 130 88
109 130 92
105 125 102
108 128 94
98 119 86
97 120 103
102 124 80
100 123 88
82 106 95
84 107 76
91 114 80
79 104 72
93 114 67
89 112 82
75 100 86
84 109 80
60 88 82
74 100 67
66 95 82
80 107 95
52 82 80
61 89 67
62 90 74
58 88 78
53 84 74
54 85 89
52 82 84
55 87 86
50 81 74
55 87 90
53 85 86
53 85 82
52 83 86
55 88 97
52 84 90
55 87 95
53 84 84
53 85 86
52 84 84
53 84 86
54 86 92
54 86 99
55 87 95
55 88 99
56 89 99
51 81 84
52 83 76
55 87 88
52 84 78
53 84 97
54 87 94
53 85 95
54 85 90
54 86 90
55 87 90
52 83 88
52 83 86
54 86 82
53 84 82
50 80 86
58 88 90
52 80 76
68 94 84
55 79 67
86 105 70
79 99 57
71 91 57
77 93 47
98 116 47
73 89 18
80 96 25
86 101 18
79 96 0
96 112 0
103 118 0
99 114 0
99 115 0
102 115 0
105 120 0
96 111 0
107 123 0
109 123 0
108 123 0
104 117 0
95 111 0
103 119 0
106 122 0
108 125 0
107 122 0
122 138 0
111 128 0
113 130 0
113 129 0
115 130 0
113 130 0
99 117 0
129 147 0
113 130 0
112 128 0
124 143 0
119 136 0
113 128 0
113 130 0
122 140 0
119 137 0
126 144 0
130 150 0
133 150 0
130 148 0
127 144 0
132 152 0
134 152 0
120 138 0
127 145 0
137 155 0
121 139 0
129 147 0
133 150 0
142 160 0
134 152 0
134 153 0
130 149 0
144 163 0
129 147 0
131 150 0
141 160 0
130 150 0
128 146 0
133 153 0
139 160 0
131 150 0
136 154 0
140 157 0
130 148 0
137 156 0
139 155 0
135 153 0
138 155 0
139 158 0
146 165 0
134 152 0
133 152 0
135 155 0
141 161 0
145 165 0
141 160 0
147 165 0
148 169 0
136 155 0
147 166 0
139 158 0
146 165 0
144 162 0
144 164 0
146 165 0
149 168 0
142 162 0
149 168 0
154 174 0
153 173 0
151 171 0
145 164 0
141 160 0
149 168 0
152 172 0
145 163 0
142 161 0
150 171 0
149 169 0
146 166 0
152 172 0
148 168 0
145 163 0
141 160 0
151 169 0
152 171 0
151 168 0
148 168 0
146 165 0
154 173 0
152 170 0
154 173 0
153 172 0
151 169 0
156 174 0
153 172 0
151 171 0
155 175 0
158 177 0
158 177 0
156 176 0
155 175 0
154 173 0
152 173 0
158 179 0
155 175 0
153 172 0
147 166 0
161 180 0
158 179 0
152 170 0
155 173 0
156 175 0
165 187 0
156 178 0
158 177 0
163 183 0
152 169 0
164 185 0
157 176 0
161 182 0
159 180 0
160 177 0
153 171 0
162 183 0
159 178 0
154 173 0
159 179 0
159 177 0
160 181 0
156 177 0
161 182 0
158 178 0
157 178 0
163 183 0
161 180 0
162 182 0
167 188 0
163 183 0
164 185 0
157 176 0
165 185 0
159 179 0
159 178 0
160 179 0
163 186 0
159 178 0
163 183 0
157 178 0
161 180 0
162 182 0
161 182 0
163 181 0
163 182 0
166 186 0
164 183 0
170 192 0
167 188 0
162 181 0
166 186 0
165 188 0
165 188 0
166 186 0
163 183 0
166 186 0
163 185 0
166 188 0
163 184 0
165 187 0
162 182 0
165 186 0
167 186 0
167 187 0
164 185 0
169 193 62
173 197 84
172 196 88
174 198 80
173 196 80
170 195 72
169 193 95
171 195 84
172 196 105
174 198 102
163 186 76
173 195 84
177 200 117
173 197 114
170 193 84
174 196 130
166 189 72
172 195 99
168 192 88
171 194 88
174 196 84
175 197 120
171 194 76
169 192 84
167 190 102
174 197 108
168 192 84
168 192 102
173 196 99
174 197 102
168 191 108
169 192 92
169 193 108
168 192 95
164 187 95
166 188 88
173 196 108
167 191 99
169 193 102
170 193 99
172 195 117
168 191 92
165 189 102
167 191 99
165 189 80
165 188 99
166 190 72
162 185 76
160 183 99
160 183 67
168 190 103
165 188 88
157 180 72
164 186 102
165 188 67
161 184 94
166 190 94
162 185 92
162 185 105
170 192 128
160 182 95
161 184 92
164 187 113
158 180 72
157 180 62
159 182 84
162 185 90
158 181 88
155 177 95
166 188 99
159 182 84
159 181 100
155 178 97
150 172 92
154 175 105
162 184 105
155 177 105
147 169 88
156 177 120
164 185 120
151 173 80
156 178 76
155 175 95
151 173 88
158 180 84
157 178 102
159 180 108
152 174 95
159 180 99
153 174 114
159 180 105
154 174 102
142 162 62
141 162 80
138 158 72
140 160 76
139 159 84
144 163 84
147 167 88
143 162 102
140 159 92
146 165 88
129 146 72
135 152 88
130 149 88
139 157 99
130 147 62
128 145 88
113 131 70
119 137 99
107 127 90
95 117 78
94 117 114
92 114 108
88 112 95
89 113 97
86 111 99
91 116 107
91 116 120
97 121 124
89 114 111
96 121 113
85 111 88
89 114 97
100 122 99
102 124 104
100 122 107
110 130 86
115 132 94
113 133 85
117 136 94
110 129 100
114 137 84
113 132 72
118 137 84
112 130 90
117 137 78
109 131 82
106 125 72
117 133 70
103 124 86
89 110 88
106 128 78
94 117 84
79 103 78
89 111 86
87 110 84
82 105 67
102 123 60
86 110 78
73 99 78
75 99 70
83 104 62
77 101 67
64 89 74
70 95 70
66 91 75
56 85 83
62 90 72
64 92 74
57 87 76
52 82 80
52 84 70
54 86 92
53 85 76
55 87 100
53 84 80
52 83 78
53 85 86
50 80 76
55 86 99
56 89 108
55 87 94
54 85 97
54 86 80
53 84 82
54 85 92
55 87 99
53 84 92
55 86 100
52 82 92
51 81 80
53 85 92
53 84 82
55 87 95
50 80 78
56 88 94
52 84 76
52 82 84
51 82 82
51 82 74
61 87 74
53 82 80
58 85 84
61 87 70
67 89 67
67 88 62
67 90 72
78 96 40
81 99 44
87 105 44
91 107 31
88 104 31
99 115 25
83 98 0
91 104 0
86 100 0
93 107 0
99 113 0
98 112 0
96 111 0
97 112 0
95 110 0
108 123 0
95 110 0
108 125 0
104 120 0
105 122 0
95 111 0
113 129 0
114 130 0
125 142 0
102 119 0
109 127 0
116 132 0
117 134 0
106 123 0
120 135 0
123 141 0
115 133 0
112 128 0
117 135 0
106 123 0
110 126 0
117 136 0
123 140 0
119 137 0
123 142 0
127 144 0
120 138 0
123 141 0
128 147 0
129 146 0
125 144 0
125 142 0
131 149 0
133 150 0
130 147 0
128 146 0
129 149 0
135 152 0
125 143 0
129 147 0
134 152 0
136 155 0
132 150 0
133 150 0
134 152 0
136 154 0
135 153 0
135 154 0
140 158 0
127 145 0
142 160 0
146 164 0
133 150 0
135 154 0
144 163 0
143 163 0
144 163 0
133 151 0
137 156 0
145 164 0
148 170 0
136 155 0
149 169 0
137 156 0
140 158 0
146 163 0
142 161 0
150 168 0
144 163 0
150 169 0
146 165 0
143 162 0
149 169 0
143 161 0
143 161 0
148 166 0
149 168 0
153 172 0
138 157 0
153 173 0
155 177 0
149 168 0
138 155 0
149 169 0
143 159 0
150 170 0
148 167 0
148 166 0
145 165 0
148 166 0
150 169 0
158 178 0
150 171 0
148 167 0
158 179 0
149 170 0
152 171 0
153 172 0
156 174 0
154 173 0
157 177 0
151 171 0
154 173 0
147 168 0
148 166 0
156 176 0
160 179 0
159 177 0
156 176 0
156 174 0
155 172 0
150 169 0
153 170 0
154 173 0
154 175 0
155 173 0
155 175 0
158 177 0
160 179 0
158 179 0
158 178 0
160 180 0
154 173 0
157 175 0
154 174 0
159 176 0
157 177 0
155 173 0
156 176 0
160 181 0
152 172 0
154 173 0
152 172 0
160 180 0
164 184 0
155 174 0
157 176 0
160 181 0
153 172 0
163 182 0
163 182 0
160 179 0
161 180 0
161 181 0
161 180 0
162 180 0
160 181 0
153 172 0
163 183 0
164 185 0
164 184 0
161 181 0
164 183 0
164 185 0
160 179 0
165 185 0
162 182 0
159 179 0
163 183 0
164 184 0
155 176 0
162 183 0
163 183 0
164 184 0
166 186 0
162 181 0
165 185 0
161 182 0
162 183 0
160 180 0
166 189 0
163 184 0
165 186 0
163 183 0
160 181 0
165 186 0
164 184 0
161 183 0
166 187 0
162 182 0
165 187 0
162 183 0
166 187 0
167 189 0
161 181 0
165 186 0
168 189 0
168 192 72
175 198 88
170 193 84
174 197 88
175 199 84
171 194 84
174 197 88
174 198 99
176 199 99
169 192 84
171 195 88
171 194 95
169 192 95
173 196 99
174 197 95
177 201 108
169 193 76
169 191 88
173 197 102
169 192 99
171 194 120
169 192 99
168 192 102
171 193 99
172 195 95
171 195 102
171 196 95
170 194 88
178 201 114
166 190 95
169 192 105
175 199 117
170 195 108
171 194 102
170 193 92
172 195 95
168 190 92
169 193 84
165 188 92
163 186 80
170 193 120
168 191 95
167 191 114
166 189 92
159 182 67
171 194 105
169 192 105
167 189 92
163 186 117
158 182 84
164 187 88
168 192 111
162 185 95
163 185 88
166 190 95
167 190 95
164 187 102
167 189 92
163 187 94
160 183 84
165 188 100
154 177 76
165 188 111
160 183 111
162 184 102
154 176 78
163 185 118
154 177 102
160 182 88
159 181 76
164 186 108
164 187 103
160 182 97
157 180 95
152 175 102
162 184 110
159 181 92
156 178 111
157 180 92
158 179 99
157 178 108
154 176 102
157 179 108
158 179 88
163 184 105
150 170 108
150 171 99
153 173 95
146 168 99
156 176 111
145 166 99
154 174 108
145 165 80
146 166 84
149 169 102
147 168 108
148 167 111
128 147 62
134 152 88
124 142 72
144 163 111
141 160 92
140 158 95
138 158 72
136 154 95
121 138 62
132 149 80
124 142 80
119 136 90
119 136 84
108 125 84
108 126 78
96 117 92
90 112 82
93 115 94
81 105 90
83 107 90
83 107 100
93 118 111
86 110 110
93 117 97
93 116 99
100 123 88
101 124 99
99 122 103
107 127 111
101 123 84
111 133 107
109 128 82
107 127 84
109 129 84
116 137 80
113 135 78
117 136 74
121 136 78
110 130 86
111 131 88
109 129 70
120 142 72
103 124 80
105 127 76
109 128 62
95 116 84
82 105 88
87 110 92
92 115 74
84 108 80
93 115 67
80 100 72
86 107 72
85 106 62
91 113 72
86 107 57
92 112 54
79 98 54
77 99 54
90 111 57
71 94 62
69 90 57
59 85 67
56 81 74
56 84 84
52 83 74
50 80 70
52 83 84
52 83 81
52 84 72
52 83 84
54 85 86
53 84 80
53 85 84
54 86 90
51 82 84
52 83 92
53 84 84
56 88 92
52 83 65
52 83 82
53 84 80
52 82 78
51 81 76
51 82 76
51 81 90
50 80 74
54 86 84
51 81 74
60 89 86
55 84 84
50 80 72
55 80 67
59 84 60
68 91 72
76 98 76
74 96 51
79 100 67
73 94 54
68 88 57
79 95 25
77 95 40
100 116 25
94 109 25
83 97 25
93 107 0
89 104 18
93 107 0
93 109 0
100 115 0
94 109 0
100 115 0
92 108 0
109 125 0
106 123 0
109 126 0
101 117 0
112 129 0
101 117 0
112 128 0
102 117 0
103 120 0
99 114 0
126 142 0
115 129 0
118 134 0
112 126 0
108 124 0
108 124 0
123 140 0
108 123 0
115 131 0
103 119 0
111 127 0
112 130 0
122 138 0
112 127 0
127 144 0
114 131 0
124 142 0
134 153 0
130 147 0
126 143 0
137 155 0
127 145 0
123 142 0
129 147 0
127 143 0
121 139 0
128 146 0
121 138 0
135 155 0
128 148 0
129 148 0
130 147 0
138 155 0
130 149 0
134 153 0
134 153 0
137 156 0
145 164 0
145 163 0
130 149 0
134 153 0
135 153 0
139 158 0
139 157 0
142 161 0
135 155 0
143 162 0
133 152 0
141 161 0
143 163 0
133 152 0
139 158 0
142 160 0
135 155 0
139 158 0
143 162 0
137 157 0
143 165 0
139 158 0
145 163 0
149 169 0
139 157 0
150 168 0
154 174 0
140 159 0
147 166 0
149 170 0
147 166 0
149 168 0
141 160 0
154 175 0
152 171 0
150 169 0
142 160 0
148 167 0
148 168 0
151 169 0
154 173 0
149 169 0
149 169 0
146 166 0
148 168 0
149 169 0
150 170 0
147 166 0
151 169 0
153 174 0
144 164 0
158 177 0
158 178 0
149 166 0
150 171 0
153 172 0
141 160 0
153 174 0
154 172 0
152 171 0
151 171 0
156 177 0
153 172 0
151 169 0
148 169 0
155 174 0
160 181 0
155 173 0
155 174 0
155 173 0
159 177 0
146 164 0
154 174 0
159 178 0
161 180 0
155 173 0
160 181 0
153 173 0
155 175 0
157 176 0
160 181 0
162 181 0
153 172 0
155 174 0
159 180 0
154 176 0
148 167 0
160 180 0
155 177 0
164 185 0
156 177 0
161 182 0
156 175 0
158 178 0
160 182 0
159 181 0
153 173 0
160 180 0
158 178 0
160 180 0
163 184 0
158 178 0
155 174 0
165 184 0
167 188 0
163 184 0
159 178 0
161 182 0
154 175 0
164 184 0
163 184 0
163 183 0
163 183 0
161 181 0
165 185 0
160 180 0
159 179 0
164 185 0
164 184 0
162 182 0
159 179 0
162 184 0
157 178 0
159 179 0
163 184 0
162 183 0
159 178 0
160 181 0
167 188 0
155 174 0
164 185 0
162 183 0
168 187 0
168 188 0
166 188 0
163 182 0
165 186 0
163 182 0
169 190 0
167 188 0
165 187 0
168 188 0
162 183 0
172 197 84
174 198 95
172 195 102
171 195 88
172 196 92
176 199 114
176 199 108
174 198 105
169 193 76
165 188 84
175 199 95
173 196 111
171 194 102
172 195 84
169 192 102
173 197 84
173 197 92
174 198 114
172 196 114
167 190 67
171 195 108
166 189 80
169 192 88
168 191 99
171 194 67
168 191 92
170 193 95
174 197 105
166 189 84
173 197 99
171 194 95
174 197 125
167 191 92
163 188 105
171 194 105
165 188 99
166 189 102
166 189 102
170 193 95
169 192 99
167 189 80
163 187 95
166 190 95
167 191 105
166 189 95
170 193 95
165 188 76
161 185 99
164 187 92
166 189 117
162 185 95
160 183 108
168 191 99
165 187 95
164 187 102
163 187 99
163 187 102
162 185 88
161 184 107
162 185 120
161 184 100
165 187 107
162 186 118
161 183 90
154 177 90
166 189 125
163 185 102
156 179 84
164 186 92
159 180 99
157 180 105
158 180 105
152 174 72
161 182 95
162 184 108
153 175 80
150 172 88
165 187 122
163 184 114
155 177 117
149 171 95
158 180 95
161 182 108
152 174 102
159 181 102
159 180 102
152 173 88
154 174 99
160 181 108
156 177 105
151 171 95
146 167 92
141 162 80
142 162 88
146 166 80
140 159 84
144 164 99
146 166 92
147 165 120
136 155 80
137 156 92
146 165 76
127 145 76
116 134 62
127 145 57
126 143 102
119 136 51
125 144 76
133 150 92
133 150 88
124 142 67
109 126 74
119 137 92
108 127 82
104 125 76
88 110 94
88 112 105
94 117 95
78 105 102
95 118 94
83 110 82
84 110 95
102 124 110
105 128 94
95 118 100
99 121 103
108 130 108
114 133 107
121 141 96
112 134 111
119 140 102
117 137 80
122 141 67
112 131 72
119 138 57
114 131 62
113 132 84
119 138 86
112 133 84
110 131 88
111 131 78
103 122 60
106 127 54
96 114 62
110 133 82
108 128 67
101 121 67
100 120 74
92 114 79
84 105 62
98 117 54
93 111 57
98 117 65
82 103 44
99 116 44
78 97 44
83 103 47
90 109 47
66 85 36
85 104 60
77 99 62
75 97 60
67 89 40
69 92 72
63 86 47
62 87 72
65 89 70
60 88 72
55 84 78
51 78 74
58 86 72
57 84 72
59 87 74
57 84 76
68 94 78
58 85 76
54 82 57
58 85 80
58 86 72
55 82 65
56 85 67
50 77 62
62 87 67
62 85 60
64 89 70
54 79 70
70 91 54
69 91 65
72 90 40
76 96 44
81 101 47
75 94 40
78 95 31
78 95 25
74 91 40
79 95 0
84 99 25
91 106 25
93 108 18
85 100 0
99 112 0
81 94 0
99 113 0
109 125 0
96 111 0
90 105 0
104 120 0
94 108 0
101 116 0
96 112 0
108 123 0
112 128 0
113 130 0
114 132 0
108 124 0
106 122 0
103 120 0
115 131 0
103 119 0
124 140 0
115 134 0
115 132 0
110 125 0
107 125 0
99 116 0
114 131 0
125 143 0
109 125 0
131 150 0
113 130 0
121 138 0
118 135 0
112 129 0
112 130 0
127 145 0
117 134 0
128 146 0
125 143 0
128 145 0
130 147 0
124 141 0
130 148 0
124 142 0
126 144 0
127 146 0
124 143 0
134 153 0
134 151 0
122 139 0
126 145 0
130 147 0
133 152 0
131 148 0
143 161 0
133 151 0
129 147 0
129 147 0
137 155 0
125 142 0
139 157 0
120 139 0
140 158 0
141 160 0
132 150 0
128 148 0
132 151 0
139 158 0
140 158 0
135 153 0
136 155 0
146 166 0
135 156 0
135 152 0
149 167 0
139 158 0
139 158 0
143 163 0
138 157 0
143 161 0
149 169 0
148 168 0
135 155 0
151 171 0
145 167 0
139 160 0
147 168 0
146 165 0
137 156 0
155 173 0
149 168 0
150 169 0
139 158 0
149 169 0
148 168 0
140 157 0
146 164 0
149 170 0
152 172 0
155 176 0
148 167 0
146 165 0
151 169 0
151 171 0
146 166 0
149 170 0
150 169 0
146 166 0
156 176 0
156 174 0
158 179 0
154 173 0
147 167 0
154 172 0
150 170 0
148 168 0
159 177 0
151 170 0
157 176 0
156 176 0
153 173 0
157 177 0
155 172 0
153 174 0
158 177 0
150 170 0
153 174 0
151 172 0
157 178 0
155 174 0
153 172 0
161 182 0
156 173 0
151 170 0
158 177 0
157 178 0
155 176 0
157 178 0
160 179 0
160 180 0
158 176 0
156 176 0
156 176 0
157 176 0
166 187 0
158 178 0
159 178 0
160 181 0
161 181 0
163 182 0
155 175 0
158 176 0
153 173 0
160 181 0
164 186 0
159 179 0
159 179 0
159 180 0
158 178 0
161 182 0
154 174 0
158 177 0
162 183 0
166 186 0
162 181 0
161 182 0
165 184 0
161 180 0
168 189 0
157 177 0
164 184 0
164 184 0
161 180 0
156 174 0
164 184 0
157 179 0
163 181 0
160 181 0
164 186 0
167 188 0
159 178 0
164 183 0
162 184 0
167 189 0
164 184 0
164 185 0
164 183 0
168 191 0
167 187 0
164 185 0
166 186 0
163 184 0
159 179 0
167 188 0
165 187 0
164 183 0
167 190 0
165 187 0
165 186 0
164 186 0
160 178 0
171 195 92
175 198 95
172 196 76
169 193 95
165 189 80
176 199 99
175 199 88
170 193 80
176 198 92
174 197 92
173 197 99
173 196 88
170 192 88
175 198 102
174 197 108
176 199 111
172 196 108
168 191 92
171 194 92
168 191 88
172 195 99
172 195 108
172 196 102
170 194 111
171 194 111
170 194 88
170 193 88
172 196 111
171 194 102
172 195 95
164 187 80
164 188 95
170 194 111
173 196 105
165 189 92
172 196 122
167 190 92
171 195 105
166 189 95
165 188 57
174 197 117
164 187 99
167 190 105
161 184 76
166 189 102
163 186 84
166 188 102
166 190 92
157 181 70
166 188 80
167 190 95
167 191 95
163 187 102
162 186 80
159 181 99
169 192 94
159 182 84
163 186 92
161 184 92
162 185 102
158 181 88
161 184 102
162 183 95
160 182 94
160 183 102
157 180 99
161 184 88
157 180 74
161 184 128
155 178 103
158 181 105
156 178 80
163 185 99
154 176 99
162 184 102
161 183 102
160 181 95
153 174 111
160 182 95
152 174 111
156 176 99
159 180 102
156 177 105
149 171 72
157 179 102
151 172 105
157 179 105
152 173 99
150 170 92
154 173 108
158 179 105
150 170 99
155 176 99
157 177 108
141 161 102
146 165 88
140 159 111
146 165 95
146 165 67
148 167 84
141 160 95
129 147 88
139 158 72
138 155 95
131 149 102
127 146 67
129 148 84
107 124 44
137 155 80
124 141 88
110 126 67
116 132 80
111 128 65
103 121 82
112 130 84
98 118 70
105 124 103
102 123 88
93 115 105
105 126 111
90 112 92
84 110 102
107 130 125
105 126 100
105 127 107
99 122 102
112 133 86
95 118 88
118 136 74
124 143 85
119 138 70
125 144 86
112 130 65
123 143 67
113 132 67
122 143 80
115 135 80
116 136 78
120 139 65
115 134 76
109 129 72
108 129 72
98 119 71
107 127 60
100 119 67
94 115 67
96 117 65
82 103 65
94 115 65
96 116 51
93 113 57
89 108 44
101 119 31
93 111 25
98 116 25
86 106 36
88 105 36
82 100 36
94 112 40
71 90 36
87 104 40
85 104 31
79 98 40
76 94 47
72 91 47
74 94 40
76 95 54
75 95 44
71 93 51
61 83 47
77 97 44
58 80 44
68 89 54
63 83 44
71 91 60
87 105 40
79 100 54
83 104 51
80 101 54
80 98 40
76 97 51
60 80 47
66 87 54
78 96 54
80 99 54
75 93 44
87 104 40
73 90 18
77 93 25
95 110 18
88 104 31
88 104 25
82 97 18
98 113 18
82 96 0
91 106 0
102 117 0
91 107 0
103 118 0
89 104 0
92 109 0
96 113 0
95 111 0
89 103 0
113 129 0
100 115 0
98 113 0
95 111 0
96 112 0
97 112 0
89 106 0
98 113 0
104 121 0
101 118 0
108 125 0
99 114 0
103 119 0
103 120 0
120 139 0
113 130 0
103 118 0
112 128 0
115 132 0
115 132 0
113 128 0
114 132 0
110 127 0
124 140 0
127 145 0
125 144 0
128 147 0
120 140 0
133 150 0
120 139 0
125 143 0
126 143 0
119 138 0
118 137 0
130 148 0
127 145 0
113 132 0
128 145 0
140 158 0
121 139 0
134 152 0
140 159 0
135 153 0
133 151 0
131 150 0
130 150 0
132 149 0
130 149 0
139 157 0
143 163 0
132 151 0
136 155 0
144 162 0
132 151 0
131 149 0
137 156 0
134 153 0
144 163 0
142 162 0
129 148 0
145 163 0
145 165 0
136 155 0
146 166 0
144 162 0
147 165 0
142 160 0
135 154 0
146 166 0
142 163 0
136 155 0
141 159 0
136 153 0
143 161 0
144 164 0
132 151 0
145 164 0
136 155 0
149 169 0
149 170 0
139 159 0
138 156 0
151 172 0
147 166 0
140 159 0
144 163 0
148 166 0
146 166 0
148 167 0
144 163 0
141 161 0
151 173 0
146 167 0
154 173 0
146 165 0
147 167 0
145 164 0
147 167 0
147 167 0
147 165 0
151 170 0
159 178 0
154 174 0
154 174 0
147 166 0
148 168 0
148 168 0
154 174 0
153 173 0
153 173 0
152 173 0
155 176 0
162 184 0
156 176 0
151 170 0
158 177 0
155 175 0
157 174 0
145 164 0
154 173 0
154 174 0
151 169 0
153 172 0
152 173 0
164 185 0
158 177 0
166 187 0
160 178 0
158 180 0
158 178 0
155 177 0
157 176 0
160 180 0
159 180 0
153 174 0
155 175 0
165 185 0
153 171 0
156 175 0
162 182 0
161 180 0
156 177 0
164 184 0
165 185 0
162 181 0
160 180 0
152 173 0
166 187 0
158 179 0
154 174 0
156 175 0
155 173 0
165 184 0
157 177 0
158 180 0
163 184 0
167 190 0
161 179 0
163 185 0
163 184 0
152 172 0
159 179 0
160 180 0
167 189 0
161 182 0
159 179 0
160 180 0
165 186 0
168 188 0
163 184 0
165 187 0
162 182 0
163 184 0
163 184 0
163 183 0
163 183 0
168 188 0
166 186 0
163 184 0
165 186 0
168 189 0
163 185 0
160 181 0
166 186 0
161 179 0
163 184 0
164 185 0
168 190 0
166 188 0
162 181 0
166 186 0
165 187 0
160 182 0
166 188 0
166 187 0
165 187 0
178 202 105
176 199 105
173 196 92
175 198 92
174 198 114
171 194 92
174 198 99
168 192 76
174 198 114
174 198 108
170 193 72
168 192 102
174 197 114
171 195 99
169 193 95
173 196 92
171 194 92
172 196 105
171 195 120
171 194 99
173 197 105
168 192 67
169 192 80
171 195 95
166 190 95
170 193 92
167 191 92
177 200 111
163 187 80
173 197 105
167 191 88
175 198 114
170 193 102
165 189 84
165 189 80
163 186 102
168 192 114
165 189 95
167 191 92
170 194 102
168 191 105
167 191 92
169 192 105
165 188 84
170 193 95
167 190 76
167 191 105
170 193 95
166 189 102
163 186 88
162 185 95
157 180 88
159 183 80
168 191 111
164 187 72
165 188 80
164 186 99
162 185 97
158 180 99
170 194 111
165 187 84
163 186 108
160 182 105
159 183 99
158 180 97
162 185 80
164 186 108
167 190 120
153 175 80
165 188 97
168 190 117
160 182 88
155 177 100
161 184 114
150 172 102
165 187 105
161 182 105
157 178 92
158 180 99
154 176 102
150 173 72
156 178 88
161 183 102
163 185 130
158 180 88
166 187 111
153 173 108
146 167 76
156 176 108
139 160 84
150 171 99
148 169 92
151 171 102
150 171 92
158 178 105
150 170 111
146 165 105
144 163 92
145 164 111
141 161 84
151 170 108
142 160 84
146 165 102
132 150 76
140 159 84
141 159 88
137 155 102
138 155 95
135 153 80
126 142 72
119 136 72
126 142 92
110 126 80
117 135 78
123 140 90
103 121 76
99 118 80
108 126 102
104 125 103
103 123 92
100 124 108
98 121 99
104 128 95
86 110 88
102 123 78
96 116 88
109 131 76
109 130 82
117 138 72
104 125 67
122 141 79
128 147 76
121 140 65
132 151 72
133 151 65
121 139 67
124 144 62
123 143 54
111 131 65
120 138 57
118 139 57
116 135 65
108 126 54
111 129 65
118 137 44
96 116 65
102 122 44
91 111 47
112 130 31
97 116 51
96 115 51
95 116 60
90 109 44
85 104 47
87 105 18
89 107 36
98 115 31
92 108 0
97 113 25
99 115 0
97 113 0
75 91 0
85 100 0
92 107 0
86 102 25
85 102 25
76 92 18
83 100 25
76 92 31
81 97 36
71 88 40
81 98 47
78 94 40
78 95 0
83 100 40
69 85 36
69 86 51
69 87 44
82 98 25
78 93 31
72 88 40
89 105 25
90 105 18
91 106 0
87 102 31
89 105 31
87 102 18
86 101 18
91 105 0
94 109 18
98 112 0
86 100 0
97 110 0
89 105 0
100 115 0
95 110 0
100 115 0
91 105 0
87 102 0
101 116 0
90 104 0
94 110 0
88 103 0
98 114 0
103 116 0
97 114 0
114 130 0
100 116 0
98 114 0
109 125 0
100 115 0
111 129 0
116 132 0
112 130 0
114 131 0
115 131 0
107 123 0
109 127 0
107 123 0
106 123 0
113 131 0
124 143 0
120 138 0
120 138 0
120 138 0
118 136 0
121 138 0
115 132 0
126 145 0
123 141 0
124 143 0
120 136 0
124 144 0
126 145 0
123 142 0
132 151 0
128 147 0
126 146 0
120 138 0
131 148 0
124 143 0
123 140 0
128 144 0
133 151 0
133 153 0
121 140 0
126 145 0
130 150 0
134 152 0
141 160 0
135 154 0
147 167 0
137 157 0
139 159 0
131 149 0
142 161 0
146 165 0
129 147 0
133 152 0
137 157 0
140 158 0
130 149 0
134 154 0
131 150 0
143 163 0
140 159 0
141 161 0
134 153 0
134 153 0
142 160 0
149 167 0
143 162 0
143 164 0
145 166 0
148 167 0
146 165 0
143 163 0
133 155 0
144 163 0
134 154 0
148 168 0
149 168 0
147 168 0
142 161 0
149 168 0
155 175 0
145 164 0
153 173 0
154 176 0
147 167 0
150 168 0
146 166 0
153 174 0
152 172 0
149 168 0
152 172 0
151 170 0
144 164 0
151 171 0
149 170 0
147 166 0
156 175 0
153 173 0
153 173 0
152 172 0
152 173 0
155 174 0
154 174 0
160 182 0
145 165 0
157 177 0
147 166 0
146 166 0
155 175 0
156 175 0
154 173 0
154 175 0
159 178 0
152 171 0
153 174 0
158 177 0
155 174 0
156 176 0
150 170 0
156 176 0
153 174 0
158 177 0
153 175 0
151 169 0
156 176 0
148 167 0
154 174 0
160 180 0
160 180 0
156 175 0
159 179 0
159 178 0
157 178 0
160 178 0
152 172 0
161 182 0
161 182 0
159 178 0
149 167 0
157 176 0
159 178 0
160 179 0
164 185 0
159 181 0
160 180 0
163 182 0
165 186 0
159 179 0
159 179 0
165 186 0
162 184 0
159 178 0
157 174 0
160 181 0
158 177 0
160 180 0
159 178 0
160 179 0
164 185 0
162 183 0
158 178 0
161 183 0
163 182 0
159 180 0
159 179 0
166 184 0
164 186 0
163 183 0
161 183 0
159 179 0
160 181 0
157 178 0
160 182 0
159 180 0
162 184 0
163 183 0
162 182 0
162 182 0
160 181 0
166 186 0
163 184 0
166 188 0
160 181 0
164 185 0
162 183 0
167 188 0
167 187 0
166 187 0
170 191 0
163 184 0
164 186 0
166 186 0
161 180 0
169 191 0
166 188 0
169 192 80
171 194 88
171 194 84
170 193 92
175 198 102
173 196 99
176 199 117
174 198 92
176 199 114
168 191 67
169 193 80
168 191 99
169 193 88
173 197 120
174 198 95
171 194 99
174 197 99
174 198 117
166 190 95
169 193 88
166 189 84
174 196 105
172 195 92
170 194 108
169 193 108
170 193 92
172 195 111
174 197 92
167 189 76
171 195 117
171 194 102
172 196 95
166 190 95
168 190 84
170 194 114
170 193 99
172 195 117
169 192 122
171 195 92
166 189 108
165 188 102
168 191 105
168 191 111
164 187 84
162 186 92
164 188 95
165 187 88
168 190 102
160 183 95
161 185 80
165 188 92
166 190 92
165 188 99
161 183 114
156 180 102
162 185 114
160 184 108
163 185 88
159 182 115
162 185 92
155 177 99
157 180 99
156 179 105
162 185 92
166 190 102
163 185 92
161 183 108
160 184 105
158 181 92
157 180 111
160 183 120
160 182 80
156 179 95
158 181 88
162 184 111
160 182 105
145 167 51
163 185 111
162 183 114
151 173 111
139 162 95
158 179 108
158 180 92
155 176 111
163 185 120
143 164 102
150 171 105
154 175 105
155 176 102
145 166 76
145 166 95
150 171 102
157 177 114
158 178 120
152 173 99
148 167 99
138 157 72
142 161 92
141 160 84
130 149 76
133 153 80
149 167 114
130 149 84
150 169 105
140 158 102
140 158 105
120 137 72
135 154 84
122 140 62
125 142 67
130 147 80
115 132 67
123 139 80
106 123 57
130 147 105
111 128 70
100 117 72
113 130 103
102 121 72
95 115 86
88 109 90
90 113 92
94 117 78
98 120 99
87 111 82
86 108 82
112 134 82
109 129 100
120 137 78
119 139 88
110 129 54
112 129 72
124 144 67
121 140 57
124 143 54
130 150 76
121 139 54
124 145 54
119 138 57
118 138 60
118 138 51
118 136 51
105 124 57
121 138 60
104 124 44
98 117 44
101 123 51
101 120 40
102 122 54
110 129 40
103 121 44
99 117 31
99 117 25
88 107 54
100 117 47
96 113 0
89 105 0
100 116 18
91 107 18
118 135 0
99 115 0
82 95 0
96 111 0
97 112 0
82 98 0
86 103 18
88 103 0
77 92 18
92 107 0
90 105 0
74 88 0
86 101 0
78 92 0
88 102 18
86 100 0
76 92 0
87 103 31
81 96 25
97 112 0
97 111 18
87 102 18
90 104 18
89 104 0
89 102 18
86 102 0
89 103 0
81 95 0
102 115 0
86 101 0
88 102 0
88 103 0
98 112 0
86 100 0
100 116 0
100 114 0
87 101 0
85 101 0
99 116 0
100 116 0
100 117 0
96 111 0
98 112 0
85 101 0
105 122 0
93 108 0
108 122 0
100 116 0
100 116 0
101 119 0
102 118 0
102 119 0
99 116 0
120 136 0
110 126 0
107 123 0
105 122 0
120 136 0
94 111 0
107 123 0
108 126 0
116 134 0
117 136 0
126 144 0
108 124 0
115 131 0
119 137 0
111 128 0
129 146 0
121 139 0
117 134 0
127 144 0
125 140 0
111 128 0
132 150 0
132 151 0
117 136 0
127 144 0
122 141 0
127 146 0
128 147 0
128 146 0
131 150 0
136 155 0
128 148 0
130 148 0
131 149 0
128 149 0
127 146 0
139 158 0
125 145 0
126 144 0
128 147 0
134 152 0
140 158 0
136 154 0
130 149 0
136 154 0
129 147 0
140 160 0
135 156 0
145 165 0
136 156 0
137 155 0
145 164 0
136 156 0
146 167 0
138 157 0
137 156 0
146 166 0
147 167 0
146 165 0
138 157 0
144 163 0
144 166 0
150 172 0
146 165 0
145 162 0
135 154 0
139 158 0
148 167 0
144 165 0
144 164 0
151 171 0
140 160 0
147 166 0
153 173 0
143 164 0
147 165 0
148 168 0
145 164 0
150 171 0
148 168 0
151 170 0
143 162 0
143 162 0
146 166 0
145 164 0
152 171 0
146 167 0
149 170 0
154 173 0
155 175 0
141 161 0
151 171 0
154 174 0
147 167 0
156 177 0
154 175 0
156 177 0
150 170 0
148 168 0
151 171 0
156 175 0
153 172 0
157 177 0
145 164 0
155 176 0
155 175 0
158 176 0
157 177 0
161 183 0
147 166 0
151 169 0
155 175 0
155 174 0
158 178 0
150 170 0
154 173 0
156 175 0
153 174 0
155 176 0
156 176 0
161 181 0
156 176 0
162 183 0
156 175 0
163 183 0
159 177 0
155 175 0
158 177 0
157 177 0
155 174 0
152 171 0
157 176 0
163 184 0
158 179 0
161 183 0
165 187 0
157 178 0
159 181 0
158 178 0
160 181 0
157 176 0
160 180 0
158 177 0
164 184 0
158 178 0
164 185 0
159 180 0
161 180 0
159 180 0
163 182 0
163 183 0
160 182 0
158 179 0
162 182 0
159 179 0
157 177 0
161 183 0
162 183 0
159 181 0
163 184 0
164 186 0
161 179 0
164 185 0
158 179 0
161 182 0
155 175 0
168 189 0
159 180 0
164 185 0
162 185 0
159 180 0
166 187 0
165 185 0
163 186 0
166 188 0
166 188 0
167 189 0
163 184 0
163 184 0
167 187 0
168 190 0
165 186 0
170 191 0
165 186 0
166 186 0
163 182 0
165 186 0
164 184 0
171 194 102
176 199 105
172 195 88
172 195 102
170 193 95
175 198 102
172 195 120
174 197 122
168 191 72
171 193 72
176 199 99
168 192 102
172 195 88
169 192 92
170 194 76
170 193 92
169 193 95
171 194 105
170 194 99
170 193 105
174 197 99
173 197 95
170 193 99
172 195 95
167 191 108
170 194 92
177 200 108
168 192 95
168 192 84
165 189 95
166 189 92
168 192 99
168 191 135
170 193 80
168 191 88
172 195 92
169 193 92
168 191 95
169 193 122
167 190 102
165 188 88
167 190 95
169 193 105
170 195 99
169 192 102
166 189 102
164 186 88
159 183 92
167 191 117
167 188 95
168 191 80
166 189 92
166 189 92
166 189 86
164 188 105
159 183 84
164 187 99
164 186 72
162 185 88
157 180 95
160 183 99
159 182 111
173 196 107
160 183 95
172 195 118
161 183 95
165 188 102
151 174 72
160 183 99
161 184 102
162 183 99
156 178 103
156 178 95
158 180 95
158 180 84
160 182 88
153 175 102
155 178 102
158 180 102
151 173 62
153 176 76
157 178 80
147 168 95
158 179 102
151 173 99
152 174 72
153 174 108
157 178 120
146 167 80
151 171 102
142 163 76
161 181 122
151 172 95
140 160 84
151 171 111
143 163 105
142 162 88
140 160 84
144 163 99
143 163 84
144 162 92
144 164 99
145 164 102
136 155 76
149 168 95
138 157 76
120 137 67
127 143 102
135 153 88
133 151 80
134 151 67
132 149 95
117 134 76
116 132 62
110 126 57
105 122 62
106 123 80
106 123 74
89 108 62
108 127 78
99 118 88
108 128 94
89 111 86
104 127 99
98 121 82
105 127 70
111 133 72
99 120 80
107 127 67
114 135 76
125 144 70
122 141 65
125 144 74
124 141 60
117 136 70
133 152 54
131 148 51
126 143 47
125 143 36
119 137 57
119 139 36
131 150 57
115 135 40
121 137 36
110 130 62
113 132 51
102 120 36
121 137 25
119 138 25
99 117 36
95 113 31
102 118 18
98 116 18
100 115 25
96 113 0
113 129 0
95 112 0
102 118 18
104 120 0
97 112 0
93 108 0
90 105 0
107 123 0
102 118 0
84 99 0
93 108 0
98 114 0
96 112 0
88 104 0
77 91 0
101 115 0
93 109 0
86 100 0
89 103 0
83 97 0
76 90 0
92 107 0
89 103 0
89 105 0
84 100 0
87 102 0
92 107 0
98 113 0
88 102 0
89 105 0
81 94 0
95 109 0
87 102 0
92 107 0
91 106 0
95 110 0
99 115 0
100 116 0
84 98 0
91 107 0
92 108 0
104 119 0
104 119 0
104 122 0
101 117 0
88 104 0
95 109 0
98 113 0
103 120 0
89 105 0
106 123 0
89 105 0
87 103 0
107 125 0
105 120 0
104 121 0
130 147 0
115 132 0
106 124 0
99 117 0
110 125 0
114 131 0
108 125 0
117 134 0
112 130 0
110 128 0
119 137 0
120 139 0
122 141 0
118 136 0
113 132 0
120 137 0
122 139 0
117 134 0
120 138 0
124 143 0
122 139 0
123 140 0
134 152 0
124 141 0
125 144 0
131 149 0
127 145 0
132 151 0
121 140 0
118 137 0
131 150 0
138 157 0
128 145 0
138 158 0
131 149 0
132 151 0
128 145 0
136 155 0
120 138 0
130 150 0
130 148 0
135 154 0
142 163 0
133 152 0
135 156 0
131 151 0
137 157 0
142 162 0
145 164 0
145 164 0
137 156 0
141 159 0
136 156 0
145 166 0
142 160 0
148 168 0
140 157 0
144 162 0
140 161 0
146 165 0
146 165 0
150 170 0
144 165 0
147 167 0
145 165 0
151 170 0
147 167 0
145 166 0
141 161 0
140 159 0
150 170 0
142 161 0
139 158 0
143 163 0
142 163 0
151 172 0
153 173 0
147 167 0
152 171 0
150 170 0
155 175 0
152 173 0
154 175 0
144 163 0
149 170 0
146 166 0
149 169 0
151 171 0
152 173 0
149 169 0
150 170 0
153 174 0
147 170 0
154 174 0
154 173 0
159 179 0
148 169 0
154 175 0
149 169 0
157 177 0
156 176 0
156 176 0
153 174 0
154 173 0
150 169 0
153 174 0
153 174 0
157 177 0
151 170 0
153 173 0
156 175 0
156 176 0
153 173 0
152 172 0
156 176 0
160 180 0
155 176 0
152 173 0
157 177 0
154 173 0
165 185 0
158 177 0
162 182 0
152 172 0
159 179 0
160 178 0
157 176 0
158 180 0
158 179 0
152 174 0
155 174 0
164 184 0
164 185 0
159 180 0
160 181 0
160 179 0
162 181 0
156 175 0
157 177 0
160 179 0
161 181 0
162 183 0
167 187 0
160 180 0
162 184 0
162 183 0
160 181 0
167 189 0
168 189 0
160 182 0
158 178 0
166 185 0
161 182 0
163 183 0
164 185 0
162 182 0
163 183 0
160 181 0
164 186 0
163 183 0
163 186 0
164 185 0
166 187 0
163 182 0
161 182 0
165 186 0
167 188 0
164 183 0
167 189 0
161 180 0
163 183 0
165 185 0
165 187 0
159 179 0
165 186 0
167 188 0
166 186 0
166 187 0
162 183 0
161 182 0
166 188 0
162 186 0
169 189 0
158 178 0
164 183 0
168 189 0
167 187 0
168 191 0
164 185 0
173 197 92
175 199 111
172 195 95
170 194 99
172 196 117
173 196 99
175 198 117
173 196 95
170 194 92
170 194 102
173 195 108
169 192 99
169 193 72
168 192 114
173 197 95
163 187 88
172 195 105
172 195 92
176 199 117
171 194 92
167 191 88
170 193 84
167 191 105
167 189 102
168 192 102
173 196 102
170 193 111
169 192 92
171 194 99
168 191 111
162 186 102
168 191 99
175 198 105
171 195 99
171 194 99
165 189 120
168 192 92
170 193 95
168 191 88
166 190 99
166 189 88
171 194 117
171 195 105
162 186 84
168 191 111
173 196 102
167 190 108
163 186 92
167 191 99
162 185 76
164 188 110
160 184 95
165 188 88
166 189 103
161 185 94
159 182 107
161 184 88
160 184 99
160 183 95
160 183 99
165 188 102
166 189 72
153 175 74
162 185 120
163 186 84
161 183 115
159 182 117
161 184 99
160 183 111
161 183 76
161 184 105
152 174 108
156 179 108
156 179 95
161 183 99
155 178 108
154 176 80
153 175 95
160 183 120
159 180 122
157 179 108
155 177 105
154 175 76
149 170 92
153 175 102
151 172 92
162 182 99
159 179 105
148 169 67
146 167 80
159 179 108
141 162 84
151 172 92
154 173 95
150 171 111
142 161 92
142 162 76
152 172 105
132 151 80
144 164 84
147 166 111
143 161 80
148 167 108
138 157 84
142 161 105
129 147 95
145 164 76
138 157 84
129 145 84
128 145 72
129 147 57
130 147 72
128 146 67
122 138 76
108 124 72
111 127 72
117 132 72
119 136 94
113 130 78
108 125 78
117 134 80
99 118 62
95 113 74
91 110 72
98 119 78
101 119 72
99 120 76
117 137 44
112 131 88
120 139 72
118 137 54
117 136 70
123 143 40
124 143 40
142 159 40
129 147 25
126 143 47
126 144 0
116 134 40
120 137 40
133 152 31
130 147 18
112 127 40
110 128 31
109 124 25
112 130 36
110 129 36
113 132 36
113 132 18
98 115 18
98 115 18
99 116 0
100 117 0
100 116 0
104 121 0
111 127 0
105 121 0
110 127 0
96 111 0
99 114 0
85 100 0
93 109 0
87 101 0
83 99 0
96 111 0
109 125 0
85 100 0
91 107 0
87 102 0
104 119 0
93 108 0
93 108 0
94 109 0
101 116 0
94 109 0
89 105 0
100 114 0
98 113 0
85 100 0
93 107 0
79 94 0
101 115 0
95 110 0
88 104 0
93 109 0
105 121 0
104 119 0
101 118 0
103 117 0
99 115 0
98 114 0
86 101 0
101 116 0
91 106 0
103 119 0
98 114 0
97 113 0
88 104 0
92 109 0
104 122 0
107 123 0
109 126 0
103 119 0
90 105 0
105 121 0
106 123 0
112 130 0
105 121 0
101 117 0
116 132 0
103 120 0
111 129 0
118 137 0
113 130 0
107 123 0
119 137 0
114 132 0
108 128 0
126 143 0
92 108 0
112 131 0
116 134 0
122 140 0
127 145 0
110 127 0
124 141 0
124 143 0
117 135 0
122 141 0
128 146 0
121 138 0
111 129 0
126 145 0
119 137 0
121 139 0
130 147 0
130 148 0
128 147 0
128 148 0
125 142 0
135 155 0
122 142 0
132 151 0
136 153 0
135 153 0
133 152 0
128 146 0
132 152 0
129 149 0
140 159 0
136 156 0
141 160 0
137 156 0
127 147 0
143 161 0
134 155 0
137 157 0
130 148 0
142 160 0
145 163 0
142 161 0
138 156 0
135 154 0
148 167 0
150 169 0
141 160 0
132 153 0
142 162 0
140 160 0
141 162 0
146 165 0
150 171 0
149 169 0
145 166 0
149 169 0
145 164 0
144 162 0
141 160 0
144 164 0
149 169 0
149 168 0
146 166 0
150 170 0
144 163 0
146 164 0
143 163 0
139 158 0
143 162 0
149 169 0
143 164 0
154 174 0
151 172 0
152 171 0
150 171 0
152 172 0
153 171 0
143 164 0
149 170 0
151 170 0
157 177 0
151 170 0
149 166 0
153 173 0
148 167 0
154 174 0
149 169 0
155 175 0
154 174 0
149 170 0
151 172 0
151 171 0
145 166 0
153 173 0
156 177 0
153 172 0
152 171 0
156 176 0
149 170 0
155 176 0
153 173 0
153 172 0
152 172 0
159 178 0
159 179 0
159 180 0
159 179 0
155 175 0
157 175 0
149 170 0
153 174 0
155 175 0
156 178 0
159 179 0
152 171 0
155 174 0
154 174 0
162 181 0
161 181 0
154 176 0
155 174 0
158 179 0
158 179 0
157 177 0
156 174 0
163 184 0
162 182 0
162 182 0
155 176 0
157 176 0
161 181 0
165 186 0
162 182 0
156 176 0
163 184 0
158 179 0
166 186 0
164 184 0
159 180 0
157 178 0
158 179 0
163 183 0
164 185 0
164 184 0
165 186 0
164 184 0
162 183 0
160 179 0
163 185 0
163 185 0
164 185 0
168 190 0
164 185 0
168 189 0
159 180 0
163 183 0
163 184 0
163 183 0
166 187 0
165 186 0
165 185 0
159 180 0
167 187 0
166 186 0
163 184 0
166 187 0
165 187 0
163 183 0
171 192 0
163 184 0
169 189 0
166 187 0
163 185 0
160 181 0
167 188 0
162 182 0
166 186 0
169 190 0
164 186 0
165 186 0
168 190 0
176 199 95
176 199 120
174 198 108
170 193 80
167 190 72
171 194 72
174 196 92
171 194 105
168 192 102
169 193 76
174 196 108
170 193 80
171 194 88
168 191 84
173 197 114
170 194 92
175 199 108
164 187 84
175 199 111
172 195 95
166 188 88
164 188 80
175 199 122
173 196 108
172 196 125
166 190 95
170 193 88
171 195 102
168 192 108
162 185 72
171 195 80
168 192 99
171 194 95
164 187 92
165 190 105
162 186 92
169 193 88
165 188 72
170 193 92
173 196 92
170 193 92
169 193 114
166 189 84
167 190 76
167 190 95
168 191 105
168 192 111
166 189 95
167 191 82
159 182 80
172 195 117
165 189 105
164 187 99
168 191 102
159 182 67
162 185 99
156 179 102
166 189 114
159 183 99
166 189 99
165 188 105
166 189 114
160 183 99
164 187 80
167 191 117
160 182 95
161 184 92
165 188 102
166 189 108
153 175 88
168 191 114
161 184 92
157 179 88
157 180 105
164 187 102
162 184 99
158 180 95
161 183 102
159 181 108
160 182 105
152 173 105
158 179 108
160 183 114
156 177 111
156 177 88
164 186 99
144 164 108
158 179 108
150 170 80
155 176 88
155 175 114
160 180 99
141 162 84
152 172 72
150 171 99
153 174 108
151 172 102
151 171 105
142 161 92
148 166 105
153 173 95
145 164 92
143 162 99
143 162 84
142 161 92
139 157 105
120 139 57
138 155 95
121 140 44
128 145 84
133 151 76
121 139 57
138 154 111
124 141 72
123 138 88
106 122 67
122 138 62
113 129 72
123 138 95
110 127 74
111 129 60
107 122 57
96 113 65
93 110 57
116 134 86
103 124 70
109 129 74
108 125 67
114 134 78
120 140 60
124 143 44
119 137 47
134 151 47
133 152 44
135 151 44
138 157 18
136 156 36
133 152 31
133 150 18
124 142 31
123 141 25
129 147 31
123 140 18
116 133 25
123 139 18
127 145 0
104 119 0
113 130 0
99 113 0
108 126 0
117 135 0
119 136 0
106 123 25
111 126 0
111 129 0
99 116 0
107 124 0
106 122 0
101 115 0
103 119 0
100 116 0
97 114 0
91 108 0
99 115 0
99 114 0
95 111 0
89 105 0
96 112 0
95 111 0
99 114 0
92 107 0
84 98 0
101 115 0
96 111 0
91 107 0
96 112 0
105 121 0
97 112 0
98 112 0
96 111 0
105 120 0
112 128 0
99 115 0
101 117 0
90 105 0
92 106 0
96 111 0
88 104 0
96 113 0
100 116 0
95 111 0
84 98 0
112 128 0
105 121 0
100 117 0
106 122 0
98 114 0
111 128 0
112 129 0
102 118 0
108 124 0
109 125 0
109 126 0
100 117 0
103 119 0
103 119 0
109 126 0
101 116 0
119 136 0
108 125 0
112 129 0
107 125 0
119 137 0
122 139 0
116 132 0
118 136 0
104 122 0
106 123 0
120 138 0
118 137 0
111 128 0
111 129 0
123 141 0
123 141 0
134 152 0
109 127 0
123 142 0
120 139 0
117 136 0
122 141 0
131 151 0
128 148 0
118 137 0
120 138 0
123 142 0
133 152 0
128 145 0
124 142 0
133 153 0
136 156 0
126 144 0
132 150 0
133 152 0
131 150 0
135 152 0
133 153 0
132 151 0
137 157 0
139 158 0
128 147 0
139 160 0
134 154 0
131 148 0
134 153 0
138 158 0
147 166 0
141 162 0
127 148 0
148 168 0
142 161 0
146 167 0
133 152 0
139 158 0
136 157 0
143 163 0
148 168 0
143 162 0
145 165 0
144 165 0
137 156 0
142 161 0
142 163 0
145 166 0
137 157 0
144 165 0
140 160 0
144 166 0
147 166 0
146 166 0
142 162 0
149 169 0
148 167 0
148 167 0
139 158 0
148 167 0
142 163 0
153 173 0
158 178 0
154 173 0
156 177 0
147 167 0
152 170 0
150 169 0
148 168 0
155 174 0
145 163 0
147 167 0
147 168 0
151 172 0
158 179 0
152 172 0
149 169 0
153 172 0
144 164 0
156 176 0
157 176 0
158 178 0
156 175 0
153 173 0
148 167 0
148 167 0
154 173 0
160 181 0
155 175 0
153 175 0
153 173 0
153 173 0
159 179 0
156 175 0
159 180 0
156 178 0
151 169 0
156 177 0
160 179 0
157 175 0
159 180 0
156 175 0
155 175 0
164 185 0
157 178 0
158 179 0
157 176 0
162 182 0
159 181 0
159 181 0
153 173 0
159 179 0
160 178 0
158 178 0
159 179 0
159 178 0
154 172 0
161 180 0
157 178 0
159 180 0
165 186 0
158 180 0
156 176 0
162 182 0
159 178 0
158 177 0
161 183 0
152 171 0
164 184 0
162 183 0
161 182 0
162 183 0
158 179 0
168 189 0
162 183 0
159 179 0
155 176 0
159 178 0
164 184 0
161 181 0
158 178 0
164 185 0
163 183 0
166 188 0
162 183 0
160 181 0
163 185 0
167 187 0
165 187 0
162 183 0
168 188 0
165 186 0
161 183 0
157 178 0
160 180 0
167 188 0
165 187 0
163 184 0
167 188 0
162 184 0
162 183 0
164 184 0
166 187 0
161 182 0
164 183 0
166 188 0
163 184 0
160 181 0
164 186 0
167 189 0
166 187 0
170 193 0
166 188 0
169 190 0
161 183 0
174 196 102
170 193 67
174 198 76
174 198 108
170 193 92
171 195 88
172 196 95
172 195 95
170 193 92
172 195 80
172 196 80
172 196 108
171 193 92
175 199 122
171 195 88
171 194 84
172 195 84
164 187 88
171 195 99
171 194 76
164 187 84
170 194 92
169 193 105
170 193 111
172 196 114
169 192 99
165 189 67
172 195 102
169 192 105
169 192 99
171 196 105
160 185 102
167 191 114
167 190 51
167 190 88
172 196 125
163 186 108
168 191 114
165 189 102
166 189 92
163 187 80
164 186 84
164 186 102
169 192 102
168 190 105
164 187 102
165 190 125
165 189 88
163 186 80
167 190 99
159 182 90
162 186 105
158 182 67
163 186 99
165 188 92
161 184 99
159 182 97
163 186 105
169 192 99
160 183 108
158 181 120
159 182 99
162 185 111
161 183 78
164 187 102
159 181 92
150 173 80
166 188 95
167 189 102
164 186 80
156 178 76
159 181 95
154 177 67
161 183 102
159 181 102
163 185 105
152 174 92
156 178 76
151 173 72
152 173 92
159 180 108
153 174 84
150 170 57
156 177 99
154 175 92
147 169 102
161 182 102
153 175 102
153 175 105
152 172 108
151 172 108
151 171 108
153 174 111
152 173 99
148 169 88
150 170 95
151 172 99
144 164 99
147 166 105
144 163 99
150 169 99
142 163 88
150 168 122
145 163 105
141 160 92
143 163 84
130 149 72
120 139 67
142 159 88
126 145 72
135 152 92
134 152 72
134 149 88
121 138 76
123 139 92
118 135 76
114 131 62
137 153 80
121 137 62
106 123 40
108 126 25
117 134 88
111 128 74
118 134 80
119 136 76
106 124 62
110 127 65
111 130 74
128 146 60
109 128 40
128 147 31
126 145 44
133 151 54
135 153 31
133 152 0
142 161 25
122 140 0
147 165 25
133 150 0
133 150 0
141 160 0
138 157 18
119 136 0
126 143 0
123 141 0
122 139 0
119 136 0
115 131 0
113 130 0
112 130 0
103 120 0
105 122 0
112 130 0
99 117 0
116 133 0
112 131 0
104 121 0
108 125 0
117 134 0
99 116 0
110 128 0
97 113 0
103 120 0
100 116 0
84 99 0
104 118 0
105 123 0
110 125 0
107 123 0
106 122 0
96 111 0
111 127 0
93 108 0
104 120 0
88 105 0
101 117 0
111 127 0
90 105 0
96 111 0
89 104 0
95 110 0
100 115 0
95 111 0
86 100 0
106 122 0
111 126 0
90 106 0
103 119 0
111 127 0
100 115 0
92 110 0
111 127 0
103 119 0
97 113 0
90 106 0
101 119 0
122 138 0
101 117 0
109 125 0
94 111 0
106 122 0
99 117 0
109 125 0
93 110 0
117 133 0
99 115 0
112 130 0
113 131 0
116 133 0
109 127 0
94 112 0
109 126 0
119 136 0
120 139 0
103 121 0
125 142 0
121 140 0
105 123 0
114 132 0
115 132 0
112 130 0
109 127 0
121 140 0
126 145 0
114 133 0
124 143 0
132 150 0
124 142 0
130 149 0
120 137 0
117 136 0
122 141 0
119 137 0
126 144 0
124 143 0
128 146 0
123 142 0
127 145 0
130 149 0
129 146 0
121 140 0
125 145 0
133 152 0
126 145 0
127 147 0
141 162 0
141 160 0
137 155 0
126 144 0
129 148 0
134 153 0
124 144 0
136 156 0
132 151 0
135 154 0
138 158 0
139 156 0
136 153 0
145 165 0
128 148 0
139 160 0
141 159 0
143 162 0
140 162 0
139 159 0
142 162 0
143 161 0
137 158 0
138 158 0
135 154 0
141 161 0
147 167 0
136 157 0
140 157 0
148 167 0
141 160 0
143 163 0
145 164 0
145 165 0
144 164 0
149 172 0
151 172 0
147 166 0
140 160 0
149 169 0
140 160 0
144 162 0
150 172 0
151 171 0
149 169 0
147 166 0
155 176 0
149 167 0
149 169 0
156 175 0
144 166 0
147 168 0
160 181 0
159 177 0
152 171 0
153 174 0
146 167 0
152 172 0
152 173 0
152 173 0
152 172 0
153 174 0
149 170 0
150 171 0
158 177 0
152 174 0
149 168 0
153 174 0
156 176 0
155 178 0
156 176 0
153 175 0
158 178 0
159 181 0
156 174 0
155 176 0
159 179 0
153 174 0
157 178 0
146 166 0
158 179 0
157 177 0
158 178 0
159 181 0
159 180 0
160 180 0
160 180 0
157 177 0
159 180 0
158 178 0
159 178 0
157 177 0
162 181 0
162 183 0
156 177 0
160 181 0
156 175 0
158 179 0
163 182 0
161 181 0
161 181 0
162 182 0
160 181 0
155 176 0
162 183 0
163 184 0
162 182 0
161 180 0
158 179 0
160 182 0
164 185 0
162 184 0
165 185 0
164 184 0
161 182 0
162 182 0
161 180 0
164 186 0
163 183 0
163 184 0
161 182 0
163 184 0
166 187 0
165 185 0
162 182 0
163 184 0
168 188 0
164 187 0
165 185 0
165 186 0
168 191 0
162 184 0
167 187 0
164 185 0
166 185 0
165 186 0
167 186 0
162 183 0
165 186 0
168 191 0
163 186 0
166 188 0
165 185 0
161 183 0
165 188 0
166 187 0
170 191 0
168 189 0
166 187 0
164 186 0
168 189 0
164 186 0
162 182 0
163 185 0
169 192 0
170 194 99
174 196 108
171 194 99
172 194 99
169 193 80
173 196 92
168 192 80
174 197 99
177 200 105
173 196 108
175 198 114
167 190 92
170 194 102
173 197 95
168 192 76
174 197 120
167 191 80
170 193 80
168 192 95
169 193 88
171 195 92
172 195 95
168 191 105
169 193 88
167 190 105
165 188 99
169 193 80
171 194 84
171 193 111
168 192 92
169 192 92
168 191 95
168 192 102
167 191 99
172 195 95
171 194 92
162 185 88
169 192 92
164 188 80
168 192 105
164 188 80
168 192 84
164 188 84
167 191 88
165 188 108
167 191 108
169 193 99
163 188 92
170 192 102
164 188 102
167 191 102
162 185 92
166 189 95
161 184 92
164 187 80
170 192 95
159 181 94
164 187 84
160 183 92
161 184 99
163 186 107
165 188 95
162 184 105
160 183 94
168 190 88
158 181 99
155 177 107
158 180 105
162 186 107
159 181 84
151 173 92
160 183 108
161 184 105
161 183 84
161 183 92
161 183 105
160 183 108
162 184 120
149 171 80
154 176 99
155 178 88
157 178 67
164 186 117
161 182 92
154 176 88
150 171 76
153 174 99
151 173 88
146 166 102
147 167 88
151 172 95
151 172 88
145 165 84
144 164 99
149 169 95
147 167 80
153 172 102
141 161 88
149 168 108
141 160 84
139 158 80
141 161 99
148 167 102
146 165 111
138 156 92
143 163 72
130 148 76
133 151 84
130 149 62
146 163 105
152 170 105
122 140 72
123 140 72
121 139 72
125 143 36
124 142 67
114 131 62
106 121 51
104 121 57
114 129 70
116 133 36
103 119 57
111 127 62
99 114 18
115 133 54
111 128 54
119 136 47
128 146 51
124 142 60
115 133 67
130 148 40
125 143 47
137 155 0
137 153 0
137 155 25
135 153 0
129 146 25
136 154 0
141 157 0
129 148 0
125 140 0
129 146 0
119 138 0
127 144 0
117 137 0
115 132 0
115 133 0
107 125 0
115 133 0
104 121 0
120 138 0
107 126 0
107 122 0
121 138 0
104 121 0
103 120 0
109 126 0
116 134 0
107 124 0
104 121 0
97 112 0
103 118 0
102 117 0
103 119 0
98 115 0
94 111 0
115 132 0
96 113 0
86 104 0
104 121 0
99 115 0
105 122 0
109 125 0
95 111 0
90 107 0
86 102 0
100 116 0
101 118 0
95 111 0
111 128 0
102 118 0
97 112 0
95 111 0
94 111 0
83 100 0
105 122 0
94 110 0
106 122 0
101 118 0
106 122 0
99 114 0
108 125 0
103 119 0
103 121 0
91 108 0
103 120 0
103 120 0
105 123 0
111 128 0
104 120 0
112 130 0
116 134 0
107 125 0
112 130 0
112 129 0
101 117 0
112 128 0
120 138 0
112 131 0
109 128 0
113 130 0
110 128 0
116 135 0
110 128 0
114 131 0
118 134 0
135 153 0
124 142 0
121 139 0
126 145 0
124 142 0
120 138 0
121 140 0
111 130 0
119 138 0
135 154 0
127 146 0
125 144 0
115 135 0
136 152 0
128 146 0
134 154 0
124 144 0
120 138 0
134 152 0
137 159 0
139 158 0
137 156 0
129 149 0
135 154 0
133 152 0
127 147 0
141 160 0
142 161 0
139 158 0
137 157 0
137 155 0
127 146 0
126 144 0
148 168 0
139 157 0
143 162 0
132 152 0
142 162 0
144 164 0
135 155 0
134 154 0
137 156 0
138 158 0
140 159 0
147 168 0
134 153 0
136 154 0
140 160 0
145 164 0
142 163 0
140 161 0
142 161 0
147 167 0
143 163 0
143 163 0
145 165 0
146 166 0
143 164 0
148 166 0
152 174 0
148 169 0
145 167 0
145 165 0
150 172 0
146 166 0
144 163 0
144 163 0
148 168 0
140 159 0
147 168 0
146 166 0
151 173 0
146 165 0
152 172 0
144 163 0
145 165 0
148 170 0
147 169 0
155 176 0
155 175 0
156 176 0
145 165 0
148 170 0
149 170 0
151 174 0
155 175 0
155 176 0
144 162 0
154 176 0
150 170 0
151 170 0
149 170 0
151 170 0
158 178 0
162 183 0
148 168 0
154 174 0
146 164 0
155 176 0
151 171 0
156 176 0
154 171 0
160 180 0
156 177 0
163 184 0
158 179 0
156 176 0
158 179 0
157 177 0
156 175 0
162 181 0
157 177 0
152 172 0
156 175 0
157 177 0
156 177 0
163 184 0
159 179 0
160 181 0
159 178 0
157 176 0
159 179 0
159 178 0
164 185 0
159 180 0
155 176 0
159 178 0
157 178 0
160 181 0
161 180 0
158 178 0
160 181 0
161 181 0
156 177 0
163 184 0
158 179 0
159 180 0
159 180 0
160 180 0
158 180 0
157 177 0
160 181 0
165 186 0
160 182 0
168 189 0
161 182 0
161 180 0
157 176 0
159 180 0
166 187 0
165 186 0
161 183 0
166 188 0
153 174 0
164 185 0
158 180 0
165 187 0
162 181 0
157 176 0
165 185 0
167 187 0
163 184 0
166 188 0
163 184 0
163 183 0
167 188 0
160 179 0
164 184 0
165 186 0
166 187 0
168 190 0
169 190 0
162 183 0
164 186 0
162 184 0
167 188 0
164 184 0
157 177 0
164 185 0
165 187 0
163 185 0
169 190 0
168 190 0
165 185 0
170 194 105
174 197 88
177 199 88
176 199 102
174 198 111
172 195 99
174 196 105
169 192 95
171 195 88
177 199 111
175 198 99
173 196 102
169 192 88
168 191 88
174 197 92
172 196 102
170 193 80
170 194 99
172 195 105
171 194 114
170 193 88
175 199 102
167 191 80
171 195 102
165 188 72
171 193 92
164 187 80
170 194 99
168 192 105
172 196 99
167 190 80
175 198 122
162 184 80
167 191 105
171 193 88
170 194 92
172 195 99
167 191 105
167 191 92
165 189 102
169 192 84
166 189 99
160 183 76
167 190 105
165 189 122
162 185 80
166 188 92
162 185 99
162 185 80
161 185 99
168 192 108
166 189 95
164 187 105
162 186 117
170 193 125
162 186 76
162 185 88
162 186 95
159 183 88
162 186 99
161 184 94
162 186 80
160 183 105
168 191 105
155 178 76
157 180 92
161 184 88
158 181 95
162 185 115
162 185 105
167 189 114
157 179 99
166 188 100
162 183 95
153 175 80
159 182 105
152 174 88
158 180 99
155 178 84
153 175 92
159 180 105
155 177 84
159 181 105
148 169 95
153 174 92
153 175 92
149 171 80
148 168 108
154 176 99
163 184 102
155 177 108
152 171 108
145 165 102
148 169 111
150 169 84
139 159 92
146 166 95
158 179 105
145 165 92
153 173 99
152 172 95
142 161 80
148 167 84
147 166 84
140 158 76
145 164 88
142 160 92
145 164 99
146 164 88
134 152 80
133 151 88
144 163 76
141 159 80
124 141 72
113 131 72
115 132 72
124 142 67
122 139 44
108 124 44
115 130 51
113 130 57
120 136 57
129 146 67
121 136 74
120 137 72
114 129 51
128 146 47
124 142 40
125 142 57
130 148 57
129 146 25
123 140 25
126 145 36
137 155 36
130 147 0
136 156 25
136 154 25
134 152 0
135 154 0
128 146 0
139 160 0
126 143 0
133 151 0
125 142 0
129 148 0
106 122 0
127 144 0
123 140 0
123 140 0
113 130 0
119 136 0
114 132 0
116 133 0
115 133 0
115 132 0
105 122 0
110 126 0
106 124 0
109 126 0
112 130 0
109 127 0
115 132 0
101 118 0
99 116 0
104 119 0
108 124 0
96 112 0
91 106 0
107 124 0
116 134 0
120 137 0
108 124 0
96 113 0
98 114 0
95 111 0
92 108 0
98 115 0
101 117 0
120 138 0
101 117 0
105 121 0
100 116 0
107 122 0
99 116 0
104 120 0
106 123 0
99 115 0
103 120 0
98 114 0
104 118 0
101 119 0
100 115 0
108 124 0
97 114 0
104 120 0
105 123 0
124 142 0
108 125 0
93 110 0
106 122 0
99 117 0
100 118 0
102 118 0
100 117 0
106 123 0
120 137 0
107 125 0
102 119 0
123 140 0
118 136 0
112 131 0
125 143 0
113 130 0
119 138 0
125 142 0
107 126 0
123 140 0
117 135 0
125 143 0
113 130 0
121 139 0
130 151 0
122 142 0
121 140 0
119 136 0
124 143 0
117 137 0
126 145 0
114 134 0
121 140 0
138 157 0
126 144 0
138 157 0
123 142 0
120 139 0
127 146 0
126 146 0
125 143 0
135 154 0
132 152 0
134 153 0
129 148 0
139 159 0
128 148 0
134 152 0
136 156 0
124 143 0
137 157 0
138 158 0
134 153 0
134 153 0
132 153 0
141 160 0
139 159 0
142 161 0
144 163 0
135 155 0
131 152 0
125 144 0
149 167 0
138 158 0
134 154 0
138 158 0
144 164 0
141 160 0
138 156 0
141 161 0
139 160 0
146 167 0
142 162 0
148 169 0
145 164 0
130 149 0
145 164 0
139 158 0
150 170 0
152 173 0
147 166 0
146 166 0
150 170 0
152 172 0
149 169 0
145 165 0
148 168 0
147 167 0
149 169 0
146 167 0
149 170 0
150 170 0
149 169 0
147 168 0
143 163 0
151 173 0
154 174 0
144 162 0
153 175 0
151 172 0
153 172 0
156 176 0
157 178 0
152 171 0
152 171 0
153 174 0
155 177 0
155 177 0
152 173 0
153 175 0
155 176 0
155 176 0
156 177 0
150 170 0
154 175 0
154 174 0
159 181 0
157 176 0
159 179 0
154 173 0
154 175 0
158 178 0
147 166 0
157 178 0
150 170 0
151 171 0
159 179 0
158 179 0
161 182 0
160 180 0
155 176 0
156 174 0
160 180 0
160 182 0
150 170 0
158 177 0
161 182 0
159 180 0
160 180 0
152 171 0
154 175 0
164 186 0
163 185 0
155 175 0
158 176 0
157 178 0
153 174 0
154 176 0
153 174 0
159 179 0
162 183 0
167 188 0
159 181 0
162 182 0
167 186 0
160 182 0
162 183 0
162 184 0
162 183 0
163 183 0
163 185 0
161 182 0
159 180 0
164 186 0
163 185 0
165 186 0
165 187 0
163 183 0
162 184 0
160 182 0
170 191 0
164 186 0
163 184 0
163 184 0
154 175 0
160 181 0
166 189 0
168 188 0
163 184 0
162 185 0
163 183 0
163 185 0
164 185 0
162 182 0
161 182 0
166 186 0
165 187 0
162 183 0
163 185 0
166 187 0
169 191 0
163 184 0
163 185 0
164 186 0
167 188 0
166 187 0
167 190 0
165 185 0
162 182 0
162 183 0
163 182 0
164 186 0
166 186 0
175 198 95
170 193 88
174 197 95
177 201 128
176 198 108
173 196 88
171 195 92
171 195 84
174 198 95
171 195 125
167 190 111
171 195 84
174 198 72
174 197 102
173 196 114
173 196 76
161 186 76
172 195 92
171 195 99
166 190 88
169 193 105
170 193 88
170 194 95
170 194 105
166 189 80
171 194 88
174 198 125
166 189 102
165 188 72
172 195 122
170 193 105
161 184 76
164 187 92
167 191 105
169 193 92
172 196 102
170 193 105
171 194 95
165 188 111
166 190 95
161 185 92
168 191 105
164 187 92
165 189 95
167 191 95
167 190 88
167 191 120
161 185 88
162 186 99
163 186 92
155 178 95
158 181 88
159 182 95
161 184 95
160 184 84
160 183 99
166 189 99
162 185 95
161 184 84
164 187 102
159 183 88
161 185 97
160 183 120
151 174 84
159 180 94
158 180 84
155 178 84
162 184 114
159 181 80
156 179 105
165 187 108
157 179 99
154 177 99
161 184 102
157 181 92
150 172 80
154 177 108
161 184 117
147 169 88
160 182 114
156 178 99
158 180 102
155 177 122
157 178 95
154 176 99
148 169 92
155 176 111
157 178 95
158 179 88
152 172 84
141 162 76
158 179 99
147 168 95
158 179 114
158 179 88
148 168 80
159 179 105
153 174 92
147 166 99
149 168 120
148 167 88
142 161 88
133 152 84
139 159 84
149 167 108
151 170 105
147 166 105
138 155 95
122 141 67
137 156 62
138 156 80
132 150 72
127 144 76
125 142 80
132 149 72
125 143 51
128 146 62
125 141 62
131 149 67
111 127 51
119 136 67
123 138 80
120 136 67
114 130 36
122 140 57
120 137 62
123 141 51
126 143 44
140 157 57
126 145 44
131 148 25
136 154 36
140 159 36
137 155 0
143 162 36
146 164 25
147 166 25
146 164 0
138 156 25
129 145 0
133 152 0
140 157 0
126 144 0
123 139 0
135 153 0
128 147 0
126 143 0
127 145 0
115 133 0
113 130 0
122 140 0
113 130 0
109 126 0
108 126 0
125 144 0
111 129 0
110 128 0
107 125 0
105 122 0
102 120 0
106 123 0
112 129 0
112 129 0
103 118 0
103 120 0
101 118 0
107 124 0
99 114 0
99 114 0
96 115 0
92 109 0
109 127 0
108 126 0
112 129 0
91 108 0
112 130 0
99 116 0
103 120 0
105 122 0
100 116 0
107 123 0
110 127 0
98 115 0
100 117 0
120 137 0
107 124 0
107 124 0
100 118 0
102 118 0
97 115 0
101 119 0
106 123 0
122 139 0
99 116 0
103 120 0
104 123 0
113 130 0
112 128 0
116 134 0
111 128 0
107 123 0
108 124 0
106 123 0
118 135 0
98 115 0
110 128 0
106 124 0
114 132 0
117 134 0
120 137 0
112 130 0
109 126 0
111 129 0
115 134 0
122 138 0
122 141 0
124 143 0
116 134 0
118 136 0
119 138 0
124 142 0
113 132 0
114 132 0
140 159 0
127 145 0
136 156 0
124 142 0
121 140 0
117 136 0
130 148 0
129 148 0
127 146 0
112 130 0
122 140 0
124 145 0
128 146 0
126 146 0
135 156 0
143 162 0
131 150 0
137 156 0
134 154 0
131 151 0
144 164 0
132 151 0
137 157 0
127 146 0
130 150 0
133 152 0
136 155 0
139 158 0
140 161 0
136 156 0
139 159 0
135 155 0
133 154 0
134 154 0
135 155 0
135 155 0
144 165 0
142 162 0
140 159 0
134 153 0
147 168 0
149 170 0
142 162 0
136 157 0
153 173 0
141 160 0
134 155 0
142 163 0
139 159 0
140 161 0
149 168 0
148 168 0
146 166 0
150 172 0
151 171 0
145 165 0
146 166 0
146 167 0
154 174 0
152 171 0
153 173 0
148 169 0
155 176 0
150 171 0
145 166 0
149 168 0
145 166 0
155 175 0
146 167 0
155 176 0
152 172 0
150 170 0
152 173 0
155 175 0
155 174 0
153 172 0
150 170 0
146 166 0
154 174 0
155 176 0
155 174 0
155 175 0
154 174 0
151 171 0
154 176 0
158 179 0
146 164 0
154 173 0
160 180 0
153 171 0
155 176 0
156 177 0
156 177 0
159 179 0
154 174 0
158 180 0
155 176 0
156 176 0
159 179 0
156 177 0
153 172 0
159 180 0
157 179 0
160 181 0
158 178 0
164 186 0
154 174 0
156 175 0
162 181 0
158 178 0
162 182 0
159 178 0
158 179 0
155 176 0
163 183 0
159 180 0
156 176 0
151 171 0
161 182 0
159 179 0
160 180 0
159 179 0
156 178 0
156 176 0
158 180 0
163 183 0
160 180 0
165 186 0
162 183 0
160 181 0
156 175 0
163 185 0
160 180 0
163 183 0
163 184 0
164 183 0
165 185 0
162 184 0
161 183 0
162 184 0
165 186 0
163 185 0
164 186 0
168 190 0
169 189 0
164 185 0
162 184 0
162 184 0
163 184 0
167 189 0
163 183 0
160 179 0
164 185 0
165 186 0
165 186 0
164 186 0
166 186 0
164 185 0
167 187 0
163 185 0
165 185 0
162 184 0
166 187 0
160 181 0
166 189 0
168 189 0
168 189 0
165 186 0
162 183 0
164 187 0
168 189 0
166 188 0
162 183 0
168 189 0
170 191 0
170 190 0
165 185 0
177 199 99
174 196 92
174 197 105
172 196 99
170 193 102
166 189 67
174 197 80
174 196 105
177 200 108
169 192 88
161 184 80
169 193 99
177 199 108
168 192 95
169 192 67
177 201 102
170 192 99
170 192 76
170 193 111
171 194 99
169 192 95
169 192 92
173 196 111
163 187 84
174 196 99
171 194 92
171 195 92
169 192 84
163 185 102
171 195 99
167 190 102
169 192 114
168 191 108
167 190 88
165 189 92
165 189 102
169 192 102
168 192 102
164 188 95
164 188 102
164 189 108
165 188 102
171 194 102
163 187 88
173 196 117
154 176 80
164 187 105
166 190 111
162 185 76
162 185 80
163 186 80
159 183 95
160 183 84
167 190 99
165 189 120
162 185 92
160 183 95
166 189 108
162 185 102
159 182 84
154 177 72
160 184 92
161 184 94
153 175 102
163 186 84
161 184 105
160 182 99
157 179 84
165 187 114
163 184 99
161 182 95
159 181 105
154 176 111
162 184 120
154 176 78
159 181 76
154 175 95
161 183 92
163 185 114
155 177 88
155 176 105
156 178 84
162 183 102
150 172 95
156 178 95
156 177 76
158 180 105
154 175 105
149 170 80
158 179 88
147 168 72
158 179 120
152 173 105
151 172 88
151 171 102
155 175 95
160 181 99
139 158 76
138 158 67
151 170 99
148 168 80
154 173 120
155 174 95
132 152 62
158 177 117
153 173 99
143 162 92
144 164 92
140 159 76
135 153 88
130 149 44
131 150 67
130 148 80
133 151 57
137 153 80
133 151 67
138 156 57
130 147 62
127 145 62
130 147 62
134 151 67
122 139 44
123 139 62
126 145 62
111 128 44
127 146 44
116 134 0
133 151 44
128 147 36
131 149 25
131 150 25
116 134 36
137 155 0
144 162 36
136 154 0
138 158 0
140 160 0
135 153 0
149 167 25
132 148 0
130 149 0
136 154 0
120 138 0
131 150 0
123 142 0
120 138 0
118 136 0
124 142 0
130 148 0
113 131 0
109 125 0
120 140 0
111 129 0
112 131 0
113 131 0
120 138 0
123 141 0
124 143 0
109 127 0
115 133 0
102 120 0
108 126 0
120 138 0
113 129 0
101 118 0
97 114 0
120 137 0
105 122 0
111 129 0
100 117 0
93 110 0
107 124 0
107 123 0
99 114 0
116 133 0
110 128 0
103 120 0
105 122 0
94 110 0
105 121 0
83 99 0
111 128 0
113 131 0
107 123 0
103 119 0
88 104 0
112 130 0
100 116 0
107 123 0
113 130 0
107 124 0
117 134 0
111 129 0
113 131 0
116 133 0
98 116 0
120 139 0
121 138 0
112 129 0
104 121 0
115 132 0
113 130 0
120 138 0
119 135 0
116 133 0
107 125 0
114 131 0
114 131 0
116 134 0
116 134 0
124 143 0
123 142 0
121 139 0
116 134 0
130 149 0
107 126 0
124 142 0
121 141 0
128 147 0
119 138 0
114 131 0
122 140 0
126 145 0
126 145 0
133 152 0
131 150 0
125 143 0
132 152 0
130 147 0
122 141 0
123 141 0
126 144 0
122 141 0
125 143 0
127 147 0
129 149 0
128 145 0
134 153 0
140 160 0
127 145 0
125 144 0
136 156 0
125 145 0
140 161 0
131 152 0
138 158 0
131 150 0
137 157 0
133 153 0
138 158 0
139 158 0
134 153 0
137 155 0
138 158 0
143 163 0
143 163 0
147 168 0
134 154 0
136 156 0
139 158 0
131 152 0
136 154 0
132 151 0
143 164 0
143 163 0
141 160 0
138 159 0
142 162 0
150 170 0
147 167 0
143 162 0
141 159 0
143 163 0
145 166 0
139 160 0
142 162 0
148 170 0
141 160 0
151 173 0
156 176 0
150 170 0
145 166 0
145 165 0
141 161 0
144 163 0
151 170 0
143 162 0
145 164 0
142 162 0
151 173 0
147 167 0
155 176 0
150 171 0
151 173 0
151 171 0
147 169 0
151 171 0
158 178 0
155 175 0
154 175 0
148 166 0
155 173 0
152 172 0
155 176 0
150 169 0
153 173 0
157 177 0
152 172 0
147 167 0
149 168 0
154 175 0
154 174 0
157 177 0
156 176 0
148 167 0
155 176 0
149 170 0
158 179 0
156 178 0
155 176 0
155 177 0
156 178 0
155 176 0
157 179 0
154 174 0
153 175 0
159 180 0
162 183 0
152 172 0
154 173 0
153 173 0
160 181 0
162 183 0
165 185 0
159 180 0
160 181 0
159 179 0
162 183 0
162 183 0
158 179 0
161 183 0
156 178 0
159 179 0
156 176 0
155 174 0
157 177 0
161 182 0
164 186 0
160 182 0
161 181 0
164 182 0
162 184 0
155 175 0
166 186 0
162 183 0
161 182 0
160 180 0
162 184 0
162 183 0
162 184 0
163 183 0
162 183 0
161 182 0
158 178 0
160 181 0
164 184 0
162 183 0
164 185 0
163 185 0
162 181 0
157 179 0
159 181 0
166 185 0
164 184 0
161 182 0
163 184 0
162 183 0
169 192 0
165 187 0
168 188 0
165 186 0
165 186 0
166 187 0
164 183 0
165 186 0
165 185 0
167 187 0
163 185 0
163 185 0
166 189 0
169 191 0
163 185 0
164 185 0
164 185 0
164 186 0
165 186 0
168 189 0
167 188 0
163 185 0
166 187 0
174 197 92
173 197 92
177 200 102
177 200 114
171 194 95
172 196 72
175 198 102
169 193 84
170 194 76
170 193 76
177 200 117
175 198 117
175 199 99
170 193 92
167 190 80
166 189 95
168 191 72
172 196 88
171 194 105
165 188 84
167 190 92
171 194 99
166 190 88
172 196 102
169 193 88
172 196 114
171 194 99
174 198 114
165 189 102
168 192 88
169 192 105
173 196 108
172 195 99
172 195 99
168 192 114
168 192 84
166 190 108
168 192 99
167 190 102
169 193 95
173 196 111
166 190 88
168 191 105
168 192 102
164 188 120
168 191 105
162 185 92
163 187 95
168 191 114
166 190 92
167 190 80
164 186 99
156 178 76
164 188 88
168 191 108
163 186 105
161 184 105
164 187 80
168 191 102
168 191 84
166 188 105
160 183 86
162 185 90
164 187 102
158 181 95
159 182 99
164 187 74
157 180 95
159 181 76
157 179 120
163 185 114
160 183 95
158 180 62
159 181 90
152 174 88
155 178 102
158 180 95
155 176 72
163 186 108
155 176 95
156 178 92
160 182 114
148 170 72
158 179 80
168 188 99
152 173 72
166 188 120
145 166 67
159 179 95
148 168 95
155 177 80
157 177 117
152 173 105
140 161 80
156 177 105
153 173 102
150 169 92
152 172 95
154 173 102
150 169 111
147 167 114
144 164 105
143 162 102
148 167 99
142 161 84
146 165 84
149 167 102
141 159 84
142 162 92
151 169 99
138 157 80
144 163 80
132 150 84
138 156 76
131 150 62
128 147 57
132 149 72
127 145 62
136 153 84
127 145 57
130 148 51
120 136 57
128 145 57
133 151 62
130 148 80
128 145 67
126 145 57
134 152 36
134 152 51
129 146 25
138 157 44
141 161 36
143 163 36
135 156 0
124 145 0
141 161 0
138 158 25
138 158 0
134 153 0
140 160 0
138 157 0
132 151 0
127 146 0
135 153 0
128 148 0
123 142 0
127 146 0
124 142 0
129 147 0
106 123 0
105 124 0
115 133 0
123 141 0
124 143 0
122 140 0
119 137 0
114 132 0
107 125 0
118 137 0
114 132 0
119 136 0
113 130 0
115 132 0
114 132 0
118 135 0
106 124 0
108 125 0
112 129 0
100 117 0
104 121 0
106 124 0
104 122 0
107 126 0
103 119 0
102 118 0
106 125 0
115 133 0
99 116 0
114 130 0
105 121 0
105 123 0
103 119 0
110 128 0
107 125 0
114 130 0
115 133 0
90 107 0
109 127 0
114 133 0
104 121 0
101 119 0
121 139 0
109 126 0
120 138 0
121 140 0
105 124 0
106 124 0
110 128 0
110 129 0
102 118 0
103 119 0
114 132 0
130 148 0
117 136 0
110 127 0
113 131 0
120 138 0
122 141 0
110 128 0
108 125 0
120 139 0
128 146 0
118 137 0
118 136 0
132 152 0
121 140 0
110 128 0
117 135 0
121 139 0
127 145 0
127 147 0
125 144 0
133 152 0
118 137 0
126 145 0
117 137 0
128 147 0
138 157 0
132 152 0
118 137 0
128 145 0
137 156 0
117 136 0
127 147 0
128 148 0
132 152 0
126 145 0
131 150 0
139 159 0
127 146 0
130 150 0
135 155 0
135 154 0
128 147 0
136 156 0
142 162 0
140 160 0
138 157 0
137 158 0
127 146 0
137 158 0
150 169 0
134 154 0
143 164 0
138 158 0
139 158 0
138 158 0
147 167 0
133 153 0
150 171 0
140 160 0
143 163 0
147 169 0
147 168 0
145 166 0
149 169 0
146 167 0
148 169 0
142 163 0
137 157 0
141 161 0
147 167 0
145 165 0
144 165 0
147 168 0
142 163 0
144 163 0
142 163 0
146 167 0
141 161 0
158 178 0
145 164 0
148 168 0
152 173 0
143 165 0
158 178 0
140 159 0
158 180 0
150 171 0
152 171 0
158 180 0
150 170 0
151 171 0
137 157 0
149 169 0
147 169 0
145 166 0
153 173 0
154 175 0
156 176 0
156 176 0
160 182 0
154 175 0
160 180 0
152 174 0
159 182 0
150 171 0
156 174 0
154 173 0
158 180 0
145 165 0
161 183 0
154 175 0
157 178 0
156 177 0
153 173 0
157 178 0
160 182 0
153 173 0
152 173 0
152 174 0
157 177 0
155 175 0
153 173 0
159 180 0
156 176 0
155 174 0
151 172 0
160 181 0
162 182 0
158 180 0
153 172 0
156 175 0
160 182 0
157 177 0
153 174 0
155 175 0
157 176 0
163 184 0
166 187 0
161 183 0
160 180 0
160 182 0
155 176 0
159 181 0
161 182 0
160 182 0
159 180 0
162 183 0
158 179 0
161 182 0
161 182 0
164 184 0
156 175 0
162 183 0
157 176 0
159 180 0
162 183 0
151 172 0
162 184 0
165 187 0
163 184 0
158 177 0
161 183 0
163 183 0
160 179 0
164 185 0
163 183 0
164 186 0
165 185 0
160 180 0
163 183 0
167 189 0
167 189 0
161 180 0
168 190 0
162 185 0
165 185 0
163 184 0
161 183 0
167 189 0
166 187 0
162 183 0
170 191 0
164 187 0
162 182 0
164 185 0
166 187 0
168 190 0
168 190 0
167 189 0
164 186 0
164 187 0
161 183 0
167 189 0
162 183 0
168 191 0
167 188 0
165 187 0
170 193 0
174 197 92
176 198 99
174 198 88
173 195 88
172 195 105
164 187 84
173 196 88
171 195 102
176 199 95
173 197 117
172 195 84
170 193 114
171 194 105
170 193 80
172 195 108
171 195 108
172 195 111
168 192 95
170 194 84
166 190 72
170 194 105
170 193 102
169 193 108
174 198 105
169 193 95
166 189 88
167 190 88
170 193 88
172 195 76
173 197 102
166 189 72
168 192 88
166 189 99
161 185 99
164 188 95
166 189 67
169 193 117
160 183 84
169 193 111
171 195 102
166 189 84
160 184 72
173 196 114
167 189 99
165 189 105
161 185 84
163 187 102
167 191 114
163 186 80
162 185 99
161 184 92
164 188 102
164 188 92
167 190 108
161 185 92
159 181 88
169 192 125
166 188 84
171 194 111
162 186 111
154 178 92
159 183 88
163 186 120
157 180 95
165 188 92
167 189 102
156 180 67
157 180 99
161 183 125
156 180 99
157 179 95
162 183 88
154 176 80
161 182 95
164 186 80
151 173 84
164 186 120
159 181 84
161 182 105
161 183 88
156 178 72
148 169 57
160 182 92
158 179 102
167 188 108
153 173 88
156 176 111
163 185 114
151 172 102
152 171 99
154 175 84
149 170 76
152 173 80
155 176 105
158 177 114
153 174 88
152 173 95
153 174 108
157 176 99
145 164 88
165 184 111
151 170 95
146 165 99
151 170 92
137 156 88
128 147 57
149 168 95
152 171 99
153 172 95
157 175 114
134 153 92
143 162 95
134 152 80
139 157 72
138 157 76
132 151 67
140 159 67
134 154 62
132 150 57
117 135 57
123 142 44
124 142 51
117 134 25
123 141 36
128 147 36
142 161 44
144 163 62
135 153 36
133 152 36
137 156 25
138 157 51
147 168 0
141 159 0
131 149 0
142 163 25
138 157 0
143 164 25
141 161 0
142 161 0
142 162 0
130 148 0
128 145 0
141 161 0
131 151 0
137 156 0
124 142 0
123 140 0
115 133 0
129 148 0
123 140 0
116 133 0
115 132 0
124 143 0
121 140 0
120 139 0
112 131 0
111 129 0
119 135 0
121 139 0
119 137 0
121 139 0
109 126 0
108 125 0
104 121 0
109 127 0
100 117 0
103 121 0
112 129 0
107 124 0
104 121 0
119 136 0
108 125 0
110 127 0
115 132 0
107 124 0
113 131 0
92 111 0
120 139 0
106 124 0
114 132 0
107 124 0
120 138 0
105 124 0
105 122 0
108 124 0
111 129 0
117 133 0
114 131 0
118 136 0
112 130 0
108 126 0
111 128 0
120 138 0
116 133 0
113 130 0
113 131 0
114 132 0
113 131 0
111 128 0
111 129 0
105 123 0
115 133 0
126 144 0
112 130 0
111 130 0
112 132 0
117 135 0
119 138 0
124 142 0
132 151 0
98 116 0
112 129 0
124 143 0
122 141 0
120 138 0
128 147 0
123 142 0
136 155 0
122 140 0
129 147 0
128 146 0
131 151 0
127 145 0
127 146 0
129 148 0
123 142 0
133 152 0
137 156 0
130 148 0
135 153 0
129 148 0
126 146 0
133 152 0
130 149 0
137 157 0
140 159 0
135 155 0
134 153 0
139 159 0
128 148 0
139 159 0
138 157 0
137 157 0
135 154 0
129 147 0
134 156 0
133 155 0
131 150 0
130 149 0
145 165 0
144 165 0
139 159 0
131 152 0
136 155 0
145 166 0
135 155 0
132 152 0
141 162 0
150 170 0
142 161 0
152 172 0
135 154 0
143 162 0
147 168 0
139 159 0
148 169 0
138 158 0
140 158 0
148 169 0
143 163 0
144 164 0
145 167 0
146 165 0
150 171 0
150 171 0
148 169 0
151 171 0
151 171 0
139 160 0
151 173 0
150 170 0
151 172 0
147 166 0
153 173 0
141 161 0
153 175 0
142 162 0
151 170 0
152 174 0
146 167 0
150 170 0
157 176 0
158 178 0
155 175 0
154 175 0
153 173 0
156 177 0
156 176 0
152 174 0
146 166 0
157 178 0
154 174 0
152 173 0
152 173 0
151 173 0
156 178 0
154 175 0
155 177 0
159 180 0
149 170 0
156 176 0
156 175 0
160 180 0
155 176 0
160 183 0
154 176 0
157 179 0
147 168 0
154 176 0
163 184 0
154 174 0
158 178 0
151 171 0
159 179 0
156 176 0
160 180 0
153 173 0
161 181 0
161 181 0
156 176 0
162 182 0
159 179 0
155 175 0
155 175 0
158 179 0
162 183 0
162 182 0
165 185 0
155 175 0
157 178 0
161 183 0
160 181 0
164 184 0
164 185 0
161 182 0
159 178 0
158 180 0
159 178 0
161 183 0
163 185 0
161 183 0
164 184 0
158 177 0
160 182 0
156 177 0
154 175 0
159 180 0
165 187 0
162 182 0
164 185 0
161 181 0
164 186 0
162 183 0
163 185 0
157 177 0
164 186 0
167 187 0
164 184 0
168 190 0
165 188 0
167 188 0
167 188 0
159 181 0
165 186 0
164 184 0
165 185 0
158 179 0
162 183 0
163 186 0
167 188 0
162 185 0
165 185 0
167 189 0
168 190 0
161 183 0
163 186 0
159 180 0
162 184 0
165 185 0
161 183 0
168 190 0
165 186 0
166 186 0
168 189 0
166 188 0
168 190 0
169 189 0
162 182 0
167 188 0
166 186 0
172 196 88
171 194 111
171 195 95
173 196 88
174 198 102
171 195 80
171 194 105
171 195 76
175 198 114
175 198 114
166 190 88
173 195 102
173 196 88
169 193 95
174 198 114
174 197 117
166 190 95
169 193 99
169 192 99
170 195 111
172 196 102
170 192 108
169 193 76
168 191 99
170 193 95
167 190 99
173 197 88
168 191 84
171 195 108
170 193 88
165 188 84
168 192 114
164 187 84
169 193 108
166 190 111
166 189 88
172 196 108
167 191 72
164 188 108
160 182 99
161 184 88
164 187 92
167 190 92
167 191 105
163 187 84
164 188 92
160 182 108
163 187 111
168 190 88
169 192 99
164 187 111
162 185 102
166 189 95
165 188 76
164 187 108
167 190 80
161 184 90
169 191 102
161 184 108
157 179 102
162 185 80
165 187 92
162 185 105
158 181 72
156 178 76
155 177 94
160 183 84
150 172 84
160 183 102
161 184 95
159 182 117
156 178 99
158 180 105
163 186 99
161 183 102
156 178 67
151 173 84
160 182 102
161 183 88
165 186 95
158 178 105
160 181 99
151 172 102
164 186 99
165 186 88
158 179 102
159 180 111
168 190 117
152 173 95
160 180 88
154 176 114
163 184 102
157 177 95
148 168 88
153 173 105
160 180 111
131 151 95
145 165 84
152 172 92
151 170 99
157 176 120
152 172 108
153 172 108
151 170 88
139 158 80
148 166 102
144 163 111
137 157 84
152 170 105
148 166 92
145 163 92
135 155 80
137 156 72
146 164 72
134 152 67
133 151 67
133 153 57
136 155 57
138 158 51
126 144 44
131 150 51
126 145 25
115 133 36
143 160 57
123 142 36
123 142 44
132 149 67
141 161 44
135 154 25
134 153 51
139 159 44
148 168 36
135 155 0
136 154 44
138 158 25
142 163 25
150 169 0
142 160 25
139 157 0
139 158 0
126 145 0
140 161 0
135 155 0
146 168 0
125 144 0
124 143 0
124 144 0
135 156 0
134 153 0
122 142 0
122 142 0
127 146 0
116 134 0
124 143 0
126 145 0
121 139 0
114 132 0
114 132 0
113 132 0
115 133 0
109 125 0
114 132 0
114 132 0
113 131 0
100 118 0
110 127 0
118 137 0
105 122 0
108 125 0
106 122 0
110 128 0
113 132 0
97 116 0
110 128 0
98 115 0
101 119 0
106 123 0
110 128 0
109 127 0
118 136 0
109 126 0
110 126 0
107 125 0
113 130 0
119 138 0
110 129 0
95 113 0
113 131 0
127 145 0
105 123 0
126 145 0
118 137 0
113 131 0
110 129 0
123 141 0
124 141 0
113 131 0
130 149 0
112 130 0
122 141 0
112 131 0
121 138 0
128 147 0
112 130 0
119 137 0
109 126 0
117 136 0
116 134 0
124 141 0
130 149 0
126 144 0
124 144 0
118 138 0
124 143 0
122 141 0
116 134 0
126 146 0
128 147 0
117 136 0
126 143 0
120 139 0
133 153 0
129 147 0
128 148 0
126 146 0
128 147 0
123 142 0
133 153 0
126 146 0
122 139 0
128 147 0
132 152 0
138 157 0
130 149 0
119 137 0
132 150 0
139 158 0
124 143 0
134 153 0
122 142 0
124 145 0
128 148 0
139 158 0
138 156 0
143 165 0
139 161 0
138 160 0
132 151 0
137 157 0
140 161 0
138 158 0
136 155 0
139 160 0
148 167 0
144 166 0
142 163 0
147 166 0
144 163 0
144 164 0
149 168 0
140 161 0
143 164 0
145 166 0
151 173 0
143 162 0
147 168 0
143 162 0
144 165 0
151 170 0
145 165 0
148 169 0
151 171 0
144 163 0
142 165 0
150 172 0
146 167 0
141 161 0
151 170 0
144 165 0
143 165 0
151 171 0
155 176 0
146 167 0
153 174 0
153 174 0
145 167 0
150 171 0
149 170 0
150 171 0
154 176 0
149 169 0
150 169 0
152 173 0
151 172 0
150 170 0
159 179 0
147 166 0
158 178 0
154 176 0
153 171 0
154 172 0
155 175 0
156 178 0
153 175 0
156 178 0
155 176 0
156 177 0
155 176 0
149 169 0
155 176 0
148 167 0
152 173 0
154 174 0
154 175 0
155 177 0
159 179 0
155 176 0
160 181 0
156 178 0
156 177 0
153 175 0
158 179 0
157 178 0
154 176 0
158 178 0
160 182 0
157 175 0
158 177 0
159 179 0
159 179 0
156 177 0
161 182 0
162 184 0
160 182 0
160 181 0
157 178 0
164 185 0
164 184 0
158 180 0
155 177 0
158 179 0
161 182 0
158 179 0
159 180 0
160 181 0
162 183 0
162 183 0
163 184 0
161 181 0
157 180 0
160 183 0
162 182 0
162 183 0
159 180 0
163 185 0
162 184 0
158 177 0
166 187 0
160 181 0
168 188 0
162 183 0
156 177 0
162 183 0
163 183 0
161 183 0
166 189 0
149 169 0
161 183 0
163 185 0
161 182 0
164 185 0
158 180 0
167 189 0
164 184 0
161 182 0
165 188 0
158 180 0
164 185 0
166 187 0
165 186 0
165 187 0
166 187 0
165 185 0
166 189 0
169 189 0
169 190 0
164 186 0
165 186 0
166 189 0
166 188 0
166 188 0
159 180 0
168 191 0
166 187 0
169 191 0
165 186 0
166 187 0
167 189 0
169 190 0
162 183 0
172 195 108
169 193 84
174 197 108
173 195 88
171 194 92
168 190 92
171 195 88
171 195 84
173 196 102
176 199 99
167 190 92
170 193 99
172 195 84
172 195 84
167 190 102
174 197 102
174 197 114
170 193 105
170 193 95
169 193 99
167 190 92
168 192 99
165 188 92
168 191 92
173 197 95
168 193 92
173 196 108
172 195 105
172 195 108
168 191 92
169 192 105
170 193 92
169 191 105
170 193 105
165 188 111
167 191 95
165 189 92
164 186 76
168 192 99
167 190 95
171 195 105
168 192 95
168 191 108
166 189 102
170 194 111
168 192 105
164 186 95
169 191 99
160 183 99
158 181 72
163 187 102
164 187 95
169 192 95
161 184 111
159 182 95
168 191 102
169 193 108
171 194 114
161 185 88
160 183 102
167 190 114
166 189 102
150 172 67
158 180 99
159 181 84
160 184 99
160 183 105
152 175 84
154 176 95
160 182 105
156 179 72
157 179 95
158 180 108
161 183 111
162 184 102
151 173 84
163 185 117
169 191 114
163 185 102
153 175 76
152 174 88
162 183 92
159 182 84
149 171 95
161 182 108
146 167 92
160 181 95
156 177 95
158 179 122
152 173 84
164 186 111
159 180 114
163 183 108
148 168 95
161 181 111
161 181 99
156 176 122
150 170 99
142 161 92
163 182 108
142 162 76
151 170 111
153 173 108
140 160 84
148 167 88
148 167 88
148 167 84
148 168 102
142 161 67
146 165 102
148 166 111
145 164 88
149 169 76
142 161 80
130 148 67
130 148 76
138 157 67
132 150 72
135 155 36
132 151 36
138 156 62
130 148 72
130 150 44
126 145 36
134 152 62
120 137 36
125 144 57
131 150 44
146 166 57
133 153 36
134 153 36
137 157 0
136 156 25
143 163 0
140 160 0
130 150 0
144 164 0
135 155 0
147 166 0
137 157 0
136 155 0
133 152 0
132 151 0
136 157 0
133 154 0
128 147 0
137 157 0
132 151 0
128 147 0
124 141 0
124 143 0
126 146 0
115 135 0
123 143 0
121 140 0
119 138 0
100 118 0
124 143 0
125 144 0
122 141 0
124 143 0
103 121 0
118 137 0
118 136 0
117 135 0
104 123 0
116 134 0
113 131 0
111 129 0
110 129 0
113 132 0
115 133 0
103 122 0
114 131 0
123 140 0
116 135 0
112 130 0
115 132 0
106 124 0
110 128 0
118 137 0
122 140 0
120 138 0
116 135 0
114 131 0
112 129 0
108 126 0
120 139 0
100 116 0
119 139 0
120 138 0
121 139 0
118 137 0
115 134 0
127 145 0
121 139 0
116 133 0
110 127 0
114 131 0
112 130 0
121 140 0
120 138 0
119 137 0
125 144 0
106 125 0
112 131 0
130 150 0
121 140 0
112 131 0
124 144 0
128 147 0
130 149 0
123 142 0
122 143 0
119 138 0
114 133 0
120 140 0
117 136 0
131 151 0
130 149 0
124 142 0
132 153 0
123 143 0
125 145 0
133 153 0
132 152 0
132 152 0
133 153 0
132 153 0
129 149 0
133 153 0
141 161 0
138 160 0
136 155 0
132 153 0
137 157 0
136 156 0
127 146 0
127 146 0
135 155 0
138 158 0
139 157 0
142 162 0
141 162 0
142 160 0
131 151 0
133 153 0
134 154 0
136 156 0
152 172 0
145 165 0
145 167 0
140 159 0
137 157 0
148 168 0
146 167 0
139 160 0
141 160 0
137 159 0
135 154 0
144 164 0
140 160 0
139 161 0
144 165 0
148 169 0
142 164 0
141 161 0
147 167 0
144 163 0
148 169 0
145 165 0
149 166 0
144 164 0
155 175 0
140 161 0
143 163 0
158 178 0
140 159 0
149 171 0
142 164 0
144 164 0
141 162 0
155 176 0
148 168 0
148 170 0
151 172 0
150 172 0
153 174 0
149 170 0
155 176 0
146 164 0
153 174 0
147 166 0
155 174 0
156 177 0
158 179 0
157 178 0
160 182 0
154 174 0
159 180 0
154 175 0
157 178 0
153 173 0
152 174 0
151 171 0
154 175 0
157 178 0
148 169 0
149 171 0
159 180 0
151 172 0
155 177 0
154 174 0
151 172 0
151 172 0
156 176 0
147 168 0
159 179 0
158 180 0
165 185 0
158 177 0
158 180 0
152 173 0
160 180 0
159 182 0
159 181 0
160 182 0
155 175 0
160 182 0
154 175 0
163 184 0
155 175 0
154 176 0
160 182 0
157 176 0
161 183 0
158 178 0
160 182 0
163 186 0
160 181 0
154 175 0
164 186 0
165 185 0
163 185 0
161 182 0
165 186 0
168 190 0
165 187 0
160 181 0
160 181 0
167 188 0
160 182 0
161 182 0
162 185 0
163 184 0
165 186 0
161 182 0
164 185 0
164 186 0
164 184 0
161 183 0
156 176 0
160 181 0
162 182 0
167 190 0
160 181 0
163 184 0
162 183 0
164 185 0
164 184 0
159 180 0
165 185 0
164 186 0
164 185 0
165 188 0
164 185 0
160 180 0
164 186 0
163 185 0
165 186 0
165 187 0
162 184 0
168 189 0
162 184 0
166 188 0
163 184 0
167 189 0
162 184 0
164 187 0
165 187 0
161 182 0
165 186 0
169 190 0
167 190 0
163 184 0
167 187 0
169 190 0
167 187 0
169 190 0
168 189 0
171 195 95
173 196 95
175 199 95
176 199 105
169 192 92
173 197 88
170 193 95
169 192 84
173 196 105
169 192 102
178 201 114
172 195 99
168 191 80
167 191 92
170 193 88
173 196 111
169 193 114
172 196 84
172 195 95
172 196 108
166 189 88
165 189 88
171 194 95
169 192 95
167 191 88
168 191 102
163 186 99
168 191 92
165 189 88
166 190 67
169 193 88
167 191 84
166 189 80
169 192 120
172 195 102
165 189 95
164 188 95
167 190 88
165 189 99
168 191 95
163 187 99
166 190 117
167 191 95
164 188 88
162 185 99
170 193 102
167 190 105
160 182 67
165 189 84
168 191 111
163 186 99
165 188 111
166 189 117
162 187 108
164 188 99
166 190 102
170 193 114
162 185 108
158 181 92
166 189 105
152 175 78
163 185 99
164 187 92
166 188 120
155 178 88
161 184 74
158 181 99
162 185 102
165 187 114
160 182 105
155 177 80
157 178 92
165 187 108
163 185 92
159 182 99
160 182 92
160 181 92
162 183 88
164 186 102
164 185 108
153 174 102
149 170 92
157 178 88
156 178 99
152 173 88
162 184 95
158 179 122
150 170 102
151 173 84
159 181 84
156 176 102
153 174 80
152 173 99
155 175 99
156 176 111
156 175 102
148 168 95
150 171 95
151 172 92
156 175 114
158 177 117
156 176 84
145 165 72
148 167 111
139 158 92
147 166 99
153 172 108
149 168 80
139 158 92
140 158 92
133 152 72
136 155 84
137 156 57
142 160 88
148 168 84
143 162 57
129 147 62
134 153 62
146 165 67
138 156 67
131 150 72
125 145 36
126 144 36
132 151 25
133 152 44
132 151 57
140 159 51
131 150 36
135 154 25
135 155 25
140 160 51
144 164 25
142 163 25
137 157 25
137 156 25
144 165 0
144 164 0
135 156 0
138 157 0
137 156 0
129 148 0
141 161 0
143 162 0
144 164 0
137 157 0
131 151 0
125 143 0
137 157 0
128 147 0
127 147 0
117 137 0
115 134 0
127 146 0
129 148 0
122 140 0
122 141 0
115 134 0
123 143 0
122 140 0
122 140 0
127 146 0
120 139 0
121 139 0
123 142 0
121 140 0
128 146 0
116 135 0
118 137 0
120 137 0
120 138 0
116 134 0
101 120 0
111 127 0
109 127 0
117 136 0
124 142 0
125 143 0
116 134 0
116 134 0
124 141 0
112 130 0
114 132 0
110 128 0
111 128 0
113 131 0
107 126 0
109 127 0
98 117 0
121 139 0
124 143 0
113 132 0
106 124 0
132 151 0
125 144 0
113 132 0
108 125 0
107 125 0
120 140 0
120 136 0
118 136 0
116 135 0
118 136 0
129 148 0
128 147 0
119 137 0
119 138 0
127 146 0
119 140 0
128 147 0
130 149 0
122 142 0
129 148 0
128 147 0
132 152 0
121 139 0
129 149 0
128 148 0
130 149 0
130 150 0
122 142 0
113 132 0
125 143 0
129 149 0
134 153 0
132 152 0
128 147 0
130 149 0
139 159 0
131 150 0
126 147 0
122 141 0
130 149 0
129 150 0
142 162 0
132 152 0
133 151 0
134 154 0
136 156 0
142 162 0
146 166 0
128 148 0
132 150 0
136 156 0
141 161 0
143 164 0
137 156 0
143 165 0
136 156 0
138 160 0
136 155 0
147 167 0
144 163 0
143 162 0
145 166 0
138 159 0
128 150 0
148 170 0
138 160 0
142 164 0
141 161 0
145 163 0
152 173 0
148 169 0
149 171 0
146 166 0
154 175 0
154 175 0
150 170 0
152 174 0
155 174 0
150 170 0
146 167 0
145 165 0
151 172 0
148 170 0
153 173 0
141 162 0
144 164 0
155 177 0
153 174 0
153 174 0
151 171 0
146 166 0
147 166 0
151 171 0
149 168 0
147 167 0
154 175 0
155 175 0
152 172 0
151 171 0
151 173 0
154 175 0
153 174 0
155 176 0
156 177 0
152 173 0
162 183 0
156 177 0
153 175 0
147 168 0
150 169 0
158 179 0
157 179 0
152 173 0
161 183 0
153 172 0
152 173 0
161 182 0
152 173 0
160 179 0
150 169 0
153 174 0
152 174 0
155 175 0
159 181 0
155 176 0
161 183 0
161 184 0
150 170 0
162 183 0
159 180 0
155 175 0
161 184 0
159 180 0
158 179 0
161 183 0
162 184 0
158 180 0
159 180 0
161 181 0
161 182 0
160 180 0
156 177 0
164 186 0
157 177 0
158 179 0
160 180 0
160 181 0
156 177 0
155 178 0
162 185 0
160 181 0
165 186 0
167 188 0
158 179 0
164 185 0
160 183 0
159 179 0
161 182 0
159 181 0
158 179 0
159 177 0
167 188 0
161 183 0
159 179 0
161 183 0
162 182 0
161 184 0
164 185 0
164 184 0
163 185 0
161 181 0
159 180 0
163 183 0
158 179 0
165 188 0
161 183 0
158 179 0
162 183 0
164 185 0
167 188 0
164 184 0
167 189 0
163 185 0
167 187 0
165 184 0
167 188 0
166 188 0
164 186 0
162 182 0
165 187 0
164 186 0
159 179 0
164 185 0
162 184 0
167 188 0
166 187 0
166 188 0
167 188 0
169 192 0
166 189 0
167 189 0
166 188 0
165 187 0
163 185 0
165 186 0
168 190 0
167 189 0
169 191 0
175 199 102
172 195 92
176 199 102
172 195 92
170 193 99
171 194 102
169 192 84
173 195 102
171 194 88
165 188 88
170 193 95
174 197 111
173 196 99
171 195 105
176 199 114
175 199 105
171 195 92
167 191 99
174 197 80
172 195 105
171 194 102
165 189 102
164 187 88
168 192 102
170 194 80
169 192 88
174 198 102
170 194 102
167 190 84
166 190 95
166 189 88
163 187 92
168 191 99
167 191 105
166 189 95
164 187 95
161 184 92
168 191 105
163 187 95
169 192 99
159 182 92
167 190 84
168 191 92
165 188 95
168 191 108
169 193 120
160 183 80
164 188 111
164 186 105
160 183 84
160 182 84
169 193 117
167 190 105
159 183 92
164 188 117
163 187 99
158 182 99
165 189 108
161 183 84
162 184 99
161 185 117
161 184 84
168 191 105
166 189 95
159 183 111
165 187 99
162 185 84
155 177 88
159 182 100
156 179 95
160 183 82
156 178 95
167 189 120
152 174 92
157 179 76
160 183 88
152 174 84
163 185 108
158 180 102
163 185 92
155 176 95
158 179 95
162 184 99
155 176 80
148 168 80
156 178 99
165 187 125
154 175 99
157 178 88
156 177 76
158 179 105
153 174 92
157 178 92
151 171 92
152 173 108
147 168 80
160 181 108
146 166 88
156 176 80
152 173 99
159 178 108
146 166 76
149 169 102
153 172 95
152 171 102
135 154 72
144 163 99
151 170 99
144 162 88
140 160 67
151 170 80
137 156 88
134 152 88
148 166 92
133 152 80
137 157 72
132 152 76
132 150 67
136 154 62
137 156 44
142 161 62
127 145 57
137 157 51
134 155 44
136 155 36
143 163 36
136 156 36
138 157 25
138 159 36
141 161 25
137 157 0
136 156 0
143 163 25
139 160 0
132 153 0
140 161 25
144 166 0
139 158 0
137 157 0
141 162 0
148 168 0
140 161 0
137 157 0
130 150 0
127 147 0
124 143 0
136 156 0
124 143 0
130 149 25
122 142 0
136 155 0
134 153 0
130 149 0
126 144 0
121 140 0
133 153 0
125 144 0
114 133 0
113 132 0
127 146 0
125 143 0
112 132 0
121 139 0
116 134 0
110 129 0
117 135 0
121 140 0
120 138 0
114 133 0
112 130 0
115 132 0
103 122 0
111 129 0
125 143 0
106 124 0
108 126 0
108 127 0
129 149 0
119 138 0
112 131 0
115 134 0
102 121 0
116 134 0
114 133 0
118 135 0
116 135 0
120 139 0
116 134 0
127 146 0
112 132 0
125 143 0
121 140 0
118 137 0
125 144 0
124 142 0
116 135 0
124 142 0
114 133 0
105 123 0
125 143 0
108 126 0
124 143 0
120 139 0
127 146 0
125 144 0
124 143 0
119 138 0
132 152 0
120 139 0
121 140 0
128 147 0
123 143 0
121 141 0
126 144 0
131 150 0
122 142 0
129 150 0
138 158 0
135 154 0
129 150 0
127 147 0
116 135 0
137 157 0
135 153 0
126 146 0
140 160 0
127 147 0
133 152 0
134 152 0
138 159 0
136 156 0
125 144 0
139 159 0
130 150 0
136 158 0
133 153 0
125 146 0
139 159 0
128 146 0
136 155 0
131 148 0
136 156 0
130 150 0
141 161 0
140 160 0
132 152 0
132 152 0
141 160 0
136 155 0
148 168 0
137 159 0
134 153 0
141 162 0
146 166 0
139 159 0
136 156 0
148 168 0
147 169 0
139 160 0
144 164 0
144 166 0
146 166 0
139 160 0
137 158 0
153 173 0
150 172 0
146 167 0
146 168 0
147 167 0
148 169 0
151 172 0
146 166 0
146 167 0
141 163 0
155 175 0
147 167 0
151 172 0
149 170 0
149 170 0
154 176 0
144 165 0
148 169 0
157 178 0
144 164 0
143 164 0
154 173 0
143 162 0
156 177 0
150 170 0
154 175 0
152 173 0
149 169 0
149 169 0
154 175 0
154 174 0
154 175 0
153 174 0
145 165 0
155 176 0
145 166 0
155 177 0
154 172 0
162 182 0
150 171 0
151 173 0
155 175 0
159 180 0
154 175 0
156 178 0
161 182 0
153 174 0
153 174 0
163 185 0
156 177 0
162 184 0
154 176 0
156 176 0
161 184 0
154 176 0
156 177 0
152 172 0
153 174 0
160 181 0
148 169 0
154 175 0
157 178 0
159 180 0
161 184 0
161 182 0
158 180 0
165 186 0
158 178 0
159 180 0
161 182 0
162 182 0
160 181 0
155 176 0
158 180 0
160 181 0
162 184 0
156 177 0
163 186 0
161 182 0
162 185 0
159 179 0
159 181 0
158 179 0
164 186 0
160 181 0
163 183 0
161 180 0
159 179 0
162 183 0
158 181 0
163 184 0
162 184 0
158 179 0
165 186 0
162 184 0
164 184 0
163 184 0
161 183 0
163 184 0
164 185 0
163 184 0
158 180 0
163 185 0
167 189 0
168 189 0
167 189 0
162 183 0
162 184 0
165 188 0
165 187 0
163 185 0
166 188 0
163 184 0
159 179 0
163 185 0
165 185 0
167 188 0
162 183 0
164 185 0
163 183 0
163 184 0
162 183 0
165 186 0
167 189 0
165 187 0
169 191 0
165 187 0
164 186 0
169 190 0
170 191 0
168 190 0
167 188 0
167 188 0
164 186 0
165 188 0
165 186 0
172 195 108
173 197 92
175 198 99
170 193 88
174 197 88
172 195 95
173 195 84
171 194 84
175 199 111
173 196 117
176 199 114
171 194 105
173 196 95
176 198 117
169 193 99
170 193 76
171 195 95
174 197 105
169 192 80
169 193 108
172 195 99
173 196 111
172 195 92
171 194 102
172 195 95
168 193 111
167 191 117
171 194 102
164 189 99
168 190 84
167 190 92
170 193 99
168 192 108
166 189 99
171 195 80
169 192 95
166 189 62
164 188 111
165 188 84
167 190 111
166 189 80
161 184 67
168 190 92
161 184 99
168 191 84
166 188 105
164 187 84
167 190 105
161 184 108
165 188 102
165 189 76
161 184 67
166 190 84
170 193 105
162 185 105
167 190 102
164 187 99
161 184 80
164 186 88
163 186 108
160 184 72
161 185 95
159 182 67
164 186 76
162 184 105
166 188 102
162 184 76
163 187 102
162 184 108
153 176 84
166 189 111
159 181 95
164 186 88
159 181 88
163 185 99
167 189 122
166 189 92
155 178 95
160 182 102
159 180 117
147 169 88
160 182 92
154 175 88
153 174 92
146 167 76
162 183 80
159 181 88
152 174 72
164 185 117
159 179 99
160 181 108
158 179 108
153 173 99
157 176 117
155 176 122
154 173 92
154 174 102
158 179 111
159 179 122
146 166 88
158 178 105
152 172 108
156 176 102
143 163 88
148 167 95
145 166 57
144 164 84
150 170 80
144 164 84
142 162 72
155 174 84
146 166 67
152 172 72
141 162 57
133 153 67
133 152 57
138 156 57
139 157 67
139 158 51
132 152 36
124 143 57
145 164 62
140 159 67
127 147 36
128 147 36
126 147 36
124 144 0
137 157 36
129 148 25
141 161 25
144 162 25
144 164 25
142 163 0
142 162 25
142 163 25
137 158 0
145 165 0
143 164 0
136 157 0
139 159 0
140 161 0
141 162 0
130 150 0
143 163 0
138 158 0
140 160 0
131 151 0
122 140 0
135 155 0
126 145 0
139 159 0
124 145 0
125 144 0
117 136 0
124 143 0
118 138 0
123 143 0
124 144 0
127 145 0
128 147 0
108 126 0
124 143 0
124 144 0
115 133 0
107 126 0
120 139 0
126 144 0
119 137 0
125 143 0
113 131 0
125 145 0
121 139 0
118 137 0
127 146 0
118 136 0
123 141 0
124 144 0
119 138 0
119 137 0
124 142 0
125 143 0
114 133 0
122 141 0
120 139 0
128 147 0
114 133 0
116 136 0
110 127 0
122 141 0
134 152 0
121 139 0
100 118 0
127 145 0
130 150 0
125 144 0
122 141 0
128 148 0
110 129 0
128 147 0
131 150 0
125 143 0
121 141 0
124 143 0
121 139 0
116 136 0
128 147 0
124 143 0
125 143 0
116 135 0
126 144 0
123 142 0
130 150 0
135 154 0
130 150 0
128 148 0
120 139 0
128 147 0
123 142 0
126 145 0
132 152 0
133 153 0
130 150 0
126 146 0
134 155 0
144 163 0
138 158 0
131 150 0
139 158 0
125 145 0
133 153 0
132 153 0
134 155 0
135 157 0
130 150 0
135 154 0
122 140 0
126 145 0
140 161 0
137 157 0
132 152 0
134 154 0
135 154 0
123 142 0
148 167 0
146 166 0
137 156 0
139 159 0
135 155 0
138 160 0
148 168 0
136 156 0
143 163 0
152 173 0
139 159 0
138 158 0
139 161 0
144 165 0
154 174 0
139 160 0
150 172 0
144 166 0
146 166 0
148 169 0
147 167 0
145 167 0
146 168 0
151 171 0
143 163 0
153 175 0
146 167 0
152 173 0
147 168 0
148 169 0
144 165 0
145 165 0
152 173 0
151 172 0
153 174 0
156 178 0
144 165 0
145 165 0
155 176 0
147 167 0
152 173 0
158 179 0
152 172 0
145 166 0
144 164 0
157 178 0
150 170 0
151 172 0
146 166 0
149 170 0
152 174 0
146 165 0
141 162 0
147 169 0
153 173 0
152 172 0
151 171 0
149 169 0
157 178 0
157 179 0
153 175 0
155 176 0
157 178 0
159 179 0
156 176 0
158 176 0
158 177 0
157 179 0
156 175 0
159 181 0
156 177 0
163 184 0
160 181 0
162 182 0
160 181 0
162 184 0
154 175 0
157 178 0
159 181 0
157 177 0
161 183 0
161 183 0
154 175 0
153 174 0
160 182 0
158 179 0
158 179 0
156 176 0
156 177 0
156 177 0
166 187 0
157 176 0
160 181 0
163 184 0
162 184 0
156 178 0
160 182 0
164 186 0
158 179 0
160 181 0
166 188 0
161 183 0
157 178 0
165 187 0
155 176 0
162 183 0
167 188 0
160 182 0
166 187 0
162 184 0
166 189 0
159 180 0
161 182 0
163 183 0
160 182 0
162 183 0
166 186 0
161 182 0
162 183 0
160 182 0
164 186 0
158 177 0
162 183 0
169 191 0
159 181 0
160 181 0
164 186 0
163 184 0
163 185 0
160 180 0
165 187 0
163 184 0
162 184 0
162 183 0
166 187 0
160 181 0
161 182 0
167 188 0
165 187 0
157 177 0
165 186 0
167 188 0
168 189 0
166 188 0
168 190 0
165 187 0
163 185 0
164 186 0
164 184 0
165 187 0
166 187 0
169 191 0
166 188 0
168 190 0
166 186 0
162 183 0
164 185 0
170 193 108
171 194 99
171 194 95
174 197 111
173 196 108
173 196 80
174 197 114
167 190 102
169 193 92
171 194 95
177 200 120
170 193 95
169 193 95
170 193 95
172 195 108
172 195 95
172 196 76
170 193 84
173 197 125
171 194 99
170 193 99
166 189 80
167 191 95
169 194 92
173 197 88
169 191 80
169 192 84
169 193 88
170 194 102
171 194 95
168 191 92
166 189 88
165 189 88
169 192 102
168 191 95
170 194 111
169 192 102
169 192 111
173 196 95
166 188 76
171 194 99
163 187 95
167 190 102
164 187 95
162 185 67
167 191 108
166 190 92
163 186 92
162 186 95
167 190 92
168 191 114
160 184 95
163 185 92
166 189 108
161 185 92
163 186 102
168 191 92
162 185 92
161 184 99
160 182 105
165 188 92
166 188 76
160 183 84
162 185 111
161 184 105
164 187 92
155 178 92
172 195 102
158 180 95
162 185 102
160 182 80
158 180 95
162 184 122
162 183 102
167 189 99
159 181 80
161 183 105
164 186 108
162 184 95
169 190 105
161 182 105
158 180 108
162 183 88
166 188 102
163 184 108
156 177 88
157 179 80
162 182 111
164 184 111
151 173 102
151 172 62
152 174 99
151 172 84
162 182 102
154 175 88
157 178 108
137 157 76
143 163 72
163 183 102
151 171 105
147 167 105
147 167 80
152 172 111
148 168 99
151 171 95
147 167 99
156 176 95
157 176 99
143 163 76
157 176 88
148 167 76
149 168 95
141 161 76
147 167 72
137 157 51
149 168 88
133 154 57
135 155 62
134 152 51
142 162 51
135 155 57
132 151 62
140 159 57
137 156 36
141 161 51
126 146 25
130 150 36
132 151 36
142 163 44
140 160 36
138 158 36
147 167 0
148 168 0
146 165 0
146 165 44
140 161 0
139 160 0
154 175 0
148 169 0
147 169 0
142 163 0
140 161 0
137 158 0
134 155 0
130 151 0
139 160 0
124 143 0
135 156 0
126 146 0
127 147 0
128 148 0
133 153 0
126 146 0
137 157 0
123 142 0
134 153 0
117 136 0
127 147 0
134 153 0
130 149 0
127 145 0
131 150 0
115 135 0
121 140 0
110 129 0
120 138 0
110 129 0
124 143 0
130 150 0
118 137 0
130 150 0
123 140 0
127 145 0
113 132 0
116 135 0
117 136 0
126 146 0
125 142 0
130 149 0
118 137 0
130 150 0
116 135 0
137 156 0
123 142 0
117 136 0
120 139 0
128 146 0
121 139 0
115 133 0
121 141 0
119 138 0
126 146 0
117 137 0
122 140 0
121 141 0
128 147 0
126 146 0
116 135 0
120 138 0
128 149 0
119 138 0
136 155 0
134 154 0
124 143 0
127 147 0
128 148 0
123 144 0
120 139 0
131 151 0
123 143 0
131 152 0
127 146 0
130 149 0
126 146 0
124 142 0
120 139 0
124 144 0
123 141 0
142 162 0
132 151 0
133 153 0
128 148 0
138 159 0
143 165 0
126 145 0
130 150 0
132 150 0
131 150 0
127 146 0
138 158 0
130 149 0
134 154 0
139 157 0
139 159 0
126 146 0
131 150 0
140 161 0
135 154 0
131 152 0
141 160 0
140 161 0
134 155 0
143 165 0
140 160 0
136 157 0
142 163 0
139 159 0
137 158 0
140 160 0
135 156 0
146 167 0
144 164 0
137 156 0
137 158 0
146 166 0
144 164 0
143 163 0
151 173 0
144 164 0
152 173 0
140 161 0
148 169 0
143 163 0
141 162 0
145 166 0
148 170 0
143 165 0
141 162 0
145 166 0
148 169 0
150 170 0
151 172 0
141 160 0
149 170 0
156 176 0
148 168 0
147 167 0
142 162 0
142 162 0
152 175 0
146 167 0
154 176 0
151 172 0
145 166 0
148 170 0
142 163 0
150 172 0
151 173 0
152 173 0
145 166 0
158 178 0
153 174 0
145 165 0
159 180 0
149 170 0
156 177 0
157 178 0
153 174 0
154 175 0
155 176 0
156 176 0
159 181 0
153 174 0
153 175 0
153 172 0
155 177 0
148 166 0
153 175 0
160 180 0
152 172 0
159 180 0
154 175 0
158 179 0
156 176 0
151 172 0
160 181 0
157 179 0
154 175 0
156 177 0
162 183 0
150 171 0
159 179 0
164 185 0
164 186 0
155 175 0
162 184 0
163 184 0
156 178 0
156 177 0
162 184 0
160 181 0
159 179 0
154 174 0
152 172 0
153 175 0
164 186 0
160 182 0
154 175 0
162 183 0
160 181 0
160 180 0
163 184 0
160 182 0
158 179 0
159 180 0
163 184 0
159 179 0
157 178 0
161 181 0
164 186 0
159 180 0
163 184 0
166 188 0
168 191 0
164 187 0
168 190 0
166 188 0
159 179 0
161 182 0
166 188 0
165 187 0
162 184 0
163 185 0
169 191 0
159 180 0
159 178 0
165 187 0
160 181 0
165 186 0
167 190 0
165 186 0
162 184 0
165 186 0
166 188 0
163 185 0
166 188 0
165 188 0
170 191 0
163 184 0
162 183 0
168 191 0
166 188 0
165 186 0
165 188 0
166 187 0
166 187 0
168 190 0
166 188 0
168 191 0
165 186 0
169 191 0
166 188 0
164 187 0
158 180 0
163 186 0
166 188 0
160 181 0
162 182 0
166 189 0
168 190 0
175 197 92
176 200 117
173 196 99
172 194 84
168 192 84
175 198 95
173 197 80
174 197 108
175 198 92
175 197 120
173 196 111
167 190 88
170 194 88
169 192 88
171 194 92
168 192 99
170 194 95
173 196 114
168 191 99
169 192 99
169 192 99
167 191 102
171 195 84
170 193 102
169 192 105
168 191 99
172 196 108
168 192 95
167 191 92
167 190 72
173 195 99
165 189 95
170 193 84
163 188 92
166 189 84
167 191 108
170 194 95
169 192 108
169 193 99
163 187 88
165 189 76
171 194 111
165 188 99
171 194 105
164 186 80
161 185 84
171 195 108
157 180 80
166 189 102
171 194 102
165 188 99
170 193 108
165 189 111
164 187 95
169 192 99
160 183 95
171 194 114
167 190 102
163 185 102
159 182 95
164 187 108
167 189 99
163 185 105
159 181 84
165 188 105
157 179 88
165 188 95
158 180 88
169 192 111
160 182 84
162 183 88
163 185 95
158 179 76
158 180 108
169 191 92
158 179 105
156 177 105
154 176 95
161 183 105
153 175 67
168 190 114
153 176 80
157 179 84
163 184 114
158 180 99
152 173 102
158 178 111
167 188 95
161 182 95
157 178 88
157 179 105
146 165 102
147 168 92
156 177 84
149 170 88
159 179 114
148 168 95
161 182 108
148 169 92
157 177 117
154 175 80
154 174 84
151 171 92
149 170 76
157 176 92
145 165 76
153 173 84
140 160 84
154 174 84
141 161 57
157 175 99
140 160 80
135 155 67
150 168 76
145 164 57
140 160 51
139 159 51
135 154 57
138 158 62
145 164 76
141 160 67
126 147 25
134 154 25
134 153 36
142 161 57
145 165 44
137 157 44
140 160 44
143 163 25
130 151 25
143 162 36
140 161 36
144 164 0
150 170 25
145 166 0
151 172 25
152 171 0
137 156 0
154 175 0
141 163 0
148 168 0
141 160 0
142 162 0
137 157 0
133 152 0
144 165 0
122 141 0
143 163 0
128 148 0
138 158 0
122 142 0
128 146 0
122 143 0
125 145 0
125 144 0
129 148 0
124 144 0
127 146 0
137 156 0
117 136 0
122 140 0
119 137 0
131 151 0
117 136 0
131 149 0
132 152 0
110 128 0
118 138 0
119 138 0
119 138 0
116 135 0
125 144 0
121 140 0
118 137 0
129 149 0
129 147 0
117 135 0
118 137 0
119 138 0
124 143 0
114 132 0
118 139 0
131 150 0
138 158 0
117 135 0
115 134 0
117 137 0
121 142 0
121 140 0
115 134 0
120 138 0
119 137 0
134 153 0
126 146 0
125 144 0
133 151 0
129 148 0
127 146 0
114 133 0
125 144 0
132 152 0
132 152 0
131 150 0
118 136 0
129 148 0
122 141 0
130 150 0
136 156 0
133 154 0
124 143 0
132 151 0
126 144 0
131 150 0
126 144 0
129 149 0
131 152 0
128 148 0
129 150 0
130 150 0
142 163 0
130 150 0
131 152 0
124 143 0
138 158 0
138 158 0
141 162 0
138 157 0
148 168 0
129 148 0
137 158 0
125 144 0
136 154 0
132 153 0
139 158 0
135 155 0
135 155 0
132 153 0
135 156 0
139 160 0
133 155 0
130 150 0
137 157 0
139 159 0
142 164 0
143 163 0
138 158 0
144 165 0
132 152 0
145 166 0
147 167 0
147 168 0
133 153 0
141 161 0
146 166 0
154 174 0
144 164 0
146 168 0
148 169 0
142 161 0
152 172 0
138 159 0
148 171 0
150 171 0
149 170 0
152 174 0
148 168 0
136 157 0
143 165 0
141 162 0
148 169 0
149 170 0
148 168 0
138 159 0
146 168 0
149 170 0
149 170 0
153 175 0
147 168 0
142 161 0
153 173 0
153 174 0
154 176 0
154 174 0
148 170 0
152 174 0
152 173 0
150 171 0
147 166 0
150 170 0
149 170 0
154 176 0
157 181 0
156 177 0
156 177 0
151 173 0
153 174 0
153 173 0
159 181 0
148 168 0
147 169 0
152 173 0
156 178 0
157 179 0
156 179 0
154 176 0
156 178 0
153 175 0
158 180 0
152 173 0
149 170 0
157 180 0
161 181 0
153 173 0
164 185 0
155 175 0
159 178 0
157 178 0
158 180 0
152 172 0
160 180 0
159 179 0
158 180 0
159 180 0
158 180 0
165 186 0
157 177 0
160 182 0
161 183 0
158 179 0
158 180 0
163 184 0
161 181 0
159 180 0
158 179 0
158 178 0
155 177 0
158 179 0
164 186 0
154 176 0
157 178 0
160 182 0
162 184 0
167 189 0
162 183 0
165 186 0
161 184 0
161 182 0
164 186 0
164 187 0
159 179 0
162 185 0
162 184 0
161 183 0
165 187 0
162 182 0
160 182 0
157 177 0
163 185 0
165 188 0
164 187 0
165 186 0
164 186 0
166 188 0
167 190 0
167 187 0
166 188 0
166 189 0
165 186 0
162 184 0
158 179 0
163 184 0
163 184 0
164 185 0
164 185 0
166 187 0
165 187 0
164 185 0
167 189 0
166 187 0
167 188 0
166 189 0
163 185 0
168 189 0
165 187 0
166 187 0
167 188 0
168 190 0
165 187 0
165 188 0
168 190 0
170 193 0
165 188 0
162 185 0
169 191 0
161 183 0
166 188 0
168 188 0
170 192 0
167 189 0
167 188 0
174 197 114
172 195 108
170 192 95
174 196 114
175 198 108
171 193 99
167 191 84
171 194 102
175 197 111
176 198 105
169 193 108
172 195 114
169 192 102
168 191 76
170 193 88
172 195 117
170 194 76
174 197 114
169 192 108
171 195 84
172 196 108
172 196 92
165 188 102
168 191 67
170 194 67
165 189 80
172 195 111
167 190 92
165 189 76
164 187 72
172 194 92
172 195 92
173 197 108
170 193 120
159 182 92
167 190 76
164 188 92
164 187 92
168 191 99
169 192 111
163 187 105
170 193 105
162 186 105
163 187 108
165 189 76
165 189 105
158 182 88
165 189 80
165 189 102
161 184 84
160 183 108
169 192 95
169 192 108
165 188 102
164 187 102
160 183 80
161 184 102
166 188 105
162 186 108
164 186 102
171 194 114
167 190 92
159 180 80
165 188 102
164 186 80
158 180 80
165 187 117
161 183 88
162 184 92
160 183 114
160 182 76
154 176 95
159 182 76
163 185 88
163 184 92
161 183 88
152 173 84
153 175 88
155 177 95
162 182 99
158 179 88
159 180 92
163 184 120
152 174 76
160 182 102
159 180 99
161 182 95
148 170 84
153 174 80
154 175 111
153 173 88
161 182 95
155 177 102
156 178 88
161 182 88
151 172 88
157 177 84
153 173 84
145 167 84
147 168 88
145 166 84
156 177 84
156 175 102
147 167 80
150 168 108
142 162 76
150 170 92
144 162 95
146 166 84
150 169 99
152 172 105
144 164 84
155 174 88
150 170 72
138 157 62
146 167 80
142 162 67
145 164 72
150 169 57
142 162 57
137 157 51
142 162 67
132 154 25
141 161 62
136 155 62
136 156 25
136 157 44
141 163 25
144 165 0
140 161 0
147 166 36
147 168 25
145 165 25
155 175 36
141 163 0
146 168 0
148 169 0
143 162 25
146 166 0
151 171 0
132 152 0
140 160 0
125 144 0
145 165 0
126 146 0
143 163 0
136 156 0
143 163 0
137 157 0
138 158 0
141 162 0
133 152 0
133 153 0
123 143 0
132 151 0
133 153 0
118 137 0
142 161 0
129 148 0
128 148 0
131 150 0
125 144 0
129 147 0
132 151 0
121 140 0
124 143 0
114 133 0
123 142 0
124 143 0
109 128 0
128 146 0
125 145 0
118 138 0
114 133 0
117 136 0
124 143 0
117 136 0
119 137 0
124 144 0
126 145 0
123 142 0
116 133 0
127 147 0
124 142 0
123 142 0
129 148 0
128 148 0
116 133 0
124 143 0
126 145 0
124 144 0
118 135 0
126 144 0
125 144 0
126 146 0
121 140 0
128 148 0
121 141 0
113 133 0
123 143 0
134 154 0
125 146 0
121 139 0
123 142 0
129 150 0
118 138 0
133 154 0
121 140 0
132 152 0
127 147 0
141 160 0
123 143 0
133 154 0
136 155 0
127 148 0
136 157 0
121 141 0
133 152 0
138 157 0
126 146 0
131 151 0
139 159 0
131 151 0
127 149 0
135 155 0
129 150 0
143 164 0
134 155 0
138 158 0
140 160 0
132 154 0
135 154 0
139 160 0
135 155 0
139 158 0
136 157 0
138 159 0
143 163 0
145 165 0
139 160 0
139 159 0
140 160 0
144 165 0
140 160 0
134 154 0
140 161 0
138 159 0
144 164 0
147 167 0
141 161 0
135 155 0
143 163 0
144 165 0
141 162 0
144 165 0
145 165 0
145 164 0
138 157 0
147 167 0
146 166 0
145 165 0
149 170 0
146 168 0
149 170 0
153 175 0
143 163 0
142 161 0
147 167 0
153 174 0
153 175 0
149 169 0
146 167 0
141 162 0
150 172 0
141 161 0
144 164 0
148 171 0
153 174 0
151 172 0
148 169 0
145 165 0
153 175 0
145 166 0
154 176 0
153 174 0
154 177 0
146 167 0
144 164 0
154 176 0
148 171 0
152 175 0
157 179 0
156 177 0
152 172 0
156 177 0
154 172 0
157 178 0
151 173 0
154 174 0
154 175 0
149 169 0
162 184 0
153 173 0
154 172 0
160 181 0
152 172 0
155 177 0
155 176 0
158 180 0
153 174 0
154 176 0
160 182 0
153 174 0
162 183 0
153 173 0
161 183 0
153 175 0
159 181 0
156 178 0
159 181 0
161 183 0
160 182 0
155 175 0
163 185 0
164 186 0
159 177 0
162 183 0
160 182 0
153 174 0
159 181 0
160 181 0
164 186 0
164 184 0
155 177 0
163 183 0
160 182 0
164 185 0
163 187 0
163 185 0
160 181 0
165 186 0
164 185 0
162 185 0
162 184 0
161 181 0
158 179 0
162 182 0
167 188 0
158 179 0
160 181 0
162 184 0
161 184 0
169 191 0
162 184 0
167 188 0
165 185 0
164 185 0
163 184 0
162 184 0
165 187 0
163 186 0
160 181 0
164 185 0
164 187 0
159 181 0
161 182 0
164 186 0
163 184 0
164 185 0
166 187 0
166 188 0
161 183 0
170 191 0
162 184 0
167 188 0
162 183 0
162 182 0
165 185 0
161 182 0
169 191 0
164 186 0
170 192 0
166 186 0
167 189 0
166 188 0
168 189 0
164 187 0
169 191 0
165 185 0
164 185 0
164 186 0
167 188 0
164 187 0
167 189 0
166 188 0
166 188 0
165 184 0
164 186 0
168 190 0
161 184 0
176 198 102
172 195 80
167 190 99
175 198 102
177 200 102
173 196 105
172 195 88
173 196 102
173 196 84
173 196 102
170 193 95
172 195 105
166 190 99
170 192 99
174 197 99
167 190 95
170 193 111
165 188 95
171 195 122
165 188 84
171 195 108
172 196 92
164 187 67
163 187 76
175 197 105
164 188 92
170 193 108
167 190 111
167 191 76
168 191 108
167 191 92
167 190 95
168 191 92
166 189 105
165 189 95
169 192 105
164 188 80
171 194 88
167 190 102
162 184 102
170 193 105
167 190 84
162 186 99
168 191 99
163 186 84
158 182 95
165 188 92
165 188 102
157 180 62
165 188 99
168 191 111
161 184 95
167 190 92
163 185 80
165 188 108
167 190 108
159 182 95
165 189 99
161 184 102
160 183 102
163 185 88
163 185 95
167 190 76
165 189 99
160 182 84
165 187 72
164 186 92
162 184 99
165 187 102
161 184 99
163 186 108
163 186 105
158 179 99
163 186 92
166 187 80
155 177 99
155 176 92
154 175 76
151 173 80
156 178 92
153 174 84
155 176 84
158 179 88
162 183 102
158 180 105
161 182 88
162 184 88
161 181 111
162 183 80
153 174 84
156 177 102
160 181 120
165 186 102
154 175 88
144 165 80
157 177 95
160 180 92
151 171 88
157 177 102
158 178 105
152 172 88
157 177 108
153 173 76
155 175 88
154 174 95
139 160 72
147 167 84
160 179 111
147 167 92
154 174 84
143 162 84
154 173 105
145 165 57
138 159 51
142 162 76
139 157 72
148 168 76
153 173 72
136 157 44
144 164 51
138 159 36
142 162 44
133 153 25
149 169 44
140 160 25
143 162 25
138 159 36
152 173 36
138 159 36
148 169 44
143 163 25
147 167 36
140 161 25
151 171 0
150 172 0
146 168 25
145 165 0
150 171 0
144 166 0
136 156 25
143 164 0
141 161 0
133 153 0
142 163 0
134 156 0
146 167 0
144 166 0
122 142 0
136 156 0
135 155 0
130 150 0
125 146 0
124 144 0
129 150 0
135 155 0
136 156 0
122 142 0
113 134 0
124 142 0
135 155 0
129 149 0
138 157 0
117 137 0
122 141 0
126 145 0
130 149 0
136 155 0
125 145 0
120 139 0
123 142 0
122 142 0
122 140 0
129 149 0
126 146 0
124 143 0
123 143 0
118 137 0
136 156 0
119 139 0
130 150 0
125 144 0
123 140 0
136 157 0
133 152 0
124 143 0
125 145 0
132 151 0
114 133 0
127 147 0
131 151 0
114 134 0
125 145 0
121 139 0
126 146 0
127 146 0
120 141 0
126 146 0
115 135 0
130 149 0
116 135 0
131 149 0
128 148 0
121 140 0
136 156 0
125 144 0
134 153 0
130 150 0
129 149 0
125 146 0
122 143 0
140 161 0
139 160 0
124 144 0
130 149 0
135 155 0
123 143 0
133 152 0
129 149 0
141 161 0
128 148 0
134 152 0
134 152 0
135 155 0
130 149 0
131 152 0
129 149 0
137 157 0
124 145 0
141 161 0
130 151 0
140 161 0
142 161 0
139 159 0
134 153 0
141 162 0
133 154 0
130 150 0
142 161 0
131 150 0
135 157 0
134 154 0
138 159 0
140 161 0
143 163 0
137 158 0
132 152 0
136 157 0
143 164 0
148 169 0
126 147 0
144 165 0
144 166 0
148 169 0
148 169 0
148 168 0
149 171 0
148 169 0
149 169 0
153 175 0
142 163 0
151 172 0
143 163 0
142 162 0
149 170 0
148 169 0
146 167 0
140 158 0
143 164 0
151 171 0
148 168 0
146 166 0
146 168 0
144 165 0
155 175 0
154 176 0
149 170 0
155 177 0
151 171 0
149 171 0
140 161 0
157 178 0
147 168 0
147 169 0
156 176 0
152 172 0
155 175 0
151 171 0
151 171 0
148 168 0
153 175 0
155 177 0
160 182 0
160 179 0
155 175 0
161 184 0
155 176 0
157 179 0
152 175 0
154 176 0
157 179 0
151 172 0
157 179 0
155 176 0
162 184 0
157 177 0
153 174 0
155 177 0
156 177 0
159 178 0
158 179 0
154 174 0
156 177 0
165 186 0
155 176 0
154 176 0
154 175 0
150 169 0
160 182 0
163 186 0
154 176 0
156 177 0
158 180 0
155 177 0
160 182 0
163 184 0
163 184 0
157 177 0
156 178 0
161 182 0
162 183 0
152 172 0
163 185 0
160 183 0
158 181 0
158 179 0
162 183 0
168 189 0
161 182 0
165 188 0
164 185 0
163 185 0
157 177 0
154 176 0
160 180 0
161 182 0
165 186 0
161 182 0
164 185 0
166 185 0
160 181 0
158 180 0
164 186 0
165 186 0
163 186 0
158 179 0
159 180 0
165 187 0
163 185 0
163 184 0
167 189 0
165 187 0
161 183 0
165 185 0
162 184 0
165 187 0
158 180 0
160 182 0
164 187 0
166 188 0
165 185 0
167 189 0
162 182 0
163 184 0
171 193 0
164 186 0
167 187 0
164 186 0
162 183 0
165 187 0
167 190 0
164 187 0
165 188 0
167 189 0
165 186 0
164 185 0
163 184 0
167 189 0
165 188 0
168 190 0
168 191 0
168 191 0
165 188 0
169 190 0
169 192 0
166 188 0
162 184 0
165 187 0
165 187 0
166 188 0
166 190 0
172 196 84
171 194 92
172 195 95
173 196 108
175 199 92
170 193 95
170 193 105
168 191 88
173 196 111
176 199 108
172 195 88
169 192 84
175 198 111
170 193 102
168 191 84
171 195 84
175 199 99
171 194 88
169 193 76
172 195 108
170 193 99
169 191 80
164 186 88
169 192 99
167 191 92
172 195 111
168 191 102
172 196 92
168 191 76
169 192 95
165 189 95
167 191 102
168 192 88
168 192 84
169 191 88
169 192 111
166 189 80
169 192 102
166 190 105
161 184 92
168 191 102
162 186 72
168 192 88
165 188 76
166 189 95
163 186 99
167 191 114
168 190 88
164 187 99
164 188 99
166 189 95
166 189 114
168 191 99
161 185 99
163 185 92
161 183 67
163 186 84
165 187 72
166 188 95
156 179 92
165 187 105
158 181 88
160 183 88
163 185 114
165 188 95
164 186 102
157 179 88
158 180 92
164 186 92
151 173 67
156 178 114
162 185 117
165 187 76
160 182 88
162 183 99
155 176 76
164 185 99
161 183 95
161 182 105
162 184 88
167 189 105
152 174 84
158 180 76
156 177 62
161 183 92
160 180 99
164 185 105
156 177 95
159 180 99
157 177 76
153 174 102
167 187 114
162 182 102
153 174 80
161 181 114
154 175 80
159 179 99
160 180 99
157 177 76
146 166 84
154 173 92
160 181 99
164 185 99
143 162 76
154 174 95
154 174 80
156 176 99
160 179 114
154 174 99
155 175 88
142 162 84
139 160 51
154 175 76
146 166 62
153 174 67
150 169 57
141 161 67
143 162 62
141 161 36
145 165 67
134 154 25
139 160 51
139 159 57
135 155 51
138 158 36
138 159 0
142 163 36
145 165 36
142 163 0
147 167 25
140 162 36
144 164 0
151 173 0
151 172 25
149 170 44
141 162 0
143 162 25
150 171 0
149 171 0
139 158 0
141 162 0
142 163 0
140 162 0
140 162 0
136 156 0
125 145 0
134 155 0
135 155 0
137 157 0
134 154 0
141 161 0
128 149 0
145 166 0
122 142 0
133 154 0
142 162 0
121 141 0
120 139 0
138 158 0
127 146 0
124 144 0
129 149 0
129 149 0
127 146 0
126 144 0
132 152 0
128 147 0
124 143 0
134 154 0
132 152 0
133 152 0
123 142 0
130 149 0
128 147 0
134 154 0
122 142 0
132 151 0
128 148 0
123 142 0
129 148 0
130 149 0
134 152 0
125 144 0
130 151 0
117 136 0
125 144 0
129 149 0
130 151 0
117 137 0
138 158 0
123 142 0
119 138 0
127 146 0
127 147 0
111 131 0
131 152 0
136 156 0
124 143 0
130 150 0
121 141 0
124 144 0
125 144 0
126 146 0
128 147 0
127 145 0
118 138 0
127 146 0
129 150 0
139 159 0
132 153 0
143 162 0
123 143 0
141 161 0
125 145 0
125 145 0
127 147 0
137 157 0
129 148 0
133 155 0
140 161 0
149 171 0
134 154 0
135 156 0
140 160 0
137 159 0
141 163 0
125 146 0
140 162 0
140 162 0
137 157 0
150 170 0
137 158 0
138 159 0
135 154 0
145 165 0
140 161 0
143 164 0
140 160 0
130 150 0
133 154 0
143 164 0
143 165 0
149 170 0
137 157 0
140 161 0
148 170 0
132 151 0
146 167 0
149 170 0
144 165 0
145 167 0
135 155 0
149 171 0
142 163 0
139 160 0
143 164 0
145 166 0
145 166 0
140 161 0
138 158 0
153 174 0
142 162 0
143 164 0
145 165 0
141 165 0
149 171 0
149 170 0
141 163 0
141 162 0
149 169 0
146 168 0
144 165 0
153 174 0
155 176 0
156 177 0
150 172 0
151 172 0
154 174 0
147 168 0
150 172 0
149 170 0
149 170 0
150 170 0
145 165 0
152 173 0
152 173 0
156 177 0
158 181 0
154 175 0
151 172 0
156 177 0
151 172 0
163 185 0
160 181 0
155 176 0
159 182 0
154 175 0
157 178 0
162 185 0
161 183 0
151 172 0
157 180 0
157 177 0
154 177 0
155 176 0
158 180 0
157 178 0
162 184 0
159 180 0
161 183 0
156 177 0
159 181 0
160 181 0
156 178 0
154 175 0
159 180 0
164 186 0
158 178 0
156 177 0
153 176 0
155 176 0
162 183 0
159 180 0
158 181 0
163 185 0
162 184 0
157 179 0
163 184 0
159 180 0
159 180 0
157 178 0
158 179 0
156 177 0
163 183 0
158 180 0
157 179 0
159 181 0
162 184 0
160 181 0
163 185 0
162 185 0
163 185 0
160 181 0
160 181 0
162 183 0
162 183 0
158 180 0
166 188 0
165 187 0
166 188 0
164 186 0
162 184 0
158 178 0
163 184 0
164 185 0
162 184 0
162 185 0
161 184 0
161 183 0
159 181 0
166 186 0
160 182 0
169 189 0
161 183 0
164 186 0
164 186 0
167 189 0
160 181 0
166 188 0
161 183 0
165 187 0
169 191 0
161 182 0
162 183 0
163 185 0
161 183 0
163 184 0
163 184 0
164 185 0
167 189 0
161 181 0
162 183 0
163 185 0
168 190 0
167 188 0
162 184 0
167 189 0
166 188 0
169 190 0
160 183 0
165 187 0
165 186 0
166 190 0
166 186 0
159 180 0
167 189 0
160 182 0
166 188 0
166 189 0
167 190 0
171 194 95
174 198 108
175 198 95
176 199 108
175 198 105
174 196 105
169 193 84
173 197 102
171 194 105
172 195 108
169 192 84
178 200 122
173 196 84
174 197 114
172 196 102
170 193 84
175 197 111
169 192 88
163 186 84
169 192 84
167 191 84
173 196 95
165 189 84
169 192 117
168 191 84
173 195 111
170 193 102
165 189 99
171 194 108
169 193 84
167 190 84
171 194 108
173 196 99
172 195 99
169 192 95
172 195 105
168 191 99
164 187 95
166 188 92
167 190 108
166 189 95
165 188 84
169 193 95
160 183 108
162 185 95
166 189 92
161 185 92
161 184 67
162 184 84
169 193 117
161 184 92
166 189 102
163 186 99
166 188 105
157 179 80
164 186 111
164 187 102
163 185 95
163 185 84
154 176 92
167 190 117
165 187 108
166 190 102
165 187 99
165 188 99
163 185 99
165 188 111
159 183 88
159 182 72
159 181 84
162 183 114
161 183 99
165 187 102
156 179 92
163 185 108
159 182 114
156 178 92
158 180 95
161 183 95
162 184 95
159 181 88
163 184 105
156 177 80
162 183 111
158 179 88
159 180 88
162 184 95
164 185 92
152 173 95
157 178 67
153 174 111
162 182 114
154 174 88
161 182 102
161 181 92
157 177 108
161 181 99
142 162 84
152 172 92
158 178 95
158 178 108
159 179 102
160 179 105
150 171 92
149 169 92
162 182 99
152 172 92
155 175 99
155 174 92
135 155 76
148 166 80
140 160 67
150 169 84
150 170 57
150 170 57
139 159 51
159 180 62
145 164 72
135 156 25
140 161 25
134 154 25
142 162 62
135 156 51
142 164 44
149 171 36
144 166 25
143 165 25
136 157 36
154 175 0
146 167 25
149 171 0
143 164 25
156 178 0
143 165 0
154 176 0
148 168 0
149 171 0
144 165 0
137 159 0
145 167 0
142 162 0
144 165 0
145 166 0
142 164 0
147 167 0
142 163 0
143 163 0
138 159 0
128 149 0
135 156 0
120 141 0
124 145 0
124 144 0
136 156 0
134 155 0
131 151 0
138 158 0
122 142 0
134 155 0
130 150 0
140 161 0
121 139 0
125 145 0
125 145 0
132 153 0
126 145 0
124 144 0
140 159 0
133 152 0
118 138 0
124 143 0
117 136 0
118 136 0
133 153 0
106 125 0
124 143 0
124 144 0
128 148 0
124 144 0
132 151 0
128 148 0
135 154 0
127 147 0
139 159 0
132 151 0
130 151 0
126 146 0
129 149 0
125 144 0
130 150 0
140 161 0
127 146 0
136 154 0
135 155 0
128 148 0
135 154 0
125 146 0
128 148 0
122 141 0
124 145 0
134 153 0
130 149 0
135 156 0
138 160 0
132 153 0
125 143 0
127 147 0
136 155 0
128 148 0
129 150 0
134 155 0
128 148 0
128 147 0
127 147 0
127 145 0
129 148 0
141 162 0
133 155 0
131 151 0
130 148 0
139 159 0
132 152 0
129 147 0
142 163 0
137 158 0
133 151 0
128 149 0
149 171 0
145 165 0
136 156 0
147 167 0
128 148 0
144 166 0
142 163 0
139 158 0
140 161 0
142 163 0
141 162 0
137 158 0
133 153 0
134 155 0
143 163 0
137 158 0
130 152 0
146 165 0
145 165 0
141 163 0
144 164 0
150 173 0
145 167 0
142 163 0
148 169 0
143 164 0
146 166 0
144 165 0
137 159 0
148 170 0
149 170 0
147 169 0
152 173 0
147 166 0
144 165 0
149 170 0
148 168 0
152 174 0
148 168 0
141 162 0
153 173 0
148 169 0
139 160 0
141 164 0
149 171 0
156 178 0
153 174 0
146 166 0
141 162 0
150 171 0
149 169 0
156 177 0
162 183 0
156 178 0
147 169 0
157 179 0
158 178 0
153 174 0
156 177 0
153 176 0
150 172 0
152 173 0
152 172 0
156 177 0
160 182 0
160 182 0
157 178 0
152 173 0
150 170 0
152 174 0
162 183 0
152 176 0
156 177 0
155 175 0
153 175 0
162 185 0
154 175 0
159 180 0
164 186 0
157 178 0
161 183 0
157 180 0
154 174 0
158 179 0
158 177 0
161 183 0
155 176 0
150 170 0
155 175 0
157 179 0
156 177 0
159 180 0
163 185 0
158 179 0
157 179 0
154 177 0
158 180 0
156 177 0
160 180 0
162 183 0
159 179 0
155 177 0
159 181 0
164 186 0
160 180 0
155 176 0
164 185 0
160 182 0
162 184 0
160 181 0
164 185 0
159 180 0
159 181 0
160 183 0
164 186 0
158 181 0
164 185 0
162 183 0
165 187 0
163 184 0
158 180 0
168 190 0
159 181 0
166 188 0
158 181 0
167 189 0
166 186 0
166 188 0
164 184 0
163 184 0
162 184 0
160 181 0
164 185 0
163 184 0
163 185 0
166 186 0
164 185 0
161 183 0
160 181 0
166 187 0
168 190 0
162 182 0
169 192 0
166 188 0
164 187 0
162 186 0
162 183 0
161 183 0
164 185 0
160 182 0
161 182 0
159 181 0
167 188 0
169 191 0
162 184 0
166 189 0
164 186 0
165 187 0
165 188 0
167 189 0
166 189 0
165 188 0
171 193 0
166 186 0
163 186 0
166 188 0
167 190 0
169 191 0
169 192 0
164 186 0
168 190 0
171 193 0
165 187 0
172 195 99
174 197 76
175 198 105
178 200 122
171 194 92
171 194 92
171 195 88
173 196 99
174 197 105
166 190 76
173 195 88
171 194 88
175 198 88
173 196 92
171 195 102
168 191 92
175 198 114
170 193 84
173 195 72
168 192 105
173 196 102
166 189 80
172 195 99
164 188 99
166 189 105
170 193 92
171 193 111
166 189 92
172 195 108
163 186 84
171 194 105
168 190 80
173 197 108
166 190 84
168 191 99
167 190 108
163 187 99
176 199 122
163 187 99
173 196 92
168 191 120
171 194 102
166 188 88
166 189 84
166 189 88
166 189 76
164 188 105
160 183 76
166 189 102
163 186 111
165 188 92
158 182 95
165 188 102
163 186 105
168 192 99
161 184 80
169 192 99
162 185 99
164 187 76
161 185 95
161 184 108
166 188 108
160 182 102
159 181 72
164 187 84
158 180 80
168 191 105
163 185 95
161 183 102
163 187 108
155 177 84
159 180 99
167 189 114
162 184 84
159 181 95
162 183 88
159 181 92
157 180 76
166 188 114
160 182 92
165 186 108
154 176 105
154 176 92
160 180 111
154 176 72
168 190 108
161 182 108
159 180 102
152 174 76
157 178 102
150 172 76
152 174 84
161 182 95
159 180 102
153 174 111
153 175 84
154 175 80
147 166 92
157 178 111
156 176 99
156 176 95
160 180 102
159 179 95
151 171 80
154 174 88
155 175 95
149 170 80
155 175 95
151 170 92
144 163 76
148 167 95
153 174 62
156 175 92
146 164 76
148 169 84
134 153 44
139 159 51
144 164 44
148 168 44
137 156 51
148 168 44
136 156 25
136 157 36
139 159 0
142 163 25
142 162 51
138 159 25
141 163 25
139 161 0
144 165 36
145 165 36
147 168 25
152 174 0
152 174 25
151 172 0
157 178 0
150 172 0
149 171 0
150 171 0
147 169 0
140 161 0
149 171 0
142 163 0
140 161 0
145 166 0
140 160 0
130 150 0
131 152 0
142 162 0
138 159 0
133 153 0
123 142 0
125 145 0
128 147 0
133 153 0
134 153 0
138 159 0
128 148 0
140 161 0
120 140 0
132 152 0
135 156 0
137 157 0
119 138 0
131 151 0
126 146 0
130 150 0
132 153 0
137 157 0
126 146 0
118 138 0
113 133 0
128 148 0
129 150 0
131 151 0
124 143 0
129 149 0
131 150 0
123 143 0
116 137 0
128 147 0
119 138 0
129 149 0
121 141 0
123 142 0
117 137 0
131 152 0
129 148 0
135 157 0
124 143 0
126 147 0
121 141 0
127 146 0
128 147 0
127 144 0
130 150 0
128 147 0
133 153 0
142 162 0
126 146 0
127 148 0
135 155 0
135 155 0
130 150 0
140 159 0
134 155 0
141 162 0
130 149 0
127 147 0
127 147 0
123 144 0
129 149 0
136 157 0
138 158 0
142 162 0
132 154 0
142 163 0
136 156 0
137 157 0
141 161 0
123 142 0
137 157 0
141 162 0
136 157 0
133 154 0
138 158 0
135 156 0
139 159 0
143 164 0
142 163 0
143 163 0
142 162 0
139 160 0
137 158 0
139 160 0
128 148 0
141 161 0
143 165 0
153 174 0
147 168 0
145 166 0
148 171 0
149 169 0
137 158 0
143 163 0
139 159 0
147 168 0
144 164 0
139 161 0
143 164 0
148 170 0
147 168 0
143 164 0
148 168 0
138 158 0
154 176 0
153 175 0
146 167 0
154 175 0
157 178 0
145 165 0
148 170 0
145 164 0
151 173 0
158 180 0
149 171 0
143 164 0
145 164 0
145 167 0
144 165 0
153 174 0
153 175 0
154 174 0
153 174 0
155 177 0
154 175 0
150 172 0
152 174 0
151 172 0
154 175 0
153 173 0
151 173 0
153 175 0
157 178 0
155 176 0
156 177 0
154 176 0
156 178 0
151 172 0
150 170 0
155 178 0
156 175 0
157 179 0
157 178 0
160 181 0
156 177 0
160 183 0
154 176 0
153 173 0
154 174 0
149 168 0
153 175 0
153 174 0
152 174 0
158 179 0
160 181 0
159 180 0
153 175 0
150 171 0
164 186 0
159 181 0
162 183 0
151 173 0
153 174 0
150 173 0
161 181 0
155 177 0
157 179 0
159 181 0
155 176 0
157 179 0
163 184 0
158 180 0
158 180 0
158 179 0
155 174 0
163 184 0
161 183 0
158 180 0
162 183 0
161 182 0
156 178 0
159 180 0
160 180 0
159 179 0
155 175 0
157 179 0
157 178 0
169 190 0
162 182 0
163 186 0
155 176 0
163 183 0
165 186 0
164 186 0
166 188 0
161 182 0
165 186 0
167 188 0
163 184 0
163 185 0
164 186 0
167 188 0
166 186 0
163 186 0
159 180 0
161 183 0
163 184 0
161 183 0
166 186 0
164 184 0
163 183 0
162 185 0
164 184 0
165 187 0
164 187 0
166 187 0
160 181 0
164 185 0
161 181 0
168 189 0
170 192 0
167 189 0
167 187 0
167 190 0
164 187 0
168 190 0
167 189 0
166 188 0
167 189 0
158 179 0
165 186 0
169 191 0
164 186 0
168 190 0
161 181 0
168 191 0
163 185 0
164 184 0
167 189 0
168 190 0
169 190 0
167 189 0
169 192 0
165 188 0
165 187 0
168 189 0
166 189 0
168 189 0
167 189 0
174 197 92
175 197 92
174 196 102
174 198 108
171 194 76
176 199 108
172 195 108
173 196 99
173 196 76
175 199 111
171 195 84
173 196 99
173 196 105
173 196 99
164 188 88
168 191 95
172 196 99
171 194 84
173 196 99
171 193 95
168 191 95
169 192 84
169 193 80
165 187 72
174 196 95
173 196 120
167 189 88
165 189 102
167 191 76
167 190 72
172 196 95
167 189 84
166 188 84
167 189 102
166 189 80
173 196 102
161 184 102
168 191 99
158 181 99
160 183 76
163 187 92
172 195 99
173 196 111
171 194 111
166 190 92
166 189 92
162 185 102
167 190 128
167 190 99
165 188 76
167 190 99
166 189 105
171 193 114
168 190 92
165 189 111
167 189 99
165 189 108
170 192 111
159 182 88
168 190 80
164 186 95
164 188 105
158 181 99
162 184 102
166 189 105
163 186 92
160 182 84
158 180 76
167 188 122
157 179 92
153 175 84
162 183 99
161 183 99
158 179 114
162 183 102
158 181 88
155 177 92
171 192 128
164 186 95
153 175 84
163 184 88
166 188 92
152 173 62
166 187 128
164 187 108
160 181 84
164 186 95
162 185 108
152 174 76
164 185 105
156 176 84
155 176 99
158 178 88
167 187 137
155 176 76
157 178 99
157 179 92
155 176 92
157 178 102
165 186 105
154 174 92
168 189 105
149 169 72
148 168 76
148 169 84
154 173 92
155 175 102
155 175 80
159 180 92
160 180 95
154 175 67
153 174 67
150 171 62
148 169 76
142 162 62
154 174 84
141 162 44
147 168 44
152 173 44
143 164 25
139 160 36
155 176 67
145 166 36
138 159 25
147 168 25
145 166 44
144 165 25
148 168 44
146 167 25
154 176 0
149 170 0
150 171 51
147 168 25
147 168 0
148 170 0
150 171 0
152 174 0
148 170 0
150 172 0
150 170 0
149 170 0
144 166 0
146 166 0
142 163 0
143 165 0
148 168 0
143 164 0
133 153 0
129 148 0
139 160 0
127 148 0
131 151 0
132 152 0
137 157 0
131 151 0
137 157 0
146 166 0
126 146 0
135 154 0
120 141 0
149 169 0
129 148 0
129 150 0
132 151 0
133 153 0
135 154 0
127 146 0
138 158 0
115 135 0
130 150 0
132 151 0
134 154 0
133 153 0
132 153 0
135 156 0
126 147 0
136 155 0
135 156 0
121 142 0
130 149 0
132 151 0
133 152 0
119 140 0
132 152 0
127 146 0
128 148 0
139 160 0
128 148 0
140 160 0
126 146 0
146 166 0
126 146 0
122 142 0
129 150 0
120 140 0
135 154 0
130 150 0
132 152 0
139 158 0
135 156 0
136 155 0
132 152 0
130 150 0
133 154 0
136 156 0
144 164 0
122 142 0
133 153 0
139 159 0
132 154 0
137 157 0
133 153 0
138 159 0
131 151 0
145 165 0
141 161 0
137 158 0
141 162 0
137 158 0
141 160 0
136 157 0
145 166 0
133 154 0
135 155 0
123 144 0
135 155 0
137 158 0
148 168 0
143 164 0
145 165 0
136 155 0
140 160 0
143 163 0
142 163 0
148 170 0
139 160 0
135 157 0
144 166 0
139 160 0
141 162 0
139 162 0
136 158 0
143 164 0
145 167 0
153 173 0
145 167 0
149 170 0
145 167 0
143 163 0
148 169 0
141 163 0
144 165 0
141 163 0
143 165 0
145 167 0
143 165 0
146 167 0
143 164 0
135 157 0
143 165 0
147 167 0
147 169 0
158 180 0
147 168 0
143 162 0
146 166 0
150 173 0
154 176 0
150 172 0
145 166 0
149 169 0
150 172 0
144 166 0
151 172 0
158 181 0
146 166 0
158 179 0
150 171 0
155 177 0
151 174 0
157 177 0
151 172 0
147 168 0
153 174 0
146 166 0
153 175 0
159 182 0
155 177 0
148 170 0
153 174 0
154 176 0
153 175 0
157 180 0
158 179 0
146 168 0
153 175 0
153 173 0
156 177 0
150 171 0
155 175 0
160 182 0
154 176 0
156 178 0
159 182 0
160 182 0
163 184 0
154 174 0
164 186 0
151 173 0
158 180 0
163 184 0
158 179 0
156 177 0
161 182 0
157 180 0
157 180 0
163 186 0
155 177 0
158 180 0
158 179 0
157 177 0
159 180 0
154 176 0
160 179 0
159 180 0
154 174 0
166 189 0
165 186 0
159 180 0
156 178 0
159 181 0
154 174 0
163 186 0
162 182 0
162 185 0
165 186 0
160 181 0
158 179 0
159 179 0
162 183 0
164 186 0
162 183 0
166 188 0
163 184 0
168 190 0
156 177 0
164 187 0
163 185 0
167 188 0
160 182 0
162 183 0
163 185 0
163 185 0
165 188 0
163 185 0
163 185 0
160 182 0
165 186 0
159 178 0
168 190 0
161 182 0
163 185 0
162 184 0
162 182 0
164 187 0
165 187 0
163 185 0
170 192 0
167 189 0
165 186 0
159 180 0
164 186 0
168 190 0
165 187 0
165 188 0
159 180 0
165 188 0
169 189 0
167 189 0
160 181 0
162 184 0
166 188 0
163 184 0
163 185 0
166 187 0
164 188 0
163 185 0
169 190 0
167 189 0
165 188 0
164 185 0
169 192 0
170 193 0
167 190 0
164 185 0
166 188 0
165 186 0
165 187 0
168 190 0
168 191 0
175 198 84
171 194 88
171 194 95
178 200 111
175 197 88
168 192 84
177 200 117
170 194 88
173 196 111
172 195 114
174 196 111
172 195 88
167 190 76
172 196 108
172 195 92
174 197 88
172 195 95
172 195 114
169 192 92
170 192 92
168 191 76
166 190 80
166 190 92
167 190 108
170 193 99
165 188 88
173 196 99
168 191 99
170 192 84
167 191 99
166 189 76
165 188 95
165 188 92
167 190 95
169 192 114
167 190 72
168 191 108
164 188 92
169 192 92
168 191 80
165 189 92
169 193 95
170 192 84
167 190 92
169 191 105
163 186 92
163 186 84
165 188 80
165 188 99
160 182 76
166 189 99
168 191 105
163 185 95
168 191 117
163 185 80
156 180 99
159 182 99
166 189 99
160 183 80
171 193 105
163 186 105
163 186 102
161 184 84
165 187 92
161 184 99
166 187 84
165 187 76
159 181 95
167 189 111
164 187 111
165 187 102
159 180 88
166 189 108
159 181 76
155 177 80
159 181 99
158 180 84
168 190 108
158 180 111
162 184 99
157 178 99
160 181 92
164 185 95
161 183 95
167 188 108
168 189 114
158 178 92
155 176 88
160 180 99
155 176 99
168 190 88
155 176 95
157 178 84
161 181 117
153 174 95
152 173 99
155 176 92
160 180 92
144 164 80
152 172 99
153 174 92
153 174 84
149 170 62
161 181 95
149 169 84
160 179 102
159 179 99
153 173 72
154 174 80
161 181 92
156 176 76
157 178 72
151 171 88
151 172 57
150 171 62
148 168 76
146 166 62
148 169 67
148 169 51
148 170 44
144 164 44
146 167 44
135 156 36
150 172 36
149 170 44
147 167 36
152 174 51
148 170 36
147 169 25
149 169 25
148 170 0
148 170 25
149 170 25
147 168 0
149 171 0
150 171 0
146 167 0
138 159 0
152 173 0
142 163 0
142 163 0
150 170 0
146 168 0
141 162 0
144 165 0
145 167 0
146 167 0
135 156 0
142 162 0
135 157 0
135 154 0
132 153 0
133 154 0
134 154 0
136 156 0
133 154 0
137 157 0
121 141 0
141 162 0
142 161 0
129 150 0
131 152 0
138 157 0
141 161 0
122 143 0
128 148 0
129 150 0
136 156 0
151 171 0
130 150 0
131 151 0
125 147 0
133 153 0
132 153 0
127 147 0
133 153 0
137 157 0
127 148 0
132 152 0
132 152 0
124 143 0
125 144 0
135 155 0
134 154 0
135 156 0
137 157 0
136 156 0
125 146 0
137 157 0
136 156 0
136 156 0
146 166 0
129 148 0
131 151 0
133 152 0
129 149 0
130 149 0
136 157 0
132 152 0
137 158 0
134 154 0
134 156 0
135 156 0
135 155 0
133 155 0
131 151 0
139 158 0
134 155 0
141 162 0
122 142 0
129 151 0
133 154 0
130 150 0
136 157 0
140 161 0
135 155 0
128 149 0
140 160 0
134 154 0
135 154 0
134 155 0
135 156 0
141 162 0
138 160 0
129 148 0
133 155 0
136 156 0
143 164 0
145 165 0
147 169 0
149 169 0
147 167 0
150 172 0
143 165 0
140 161 0
140 161 0
140 160 0
141 161 0
148 169 0
139 160 0
134 155 0
155 176 0
141 162 0
144 166 0
144 165 0
148 169 0
141 161 0
150 172 0
144 163 0
144 164 0
142 164 0
155 178 0
142 162 0
144 165 0
146 168 0
146 169 0
142 163 0
151 169 0
141 162 0
146 166 0
142 162 0
149 170 0
150 172 0
144 166 0
152 173 0
153 175 0
151 173 0
147 169 0
148 168 0
147 169 0
151 172 0
147 168 0
149 172 0
151 173 0
142 164 0
156 179 0
154 176 0
151 173 0
157 178 0
155 176 0
151 173 0
153 174 0
157 179 0
153 174 0
153 173 0
153 174 0
153 173 0
155 177 0
152 174 0
152 175 0
159 180 0
160 181 0
156 177 0
154 177 0
150 170 0
157 179 0
157 179 0
147 168 0
154 176 0
155 176 0
163 183 0
163 184 0
157 178 0
160 181 0
154 175 0
152 174 0
152 173 0
160 181 0
159 181 0
160 181 0
158 181 0
150 172 0
163 186 0
159 180 0
157 179 0
151 173 0
162 182 0
162 184 0
158 180 0
155 177 0
152 174 0
153 175 0
165 187 0
161 182 0
153 174 0
156 176 0
161 183 0
162 183 0
158 180 0
162 183 0
164 186 0
162 183 0
160 181 0
162 185 0
164 185 0
162 183 0
160 181 0
162 183 0
164 187 0
162 183 0
158 179 0
163 183 0
156 179 0
164 186 0
162 185 0
161 181 0
161 182 0
164 185 0
168 189 0
161 182 0
164 185 0
162 184 0
163 184 0
163 185 0
166 188 0
160 182 0
161 182 0
165 186 0
162 182 0
165 187 0
162 184 0
163 184 0
167 189 0
164 186 0
166 189 0
155 176 0
162 185 0
161 183 0
161 182 0
168 191 0
162 183 0
168 190 0
163 184 0
165 185 0
165 187 0
164 186 0
161 183 0
164 185 0
168 191 0
166 189 0
162 184 0
167 187 0
168 189 0
167 189 0
163 184 0
167 188 0
166 189 0
164 186 0
170 193 0
163 187 0
166 187 0
172 195 0
166 189 0
170 192 0
165 188 0
167 189 0
169 190 0
163 185 0
166 188 0
167 189 0
171 194 84
172 195 84
173 196 84
171 194 84
176 200 108
172 195 88
173 195 95
169 192 88
172 195 84
174 197 105
176 199 88
170 193 92
168 191 103
171 195 99
173 196 88
171 193 92
169 193 102
168 191 88
170 193 80
172 196 102
173 196 80
173 196 102
170 194 95
171 194 114
169 192 92
172 195 84
172 195 84
168 192 80
167 190 99
167 190 84
167 190 67
167 190 99
170 193 117
167 190 102
168 191 108
163 186 84
164 187 88
170 194 108
162 186 76
164 186 80
165 188 92
168 192 114
171 194 108
168 191 102
168 191 105
167 190 108
166 189 102
168 191 76
167 190 88
161 183 76
167 189 99
161 185 92
168 191 105
168 191 95
170 193 122
159 181 99
163 187 92
167 189 88
164 186 84
164 187 122
159 182 102
159 181 84
159 183 102
166 190 114
161 183 111
159 182 76
158 180 84
156 179 108
163 185 92
164 186 88
153 175 80
165 188 128
160 183 92
164 186 92
157 180 92
167 189 99
160 182 92
167 189 114
158 180 88
167 189 122
141 162 57
160 182 95
153 174 76
163 185 108
165 186 99
152 174 84
160 181 99
157 179 80
156 178 84
166 187 111
159 181 88
153 174 88
157 178 88
160 181 102
165 185 130
158 179 92
153 174 95
161 181 108
159 179 114
159 179 92
159 180 80
163 184 99
155 175 92
149 170 62
155 175 72
149 169 92
150 170 84
152 172 76
150 170 72
159 179 88
151 171 80
156 177 76
154 173 80
151 172 57
147 167 67
148 169 57
152 173 51
148 168 67
147 168 57
153 173 57
148 170 51
138 160 36
141 161 44
144 165 36
145 166 51
149 170 36
152 174 44
150 171 44
147 169 0
160 180 36
153 175 0
144 165 0
157 178 25
146 167 25
150 172 0
141 163 0
144 166 0
151 172 25
151 173 0
160 181 0
141 163 0
153 176 0
154 176 0
143 164 0
141 161 0
150 171 0
135 156 0
139 159 0
138 159 0
145 167 0
138 159 0
130 151 0
145 166 0
139 160 0
141 163 0
130 150 0
139 160 0
140 161 0
146 166 0
132 152 0
135 155 0
136 157 0
138 158 0
141 161 0
125 145 0
126 145 0
124 143 0
133 154 0
143 164 0
125 145 0
120 140 0
120 140 0
131 151 0
129 149 0
135 155 0
134 154 0
133 154 0
134 154 0
120 140 0
138 159 0
126 147 0
135 155 0
137 156 0
129 149 0
137 156 0
126 147 0
128 148 0
132 153 0
135 155 0
135 155 0
132 153 0
137 158 0
131 152 0
129 149 0
125 144 0
124 145 0
133 152 0
133 152 0
130 151 0
135 155 0
130 151 0
141 161 0
126 147 0
141 162 0
122 143 0
137 157 0
126 146 0
142 162 0
142 163 0
142 163 0
134 154 0
143 164 0
133 154 0
135 155 0
141 161 0
139 159 0
132 152 0
134 154 0
137 158 0
138 159 0
142 163 0
140 161 0
138 159 0
138 159 0
129 150 0
147 167 0
140 160 0
142 164 0
138 159 0
134 155 0
138 159 0
136 156 0
137 160 0
136 157 0
151 171 0
149 170 0
145 166 0
147 169 0
150 171 0
144 165 0
137 157 0
141 163 0
139 160 0
140 159 0
142 164 0
140 161 0
140 160 0
155 176 0
143 164 0
147 169 0
142 164 0
146 167 0
154 176 0
150 171 0
141 163 0
145 166 0
153 176 0
151 173 0
143 164 0
148 169 0
142 163 0
155 176 0
150 172 0
150 172 0
148 170 0
144 165 0
154 177 0
148 170 0
151 173 0
159 180 0
149 169 0
153 174 0
156 177 0
148 168 0
158 179 0
154 175 0
148 167 0
160 182 0
153 175 0
153 175 0
149 171 0
152 174 0
156 178 0
158 180 0
151 173 0
152 175 0
157 178 0
146 168 0
154 176 0
147 168 0
157 178 0
157 179 0
158 180 0
155 178 0
160 183 0
151 171 0
158 180 0
159 180 0
154 176 0
155 178 0
153 174 0
157 179 0
160 183 0
159 180 0
165 188 0
155 176 0
161 182 0
161 183 0
156 177 0
157 178 0
160 183 0
164 185 0
156 177 0
158 178 0
159 180 0
165 188 0
158 180 0
156 176 0
161 184 0
158 179 0
167 187 0
155 176 0
159 181 0
161 182 0
161 183 0
161 182 0
158 180 0
162 185 0
160 181 0
160 181 0
159 180 0
162 185 0
161 183 0
163 185 0
162 184 0
161 182 0
159 180 0
161 183 0
166 187 0
158 181 0
163 187 0
165 187 0
162 184 0
166 188 0
165 187 0
164 185 0
159 181 0
161 183 0
161 182 0
160 182 0
164 186 0
164 186 0
164 183 0
162 184 0
163 186 0
164 186 0
164 185 0
165 188 0
163 185 0
165 185 0
168 190 0
160 183 0
162 182 0
161 182 0
168 191 0
168 190 0
163 185 0
165 188 0
165 187 0
166 188 0
166 188 0
165 186 0
168 190 0
165 187 0
164 184 0
167 190 0
168 190 0
164 184 0
169 191 0
166 188 0
168 190 0
168 191 0
163 184 0
165 188 0
164 186 0
165 186 0
165 187 0
168 190 0
166 188 0
161 184 0
167 190 0
165 187 0
166 188 0
164 185 0
164 186 0
167 189 0
167 190 0
169 191 0
164 186 0
165 186 0
165 188 80
171 194 92
173 196 102
175 198 99
165 188 76
169 192 84
168 191 84
176 199 114
169 192 84
170 193 88
169 192 99
168 190 92
174 196 99
173 197 108
171 193 105
168 192 95
172 195 114
171 194 108
168 191 108
174 196 114
174 198 105
172 195 108
165 189 84
173 196 114
168 191 95
168 192 99
166 189 80
172 195 92
170 192 128
173 196 128
164 187 72
166 189 88
158 181 88
164 187 92
172 196 120
171 194 95
169 193 102
166 188 72
166 188 88
169 192 108
167 190 99
171 194 102
164 187 92
167 190 108
167 189 108
162 184 72
161 184 72
168 192 88
167 190 99
159 183 80
163 186 102
174 197 117
165 188 102
166 188 99
162 185 105
166 189 76
166 189 117
163 186 88
162 183 84
169 192 122
167 190 108
157 181 99
165 186 84
168 190 111
168 191 84
163 185 95
168 190 108
159 182 102
163 185 117
158 179 76
160 181 80
158 180 95
168 191 108
158 181 108
163 185 92
166 188 105
151 172 76
157 179 105
154 176 76
160 181 92
162 183 102
154 177 76
166 188 99
166 187 102
161 183 102
161 182 108
166 186 108
161 182 99
162 183 80
157 178 92
161 181 114
165 186 114
161 182 99
158 179 80
157 178 84
154 175 76
155 176 84
161 181 99
158 178 105
159 179 76
156 177 67
154 175 84
160 181 80
162 182 99
167 186 105
154 174 67
153 174 51
155 176 67
156 175 88
154 174 62
151 171 84
154 175 62
149 169 62
147 168 51
145 166 67
149 169 62
152 174 57
149 170 36
155 176 51
153 174 51
149 170 51
151 172 36
145 166 44
141 163 25
146 167 44
146 168 36
150 172 36
144 165 0
154 176 36
145 167 0
143 165 0
144 165 25
151 173 0
153 175 0
151 174 0
145 167 0
141 164 0
157 178 0
148 170 25
145 167 0
148 170 0
146 168 0
152 173 0
143 165 0
145 165 0
145 165 0
138 159 0
140 161 0
143 164 0
148 169 0
141 162 0
145 165 0
132 153 0
142 162 0
148 167 0
133 154 0
147 167 0
143 165 0
133 153 0
140 161 0
136 156 0
146 166 0
125 145 0
137 158 0
131 151 0
127 147 0
131 151 0
131 151 0
141 161 0
123 142 0
134 155 0
136 158 0
133 153 0
131 151 0
131 152 0
130 150 0
146 167 0
131 151 0
138 159 0
141 161 0
135 155 0
130 151 0
130 150 0
132 152 0
128 148 0
137 158 0
136 156 0
139 159 0
128 149 0
132 151 0
140 160 0
132 152 0
140 161 0
127 147 0
135 154 0
139 159 0
144 165 0
134 155 0
116 137 0
146 167 0
134 153 0
128 148 0
135 155 0
141 161 0
138 159 0
145 166 0
128 149 0
128 149 0
135 155 0
135 156 0
141 162 0
134 155 0
136 156 0
136 157 0
141 161 0
125 147 0
138 159 0
138 158 0
136 158 0
135 155 0
140 162 0
134 156 0
142 163 0
137 157 0
137 158 0
141 162 0
137 159 0
140 162 0
148 169 0
138 160 0
134 155 0
149 172 0
134 155 0
146 167 0
145 167 0
139 160 0
133 154 0
146 167 0
146 167 0
138 159 0
150 169 0
145 167 0
146 167 0
150 172 0
148 169 0
143 164 0
146 166 0
150 171 0
150 168 0
156 177 0
149 171 0
149 170 0
148 169 0
148 170 0
150 172 0
150 172 0
141 162 0
151 173 0
142 163 0
150 171 0
148 171 0
146 166 0
145 167 0
148 169 0
151 172 0
139 161 0
158 179 0
142 163 0
151 173 0
148 169 0
151 173 0
153 174 0
149 171 0
143 164 0
157 179 0
158 181 0
156 179 0
148 168 0
153 175 0
158 179 0
151 172 0
152 173 0
156 179 0
158 179 0
157 179 0
157 180 0
146 167 0
155 177 0
155 176 0
155 177 0
162 183 0
164 186 0
153 173 0
158 180 0
156 179 0
152 173 0
162 184 0
157 178 0
159 180 0
157 179 0
152 172 0
155 177 0
153 174 0
158 179 0
154 176 0
158 180 0
158 181 0
154 176 0
166 188 0
154 177 0
157 180 0
161 183 0
159 182 0
162 185 0
157 179 0
160 181 0
156 179 0
163 184 0
157 179 0
162 183 0
156 177 0
161 182 0
162 184 0
165 188 0
156 178 0
160 182 0
154 175 0
155 178 0
165 187 0
159 181 0
157 180 0
158 180 0
167 190 0
159 180 0
162 184 0
157 177 0
162 183 0
164 187 0
158 179 0
154 176 0
162 185 0
161 181 0
167 188 0
165 185 0
160 181 0
165 186 0
162 183 0
162 184 0
161 182 0
163 185 0
166 188 0
160 182 0
157 178 0
163 185 0
163 185 0
163 185 0
156 177 0
164 185 0
168 190 0
163 185 0
168 189 0
161 183 0
159 181 0
162 184 0
164 185 0
167 188 0
162 184 0
166 188 0
165 187 0
164 185 0
166 188 0
169 193 0
164 186 0
167 188 0
165 186 0
164 186 0
165 187 0
165 187 0
165 187 0
162 184 0
170 191 0
167 188 0
161 181 0
166 190 0
167 188 0
171 193 0
162 185 0
163 184 0
163 185 0
167 190 0
167 189 0
169 192 0
169 192 0
164 186 0
163 184 0
171 194 0
164 186 0
162 185 0
166 188 0
165 188 0
176 199 105
177 200 99
170 192 99
173 196 102
175 198 102
171 194 76
173 195 105
175 198 108
174 197 114
173 197 99
174 197 88
171 194 95
172 195 92
174 197 92
171 194 95
173 195 102
166 190 95
170 194 97
171 194 88
170 193 76
173 196 84
173 195 92
166 189 84
170 193 84
169 192 102
162 185 92
166 190 99
168 191 99
170 193 80
165 188 105
171 194 108
173 196 99
166 189 76
169 193 99
167 190 95
171 194 92
173 196 99
172 194 95
168 191 99
164 188 88
166 190 95
164 187 62
165 188 88
166 189 99
156 178 84
162 185 84
170 193 99
166 188 102
167 191 105
165 189 88
164 186 92
164 187 95
165 188 102
163 185 92
163 185 99
169 191 99
165 187 99
160 183 76
171 193 117
165 189 99
157 180 92
167 189 105
164 186 117
157 180 92
167 189 108
151 174 88
164 186 95
162 184 95
161 183 99
166 188 114
159 181 95
166 189 95
166 188 102
164 185 105
159 180 95
164 186 102
161 183 84
170 190 111
165 187 114
164 185 114
163 186 80
161 182 84
160 182 88
156 179 57
163 184 102
159 180 105
158 179 80
157 178 99
166 186 120
162 183 95
155 177 84
160 181 99
151 172 76
156 177 92
156 178 92
159 179 102
158 179 111
172 192 111
152 173 72
157 178 84
148 168 62
159 179 88
155 176 88
151 171 76
157 177 92
149 169 84
157 178 92
156 176 92
152 172 88
151 171 84
153 173 76
150 171 72
146 166 62
152 174 72
156 177 76
148 169 44
157 178 44
145 166 44
150 173 36
147 168 25
146 167 44
149 169 44
148 169 57
154 176 36
144 165 25
143 165 36
153 175 25
147 169 0
155 176 25
160 183 0
148 170 0
155 177 0
148 169 25
148 169 25
153 175 0
142 165 0
151 172 0
144 166 0
149 172 0
148 170 0
148 170 0
150 172 0
140 163 0
146 169 0
143 163 0
141 162 0
149 171 0
148 169 0
145 165 0
135 154 0
141 162 0
133 154 0
137 157 0
132 153 0
138 159 0
137 157 0
136 156 0
130 150 0
141 162 0
136 158 0
142 162 0
126 147 0
121 141 0
135 157 0
127 147 0
140 161 0
130 150 0
124 144 0
139 159 0
138 158 0
133 153 0
134 155 0
141 161 0
132 152 0
133 153 0
126 146 0
134 154 0
138 158 0
130 150 0
135 155 0
128 148 0
129 149 0
127 147 0
137 156 0
128 150 0
145 166 0
142 163 0
139 160 0
132 152 0
142 162 0
135 156 0
141 162 0
132 152 0
131 151 0
129 149 0
140 161 0
131 152 0
134 156 0
141 162 0
135 156 0
133 153 0
139 160 0
132 153 0
130 149 0
143 164 0
140 160 0
140 159 0
132 152 0
136 155 0
136 156 0
146 168 0
135 156 0
138 159 0
142 162 0
136 156 0
150 172 0
144 166 0
142 164 0
141 162 0
143 164 0
147 168 0
145 165 0
140 161 0
142 162 0
146 166 0
144 165 0
147 167 0
139 159 0
141 163 0
139 160 0
144 165 0
131 152 0
148 170 0
140 162 0
144 165 0
146 168 0
146 167 0
147 169 0
156 177 0
143 163 0
145 165 0
144 166 0
143 164 0
142 162 0
145 166 0
154 176 0
150 172 0
148 169 0
151 172 0
148 170 0
140 161 0
142 164 0
147 168 0
150 172 0
149 171 0
152 174 0
147 169 0
154 177 0
140 160 0
150 172 0
156 177 0
148 170 0
145 165 0
139 158 0
148 170 0
151 172 0
148 171 0
160 183 0
154 177 0
154 176 0
148 170 0
146 168 0
156 176 0
150 173 0
151 173 0
154 174 0
151 173 0
151 173 0
157 179 0
152 174 0
151 171 0
150 172 0
153 175 0
151 173 0
155 175 0
153 174 0
152 173 0
158 180 0
158 179 0
157 179 0
152 174 0
159 180 0
156 177 0
159 181 0
152 173 0
155 176 0
161 183 0
159 181 0
156 177 0
155 176 0
158 179 0
155 176 0
158 179 0
164 185 0
164 186 0
158 180 0
164 186 0
159 181 0
158 179 0
157 180 0
157 179 0
159 181 0
153 174 0
159 179 0
163 186 0
159 182 0
154 174 0
162 184 0
161 182 0
158 181 0
154 176 0
159 181 0
160 183 0
166 187 0
158 179 0
160 182 0
158 179 0
156 178 0
165 188 0
160 182 0
160 182 0
161 183 0
163 186 0
158 179 0
164 186 0
164 187 0
161 182 0
161 183 0
157 179 0
161 182 0
166 188 0
161 184 0
165 187 0
164 185 0
164 185 0
164 186 0
163 185 0
164 186 0
168 191 0
161 184 0
165 187 0
161 183 0
161 183 0
163 184 0
165 186 0
160 181 0
158 179 0
165 187 0
166 187 0
165 187 0
164 186 0
167 189 0
166 187 0
164 186 0
165 188 0
162 183 0
163 185 0
163 186 0
169 191 0
162 184 0
163 185 0
161 181 0
165 187 0
166 188 0
162 184 0
168 190 0
162 185 0
170 193 0
169 191 0
168 191 0
167 190 0
163 184 0
167 189 0
164 185 0
166 187 0
165 186 0
168 189 0
169 192 0
169 191 0
168 189 0
168 190 0
168 191 0
164 186 0
169 192 0
165 188 0
165 188 0
165 186 0
164 185 0
165 188 0
169 191 0
174 196 84
172 195 84
174 196 99
172 195 88
171 193 88
176 199 105
170 193 72
172 196 95
176 197 102
168 192 84
171 194 95
172 194 80
171 194 120
171 194 99
170 193 114
170 193 80
169 192 80
171 194 72
169 193 84
167 190 88
169 191 88
173 196 92
172 195 105
165 188 84
168 191 88
167 190 80
169 192 88
168 190 92
167 191 88
168 191 99
164 186 76
166 190 102
169 192 102
164 187 88
175 198 105
165 188 88
168 193 105
162 184 99
166 189 80
161 182 67
164 187 88
172 195 105
164 188 84
163 186 114
163 186 84
164 185 67
168 190 88
163 186 80
167 190 108
158 181 84
169 191 84
163 185 88
166 188 92
171 193 102
164 187 92
172 195 120
166 189 95
169 192 111
164 186 95
165 187 92
160 181 72
164 187 102
164 187 84
165 187 92
165 187 95
164 186 108
164 186 105
161 184 95
162 184 84
167 189 57
160 182 95
161 183 92
156 178 80
167 188 102
166 188 117
161 182 99
167 188 108
160 181 105
160 182 84
152 172 80
158 179 99
158 179 105
158 179 67
167 188 88
168 188 92
157 177 76
162 184 99
162 185 80
161 182 92
163 183 105
156 177 84
164 185 102
163 183 105
152 173 88
159 180 108
156 175 99
149 169 76
157 178 95
159 179 102
157 178 84
163 182 111
153 173 72
151 171 76
146 166 76
149 169 80
159 179 80
152 174 72
158 178 88
155 176 72
160 180 76
158 180 84
158 178 80
141 161 72
155 176 72
150 171 57
145 165 36
151 172 57
152 173 67
146 166 51
151 172 51
151 173 51
146 168 25
152 174 44
145 165 51
141 162 44
150 172 57
149 170 0
147 168 36
151 173 0
153 174 36
151 173 25
151 173 0
143 165 25
158 180 25
153 175 0
145 167 0
149 172 0
150 172 0
149 171 0
146 168 0
141 163 0
150 172 0
138 160 0
155 176 0
154 176 0
148 170 0
147 168 0
145 166 0
141 161 0
131 153 0
149 171 0
148 169 0
137 158 0
140 159 25
137 157 0
134 155 0
134 155 0
133 153 0
125 145 0
132 153 0
132 153 0
127 147 0
135 155 0
134 154 0
132 153 0
137 157 0
129 149 0
125 145 0
138 159 0
138 158 0
134 154 0
138 159 0
125 144 0
134 155 0
138 159 0
136 156 0
138 159 0
135 156 0
138 158 0
139 160 0
137 158 0
142 163 0
126 146 0
133 153 0
131 152 0
134 154 0
135 156 0
132 152 0
136 156 0
133 154 0
143 164 0
133 155 0
145 165 0
130 151 0
132 152 0
133 155 0
140 161 0
139 159 0
131 152 0
140 161 0
135 154 0
137 158 0
139 159 0
142 162 0
144 165 0
136 157 0
146 167 0
138 158 0
143 164 0
142 164 0
139 160 0
142 162 0
147 168 0
147 167 0
133 153 0
136 157 0
150 171 0
138 159 0
139 160 0
143 164 0
141 162 0
134 155 0
142 163 0
133 153 0
136 157 0
152 174 0
153 174 0
140 160 0
132 153 0
141 161 0
131 151 0
150 170 0
143 163 0
139 161 0
146 168 0
143 164 0
135 155 0
139 161 0
146 167 0
146 167 0
141 162 0
139 160 0
150 170 0
149 170 0
142 164 0
152 174 0
147 169 0
147 169 0
149 169 0
153 176 0
137 159 0
152 174 0
144 165 0
152 173 0
142 164 0
143 164 0
150 172 0
150 171 0
147 166 0
164 185 0
143 164 0
156 178 0
143 164 0
148 170 0
156 177 0
152 174 0
149 171 0
147 169 0
149 171 0
153 175 0
154 176 0
149 171 0
153 174 0
150 173 0
151 172 0
153 174 0
157 178 0
152 174 0
146 167 0
150 170 0
154 175 0
156 177 0
152 174 0
146 167 0
150 170 0
147 169 0
150 171 0
156 178 0
157 179 0
154 175 0
157 179 0
157 179 0
154 177 0
152 172 0
154 177 0
152 173 0
153 175 0
156 179 0
152 173 0
157 179 0
155 176 0
155 176 0
149 170 0
152 171 0
159 180 0
159 180 0
157 180 0
155 177 0
159 181 0
159 181 0
157 179 0
161 181 0
157 180 0
163 185 0
159 179 0
164 186 0
160 183 0
165 187 0
159 181 0
155 178 0
166 188 0
162 184 0
160 181 0
161 181 0
157 179 0
161 184 0
159 179 0
160 182 0
160 179 0
161 183 0
158 178 0
159 181 0
156 178 0
162 183 0
157 180 0
161 183 0
162 184 0
159 182 0
162 183 0
161 183 0
165 186 0
165 187 0
167 189 0
156 178 0
159 181 0
162 183 0
161 184 0
164 183 0
159 182 0
163 187 0
158 180 0
163 183 0
162 183 0
160 181 0
164 185 0
161 181 0
165 188 0
164 187 0
162 184 0
167 191 0
163 183 0
168 190 0
161 182 0
165 187 0
166 189 0
163 184 0
162 182 0
170 191 0
167 189 0
164 185 0
165 187 0
163 184 0
167 190 0
165 188 0
164 185 0
165 187 0
168 190 0
165 188 0
165 187 0
160 182 0
165 186 0
167 190 0
165 187 0
161 183 0
166 188 0
163 185 0
169 191 0
168 190 0
164 187 0
167 190 0
167 189 0
167 189 0
170 193 0
162 184 0
168 190 0
168 191 0
169 192 0
164 186 0
166 188 0
165 186 0
174 196 111
170 193 67
174 197 99
175 198 95
174 197 92
166 189 95
172 195 88
172 194 76
175 198 108
174 197 95
169 192 102
171 193 95
169 192 92
168 191 88
175 198 92
170 194 108
167 189 80
171 192 95
172 195 95
166 189 95
173 196 102
172 195 95
172 195 99
166 190 88
169 192 88
171 193 99
168 191 99
167 190 84
170 193 102
162 185 76
168 191 80
176 199 122
173 196 99
165 187 76
163 185 99
166 190 114
168 191 95
160 182 84
164 187 88
166 189 80
166 189 92
171 194 114
170 193 102
163 187 88
158 180 92
164 186 72
171 193 95
163 186 84
167 190 92
167 190 62
172 195 102
166 188 80
159 182 51
166 188 92
170 193 95
168 190 105
161 184 95
165 187 95
165 187 92
164 187 88
166 187 99
165 187 92
159 181 92
153 176 84
164 186 108
163 186 102
159 182 108
161 183 99
161 183 92
160 182 95
165 187 84
156 179 111
165 187 108
163 185 76
159 181 80
164 185 122
160 181 95
157 178 92
158 180 99
165 187 108
162 183 102
168 189 108
168 189 99
154 175 80
164 186 105
158 180 95
160 180 114
164 185 105
155 176 62
160 183 92
164 185 92
156 177 67
161 183 108
157 178 99
159 179 102
152 173 80
164 185 111
162 184 92
152 173 88
163 184 105
161 181 105
160 181 99
157 178 80
156 176 76
165 186 95
150 171 62
156 176 105
158 178 84
154 175 80
149 171 62
143 163 51
155 175 62
160 179 88
156 176 62
158 179 51
159 180 72
147 169 44
157 177 57
148 169 51
150 171 25
152 173 62
152 174 44
139 160 36
155 176 36
151 174 36
150 172 25
155 177 25
149 170 36
152 174 0
148 170 0
144 166 0
154 175 0
152 173 0
157 179 0
153 176 0
153 175 0
145 167 0
152 173 0
156 178 0
150 171 0
151 174 0
152 174 0
153 174 0
139 162 0
148 170 0
151 172 0
146 167 0
147 168 0
132 154 0
138 159 0
134 155 0
145 165 0
137 158 0
139 159 0
141 162 0
141 163 0
138 159 0
136 157 0
144 164 0
140 161 0
132 152 0
140 161 0
138 160 0
134 155 0
130 151 0
134 155 0
134 154 0
130 151 0
143 163 0
143 164 0
130 151 0
132 153 0
129 150 0
141 160 0
144 165 0
145 166 0
138 158 0
136 155 0
129 149 0
137 157 0
137 158 0
142 163 0
129 152 0
143 165 0
136 157 0
141 163 0
129 149 0
127 148 0
140 161 0
131 152 0
125 146 0
134 154 0
137 156 0
134 155 0
141 162 0
136 156 0
138 158 0
125 146 0
130 150 0
139 160 0
132 153 0
135 156 0
142 164 0
127 148 0
134 155 0
133 154 0
139 160 0
136 157 0
137 158 0
134 155 0
136 156 0
128 148 0
142 164 0
136 157 0
135 156 0
150 172 0
145 168 0
145 166 0
135 156 0
142 164 0
135 155 0
138 159 0
141 162 0
140 163 0
142 164 0
139 160 0
138 159 0
148 169 0
144 165 0
143 164 0
144 166 0
148 170 0
149 170 0
141 162 0
146 168 0
145 167 0
142 163 0
138 159 0
148 169 0
139 160 0
152 173 0
153 174 0
143 165 0
153 174 0
148 170 0
148 168 0
148 169 0
149 171 0
149 172 0
149 169 0
140 161 0
142 164 0
145 167 0
148 170 0
149 170 0
147 168 0
147 169 0
155 177 0
156 178 0
150 172 0
146 166 0
155 177 0
152 173 0
145 167 0
144 166 0
154 176 0
156 179 0
141 164 0
143 166 0
143 165 0
143 164 0
148 169 0
151 172 0
146 167 0
156 178 0
152 175 0
156 179 0
151 172 0
148 168 0
155 176 0
155 178 0
155 177 0
158 180 0
151 171 0
150 172 0
155 177 0
158 180 0
154 177 0
153 175 0
156 178 0
157 179 0
157 180 0
157 179 0
151 172 0
157 178 0
159 181 0
157 178 0
150 171 0
157 179 0
150 171 0
148 170 0
153 175 0
159 180 0
161 182 0
157 179 0
159 182 0
154 175 0
153 175 0
156 177 0
154 174 0
157 178 0
155 177 0
153 175 0
165 187 0
158 180 0
159 181 0
155 175 0
158 177 0
156 176 0
159 182 0
161 182 0
158 180 0
152 173 0
155 178 0
166 188 0
156 177 0
159 181 0
161 183 0
160 182 0
163 185 0
156 179 0
161 182 0
158 180 0
162 184 0
165 186 0
161 182 0
157 180 0
161 183 0
162 184 0
162 183 0
164 184 0
167 189 0
165 188 0
163 184 0
165 187 0
170 193 0
161 183 0
165 187 0
160 182 0
163 185 0
164 186 0
164 184 0
157 178 0
162 183 0
168 191 0
165 187 0
156 178 0
167 188 0
164 187 0
164 186 0
167 191 0
162 183 0
163 186 0
166 188 0
168 190 0
165 188 0
166 190 0
166 189 0
163 186 0
167 188 0
167 189 0
166 188 0
158 181 0
166 188 0
163 186 0
165 187 0
168 191 0
162 184 0
165 189 0
167 189 0
167 189 0
163 185 0
166 187 0
170 192 0
166 188 0
165 188 0
164 186 0
170 192 0
164 187 0
166 188 0
171 193 0
167 190 0
165 187 0
167 187 0
165 187 0
169 191 0
164 187 0
166 189 0
170 193 0
165 187 0
171 194 110
172 194 99
168 191 108
176 199 95
175 198 108
169 191 95
176 198 95
174 197 102
174 197 88
176 199 105
174 196 95
172 194 88
171 193 62
170 193 92
175 198 105
168 191 72
174 197 108
170 193 92
172 195 105
173 195 102
170 193 88
171 194 95
166 189 102
173 195 95
174 196 92
169 192 99
170 193 105
168 192 99
170 193 88
167 190 88
173 196 108
165 188 95
170 193 102
168 192 108
168 191 95
170 193 99
171 195 94
165 189 88
168 191 84
169 193 108
168 192 114
165 188 92
172 195 99
167 190 88
167 190 108
169 192 122
171 193 95
166 189 105
172 195 99
165 188 72
170 193 108
166 188 84
160 183 105
157 179 92
160 183 105
168 191 88
162 185 92
164 186 92
163 186 102
164 186 95
167 189 72
167 189 114
161 183 76
161 183 88
167 188 80
165 188 92
164 185 80
168 190 92
162 184 72
171 191 99
170 191 99
170 191 102
164 185 92
163 185 102
166 187 99
161 183 95
154 176 76
168 188 108
173 194 130
167 189 105
162 184 99
165 186 80
153 175 72
160 180 88
166 188 114
162 183 105
164 185 102
159 180 102
155 176 88
159 181 95
165 186 84
156 176 92
164 184 111
153 175 76
160 182 80
148 169 67
161 182 84
161 183 99
159 180 95
163 183 111
166 187 102
149 170 84
165 185 99
154 174 80
148 169 62
159 179 92
156 175 80
151 172 67
152 173 62
157 178 80
153 174 72
151 172 72
148 169 62
154 176 57
152 173 44
157 178 44
153 173 57
149 169 44
149 171 36
154 175 72
149 170 44
146 167 25
145 166 0
151 172 36
150 171 44
148 168 36
154 176 36
150 173 0
153 175 25
153 176 25
150 172 0
147 169 0
150 171 0
141 162 0
154 176 0
152 174 0
154 176 0
151 173 0
149 170 0
156 178 0
153 176 0
141 163 0
150 172 0
145 167 0
146 168 0
144 166 0
143 165 0
150 171 0
141 162 0
142 164 0
136 157 0
145 166 0
133 154 0
142 163 0
135 156 0
137 157 0
144 165 0
142 163 0
143 164 0
137 159 0
136 156 0
144 164 0
136 157 0
136 157 0
137 157 0
139 160 0
140 160 0
141 161 0
140 161 0
146 166 0
135 156 0
142 163 0
145 167 0
144 165 0
140 161 0
149 171 0
137 157 0
128 148 0
140 161 0
156 177 0
147 169 0
128 148 0
136 156 0
137 157 0
145 166 0
134 155 0
135 156 0
141 161 0
136 156 0
131 152 0
141 161 0
138 159 0
142 164 0
138 159 0
135 155 0
131 152 0
132 152 0
141 162 0
142 163 0
136 157 0
133 153 0
140 161 0
143 164 0
133 154 0
142 164 0
138 158 0
135 157 0
132 153 0
132 153 0
143 165 0
149 169 0
145 166 0
132 154 0
139 159 0
141 162 0
134 155 0
144 165 0
135 155 0
134 156 0
142 163 0
145 166 0
139 161 0
141 163 0
137 159 0
138 159 0
146 168 0
146 166 0
141 162 0
147 169 0
139 161 0
138 160 0
140 161 0
141 162 0
146 168 0
138 159 0
143 166 0
144 165 0
147 168 0
140 161 0
146 167 0
143 163 0
142 162 0
149 170 0
143 165 0
141 161 0
152 173 0
147 168 0
143 165 0
148 170 0
142 164 0
153 175 0
149 171 0
148 170 0
148 169 0
154 175 0
143 165 0
156 177 0
158 180 0
153 175 0
153 173 0
144 166 0
153 175 0
160 180 0
155 176 0
154 176 0
151 172 0
160 181 0
150 170 0
163 184 0
154 176 0
153 174 0
144 164 0
143 164 0
151 174 0
156 178 0
155 176 0
154 176 0
154 176 0
157 180 0
158 179 0
149 172 0
160 181 0
155 178 0
155 176 0
156 179 0
156 177 0
150 172 0
160 181 0
157 179 0
159 180 0
153 174 0
157 179 0
154 176 0
160 181 0
160 181 0
152 172 0
154 177 0
158 179 0
158 180 0
157 180 0
159 180 0
161 183 0
161 183 0
149 170 0
160 182 0
163 184 0
153 175 0
162 184 0
160 182 0
160 181 0
162 185 0
160 182 0
161 184 0
157 178 0
162 184 0
153 174 0
160 182 0
159 182 0
160 182 0
163 185 0
158 180 0
160 182 0
157 179 0
165 186 0
156 178 0
164 186 0
162 183 0
162 184 0
161 183 0
164 184 0
163 185 0
167 188 0
162 183 0
162 184 0
160 181 0
164 187 0
161 183 0
164 185 0
160 182 0
163 186 0
160 180 0
163 184 0
163 183 0
168 191 0
166 189 0
166 190 0
162 184 0
164 186 0
164 184 0
161 184 0
168 190 0
165 188 0
163 185 0
163 186 0
163 185 0
164 185 0
165 186 0
167 190 0
160 182 0
162 184 0
168 189 0
167 190 0
164 187 0
164 186 0
169 192 0
165 188 0
163 185 0
162 184 0
168 190 0
163 185 0
168 188 0
168 192 0
169 192 0
163 185 0
164 186 0
168 189 0
167 190 0
169 190 0
166 188 0
168 191 0
164 188 0
164 186 0
164 186 0
165 188 0
164 186 0
168 191 0
169 191 0
171 194 0
168 189 0
166 188 0
166 187 0
167 189 0
164 186 0
166 188 0
168 189 0
166 189 0
170 192 0
162 184 0
168 191 0
166 189 0
170 192 86
177 199 117
171 194 92
172 195 80
177 200 111
170 193 99
173 195 102
174 197 92
172 195 102
170 193 108
173 195 111
171 193 92
175 197 108
169 191 92
169 191 84
174 197 102
171 195 92
174 198 114
168 192 92
170 193 111
165 188 72
173 195 108
171 194 95
167 189 80
170 193 92
168 191 80
166 188 80
172 194 99
170 193 92
167 190 114
169 191 92
167 190 99
168 192 76
171 194 105
174 196 95
170 192 92
165 188 95
171 192 105
164 187 105
167 190 92
168 191 92
168 192 92
164 185 99
171 194 105
169 191 84
167 189 88
167 189 108
166 188 120
167 191 99
168 191 99
167 189 105
169 191 111
175 197 92
160 183 95
166 188 95
168 191 105
161 183 80
162 185 95
158 179 76
167 189 108
167 190 99
165 186 80
162 185 95
170 192 102
159 181 105
163 186 95
159 181 102
166 188 95
161 182 95
158 180 62
168 189 108
160 182 105
168 189 99
151 173 72
167 188 95
170 191 114
163 183 84
164 186 105
160 182 92
167 189 102
163 184 84
167 189 92
157 179 80
163 184 95
159 179 80
159 180 102
152 172 76
158 179 92
156 177 92
161 182 99
163 184 102
151 173 76
164 185 114
161 181 88
161 182 99
152 173 62
156 176 80
161 182 84
161 183 80
159 179 105
152 172 76
161 181 108
154 174 105
157 178 72
161 181 92
163 182 99
155 175 88
151 171 84
159 178 92
155 177 67
150 171 44
164 184 80
142 162 62
156 179 57
151 172 72
159 180 51
147 167 57
147 169 36
147 167 51
156 177 62
142 163 51
148 170 25
156 180 25
157 179 36
151 173 0
152 174 44
150 171 0
144 165 0
160 183 0
147 169 36
156 179 36
155 177 25
153 175 25
153 176 0
151 173 0
152 176 0
148 171 25
154 178 0
159 180 0
158 180 0
150 173 0
152 173 0
152 174 0
148 171 0
155 176 0
144 165 0
137 158 0
144 165 0
149 171 0
148 169 0
147 168 0
142 162 0
153 174 0
149 169 0
137 157 0
143 164 0
133 153 0
132 153 0
138 159 0
143 163 0
139 161 0
142 162 0
129 149 0
137 159 0
142 164 0
142 163 0
135 155 0
142 163 0
143 164 0
132 152 0
138 159 0
138 159 0
132 153 0
131 151 0
129 151 0
141 162 0
134 154 0
139 159 0
140 160 0
130 151 0
140 159 0
138 159 0
140 161 0
140 162 0
146 166 0
143 163 0
143 164 0
138 158 0
146 168 0
138 159 0
139 160 0
139 162 0
144 165 0
138 158 0
147 168 0
145 165 0
138 160 0
136 157 0
135 156 0
140 162 0
138 158 0
130 151 0
124 145 0
138 159 0
142 163 0
133 155 0
140 161 0
138 159 0
141 161 0
140 162 0
139 160 0
136 158 0
146 168 0
144 165 0
140 160 0
153 177 0
144 166 0
143 165 0
131 152 0
149 170 0
139 160 0
152 174 0
136 157 0
141 162 0
156 177 0
141 163 0
137 159 0
145 166 0
144 165 0
142 163 0
138 160 0
152 173 0
152 174 0
143 165 0
145 166 0
148 169 0
141 163 0
150 171 0
141 160 0
144 165 0
145 166 0
148 170 0
146 168 0
145 166 0
146 169 0
148 170 0
149 171 0
153 174 0
152 174 0
156 178 0
154 176 0
147 168 0
151 173 0
155 176 0
148 170 0
151 173 0
148 170 0
149 172 0
155 178 0
156 177 0
152 174 0
149 171 0
151 173 0
155 177 0
153 175 0
149 172 0
158 179 0
152 172 0
148 169 0
149 170 0
152 175 0
151 173 0
155 178 0
151 171 0
153 174 0
148 170 0
158 180 0
155 177 0
155 175 0
161 184 0
155 176 0
149 170 0
159 181 0
154 176 0
159 181 0
153 175 0
158 180 0
157 180 0
157 179 0
154 176 0
161 183 0
158 181 0
155 177 0
159 180 0
158 180 0
155 177 0
152 173 0
161 183 0
161 185 0
158 181 0
156 178 0
161 183 0
158 180 0
155 178 0
158 180 0
151 173 0
160 180 0
159 181 0
160 181 0
155 177 0
154 177 0
162 185 0
153 174 0
164 186 0
159 181 0
156 178 0
165 188 0
156 177 0
167 189 0
161 183 0
162 185 0
154 176 0
158 180 0
161 182 0
160 181 0
165 185 0
162 184 0
162 183 0
164 185 0
159 182 0
162 184 0
161 183 0
161 183 0
161 182 0
160 182 0
165 189 0
162 184 0
163 185 0
160 183 0
162 183 0
165 188 0
166 189 0
161 183 0
164 185 0
160 183 0
161 183 0
166 189 0
165 188 0
166 188 0
159 182 0
166 188 0
161 181 0
160 182 0
161 183 0
163 184 0
167 189 0
166 189 0
164 186 0
167 189 0
164 186 0
165 188 0
163 186 0
165 188 0
167 189 0
164 186 0
168 190 0
168 190 0
164 186 0
167 188 0
167 189 0
172 195 0
168 189 0
163 186 0
165 187 0
162 184 0
163 184 0
168 190 0
165 188 0
159 179 0
167 190 0
167 188 0
165 187 0
163 185 0
163 184 0
166 187 0
168 188 0
165 188 0
162 183 0
165 186 0
166 189 0
169 190 0
170 192 0
168 192 0
168 189 0
167 190 0
161 184 0
167 189 0
167 189 0
167 189 0
163 184 0
173 196 100
172 195 94
170 193 84
174 197 100
176 198 102
169 191 88
165 188 76
174 196 95
170 193 76
173 196 111
173 196 114
170 193 102
169 192 95
169 191 108
170 192 92
174 196 102
165 188 99
175 198 88
171 195 88
173 196 92
171 193 88
173 196 80
168 191 88
171 193 88
168 191 105
164 187 84
165 188 92
171 193 99
172 194 76
171 193 105
170 193 108
174 197 102
173 196 105
168 189 102
171 194 72
172 194 92
168 190 95
168 190 102
168 190 111
166 188 92
163 186 92
166 189 117
169 192 105
169 191 108
168 191 80
166 188 95
165 187 95
170 193 111
167 190 105
167 191 108
158 180 76
162 185 95
165 188 105
168 190 108
164 186 92
166 189 105
165 188 95
166 189 108
166 189 88
162 184 76
171 194 102
167 190 88
166 188 114
166 187 92
164 186 92
167 188 92
160 181 99
158 181 76
162 184 80
162 184 84
164 186 95
165 186 88
166 188 102
160 181 102
156 178 99
165 186 99
159 180 102
162 184 105
155 175 95
166 187 111
158 179 84
155 176 84
168 190 108
164 184 99
167 188 76
162 183 105
159 181 92
158 179 95
163 184 88
163 183 114
157 178 88
161 182 92
156 176 88
158 178 92
154 176 62
155 176 84
149 171 76
162 183 95
164 185 105
166 187 84
158 179 67
153 173 80
165 186 99
159 178 84
157 178 88
152 175 57
159 179 88
153 173 80
162 182 95
155 176 62
156 177 72
160 181 67
148 169 36
147 168 76
156 177 57
159 180 62
155 176 76
155 176 44
152 173 57
142 163 57
147 168 44
151 173 51
155 178 0
155 177 0
149 170 36
155 177 25
148 170 0
151 171 25
154 176 25
152 173 25
155 176 25
150 172 0
155 176 0
149 171 0
163 186 25
155 178 0
156 178 25
157 180 0
151 173 0
145 166 0
147 169 0
143 163 0
146 167 0
144 165 0
155 177 0
138 159 0
145 166 0
139 161 0
140 162 0
137 158 0
144 165 0
145 166 0
140 161 0
142 163 0
143 164 0
141 161 0
133 153 0
146 166 0
133 154 0
143 164 0
135 156 0
144 164 0
140 160 0
135 155 0
128 149 0
143 164 0
150 171 0
144 164 0
139 161 0
144 165 0
142 162 0
143 164 0
141 162 0
131 153 0
141 163 0
141 162 0
140 161 0
135 155 0
136 157 0
143 164 0
136 157 0
144 164 0
137 158 0
146 167 0
129 150 0
140 162 0
136 157 0
146 168 0
140 161 0
140 161 0
144 166 0
135 155 0
138 160 0
149 170 0
133 154 0
132 154 0
140 161 0
134 154 0
140 160 0
132 154 0
135 155 0
137 159 0
151 172 0
145 167 0
141 163 0
147 169 0
139 160 0
135 157 0
139 160 0
143 163 0
149 170 0
140 160 0
141 164 0
147 170 0
146 167 0
145 165 0
145 167 0
145 166 0
141 161 0
146 166 0
146 167 0
143 165 0
147 169 0
152 172 0
150 170 0
138 159 0
149 170 0
140 162 0
150 172 0
144 165 0
145 166 0
152 174 0
151 172 0
146 169 0
150 172 0
150 173 0
148 168 0
146 166 0
142 163 0
142 163 0
136 157 0
150 172 0
150 171 0
144 165 0
153 174 0
149 172 0
155 177 0
145 166 0
145 168 0
153 174 0
152 173 0
149 170 0
150 171 0
151 172 0
145 167 0
147 169 0
145 167 0
144 165 0
149 172 0
153 175 0
154 175 0
147 168 0
148 171 0
148 169 0
152 175 0
151 173 0
147 169 0
151 172 0
149 170 0
145 167 0
150 172 0
156 177 0
152 174 0
158 180 0
155 176 0
160 182 0
155 177 0
158 180 0
156 178 0
161 184 0
153 174 0
146 168 0
157 179 0
156 177 0
154 176 0
162 182 0
155 177 0
154 175 0
157 180 0
156 179 0
152 174 0
156 176 0
150 172 0
157 180 0
153 175 0
152 173 0
158 181 0
156 179 0
157 178 0
154 176 0
152 173 0
158 179 0
161 182 0
159 180 0
160 182 0
154 175 0
157 179 0
157 179 0
161 183 0
154 176 0
164 185 0
153 174 0
166 189 0
158 178 0
162 184 0
160 182 0
159 180 0
153 175 0
162 184 0
166 188 0
160 181 0
163 185 0
161 182 0
160 182 0
160 181 0
156 178 0
164 185 0
166 188 0
164 185 0
162 184 0
163 183 0
164 186 0
164 186 0
158 180 0
158 180 0
159 181 0
166 189 0
162 185 0
166 189 0
160 182 0
167 188 0
161 183 0
161 184 0
162 184 0
162 184 0
165 189 0
162 185 0
163 186 0
166 188 0
166 188 0
165 188 0
166 189 0
166 189 0
165 187 0
160 183 0
162 184 0
158 178 0
165 186 0
166 188 0
161 183 0
163 186 0
161 181 0
168 191 0
170 193 0
165 188 0
165 186 0
167 188 0
164 186 0
166 188 0
163 186 0
167 189 0
167 189 0
165 188 0
160 181 0
165 187 0
167 190 0
165 188 0
169 191 0
166 188 0
164 187 0
165 188 0
167 190 0
167 190 0
168 189 0
161 184 0
169 191 0
164 186 0
170 193 0
169 192 0
164 187 0
171 194 0
165 186 0
169 191 0
167 188 0
165 188 0
167 190 0
168 190 0
170 193 0
166 189 0
167 190 0
172 194 99
173 195 92
173 195 80
177 199 88
174 196 88
177 200 105
176 198 117
173 196 92
171 195 102
175 198 95
175 198 105
173 196 80
171 194 92
166 189 80
167 190 102
171 194 95
170 193 99
171 194 76
168 191 108
174 197 117
167 190 72
169 192 92
175 199 92
172 195 102
164 188 92
174 197 99
165 188 72
172 195 92
172 195 99
166 189 76
170 193 95
159 182 51
173 196 108
161 184 84
168 191 125
171 193 88
166 189 88
167 191 111
167 190 120
165 188 114
170 194 105
170 193 95
164 187 102
169 191 95
167 190 99
170 192 105
168 190 92
159 181 76
157 180 88
167 190 92
170 192 92
166 188 102
167 189 99
163 185 76
168 191 105
164 186 95
159 181 95
162 185 92
163 186 95
164 187 111
165 187 102
163 186 92
169 191 105
167 188 99
164 185 108
167 189 102
156 178 67
169 190 92
166 187 95
161 183 80
160 182 105
169 191 114
163 184 92
163 185 99
164 185 95
166 187 88
166 187 108
163 185 84
162 183 105
160 181 95
162 183 102
164 185 108
170 191 108
161 182 92
156 177 92
164 185 80
168 189 99
163 184 102
163 185 99
159 181 84
160 182 95
162 183 114
159 180 108
156 178 80
170 191 114
161 181 76
154 176 76
156 177 92
148 170 62
163 184 80
160 181 80
158 178 99
156 176 72
157 178 80
166 187 92
151 172 72
151 172 88
159 179 80
157 177 80
158 178 80
159 179 57
151 172 88
161 182 72
160 182 51
151 172 57
152 173 44
156 178 62
152 174 44
150 171 51
152 174 44
155 176 44
156 177 44
156 177 51
152 174 36
152 174 44
150 172 25
151 173 25
159 181 0
156 180 0
150 172 25
152 174 36
155 177 36
150 172 0
151 172 0
162 183 0
151 174 0
151 173 0
147 168 0
155 178 0
160 181 0
142 164 0
147 169 0
150 172 0
144 167 0
153 175 0
146 168 0
145 166 0
145 166 0
136 157 0
151 172 0
139 159 0
153 175 0
144 166 0
137 158 0
141 162 0
146 167 0
136 157 0
135 156 0
136 156 0
148 169 0
145 167 0
142 162 0
138 160 0
148 170 0
134 156 0
141 162 0
133 153 0
138 159 0
139 160 0
139 158 0
138 159 0
128 148 0
132 153 0
141 161 0
136 157 0
139 160 0
136 156 0
134 155 0
137 157 0
137 159 0
140 160 0
143 163 0
136 156 0
134 153 0
136 157 0
133 154 0
141 161 0
127 148 0
126 146 0
144 165 0
142 162 0
136 156 0
143 164 0
136 156 0
137 157 0
141 163 0
138 160 0
143 165 0
145 166 0
142 163 0
142 163 0
133 154 0
139 159 0
132 154 0
146 167 0
141 162 0
150 172 0
145 166 0
139 159 0
149 170 0
150 170 0
139 160 0
142 164 0
148 169 0
144 166 0
145 167 0
148 171 0
143 164 0
141 162 0
136 157 0
149 170 0
143 166 0
149 172 0
147 169 0
145 166 0
145 167 0
145 166 0
157 178 0
141 162 0
148 169 0
146 166 0
150 171 0
143 164 0
147 168 0
144 166 0
148 170 0
143 164 0
147 170 0
150 172 0
150 172 0
146 167 0
147 168 0
144 166 0
150 171 0
146 166 0
148 169 0
149 170 0
153 175 0
155 177 0
147 170 0
143 164 0
151 172 0
150 171 0
154 177 0
147 169 0
146 167 0
146 168 0
147 169 0
156 179 0
151 172 0
151 173 0
147 168 0
154 176 0
154 176 0
154 176 0
148 169 0
155 176 0
150 173 0
158 180 0
147 168 0
163 185 0
154 176 0
151 171 0
150 172 0
154 174 0
159 180 0
152 173 0
154 176 0
151 173 0
152 174 0
156 179 0
156 179 0
153 174 0
157 178 0
158 179 0
162 184 0
155 177 0
157 179 0
151 173 0
162 186 0
153 175 0
159 179 0
159 180 0
154 177 0
161 183 0
160 182 0
159 179 0
159 182 0
159 181 0
160 182 0
160 182 0
161 183 0
161 182 0
155 177 0
159 182 0
159 181 0
158 179 0
156 177 0
161 184 0
158 180 0
158 181 0
163 185 0
155 178 0
154 175 0
163 186 0
162 185 0
165 187 0
169 192 0
156 176 0
158 180 0
162 184 0
158 180 0
158 181 0
155 177 0
163 185 0
161 184 0
161 184 0
160 181 0
166 188 0
162 184 0
157 179 0
165 186 0
161 183 0
162 184 0
162 183 0
164 186 0
164 186 0
165 187 0
159 180 0
158 179 0
162 184 0
160 182 0
164 188 0
164 185 0
161 182 0
162 184 0
161 184 0
163 186 0
162 184 0
167 189 0
161 184 0
166 188 0
166 188 0
164 185 0
167 190 0
164 186 0
168 191 0
163 186 0
168 190 0
164 186 0
161 183 0
166 187 0
160 182 0
160 182 0
168 189 0
165 188 0
165 188 0
164 186 0
165 187 0
165 187 0
166 189 0
166 189 0
167 191 0
163 184 0
167 189 0
170 192 0
163 184 0
165 188 0
167 190 0
168 190 0
167 189 0
163 185 0
166 190 0
166 188 0
166 188 0
168 191 0
163 185 0
165 188 0
166 186 0
165 187 0
166 189 0
168 190 0
166 187 0
167 191 0
166 188 0
167 189 0
168 190 0
161 183 0
166 189 0
166 188 0
176 199 102
172 195 94
170 193 100
175 198 102
169 192 99
173 196 102
172 195 111
172 195 95
175 198 102
176 199 117
175 198 111
173 196 88
174 197 102
168 190 88
175 198 95
167 189 92
172 194 92
176 200 108
171 195 88
167 189 95
170 192 92
174 197 120
164 187 95
174 196 102
170 193 102
170 193 95
172 195 102
170 193 95
169 191 88
170 194 102
172 194 99
169 192 99
168 191 92
174 196 88
171 194 108
175 198 108
169 193 92
169 190 80
168 192 111
171 193 102
164 187 95
163 186 84
168 190 111
171 194 88
163 186 88
166 188 99
164 186 88
165 188 62
166 188 95
167 189 99
165 188 108
168 190 84
167 189 88
162 183 72
153 176 84
167 189 102
163 185 99
167 189 117
164 187 80
166 188 92
158 180 76
163 186 92
158 180 95
158 180 62
165 187 92
164 185 92
152 174 84
157 179 67
168 190 88
167 189 92
161 181 84
165 187 95
165 188 114
158 180 99
167 189 84
167 188 99
159 180 95
163 184 105
158 179 80
170 191 95
163 185 102
165 186 102
164 186 105
161 182 99
156 177 80
165 186 99
161 181 88
158 179 76
160 182 80
168 188 111
164 185 92
163 185 102
163 183 84
168 187 105
160 181 92
151 173 72
155 176 99
157 178 84
155 176 80
149 171 80
157 177 88
153 174 84
157 178 84
160 181 72
161 181 76
160 181 76
154 174 62
151 173 72
155 177 62
155 175 76
160 181 57
145 166 62
153 174 67
160 181 57
150 171 57
153 175 36
157 178 62
155 176 57
154 176 44
154 176 25
149 170 44
147 169 0
149 171 36
146 168 25
153 175 25
159 180 25
154 176 36
157 179 25
154 176 25
161 184 25
157 180 0
158 180 0
153 175 0
159 180 0
157 179 0
157 178 0
151 173 0
156 179 0
145 167 0
151 174 0
150 172 0
145 168 0
153 175 0
143 165 0
151 173 0
152 173 0
145 168 0
140 161 0
143 165 0
135 156 0
146 167 0
141 163 0
137 158 0
148 170 0
143 164 0
137 158 0
144 166 0
133 156 0
149 171 0
137 159 0
142 164 0
140 161 0
135 155 0
147 168 0
140 160 0
129 149 0
134 154 0
145 166 0
139 160 0
133 155 0
137 157 0
130 151 0
139 160 0
132 154 0
142 164 0
140 161 0
139 160 0
138 159 0
131 152 0
145 166 0
139 160 0
147 169 0
131 152 0
148 169 0
150 172 0
138 159 0
142 162 0
142 163 0
139 161 0
134 155 0
140 160 0
149 169 0
140 161 0
141 162 0
143 164 0
150 172 0
148 169 0
137 158 0
145 167 0
135 156 0
147 168 0
152 173 0
145 166 0
143 164 0
144 166 0
139 160 0
146 167 0
146 167 0
153 174 0
145 166 0
145 166 0
145 166 0
147 169 0
143 164 0
140 161 0
143 164 0
147 169 0
144 165 0
150 172 0
152 174 0
142 163 0
136 157 0
148 169 0
152 173 0
153 175 0
141 161 0
151 173 0
141 162 0
150 171 0
148 171 0
147 169 0
147 168 0
148 169 0
152 174 0
148 168 0
146 168 0
153 174 0
148 169 0
143 164 0
151 172 0
149 170 0
139 160 0
151 174 0
148 169 0
146 168 0
150 171 0
153 175 0
154 176 0
146 168 0
154 175 0
151 173 0
157 180 0
144 165 0
146 167 0
145 165 0
147 168 0
157 179 0
155 178 0
145 167 0
148 169 0
152 173 0
157 178 0
153 175 0
153 175 0
150 173 0
158 180 0
151 173 0
155 177 0
151 173 0
153 175 0
149 170 0
158 180 0
158 179 0
150 172 0
151 173 0
161 183 0
152 175 0
158 180 0
157 180 0
161 184 0
152 176 0
152 174 0
155 176 0
154 176 0
160 181 0
151 173 0
167 189 0
156 179 0
154 176 0
160 182 0
158 181 0
160 182 0
159 179 0
160 182 0
152 172 0
161 184 0
157 179 0
154 176 0
150 171 0
159 180 0
161 184 0
162 185 0
163 185 0
164 186 0
156 177 0
160 181 0
162 183 0
160 182 0
160 181 0
155 177 0
157 179 0
158 180 0
162 183 0
163 185 0
160 182 0
159 182 0
161 183 0
161 184 0
156 178 0
159 179 0
163 184 0
163 184 0
159 181 0
158 179 0
162 185 0
159 182 0
162 185 0
158 180 0
158 181 0
161 182 0
166 187 0
162 185 0
167 190 0
163 184 0
166 186 0
160 180 0
160 182 0
163 186 0
161 183 0
162 184 0
166 189 0
161 182 0
162 183 0
160 183 0
158 179 0
164 187 0
159 182 0
162 184 0
163 184 0
166 188 0
162 183 0
163 186 0
164 187 0
163 186 0
166 188 0
167 190 0
166 189 0
160 183 0
162 185 0
165 187 0
167 189 0
166 188 0
168 189 0
166 187 0
162 184 0
164 186 0
168 191 0
166 190 0
163 185 0
166 189 0
168 190 0
166 189 0
161 185 0
162 184 0
163 183 0
167 190 0
166 190 0
165 186 0
165 186 0
165 186 0
168 190 0
163 184 0
163 187 0
166 187 0
165 187 0
167 190 0
166 188 0
167 190 0
165 188 0
168 190 0
165 186 0
164 185 0
168 190 0
169 191 0
169 192 0
168 191 0
170 193 0
163 184 0
168 190 0
166 187 0
169 191 105
173 195 97
171 194 99
168 190 88
173 196 80
176 198 105
172 194 95
177 199 102
169 192 92
173 196 92
169 191 80
169 192 80
172 194 95
168 191 76
171 194 88
172 194 88
171 193 114
172 196 117
172 195 108
167 190 99
173 196 105
165 188 105
175 197 95
169 192 84
174 197 122
172 195 95
166 190 88
172 195 102
173 195 108
170 193 80
172 195 108
164 186 67
169 192 111
168 191 80
171 193 92
168 190 99
169 191 114
168 191 99
168 190 105
170 192 84
170 192 84
171 194 108
168 190 88
167 188 76
164 186 88
167 190 95
168 190 76
167 190 102
161 182 95
170 193 111
169 192 114
171 194 95
169 190 84
165 187 95
165 187 76
161 182 80
162 184 88
166 186 95
172 194 95
162 184 95
160 182 76
164 186 114
160 183 76
160 182 92
156 178 76
157 178 88
162 183 80
163 186 99
163 185 88
167 188 95
164 186 95
161 182 95
166 188 88
163 185 108
165 186 99
161 184 95
165 186 88
162 183 80
165 186 80
161 181 88
165 186 108
155 176 80
162 184 92
160 182 95
164 185 108
159 180 108
168 189 111
160 182 92
163 184 84
150 171 84
162 182 84
164 185 92
160 182 95
152 173 88
164 184 92
156 177 99
159 180 88
155 176 72
166 187 88
153 174 88
155 176 102
161 182 92
158 179 62
156 177 88
161 182 80
156 177 72
158 179 72
150 171 67
158 179 80
158 179 51
160 180 92
155 177 80
154 175 67
159 180 67
155 177 57
161 182 67
148 169 0
161 183 36
157 179 44
147 169 25
157 179 44
157 178 0
155 177 0
151 174 25
158 180 36
151 172 44
155 177 0
154 176 0
157 179 0
152 174 0
156 179 0
155 178 0
160 182 0
160 182 0
149 172 0
159 181 0
160 182 0
155 178 0
149 171 0
151 173 0
155 177 0
156 179 0
147 170 0
145 168 0
148 169 0
153 176 0
147 169 0
150 172 0
147 168 0
140 161 0
142 163 0
140 162 0
147 169 0
142 164 0
138 159 0
142 164 0
145 167 25
141 161 0
143 165 0
143 164 0
138 159 0
146 167 0
148 169 0
146 167 0
147 168 0
141 162 0
137 158 0
142 163 0
134 155 0
139 161 0
137 159 0
138 159 0
145 167 0
143 165 0
135 156 0
135 156 0
137 158 0
139 161 0
137 157 0
139 160 0
137 158 0
144 166 0
145 166 0
131 151 0
138 158 0
147 169 0
133 154 0
139 160 0
134 155 0
142 163 0
149 170 0
132 153 0
149 170 0
139 160 0
145 167 0
148 170 0
138 158 0
137 158 0
145 166 0
136 157 0
148 169 0
144 166 0
135 155 0
130 151 0
140 162 0
141 163 0
138 160 0
141 162 0
146 169 0
156 178 0
137 157 0
149 171 0
146 168 0
150 173 0
144 165 0
145 167 0
138 160 0
146 167 0
142 163 0
151 172 0
139 160 0
143 164 0
150 171 0
143 163 0
149 170 0
146 168 0
147 169 0
135 157 0
148 171 0
150 171 0
143 164 0
144 165 0
145 166 0
149 170 0
143 165 0
150 171 0
152 173 0
143 165 0
141 162 0
143 164 0
151 173 0
152 174 0
149 170 0
150 172 0
153 175 0
142 162 0
156 178 0
152 174 0
150 172 0
150 171 0
156 178 0
151 172 0
150 172 0
146 167 0
158 180 0
150 172 0
154 174 0
150 172 0
155 176 0
160 182 0
158 180 0
152 174 0
153 174 0
155 178 0
148 169 0
157 180 0
154 175 0
154 175 0
151 173 0
156 179 0
156 178 0
152 173 0
156 177 0
156 179 0
146 168 0
158 180 0
156 177 0
147 168 0
162 184 0
156 177 0
157 180 0
156 178 0
159 182 0
155 177 0
157 178 0
162 184 0
159 182 0
159 180 0
160 182 0
156 176 0
160 182 0
161 184 0
156 179 0
151 173 0
158 180 0
159 183 0
164 186 0
162 183 0
154 176 0
158 179 0
157 179 0
153 175 0
159 181 0
159 180 0
162 184 0
164 186 0
158 179 0
161 183 0
159 181 0
158 180 0
158 181 0
155 177 0
160 182 0
159 181 0
158 178 0
163 185 0
155 177 0
157 180 0
161 183 0
158 180 0
162 184 0
158 181 0
156 178 0
165 186 0
157 178 0
162 185 0
165 186 0
161 183 0
160 180 0
158 181 0
162 183 0
161 182 0
162 184 0
162 184 0
163 185 0
167 188 0
164 186 0
164 186 0
164 186 0
160 181 0
164 187 0
162 185 0
165 188 0
168 191 0
162 185 0
161 183 0
167 189 0
159 181 0
169 192 0
160 182 0
161 184 0
158 181 0
166 189 0
163 186 0
162 185 0
164 186 0
160 181 0
167 189 0
166 188 0
169 191 0
166 189 0
169 191 0
163 185 0
165 189 0
165 187 0
164 185 0
166 188 0
165 186 0
164 186 0
167 189 0
169 192 0
167 189 0
166 189 0
166 188 0
168 191 0
161 184 0
165 187 0
165 185 0
164 186 0
163 185 0
168 190 0
165 188 0
166 189 0
168 191 0
164 187 0
165 188 0
162 184 0
162 186 0
167 189 0
165 188 0
169 191 0
161 183 0
172 194 0
164 186 0
171 194 0
163 185 0
163 184 0
165 186 0
171 194 0
167 190 0
