P3
400 225
255
177 190 189
205 214 222
207 216 226
198 208 217
170 185 184
96 123 74
94 122 73
96 123 74
97 125 75
96 124 75
95 123 73
98 125 75
97 125 75
95 123 73
97 125 75
97 124 75
94 122 73
95 122 74
98 125 75
99 127 77
100 127 76
99 127 77
94 121 73
98 125 75
97 124 74
97 124 74
100 128 77
98 126 76
98 126 76
94 121 73
97 125 75
96 123 73
139 158 141
202 212 218
205 214 222
197 208 217
204 213 221
205 215 225
204 214 223
207 217 226
205 214 223
209 219 230
211 220 231
210 219 228
204 213 220
183 195 196
136 154 134
96 123 74
94 121 72
99 127 76
96 124 75
98 126 76
97 124 75
96 124 74
95 122 73
96 123 73
99 127 76
98 125 75
99 127 77
96 124 75
95 122 73
162 178 170
207 217 226
205 216 226
207 217 226
209 218 228
203 213 222
202 213 222
206 217 228
208 217 227
202 213 224
203 214 224
210 220 231
203 214 225
200 211 220
210 219 227
203 213 223
208 219 230
202 212 221
205 216 227
212 220 228
204 214 223
201 211 219
215 223 231
211 220 230
197 208 216
212 221 230
208 217 226
203 213 220
203 213 222
208 217 226
100 127 76
96 124 74
96 124 75
100 127 76
100 127 76
97 125 76
97 125 75
98 126 76
95 122 73
93 120 71
94 122 73
97 124 74
97 125 75
96 124 74
97 125 75
123 144 115
150 166 152
179 192 191
206 217 227
202 212 219
207 217 226
213 222 233
212 220 230
210 218 225
198 208 214
209 219 229
209 218 228
197 208 217
206 215 223
203 214 224
99 125 79
96 124 75
97 124 75
99 126 76
96 124 75
96 124 74
99 127 76
97 124 74
96 124 74
98 125 75
97 125 75
98 125 75
97 124 74
98 125 75
96 123 73
98 126 76
99 126 76
94 121 73
92 120 71
96 123 73
97 124 74
100 128 77
98 126 75
97 125 75
98 126 76
95 122 73
95 123 74
98 126 76
97 125 75
95 123 74
187 199 202
202 212 220
205 215 224
204 214 222
210 219 227
211 221 231
196 206 211
203 213 221
204 215 227
201 211 221
208 217 226
202 213 223
207 217 227
207 217 227
203 213 222
203 212 220
207 218 228
207 216 226
209 219 230
210 219 228
208 218 229
204 215 225
205 214 222
204 215 225
207 217 226
206 216 226
205 215 226
203 212 221
210 219 228
199 210 217
158 173 164
98 125 75
97 125 75
97 125 75
95 122 72
97 124 74
98 125 75
94 121 72
101 129 77
98 126 76
96 124 74
97 124 74
96 123 74
99 126 76
97 125 74
97 125 75
98 125 76
98 125 75
98 126 75
98 126 76
106 132 89
135 153 133
150 166 153
168 182 178
183 195 196
190 202 210
207 216 224
208 218 229
200 211 220
200 210 220
139 157 138
97 124 74
98 126 75
94 121 72
98 126 76
95 122 73
95 123 74
93 120 72
96 124 74
99 126 76
96 124 74
99 127 77
93 121 72
96 123 73
93 121 72
98 126 76
95 122 74
94 121 73
97 125 75
96 123 74
96 123 74
96 123 74
96 123 74
95 122 74
98 125 75
98 126 76
95 123 74
99 127 76
96 123 74
123 145 116
201 212 221
204 214 221
198 208 216
204 214 222
209 218 227
202 211 218
201 212 223
201 212 220
201 212 221
205 215 223
201 211 219
200 209 218
206 216 227
208 218 228
207 216 223
207 217 226
210 219 228
211 220 229
207 216 224
210 220 231
205 215 223
203 213 222
205 214 222
207 217 228
210 219 229
206 216 224
201 211 219
212 222 234
171 186 184
96 123 74
99 126 76
99 127 76
96 123 73
94 122 73
97 125 76
99 126 76
98 126 76
97 124 74
97 125 75
98 125 75
101 129 78
99 127 76
96 123 74
99 126 75
99 127 76
97 124 75
95 122 74
96 123 74
98 126 75
96 124 74
96 123 74
93 121 72
99 127 77
99 127 77
97 124 75
94 122 73
135 154 134
207 217 226
207 217 226
211 220 229
214 223 234
212 221 230
200 210 217
206 216 226
200 210 218
211 220 231
205 215 225
201 211 220
205 215 224
212 221 231
203 213 224
202 212 221
205 215 223
210 220 230
205 215 225
206 215 224
209 219 229
211 219 227
209 218 227
209 218 226
202 213 221
204 214 224
207 216 224
202 212 217
103 129 82
97 124 74
98 126 76
100 127 76
96 123 74
100 127 77
96 123 74
98 126 76
93 120 72
97 124 74
99 127 77
94 121 72
99 127 76
95 123 73
97 125 75
98 125 75
96 124 75
98 125 75
99 126 75
95 122 73
95 123 74
98 126 76
98 126 76
99 127 76
96 123 74
112 136 97
206 217 227
207 217 226
209 218 226
208 217 226
203 214 224
203 213 220
204 215 227
205 215 227
206 216 225
207 216 226
202 212 221
197 208 216
203 213 222
202 212 219
208 217 227
207 217 226
212 221 231
201 212 221
201 211 220
204 214 222
206 215 223
210 220 230
211 220 230
205 215 224
188 200 203
99 125 80
96 123 74
98 126 76
97 125 75
93 120 71
95 123 73
96 124 74
97 124 74
99 126 76
98 125 76
93 120 72
97 125 75
98 126 76
97 124 74
94 122 73
95 121 72
96 124 76
99 127 77
98 125 75
99 126 76
98 126 75
98 126 75
96 124 75
186 198 199
95 122 73
116 139 104
168 181 174
202 212 221
179 191 193
97 125 75
95 123 74
94 122 74
96 124 75
95 122 73
98 126 76
93 120 72
98 125 75
96 123 73
96 124 75
97 124 75
94 121 72
94 122 74
97 124 74
95 122 74
95 123 73
99 127 77
96 123 74
98 126 76
97 124 74
94 121 72
96 123 74
97 124 74
99 127 76
96 125 76
98 126 76
98 126 76
137 156 138
206 215 224
200 211 220
203 214 225
211 221 232
212 221 229
207 217 225
209 218 227
202 211 217
206 216 224
201 212 221
203 213 222
201 211 220
201 211 218
207 217 224
193 205 212
162 177 167
115 138 106
96 123 73
100 127 76
97 125 74
93 120 71
96 123 74
99 127 76
98 126 76
97 124 74
96 123 73
97 125 75
99 127 76
161 176 166
206 216 225
204 214 223
206 215 221
207 217 228
209 219 228
202 212 221
201 211 218
204 214 223
207 216 224
202 213 223
205 215 224
200 211 220
207 216 224
205 215 226
199 209 216
211 220 230
211 220 229
203 214 223
209 218 229
209 218 229
210 219 227
210 219 229
205 215 223
208 217 225
208 217 224
212 221 232
205 214 222
204 213 222
204 214 220
97 125 75
98 126 76
96 123 74
96 124 75
95 122 73
97 125 75
94 122 73
96 123 74
99 126 76
95 122 73
96 123 74
95 122 74
92 118 70
95 122 73
98 126 76
97 124 74
95 123 74
97 124 74
100 126 80
146 163 147
182 193 192
209 219 228
203 213 223
201 212 221
204 214 224
203 214 224
210 219 228
209 219 230
211 219 228
192 203 210
97 124 74
94 121 72
95 123 73
94 121 73
95 123 73
99 126 75
98 126 76
94 121 73
95 122 72
98 125 76
96 123 74
93 121 72
94 121 72
92 119 71
96 124 74
98 125 75
97 124 74
93 121 72
95 122 73
97 125 75
94 122 74
99 127 76
95 123 74
99 126 76
96 124 74
94 121 73
94 121 72
92 119 71
99 126 75
101 128 82
203 213 220
208 217 225
201 212 219
203 214 223
207 217 226
206 216 224
204 214 222
204 214 222
209 219 229
205 215 224
210 220 231
208 218 228
209 218 229
201 211 221
206 216 225
208 217 226
213 222 232
200 210 217
205 216 227
206 215 223
202 212 220
201 212 221
214 223 234
201 212 222
208 218 228
205 215 225
208 218 227
210 219 227
201 211 220
206 215 221
103 130 83
99 126 76
98 126 76
98 125 75
98 125 75
95 123 73
96 123 74
99 127 76
97 125 75
98 127 77
97 125 75
99 126 76
97 124 74
97 124 74
99 126 76
96 124 75
95 122 73
97 125 75
98 125 75
97 125 75
101 129 78
99 126 75
97 124 74
95 122 73
98 126 75
96 123 77
124 146 118
144 162 145
152 168 155
180 192 189
120 142 109
94 121 72
95 123 74
97 125 75
95 123 74
95 123 74
100 127 76
98 126 75
97 124 74
94 121 72
97 125 76
97 125 75
97 125 75
95 123 73
98 125 75
98 126 76
96 123 73
98 126 75
97 124 74
99 126 75
97 125 75
100 128 78
96 123 74
97 124 74
98 125 75
96 124 74
98 126 76
99 127 76
96 124 74
168 183 176
207 216 227
209 218 228
202 212 218
203 212 222
201 212 221
206 217 227
203 213 223
207 216 225
204 214 223
206 216 225
206 216 225
201 211 220
211 220 230
209 219 229
208 217 226
209 219 227
208 217 227
207 216 225
210 218 225
205 215 225
212 221 231
200 210 216
210 219 228
209 218 227
201 211 219
207 217 226
206 216 226
201 212 221
135 154 134
98 125 75
97 124 74
94 121 72
95 123 73
95 123 74
96 124 74
96 124 75
96 123 74
100 127 76
96 123 74
98 125 75
93 121 72
95 122 73
94 121 73
95 122 73
96 124 74
96 123 74
95 123 74
98 126 76
97 124 74
97 125 75
98 126 76
99 127 76
98 126 75
96 124 74
96 123 74
101 128 77
177 190 187
205 215 225
210 219 228
209 218 227
206 216 225
202 213 223
208 218 229
211 220 231
208 218 227
210 220 231
213 222 231
203 213 222
211 219 228
213 223 235
199 209 216
206 216 226
212 222 233
205 215 224
201 211 220
208 218 227
205 216 226
215 223 233
206 216 227
207 216 226
210 219 229
203 213 222
210 218 228
153 169 159
97 124 75
97 124 75
98 125 75
96 123 73
94 121 73
96 123 74
96 124 74
100 127 76
97 124 74
97 124 74
100 128 77
95 122 74
100 128 77
99 126 76
94 121 71
99 127 77
98 126 76
96 124 74
97 125 74
95 122 73
101 129 78
95 122 73
98 125 75
97 124 74
96 123 73
177 190 188
202 212 221
211 220 230
201 211 220
204 214 225
202 212 221
210 219 229
204 214 223
204 213 220
204 214 225
203 213 220
206 216 225
205 216 227
206 215 224
207 217 226
202 213 223
205 214 221
207 216 223
214 222 232
210 220 229
208 217 226
208 218 226
207 217 227
206 216 227
205 215 224
122 144 118
98 125 75
97 125 75
99 127 77
94 122 73
99 127 76
98 126 77
95 122 73
94 121 73
97 125 75
96 124 74
96 123 73
102 130 79
96 123 74
97 124 74
98 126 76
98 126 76
91 118 70
93 120 72
96 124 74
96 124 74
99 126 76
99 126 75
155 171 158
200 210 218
99 127 76
97 125 75
99 127 77
105 130 87
152 167 153
129 151 124
98 125 75
98 126 75
96 123 74
97 124 75
99 127 76
100 128 77
97 125 74
97 124 74
97 125 75
97 125 74
97 124 74
96 124 75
99 126 75
97 125 75
96 124 74
95 123 74
102 130 78
93 120 72
97 125 75
97 124 74
96 124 75
96 124 75
97 124 74
94 121 73
97 124 75
99 126 76
134 153 131
202 212 221
209 219 230
204 214 224
203 213 221
204 214 222
204 214 222
207 217 226
200 211 221
209 218 228
201 210 219
205 214 222
202 213 223
201 211 219
204 213 221
214 222 231
207 216 225
203 214 223
179 192 191
157 173 160
98 126 76
97 124 74
94 122 73
97 125 76
97 124 75
97 125 74
95 122 73
99 127 76
93 120 72
156 173 164
207 218 230
205 216 225
212 221 231
207 217 225
207 216 225
204 213 219
207 216 224
212 222 235
211 220 229
206 215 224
212 221 232
208 218 229
199 208 215
203 213 221
213 221 231
206 215 223
205 214 222
206 216 225
206 215 224
205 215 225
211 220 230
207 216 225
209 219 229
207 216 226
206 215 223
207 216 226
204 214 224
205 214 222
203 213 220
95 122 73
98 126 75
92 119 71
100 128 77
96 123 73
98 126 76
93 120 72
99 127 76
101 129 78
95 123 73
97 124 74
94 121 72
94 122 73
97 124 75
97 125 75
99 126 76
99 126 75
99 126 77
96 123 74
96 123 74
102 130 79
102 129 82
126 147 119
175 189 187
191 202 207
201 210 216
210 219 227
204 214 222
202 212 222
189 200 202
96 124 74
95 123 74
95 122 73
99 126 76
96 124 75
100 128 77
97 125 76
97 125 75
97 125 76
97 124 74
100 127 76
95 122 73
96 124 74
97 125 75
98 126 75
95 122 74
96 123 74
96 123 73
97 125 75
95 123 74
99 127 76
95 122 73
101 128 77
99 127 76
92 119 71
98 125 76
96 123 73
99 126 76
96 123 74
129 149 127
202 213 222
205 216 224
209 219 230
210 220 231
202 212 222
211 220 229
207 217 227
205 215 223
205 214 221
210 219 229
203 213 221
208 217 224
210 219 228
210 219 226
205 215 223
203 214 223
195 206 213
206 216 226
206 215 224
199 209 217
212 221 230
208 218 228
199 210 218
206 216 225
208 218 227
207 217 227
211 220 230
207 217 226
209 219 229
188 200 202
97 124 74
98 126 76
95 122 74
97 124 75
97 125 76
99 126 75
98 126 76
94 122 73
97 125 75
99 126 75
96 123 74
96 124 74
97 124 75
96 123 74
98 125 75
99 127 76
100 128 77
98 126 76
101 129 77
100 127 77
98 126 76
98 126 76
96 124 74
98 125 74
99 127 76
94 121 72
97 124 74
95 122 74
96 124 74
149 165 151
205 215 223
207 217 226
190 202 205
169 184 179
146 163 147
134 153 131
116 138 106
100 126 78
99 127 76
96 124 74
96 123 73
99 126 76
97 125 75
97 124 74
96 123 73
97 124 75
97 124 74
99 126 76
98 125 75
95 122 73
96 123 73
96 123 74
99 126 76
96 123 74
96 123 74
98 126 76
98 125 75
97 124 74
97 123 77
193 205 210
203 214 222
210 220 231
201 212 220
212 221 231
205 215 225
203 214 224
199 209 214
206 215 223
211 220 228
204 214 224
207 217 226
210 220 230
206 215 223
214 222 231
208 217 226
204 213 222
208 217 225
207 217 226
206 216 225
209 218 226
209 218 227
199 209 217
211 220 229
202 212 221
209 219 228
201 212 221
211 220 230
192 202 206
96 123 76
98 125 75
100 127 76
97 125 74
98 126 76
96 122 72
94 122 73
96 123 74
97 124 74
97 124 75
97 124 75
94 121 73
96 123 74
96 124 75
97 125 75
95 123 74
97 125 74
96 123 73
94 121 73
95 123 73
96 124 74
98 125 75
96 123 75
97 125 75
96 124 74
92 119 70
96 123 74
130 150 126
209 218 227
207 217 226
213 221 231
199 210 219
203 214 223
197 208 214
208 218 227
205 215 225
208 217 226
210 220 231
202 212 218
202 212 221
209 218 229
210 218 226
209 218 227
199 209 216
204 214 222
204 213 222
202 213 224
201 211 220
206 216 226
204 214 224
210 218 226
206 216 225
200 210 219
209 219 229
193 205 211
93 120 72
98 126 76
99 127 77
98 126 75
98 126 76
95 122 73
99 127 76
98 126 75
97 124 74
96 123 74
98 125 74
98 125 75
95 123 74
93 121 72
100 128 77
98 125 74
96 124 75
99 126 76
98 126 76
98 126 76
99 127 77
96 123 74
95 123 73
95 122 73
95 123 74
123 145 116
205 215 224
202 212 220
210 219 230
201 212 220
208 217 228
212 221 231
209 219 229
205 216 225
201 211 219
206 217 227
204 214 223
210 219 228
205 215 227
199 209 215
203 213 221
204 213 221
205 214 222
212 221 230
204 214 224
205 215 224
206 215 224
207 217 228
198 208 215
206 215 224
168 182 175
98 125 74
99 127 76
96 123 73
98 126 76
96 124 75
97 125 75
96 123 74
97 124 74
97 124 75
97 125 75
98 125 75
96 123 74
97 124 74
96 124 74
97 124 74
95 122 73
97 125 75
97 124 74
92 119 71
96 124 74
96 124 74
98 125 75
112 135 102
203 213 221
211 220 228
97 124 74
97 124 74
99 127 77
96 123 74
96 124 74
201 212 220
182 194 194
129 149 125
98 125 76
95 122 73
98 126 76
94 121 72
100 128 77
94 122 73
97 124 75
96 123 74
98 125 75
96 124 75
94 121 72
100 128 77
96 124 74
95 123 73
96 124 74
95 122 72
98 126 75
99 127 76
96 124 75
99 127 77
98 126 76
96 123 74
96 123 74
96 123 74
121 144 113
207 216 224
203 213 220
204 214 222
206 215 224
204 214 222
204 214 223
202 212 219
204 214 224
202 211 218
204 214 223
199 210 217
206 216 225
211 220 230
201 211 220
204 214 222
200 210 215
206 215 224
204 214 224
206 216 226
201 212 220
179 192 191
127 148 120
100 128 77
99 127 76
98 124 74
97 124 74
96 123 73
95 121 72
161 176 168
208 218 228
207 217 227
213 221 230
207 215 224
208 218 228
205 215 224
213 222 232
213 222 232
200 212 221
203 213 223
210 219 228
213 222 233
204 213 221
208 217 226
209 219 228
205 215 223
205 215 225
208 217 227
202 212 222
207 217 226
203 213 220
203 212 220
200 210 218
208 218 226
201 211 218
212 220 230
209 219 229
201 212 220
192 203 207
99 127 76
100 128 77
96 123 74
97 124 74
94 121 72
96 124 74
92 119 70
96 123 73
96 123 73
99 127 76
97 124 74
98 125 75
98 126 76
98 126 76
97 125 75
97 124 75
97 124 74
96 124 74
97 124 75
97 125 75
99 127 76
95 123 74
96 123 74
96 123 74
98 125 75
115 136 105
144 161 145
186 197 199
207 217 226
181 193 192
98 125 75
98 125 75
99 127 76
98 126 75
99 127 76
98 125 76
96 124 74
95 122 73
96 124 75
99 126 76
98 126 76
95 122 73
97 124 74
96 124 75
95 122 72
99 127 76
101 128 77
98 125 75
93 120 71
94 122 73
93 120 72
97 124 73
98 126 76
99 127 77
96 124 74
97 125 75
94 121 73
97 124 75
97 124 74
142 160 142
204 215 225
208 218 230
202 213 222
201 212 221
200 212 221
208 217 226
204 214 221
205 215 224
201 212 221
211 219 228
210 218 226
206 216 226
210 219 229
202 212 220
205 215 226
205 215 223
201 211 219
207 217 227
208 219 231
196 207 214
208 218 227
196 207 213
208 218 227
207 216 223
209 218 227
207 217 228
203 213 222
208 217 224
203 213 221
168 181 177
93 120 72
96 123 74
97 125 75
98 125 75
98 125 75
99 126 76
98 126 76
99 127 77
97 125 75
98 126 76
98 126 76
97 125 75
96 123 73
94 121 73
99 126 75
96 124 74
97 124 75
98 126 75
98 125 75
95 123 73
94 121 73
99 127 76
97 125 74
94 122 73
97 125 75
98 125 75
95 122 73
98 126 76
100 127 76
173 187 182
208 217 226
208 218 228
201 212 220
200 211 219
203 212 220
204 214 223
203 213 224
206 215 224
189 200 202
183 196 197
157 173 163
132 152 127
124 145 116
98 125 77
94 121 72
95 122 73
97 124 74
94 121 73
95 122 74
98 126 77
95 122 74
97 125 75
100 128 77
99 126 76
94 121 73
96 123 74
98 125 76
98 126 75
146 164 147
204 215 225
207 217 227
199 209 215
208 216 223
203 213 223
201 212 221
204 214 224
204 214 223
207 216 226
213 222 233
206 216 225
211 220 230
206 215 225
209 218 226
197 207 214
207 216 223
207 216 225
208 218 226
208 218 227
198 209 219
200 210 217
212 222 234
201 212 222
200 210 217
203 213 220
204 214 225
203 213 223
210 220 231
153 169 157
98 126 75
99 126 76
95 122 73
97 124 75
97 125 75
94 121 72
95 123 74
90 118 70
96 124 74
95 122 72
97 125 74
99 126 75
98 125 74
95 122 73
100 128 78
96 123 74
97 124 75
95 122 73
97 124 74
98 126 76
96 124 74
95 123 73
96 123 73
98 126 75
94 121 72
98 126 75
97 125 75
168 182 178
197 207 213
202 213 223
202 211 221
199 210 220
210 219 228
210 219 229
205 215 224
210 219 227
204 215 225
200 211 218
208 216 223
207 217 225
203 212 219
202 212 221
208 216 225
204 214 224
211 220 229
201 211 220
207 217 226
213 222 232
206 215 224
206 216 225
205 214 221
207 217 226
207 216 225
204 214 224
136 155 135
98 125 75
98 126 75
94 121 72
98 126 75
99 126 76
98 126 76
96 123 73
94 122 73
98 126 76
97 125 75
95 122 73
99 127 76
95 122 73
95 122 74
95 122 73
99 126 75
95 122 73
97 124 74
95 123 73
98 126 76
98 125 75
98 125 75
99 126 76
95 123 74
99 127 76
182 194 192
204 214 223
207 217 226
210 219 229
209 219 228
204 214 222
208 217 227
206 216 225
208 218 228
204 213 221
198 209 217
199 210 217
204 214 222
204 215 226
207 218 228
203 214 223
210 220 229
209 219 230
208 218 229
207 217 226
215 224 236
204 215 225
204 214 222
206 216 226
193 205 209
104 129 87
96 123 74
99 126 76
96 124 74
98 126 76
95 122 73
97 125 75
96 124 74
98 125 75
94 122 73
96 123 74
98 125 75
96 124 75
96 124 75
99 127 76
95 123 74
97 125 75
97 124 75
98 126 76
97 124 75
98 125 75
95 123 74
97 123 76
195 206 211
204 214 223
209 219 229
96 124 74
97 124 75
101 128 77
96 124 75
97 124 74
187 199 203
207 217 226
209 218 226
193 203 206
145 163 146
109 133 93
96 122 72
94 122 73
100 128 77
97 125 75
99 126 75
96 124 74
97 125 75
94 121 72
96 124 74
93 120 71
97 124 75
94 122 73
96 123 74
100 128 77
96 124 75
98 125 74
97 125 75
96 123 74
97 125 75
98 125 75
100 128 77
100 126 83
208 217 227
209 218 227
209 218 228
206 217 227
212 221 230
207 217 227
202 212 219
214 223 234
210 219 226
204 214 222
212 221 231
205 214 222
201 210 217
205 214 221
203 213 221
210 219 228
208 218 229
212 221 231
202 212 220
205 215 224
205 215 223
199 210 218
194 205 211
165 179 172
112 135 100
98 125 75
97 124 75
96 124 75
152 168 154
211 220 230
204 214 221
198 209 219
204 214 224
204 214 221
206 216 224
205 215 223
199 209 216
206 216 225
207 216 224
212 222 232
207 216 225
197 207 214
207 217 227
205 215 224
201 212 221
202 212 222
208 218 228
202 213 221
206 216 226
207 216 227
207 216 225
207 218 230
209 217 225
207 217 226
204 213 219
205 216 227
210 219 228
185 197 200
96 124 74
98 125 76
97 125 76
97 125 75
97 124 75
99 127 76
95 123 74
94 121 73
95 123 73
100 128 76
96 123 73
100 128 78
94 121 72
94 121 73
96 123 74
98 125 75
98 125 75
94 120 72
94 122 73
93 120 72
97 125 76
94 121 72
97 124 74
95 123 74
95 123 73
96 123 73
93 121 72
94 122 73
105 130 89
164 179 171
150 167 151
109 134 93
98 126 76
97 125 75
93 120 71
93 121 73
99 126 75
94 122 73
96 123 73
92 120 72
101 128 77
94 121 73
94 121 73
97 124 74
99 127 77
96 124 75
93 120 72
98 125 76
94 122 73
95 122 73
98 126 76
98 125 75
98 126 76
98 126 75
98 126 76
97 124 74
93 120 72
97 125 75
97 124 75
160 176 167
202 212 221
210 219 228
204 213 222
205 214 222
200 210 218
210 219 228
206 216 224
213 222 233
196 207 216
205 214 223
205 215 225
204 215 225
210 219 226
215 223 233
199 210 218
200 211 220
201 212 223
204 214 225
203 214 223
205 215 223
197 207 214
208 217 226
203 213 222
211 220 228
209 218 227
210 219 228
207 216 226
207 216 225
206 216 226
148 165 148
97 125 75
94 121 73
96 123 74
97 124 74
99 126 76
96 124 75
97 124 74
95 121 72
96 123 73
95 122 72
97 125 75
94 122 73
97 125 75
91 118 70
95 122 73
96 123 74
96 124 75
94 122 73
94 122 74
95 122 72
97 124 75
100 128 77
95 123 74
94 122 73
96 124 74
97 125 75
98 126 75
96 124 75
98 124 77
193 204 208
202 212 221
208 217 226
201 211 220
197 208 216
207 217 228
202 211 218
203 213 223
208 218 229
207 216 224
206 216 225
209 219 230
209 219 230
210 220 231
205 215 223
194 205 209
184 197 198
166 181 175
164 178 167
138 157 135
108 133 92
96 123 74
95 122 73
96 124 75
95 123 73
94 122 73
99 126 75
98 126 75
96 123 74
183 194 192
204 214 223
206 216 225
199 209 216
205 215 224
213 221 230
207 216 224
198 209 217
211 220 228
209 218 228
203 214 223
205 214 222
205 215 225
208 216 225
212 222 233
210 220 231
212 221 229
208 218 228
205 215 224
206 216 225
204 214 222
211 220 229
207 217 227
207 217 227
208 218 227
200 210 219
207 217 227
203 212 220
203 213 219
104 129 90
97 124 74
100 127 77
100 127 77
96 124 75
97 125 75
95 123 74
97 125 75
99 127 76
95 122 73
96 123 73
96 123 74
97 124 74
98 126 76
97 124 74
93 120 72
99 126 76
96 123 74
99 126 76
99 127 77
95 122 73
93 120 72
95 122 73
97 124 74
98 125 76
97 124 74
100 127 76
113 137 104
212 221 230
210 219 227
207 217 228
205 215 222
198 208 215
207 216 222
208 218 228
210 219 228
206 216 226
210 219 229
206 216 225
207 217 227
200 210 218
209 219 228
207 216 226
201 211 219
205 215 223
203 212 220
202 211 217
207 217 225
212 221 230
203 214 222
208 217 227
204 215 225
197 208 216
202 212 221
188 199 200
93 120 71
99 127 76
99 127 76
99 127 76
98 126 76
97 124 75
100 128 77
91 118 70
97 125 75
97 125 75
95 122 73
98 125 75
95 122 73
96 124 74
98 125 76
96 124 74
97 124 75
98 126 76
96 123 73
98 126 75
98 125 76
98 125 75
96 124 74
95 123 74
98 125 76
141 160 142
201 210 217
203 212 218
212 221 231
198 208 216
202 212 221
206 216 226
209 218 227
209 218 225
204 214 225
212 221 232
203 213 222
204 213 221
212 221 231
206 216 226
203 213 221
205 214 222
210 219 229
203 214 224
206 216 225
205 215 224
206 216 226
200 211 221
207 217 227
202 212 221
138 156 140
99 127 76
93 121 72
93 121 72
96 123 73
97 125 75
96 123 74
93 120 72
97 124 74
94 121 72
98 126 77
100 127 76
98 126 76
97 124 75
96 123 73
101 128 77
97 125 75
97 124 74
96 124 75
91 118 70
97 125 75
96 124 74
96 124 75
158 173 160
205 215 224
207 216 224
206 217 227
95 123 73
96 124 74
97 125 75
98 126 76
95 123 74
180 192 190
204 214 226
206 215 226
208 218 228
206 215 223
201 211 216
154 171 159
116 139 107
93 121 73
92 119 70
99 127 76
95 123 74
100 128 77
96 124 75
98 126 76
94 122 73
95 123 74
94 121 72
97 124 75
98 126 76
98 126 76
96 124 74
97 125 75
95 123 73
97 125 75
95 123 73
94 121 73
96 123 77
208 217 226
210 219 229
204 214 223
207 217 226
205 214 222
201 212 219
211 220 229
208 217 226
201 211 219
214 222 230
206 215 221
207 217 229
204 213 221
207 217 227
205 214 221
193 204 211
207 217 226
208 217 225
199 209 216
206 216 227
204 214 224
203 213 221
201 211 218
209 218 227
202 213 221
188 199 202
134 152 133
101 127 81
158 174 161
204 215 225
205 215 226
207 216 224
204 213 222
199 210 218
206 216 225
203 213 222
209 219 229
205 215 224
210 220 229
202 213 222
212 220 229
206 216 225
208 218 229
203 214 224
208 218 227
206 216 225
205 215 225
211 221 233
194 205 212
210 220 231
199 210 217
210 219 230
197 208 216
206 214 222
200 210 219
198 209 218
209 218 228
183 196 195
100 128 77
95 123 74
94 122 73
97 125 76
98 126 75
99 126 76
93 120 71
97 124 75
97 125 75
95 122 73
97 125 76
96 124 75
98 125 75
93 121 73
94 122 72
94 122 73
99 126 75
97 124 74
93 121 73
96 123 74
93 120 71
98 125 75
98 126 76
96 124 74
94 121 73
97 124 75
96 124 75
97 124 75
97 124 75
183 195 195
202 212 218
205 215 222
204 214 221
162 177 171
130 149 125
97 124 77
96 123 74
94 122 73
96 124 74
95 122 73
95 123 73
95 123 74
99 126 75
98 126 75
98 125 75
98 125 76
96 123 74
94 122 72
100 128 77
95 122 72
95 122 73
97 125 75
98 126 75
98 126 76
96 123 74
97 124 74
99 127 76
97 124 74
96 123 74
189 200 203
210 219 228
205 215 223
199 209 216
207 216 225
203 213 220
206 215 224
204 214 224
202 211 219
207 216 226
207 217 227
202 212 221
209 218 228
198 209 220
204 215 224
211 220 230
206 215 224
198 208 213
208 216 222
206 216 226
201 211 218
205 215 222
201 211 219
210 219 229
207 217 226
200 210 216
211 220 231
203 214 223
210 220 229
206 215 223
111 135 98
97 125 75
95 123 74
96 123 73
95 122 72
99 127 76
97 124 75
96 123 74
98 126 76
97 125 75
97 124 74
93 120 72
98 126 76
96 124 74
91 118 70
93 120 71
99 127 76
98 125 75
96 124 74
97 125 75
95 123 73
95 122 73
98 126 76
98 125 75
94 121 72
97 125 75
96 123 73
101 129 78
98 125 75
123 145 117
207 217 226
206 215 223
209 219 229
206 216 228
212 221 231
207 217 225
205 214 222
210 219 229
200 210 219
202 211 218
199 209 216
200 210 218
201 211 218
210 218 227
202 211 217
205 215 225
198 208 214
204 214 223
202 212 220
206 216 226
198 209 217
197 208 214
189 201 205
160 175 169
166 180 174
144 162 147
133 152 127
113 136 99
107 132 91
206 215 224
211 220 229
202 212 220
198 208 216
198 209 219
203 214 222
200 210 218
210 219 229
213 222 230
209 219 231
205 215 224
204 213 221
206 216 226
210 220 230
207 216 226
203 213 222
196 207 216
202 212 222
205 215 224
212 220 230
204 213 221
204 213 219
205 215 223
200 210 218
198 209 220
202 212 219
202 213 222
203 213 220
168 181 177
95 122 73
93 120 72
96 123 73
94 121 72
94 121 72
97 123 73
98 126 75
99 126 75
94 121 73
100 128 77
96 124 74
94 121 72
96 123 74
94 121 73
95 123 74
96 122 73
99 127 76
100 127 75
100 128 77
96 124 75
99 127 76
97 124 74
99 127 76
98 126 76
99 126 76
96 123 73
97 125 75
173 186 182
209 218 228
204 215 224
206 216 224
205 214 223
207 217 226
206 216 226
208 217 226
202 212 221
207 217 228
209 219 229
204 214 222
198 208 215
207 217 226
206 216 226
213 222 232
212 221 232
205 215 224
208 217 227
205 215 223
201 211 219
205 215 223
209 218 228
205 215 223
206 216 227
201 211 219
201 211 220
129 150 125
100 128 77
98 125 74
95 123 74
95 123 74
98 125 75
97 125 75
98 126 76
101 129 77
95 123 74
96 123 73
97 125 75
94 122 74
96 124 74
96 123 74
97 125 75
97 124 75
99 127 76
95 122 73
98 125 75
95 123 74
98 126 76
99 126 76
97 124 74
97 125 74
106 130 90
185 198 202
207 217 224
209 218 227
208 218 229
202 213 221
201 212 221
207 216 224
208 218 227
199 211 220
202 212 220
200 211 220
207 217 227
203 215 226
209 219 228
204 214 224
213 221 231
207 216 225
204 214 224
206 216 226
207 216 226
190 201 206
209 219 229
203 213 223
200 211 220
174 187 185
98 126 76
92 119 70
97 124 75
98 126 76
96 122 73
98 126 76
94 121 72
93 121 72
97 124 74
99 126 75
95 122 72
96 123 74
94 122 73
96 123 74
98 126 75
100 128 77
95 122 73
97 124 73
93 121 74
99 127 76
93 120 72
95 122 73
122 144 114
201 210 216
210 219 227
205 215 223
208 217 227
97 124 75
94 121 73
95 122 74
96 123 74
96 123 74
166 181 175
203 213 220
205 215 224
214 222 232
209 218 227
203 213 223
203 214 223
205 215 224
190 202 206
144 161 144
98 125 80
96 124 74
96 124 75
98 126 76
98 126 76
95 122 73
97 125 76
99 126 76
95 122 73
97 124 75
99 126 76
98 126 75
95 122 73
96 124 75
98 126 76
96 123 74
97 125 75
95 122 73
199 209 215
205 215 224
211 220 231
205 216 227
207 217 226
204 212 220
210 219 229
206 216 223
206 216 226
206 216 226
203 214 223
201 212 222
209 218 227
214 222 232
205 216 226
203 212 221
201 211 220
203 214 225
206 216 227
202 212 221
204 214 223
209 218 228
201 210 219
205 215 225
204 214 222
206 215 223
203 213 220
207 217 226
161 177 168
170 183 183
203 213 221
206 215 222
210 219 229
204 214 224
208 217 225
206 216 226
206 215 223
205 214 221
206 215 224
202 212 221
198 209 219
208 218 230
205 215 225
200 210 220
204 215 224
200 211 220
204 214 221
207 217 225
199 210 217
207 217 228
203 213 221
207 217 226
205 215 225
214 222 232
202 213 224
205 215 225
208 217 226
171 185 183
94 122 73
95 122 73
95 122 74
97 125 75
95 122 73
98 126 76
97 124 74
98 125 75
96 124 74
99 126 76
98 126 76
96 123 73
98 125 75
99 126 76
97 124 74
94 122 72
98 126 76
96 124 74
93 121 72
96 123 74
98 126 76
96 123 74
95 123 74
94 122 73
99 127 77
97 124 75
97 125 75
94 122 73
95 123 74
182 193 192
209 219 229
207 217 225
203 213 223
200 210 217
204 214 223
198 208 213
171 185 184
144 161 148
113 137 100
96 123 74
96 124 74
97 124 75
96 124 75
97 124 74
97 125 75
98 126 75
97 125 74
95 123 74
99 126 76
97 124 74
98 126 76
97 124 74
96 123 74
95 122 74
98 126 76
99 126 76
93 120 71
95 123 74
96 124 74
199 209 214
203 213 222
206 215 222
213 221 231
202 212 220
200 211 220
202 212 221
206 216 224
207 218 230
194 205 213
203 213 222
201 212 221
206 216 225
197 209 218
204 215 225
199 209 217
198 209 218
207 216 224
212 221 233
199 211 220
210 219 228
205 215 223
209 218 227
206 217 227
204 214 221
201 212 221
203 214 223
208 217 225
207 216 226
188 200 205
99 127 76
97 124 74
96 123 74
99 127 76
94 122 73
94 122 73
97 124 74
95 123 74
94 121 71
96 123 74
98 125 75
99 126 76
99 127 76
94 121 72
95 123 74
95 122 73
97 125 75
95 123 73
100 127 77
96 123 74
96 123 74
98 126 75
95 122 73
94 121 71
96 124 74
97 125 75
96 124 75
98 126 75
96 123 74
166 181 174
209 219 230
208 218 227
209 217 225
209 219 228
217 225 235
202 212 220
201 211 220
197 208 216
200 211 219
211 220 229
203 213 222
206 215 224
200 210 218
212 220 228
208 217 225
199 209 215
209 220 232
199 209 217
212 221 231
207 216 224
204 214 223
202 212 219
203 213 223
200 211 221
202 212 219
205 214 222
205 215 223
210 220 230
172 186 178
126 146 122
140 158 140
155 171 160
169 183 178
182 195 196
195 206 210
200 210 219
196 207 214
208 217 227
208 217 225
209 218 228
208 218 227
205 215 223
206 216 226
202 212 221
206 216 226
208 217 224
201 212 221
205 215 224
209 218 227
211 220 230
199 209 218
209 219 230
206 216 224
209 218 228
207 217 226
201 211 219
201 211 220
125 147 119
98 126 76
96 124 74
97 125 75
96 123 74
94 121 73
94 122 72
98 126 75
98 126 76
98 126 76
95 122 74
95 123 73
99 126 76
97 124 74
98 125 75
94 121 73
98 126 75
96 124 74
97 125 75
101 128 77
96 123 74
96 123 74
96 124 74
99 126 75
97 124 74
94 121 72
96 124 75
106 132 93
207 217 227
205 216 226
208 217 225
200 210 218
205 215 223
209 218 229
211 220 230
209 218 227
201 211 218
198 209 217
208 217 225
197 208 216
203 213 220
209 218 230
205 215 225
203 213 222
206 216 224
204 214 223
198 209 217
202 212 220
210 219 230
207 217 226
205 215 225
205 215 224
206 216 225
205 215 224
189 201 202
103 130 83
95 122 73
96 123 74
99 127 76
100 127 77
96 123 74
99 127 76
94 122 74
97 124 74
99 126 75
98 126 75
96 123 74
98 126 76
97 124 75
97 125 75
94 121 72
94 121 73
97 125 75
96 123 74
100 127 76
93 120 72
96 123 74
98 126 76
97 124 74
98 125 75
165 181 174
206 215 225
209 219 228
200 211 219
208 218 228
201 212 221
203 213 221
212 221 232
202 210 216
207 217 224
204 214 221
202 212 222
201 211 220
206 215 222
212 221 231
204 214 224
200 211 218
208 217 227
204 212 218
210 218 227
204 214 222
211 220 231
201 211 221
205 214 223
199 209 217
106 130 92
97 124 74
96 124 74
99 127 76
96 123 74
96 123 74
97 124 75
97 125 75
97 124 74
97 124 75
99 127 77
95 123 74
95 123 73
96 124 74
96 124 74
97 124 75
95 122 73
96 123 74
96 123 74
97 124 74
94 122 73
118 140 108
119 141 111
148 165 149
164 178 173
138 157 139
125 145 119
111 135 96
98 125 75
98 125 76
96 124 75
96 123 74
97 124 74
145 162 149
206 215 224
211 220 229
207 215 222
213 222 232
209 218 227
212 221 230
209 218 227
208 217 227
208 217 226
200 210 218
150 166 157
109 133 96
97 124 74
97 125 75
99 127 77
100 128 77
97 124 74
98 125 75
95 121 72
96 124 74
98 125 75
99 126 76
95 122 73
96 123 74
97 125 75
95 122 73
94 122 74
182 195 196
201 212 221
204 214 224
204 214 224
210 220 231
206 215 222
196 208 217
207 217 226
214 223 233
206 216 227
200 210 218
206 215 225
206 215 224
212 220 229
207 216 225
202 212 218
204 215 227
200 210 217
205 215 224
207 216 225
204 214 224
209 219 228
207 218 230
209 218 228
212 220 229
205 215 223
200 211 221
203 213 223
170 183 179
95 122 73
109 132 92
143 162 143
190 201 204
201 212 221
214 223 233
199 209 218
210 220 231
207 217 227
202 212 220
205 214 221
200 210 218
208 218 228
208 217 226
203 213 221
206 215 224
205 215 223
207 217 226
206 215 226
209 218 227
205 215 223
208 218 228
211 220 230
208 217 226
208 218 227
206 215 225
206 216 225
210 220 229
165 181 178
96 123 74
98 125 74
94 122 74
97 124 75
94 122 73
98 126 76
98 126 76
94 121 73
95 123 74
99 126 76
97 125 75
93 120 72
97 126 76
100 127 76
96 123 74
94 122 73
97 124 75
96 123 74
97 125 76
93 120 72
95 122 74
95 122 73
99 127 77
99 126 75
98 126 76
100 128 77
95 122 73
98 126 75
95 122 73
200 211 217
200 211 220
202 212 219
209 218 227
206 214 221
206 216 226
202 213 222
208 218 229
207 217 227
198 209 216
194 205 213
171 185 182
132 150 126
109 134 96
97 124 75
97 125 75
97 124 75
95 122 73
96 123 74
97 124 74
96 123 73
96 124 74
96 123 74
94 122 73
96 123 74
95 123 74
98 125 76
97 124 75
100 128 78
121 144 116
199 210 220
202 212 219
210 219 229
203 213 221
210 219 228
206 215 225
206 216 227
205 215 224
207 217 228
209 218 227
208 218 227
205 215 224
209 218 226
207 217 226
203 214 223
206 216 226
212 221 230
209 218 227
209 219 230
204 214 223
206 215 224
208 218 229
208 218 227
203 213 223
204 213 221
209 218 228
208 218 229
209 218 228
202 213 223
175 188 183
98 125 75
96 123 74
96 123 74
96 123 74
99 126 75
95 122 73
97 124 74
99 126 75
98 126 76
97 124 74
97 124 75
96 123 73
94 121 73
97 124 74
97 125 76
99 126 76
93 120 72
94 120 71
96 123 74
99 126 75
96 123 74
95 122 73
95 122 73
98 126 76
96 123 74
95 122 73
97 125 75
97 125 75
97 125 75
185 197 203
207 216 227
201 210 216
210 219 227
194 205 211
207 216 224
204 214 222
204 213 222
207 217 227
205 214 222
194 206 215
204 213 220
205 215 224
201 210 217
204 213 221
201 211 221
204 214 222
205 216 226
201 212 222
208 217 226
209 218 227
206 217 228
218 226 235
209 218 228
201 212 221
201 212 220
211 220 230
204 213 221
209 219 231
125 147 121
95 122 72
96 122 73
99 127 76
95 121 73
98 125 75
96 123 74
100 128 77
98 125 75
115 139 107
122 144 119
156 172 162
163 177 170
171 185 180
188 199 198
191 202 207
204 214 222
205 214 222
202 213 221
210 219 230
201 212 221
202 211 220
204 214 224
199 210 219
207 216 225
206 215 223
205 214 222
210 219 228
194 206 210
96 123 74
92 119 71
95 123 74
98 125 75
96 124 74
96 124 75
96 123 73
95 122 73
99 127 77
101 128 77
97 124 74
99 127 77
99 126 76
95 122 73
96 124 74
94 122 73
96 124 74
99 126 76
95 122 73
96 124 75
99 127 77
97 124 74
96 123 73
95 122 72
98 125 75
95 122 73
99 127 76
158 174 164
206 215 224
205 215 225
204 214 225
202 212 221
206 216 225
205 215 223
213 222 233
209 218 226
208 218 228
199 209 216
210 219 227
206 215 225
207 217 227
208 216 224
206 215 224
207 217 226
205 215 224
204 215 223
210 219 228
203 213 221
209 218 227
195 205 211
195 206 214
208 218 228
201 211 219
211 220 229
123 144 117
93 120 71
97 125 75
95 123 73
95 123 74
96 123 74
97 125 75
95 122 73
95 122 73
96 124 74
97 125 76
99 126 76
99 127 77
96 123 74
98 125 74
99 127 77
98 125 75
98 126 76
98 125 75
97 124 74
96 123 73
96 124 74
99 126 76
96 124 74
97 124 74
120 142 111
210 219 227
200 210 216
207 217 227
207 216 225
205 214 222
197 208 217
207 216 225
208 217 225
206 215 223
202 212 219
203 213 221
205 215 225
209 218 227
205 213 221
196 206 215
207 216 226
204 214 222
209 218 228
206 215 225
205 215 225
197 207 215
198 208 214
202 212 219
206 216 225
146 164 148
96 124 74
96 124 74
93 120 71
96 124 74
95 122 73
97 125 75
92 119 71
99 126 76
97 125 75
95 123 74
98 126 75
97 125 75
107 132 93
119 142 107
126 146 122
151 168 150
167 181 178
185 196 196
170 184 181
195 206 211
197 209 218
203 213 222
145 162 151
97 125 75
97 124 75
95 122 73
96 123 73
94 122 73
99 127 76
100 127 76
96 123 74
98 126 76
98 125 75
125 145 119
206 215 224
206 215 225
199 210 219
199 210 217
205 214 221
206 216 226
200 211 219
205 214 223
210 219 227
211 220 230
210 219 227
195 206 214
170 183 176
128 149 126
99 127 76
98 125 75
101 129 78
98 126 76
96 123 74
93 120 72
96 123 73
96 124 75
96 124 74
95 123 74
96 123 74
94 122 73
94 121 73
188 200 202
202 212 220
199 209 218
211 220 230
204 214 223
206 215 224
204 214 220
205 215 225
197 207 215
207 216 224
200 211 218
203 213 220
209 218 226
209 217 226
210 219 228
208 217 226
205 215 225
216 225 238
205 216 228
211 219 229
206 215 223
206 215 224
209 218 229
198 210 218
205 215 225
209 218 228
210 219 228
203 213 221
163 177 172
95 123 73
98 125 76
96 124 74
99 127 76
108 132 96
152 168 154
188 199 200
199 210 218
211 220 230
201 212 220
210 218 227
206 216 225
208 217 225
199 209 217
199 209 219
201 212 222
197 208 215
208 218 229
211 220 229
203 213 222
208 217 227
210 219 228
199 209 216
202 212 222
206 216 225
198 209 216
207 217 225
205 215 225
170 184 181
96 124 75
98 125 75
100 128 78
97 125 75
98 126 75
96 123 73
97 124 74
94 121 73
97 124 74
95 123 73
95 123 74
99 127 76
96 124 74
97 124 74
95 123 74
95 123 74
97 125 75
99 127 76
95 122 73
96 124 74
94 121 72
96 124 74
99 127 77
98 125 75
93 121 72
97 124 74
97 124 75
100 128 77
96 124 74
201 211 219
209 218 227
204 213 222
202 211 220
208 217 228
207 217 228
214 223 233
207 216 224
206 216 224
205 215 225
208 217 226
205 215 224
212 221 231
206 215 224
181 194 193
156 172 163
124 145 119
97 124 77
96 123 74
98 125 75
96 124 75
96 123 74
98 126 76
91 118 70
96 123 74
95 122 72
97 125 75
97 125 75
96 123 74
124 145 119
201 212 220
205 215 225
207 217 226
204 213 221
206 215 223
207 216 225
208 217 224
209 218 227
212 220 228
203 213 221
206 215 224
201 211 219
206 215 224
212 221 231
205 215 224
202 212 222
203 213 221
199 209 216
207 218 227
204 213 220
197 208 218
209 220 232
205 214 222
205 215 224
208 218 228
208 218 226
211 220 230
202 212 221
214 222 233
141 160 141
100 127 76
97 125 75
96 123 74
98 126 75
97 124 75
94 122 74
97 124 74
98 125 76
95 123 73
96 123 74
97 124 75
98 125 75
95 122 73
96 123 73
96 124 74
93 120 72
97 124 75
96 123 73
97 125 75
98 126 76
98 125 74
92 119 71
98 125 75
93 121 72
96 124 74
95 122 74
93 120 72
97 125 75
119 141 112
207 216 224
208 217 227
204 214 222
209 219 230
205 215 224
208 217 226
200 209 214
207 217 227
206 215 224
208 218 227
202 212 220
204 214 223
203 212 221
193 205 213
202 212 219
203 212 220
205 215 225
204 213 221
208 217 226
207 217 228
194 205 212
206 216 225
206 215 224
209 218 226
209 218 228
199 210 220
205 215 223
205 215 225
194 205 212
97 124 74
99 127 76
97 124 75
96 123 74
99 126 76
99 126 75
100 127 76
97 124 74
97 124 74
94 121 72
96 123 73
92 119 71
95 122 73
98 126 76
93 120 72
98 125 75
94 121 72
111 135 100
119 141 108
127 148 123
136 154 136
155 171 161
173 187 183
177 190 189
180 191 187
193 204 211
203 214 224
207 217 226
141 159 145
98 125 74
97 125 75
96 124 74
99 126 75
97 124 75
97 125 75
94 121 72
98 125 75
94 121 73
93 121 73
97 124 74
97 125 76
92 119 71
96 123 74
96 123 74
98 125 75
97 125 75
94 122 74
96 123 73
98 125 75
96 124 74
95 122 73
97 125 75
97 125 75
98 126 75
92 119 71
107 132 91
204 214 223
205 215 224
204 214 224
198 208 217
205 215 226
208 216 224
204 215 225
204 215 224
208 217 228
204 214 222
207 217 227
210 218 226
198 208 216
209 218 228
208 217 227
211 220 229
207 216 224
204 214 226
207 216 223
208 217 227
205 215 224
194 204 210
200 210 219
212 221 231
205 215 223
204 213 221
176 189 186
98 125 75
98 126 76
97 125 76
97 124 75
98 126 75
100 128 77
98 126 76
98 125 76
95 122 73
92 119 72
95 122 73
99 126 76
98 126 75
95 123 74
96 123 74
98 126 76
100 127 76
98 125 75
95 123 73
97 125 75
93 120 72
95 123 74
94 121 72
95 122 73
99 127 76
174 188 186
211 221 232
205 214 222
206 217 227
201 212 220
205 215 222
203 213 222
206 215 223
209 217 225
210 219 228
208 218 229
210 220 231
207 217 227
203 214 223
202 212 220
204 214 222
206 216 225
211 221 232
208 218 226
209 218 226
215 224 233
206 216 226
207 217 226
199 209 216
177 190 190
100 127 79
96 124 75
95 123 73
99 126 76
114 136 103
122 143 115
134 152 134
135 155 133
152 168 156
171 184 180
180 192 191
185 197 200
205 216 225
204 213 220
207 217 228
200 212 223
208 218 228
205 214 222
201 212 223
205 215 224
207 216 224
204 214 222
198 209 214
99 126 79
94 122 73
96 123 74
95 122 73
97 124 74
97 124 75
93 120 72
97 125 75
97 125 74
95 122 73
97 125 75
106 131 88
205 215 224
203 212 221
201 211 218
199 210 220
196 207 215
208 217 226
199 210 220
206 216 225
199 209 217
210 219 228
201 211 220
203 213 221
210 219 228
206 217 229
200 210 213
147 165 150
106 131 94
99 127 76
94 121 72
97 124 74
95 122 73
98 126 76
100 128 77
95 122 72
95 122 73
96 124 74
96 124 74
168 182 180
191 203 209
201 212 222
207 217 227
204 214 223
204 215 225
197 208 215
202 212 219
210 219 228
198 209 218
204 214 223
203 212 220
201 211 217
201 211 219
202 213 222
201 211 219
199 209 215
201 212 220
201 212 220
205 216 227
203 213 222
209 219 230
207 217 225
210 219 230
208 218 227
198 208 217
213 222 230
207 216 224
173 185 182
98 126 76
98 126 75
95 124 75
94 122 74
96 123 74
93 120 71
97 124 75
125 146 118
172 186 181
189 200 204
206 215 221
205 216 225
205 215 225
203 213 222
207 216 225
201 212 222
216 224 235
210 219 228
202 212 220
208 218 228
204 214 222
202 211 218
204 214 222
207 218 228
206 215 223
205 215 225
210 219 228
200 210 218
166 180 174
94 121 72
95 123 73
92 119 71
97 125 75
96 124 75
92 119 72
99 126 75
94 121 72
92 119 71
99 127 77
100 127 77
99 127 77
94 121 72
95 123 74
93 120 72
98 126 76
101 128 77
96 124 75
98 126 75
99 127 76
93 119 71
97 125 75
99 126 74
95 123 74
95 123 74
96 123 73
97 124 74
98 126 75
110 133 97
200 210 218
200 209 216
201 210 217
196 206 213
208 217 225
207 217 228
208 217 227
209 218 229
204 215 223
203 213 221
210 220 231
199 210 219
202 212 220
207 217 227
205 214 222
203 214 225
210 220 231
200 209 216
165 180 175
143 160 144
125 145 118
97 124 77
98 125 75
99 127 77
96 124 74
96 123 74
97 125 75
95 123 75
99 126 75
159 173 165
198 208 215
207 217 228
199 211 221
204 214 222
214 223 233
202 213 222
211 220 231
203 212 217
209 219 230
202 212 222
214 223 234
210 219 229
207 217 226
207 217 226
213 222 231
207 217 227
208 217 223
206 216 225
207 216 225
203 213 220
200 211 219
205 214 222
200 210 216
202 212 222
207 217 225
203 214 225
199 209 215
207 217 226
203 212 220
119 142 109
99 126 76
98 125 76
98 126 76
96 123 74
98 125 76
98 126 76
95 122 73
93 120 71
98 125 75
95 122 73
96 123 73
97 124 75
93 120 72
98 125 75
95 123 74
97 125 75
98 125 75
98 125 76
95 123 74
95 122 73
98 125 75
97 125 75
94 121 73
98 125 75
95 122 73
99 126 76
96 123 74
98 126 76
143 160 147
206 216 224
203 213 220
202 212 222
207 217 227
202 213 222
209 218 227
201 212 220
208 218 228
200 211 218
205 215 224
214 222 233
207 217 226
207 216 225
217 225 237
203 214 223
206 215 223
204 215 225
207 217 226
207 216 224
201 211 219
206 216 225
198 209 217
202 213 222
208 217 225
206 216 225
200 212 221
206 216 227
206 215 223
173 186 182
92 120 71
95 122 73
96 123 74
98 126 76
98 125 75
96 124 74
96 123 74
100 127 77
95 122 73
97 125 75
96 124 74
96 123 74
99 127 76
96 124 74
95 122 73
96 124 75
98 126 76
97 124 74
96 123 73
99 127 76
95 122 73
95 122 73
98 126 76
97 124 74
93 120 72
98 125 75
95 122 73
114 137 103
195 206 211
188 200 203
178 192 193
184 195 193
164 179 171
153 169 162
149 166 151
137 155 138
129 149 127
114 136 103
117 139 108
104 130 87
97 124 75
99 127 76
96 124 74
95 123 74
97 125 75
98 125 74
97 124 75
95 122 72
94 122 73
94 122 73
97 125 75
95 123 73
96 124 74
93 120 72
99 127 77
154 171 160
204 214 221
205 214 223
206 215 222
199 210 221
204 214 224
205 215 224
204 213 221
203 213 221
209 218 225
205 214 224
211 221 232
204 213 221
205 215 223
203 213 223
201 210 215
204 214 222
206 216 225
211 220 229
205 215 224
213 222 231
202 213 222
204 214 222
207 216 226
208 218 227
204 214 225
210 218 224
114 138 103
96 123 73
98 125 75
98 126 76
97 124 75
94 121 71
96 124 74
98 126 76
96 124 74
98 125 75
96 124 74
98 126 75
97 125 75
98 125 74
97 125 75
95 122 73
93 120 72
95 122 73
97 125 75
94 121 72
97 124 74
97 124 74
94 121 73
97 124 75
97 124 74
137 156 135
210 220 230
210 219 227
202 213 222
205 215 224
207 216 225
214 222 233
205 215 222
205 215 223
208 218 228
207 216 225
210 220 230
209 218 228
200 209 217
212 221 229
205 215 223
207 216 226
204 214 222
202 212 220
193 204 208
188 199 203
178 190 189
175 188 184
175 188 186
160 175 165
187 199 200
186 198 202
187 199 201
194 205 209
198 210 219
209 218 228
208 218 228
212 221 230
206 217 228
197 208 216
202 213 222
208 218 226
203 213 221
202 212 222
202 212 219
203 213 223
202 213 225
207 217 226
212 222 233
199 209 216
207 217 227
203 214 224
203 212 216
121 143 112
97 125 75
96 124 74
96 123 74
99 126 76
97 124 74
96 124 75
97 125 75
96 123 74
95 122 73
95 122 73
97 124 74
96 123 73
194 205 211
206 215 222
203 213 222
208 218 229
213 222 233
200 211 220
203 213 222
210 220 229
209 218 227
208 218 227
211 220 231
197 208 215
199 209 218
200 211 222
206 215 223
201 212 220
205 215 224
179 192 191
140 158 138
95 123 74
99 126 76
94 121 72
99 127 77
98 125 75
97 125 75
96 124 75
97 124 74
175 189 186
200 211 221
209 218 227
202 212 220
201 212 220
202 212 219
201 211 220
202 212 220
211 220 231
205 215 223
197 208 216
195 206 213
204 214 222
207 216 223
202 213 222
204 214 222
207 217 228
203 213 223
209 218 227
208 217 227
210 219 227
203 213 224
208 218 227
204 214 223
201 210 217
212 221 231
200 211 221
207 217 226
173 186 184
96 124 74
92 119 71
99 126 76
99 126 76
97 125 75
100 127 76
96 123 74
95 122 73
96 123 74
98 126 76
121 142 115
168 183 181
197 209 217
205 214 223
207 215 222
207 217 229
205 215 224
205 215 224
207 216 226
205 215 224
212 221 231
199 209 216
197 208 217
211 220 230
202 212 220
203 214 225
203 213 222
207 217 228
162 177 167
95 122 74
94 122 74
97 125 74
98 125 75
97 124 74
96 123 74
98 125 75
95 123 74
97 124 74
96 123 74
99 126 76
92 119 72
94 121 73
98 126 76
97 125 75
96 124 74
100 127 76
96 124 75
98 126 76
97 125 75
95 122 74
97 125 75
93 120 72
98 125 75
97 125 75
95 123 74
98 125 75
95 122 73
128 148 122
201 211 217
208 218 230
204 214 222
203 213 222
199 210 218
200 210 218
198 208 216
207 217 226
210 219 229
203 212 218
206 216 225
205 215 223
206 215 224
206 216 224
203 213 222
209 218 227
205 215 223
203 213 222
204 213 220
205 215 225
205 215 225
194 205 209
172 185 181
147 163 149
111 133 97
94 121 72
95 122 73
98 125 75
97 125 75
179 193 192
210 219 227
206 216 227
204 214 223
208 218 228
199 209 217
199 210 219
208 218 227
205 215 224
200 211 221
205 215 224
205 214 222
210 219 229
197 208 216
210 219 229
208 217 227
211 218 227
196 207 215
206 215 223
207 217 228
205 215 224
197 207 216
202 214 225
209 218 227
205 214 222
203 213 224
196 206 212
204 213 221
206 215 224
184 196 201
96 123 73
96 123 74
95 122 73
96 123 74
95 122 73
98 126 76
100 128 77
96 124 74
98 125 75
95 123 73
101 128 77
98 125 75
98 126 76
95 123 74
95 122 73
96 123 73
98 126 76
99 127 76
96 125 76
96 124 74
96 123 73
96 123 74
93 120 72
97 124 74
96 124 74
97 125 75
98 125 75
92 119 71
93 120 71
194 205 209
206 215 223
205 214 222
210 219 230
197 207 212
201 212 222
201 212 222
207 217 227
208 218 228
209 219 228
200 210 217
202 212 222
209 218 227
207 217 225
211 219 227
205 215 225
201 211 221
208 217 227
202 213 222
202 212 221
208 217 226
205 215 224
198 208 214
195 207 214
208 217 226
208 218 227
200 209 217
204 214 223
202 213 222
113 136 103
96 124 75
96 124 75
94 121 72
96 123 74
96 123 74
96 123 74
95 123 73
95 122 73
92 118 70
99 126 75
93 120 72
93 120 71
97 124 74
97 125 74
94 121 71
96 123 73
95 123 74
97 124 74
97 124 74
99 126 75
96 124 74
99 127 76
97 124 74
97 125 75
95 122 73
97 124 74
96 124 75
164 179 172
200 210 217
209 219 231
205 214 223
202 212 222
203 214 223
209 218 228
201 211 219
212 221 231
204 214 222
207 216 224
203 213 220
203 213 223
196 207 213
195 206 210
179 191 191
186 198 200
169 184 180
177 189 186
163 178 171
151 167 154
155 171 160
145 162 143
142 162 144
137 155 132
129 149 124
127 148 123
130 151 129
191 203 207
198 209 215
206 216 225
207 217 226
204 214 224
206 215 226
204 214 220
205 215 224
202 212 222
211 220 230
207 216 225
205 215 226
206 215 223
199 209 217
200 210 218
211 219 229
202 213 220
207 217 226
198 208 216
204 214 223
205 216 228
205 215 224
197 209 220
206 216 226
205 214 222
205 215 223
169 183 177
94 121 73
95 123 73
95 123 75
97 125 75
95 122 73
97 124 75
98 125 76
95 122 73
97 125 75
96 123 73
98 125 75
97 125 75
96 124 74
94 122 73
95 123 73
94 122 73
99 127 77
99 127 76
99 127 76
92 119 71
94 121 73
97 125 75
98 126 75
95 122 73
99 125 80
194 205 209
203 212 219
197 208 215
184 195 196
184 196 198
185 197 199
177 189 188
172 185 179
169 183 177
166 180 173
140 157 142
151 168 154
138 157 137
122 142 117
134 155 130
110 135 97
105 130 88
98 126 76
92 118 70
97 124 74
96 123 74
95 122 73
94 121 72
98 126 76
171 185 180
201 212 222
212 221 230
204 213 221
204 213 222
198 209 215
207 216 225
208 217 227
197 209 217
207 217 226
199 208 216
205 215 224
201 212 222
210 219 229
208 217 225
207 216 225
212 221 231
204 214 224
208 216 224
207 217 226
209 219 228
206 216 225
199 210 218
145 163 151
92 119 71
95 122 73
96 124 74
94 122 73
99 126 75
97 124 74
95 122 73
96 124 74
94 121 73
95 123 74
97 125 75
96 124 74
99 127 76
171 185 183
203 213 220
205 214 221
216 224 232
206 216 226
201 211 219
208 217 227
206 216 225
204 214 222
207 217 226
207 217 226
199 209 217
208 218 227
198 208 216
207 216 225
194 205 212
201 212 221
201 210 217
208 217 226
184 196 197
159 173 164
108 134 92
97 124 74
92 119 71
95 123 73
97 124 74
93 120 72
172 185 182
200 210 217
211 221 232
205 215 225
205 214 222
206 216 227
207 216 226
201 211 220
203 212 218
200 211 222
202 211 219
207 215 223
206 215 224
204 214 223
204 214 223
212 221 230
204 214 224
212 221 231
205 213 219
204 214 222
206 216 226
205 214 222
197 208 217
209 219 230
199 210 217
199 209 217
202 213 223
203 214 222
174 188 186
97 124 74
93 120 72
97 125 75
93 120 72
98 126 76
95 123 73
98 126 76
97 125 75
96 123 74
96 123 74
97 124 75
97 125 75
99 127 76
124 144 119
162 178 171
198 207 213
207 217 226
207 217 227
201 212 221
206 216 226
209 218 228
205 215 225
202 212 222
201 211 218
208 217 225
204 215 225
199 209 216
204 213 222
150 167 152
96 124 74
94 122 72
100 128 77
99 126 76
96 124 75
96 123 74
96 123 73
97 125 75
98 126 75
97 125 75
96 123 74
95 122 73
95 123 73
96 123 74
94 121 72
99 127 77
95 122 73
93 121 73
93 120 72
97 124 75
97 124 75
99 127 77
94 122 73
97 125 75
97 123 73
96 123 74
96 124 74
98 126 75
137 155 135
201 211 219
204 214 224
210 219 229
203 213 223
209 217 225
199 209 217
211 221 232
204 213 220
206 216 225
205 215 224
204 213 220
204 214 224
207 217 228
204 214 223
208 218 229
206 217 227
208 217 228
202 212 221
206 216 227
209 218 229
202 212 220
211 219 228
204 213 220
204 214 223
202 213 222
202 211 216
177 190 190
152 169 158
104 129 87
195 206 211
203 213 222
199 210 218
202 211 218
209 219 229
207 217 228
206 215 224
206 216 227
211 220 230
204 214 224
207 217 227
203 214 224
208 217 228
207 216 225
196 207 214
209 218 228
211 220 230
208 217 227
209 218 226
202 212 221
206 215 224
201 211 218
199 209 215
202 212 218
207 217 225
207 217 225
210 219 231
207 216 225
197 208 214
179 192 191
93 120 72
96 123 73
97 125 76
94 122 73
96 124 75
97 125 75
98 126 75
96 123 74
95 122 73
98 126 76
98 125 75
99 126 76
98 125 76
97 125 75
94 121 73
97 124 75
94 121 72
99 126 76
98 126 75
97 125 75
96 124 74
97 124 75
94 122 73
100 128 77
95 123 74
96 123 74
96 124 74
97 124 74
108 133 93
201 211 220
203 213 221
206 216 226
208 218 227
202 213 221
200 211 219
204 214 223
205 215 225
202 211 220
204 215 224
214 222 233
206 216 225
210 219 229
204 214 223
203 213 221
205 215 223
208 217 226
210 219 229
200 211 220
207 216 222
206 216 225
209 219 229
203 213 221
208 217 227
206 215 225
211 220 230
204 214 223
207 217 227
183 195 196
98 125 75
95 122 74
93 120 72
95 122 73
98 125 75
97 124 74
97 125 75
94 121 73
93 120 71
100 128 77
97 125 75
96 123 73
94 121 72
98 126 75
93 120 71
95 121 73
98 126 75
97 124 74
95 122 73
99 126 76
93 120 72
96 124 74
98 125 75
93 121 72
97 125 75
88 115 68
95 122 73
108 133 96
200 210 219
208 217 225
211 218 225
207 217 227
211 220 231
201 211 220
206 216 224
201 211 220
203 213 221
206 215 221
205 214 223
198 208 215
206 216 224
206 215 223
202 212 221
207 217 226
198 210 219
207 217 227
206 217 226
202 213 222
207 217 225
204 215 225
203 213 221
209 218 228
207 217 228
202 212 219
207 217 228
157 171 159
96 123 73
94 121 72
93 121 73
104 130 90
112 137 99
112 135 101
122 143 115
132 152 130
126 147 120
135 154 134
154 170 154
135 152 133
145 163 147
148 165 151
153 169 158
160 175 164
156 171 160
161 176 166
159 175 166
143 160 144
145 162 149
159 174 166
171 184 182
163 178 173
155 171 159
161 176 167
179 191 191
159 175 166
164 179 173
160 175 165
151 168 157
150 166 152
164 179 171
174 187 183
160 175 168
167 182 179
165 180 176
165 179 172
165 179 174
173 186 183
173 186 185
169 182 180
173 186 185
172 185 182
183 196 197
191 203 207
182 195 195
185 198 203
199 208 212
195 207 213
195 206 214
167 181 175
98 126 75
94 122 73
98 126 76
96 123 73
98 126 76
96 122 73
94 121 72
97 124 75
98 125 75
96 124 74
98 126 76
95 122 73
96 123 74
99 127 77
94 121 73
97 124 74
97 125 75
93 120 71
93 121 72
95 122 73
97 125 75
96 123 73
97 124 74
126 147 122
202 213 224
202 212 224
202 212 221
212 221 230
208 218 228
203 214 223
201 211 220
203 214 224
211 220 229
204 214 222
203 214 224
199 210 218
208 218 227
203 212 220
208 217 227
204 213 222
211 220 230
205 213 219
205 215 222
196 207 213
211 220 230
208 218 227
179 191 189
95 122 73
96 123 73
95 122 73
97 124 74
94 121 72
97 124 75
95 122 73
98 125 75
94 122 73
96 123 74
93 121 72
96 124 75
96 123 73
97 125 75
174 187 183
207 216 224
204 214 222
204 214 223
209 218 226
203 212 220
205 215 225
205 214 221
201 211 220
214 223 234
201 212 221
202 212 222
208 217 226
210 219 229
202 212 221
207 218 228
202 212 219
209 219 229
206 216 225
209 219 230
192 203 209
209 218 226
180 192 187
127 148 124
97 124 75
88 115 68
96 124 74
154 171 158
203 214 225
201 212 221
210 219 229
199 211 222
202 212 220
210 220 232
206 216 227
199 210 219
204 214 222
200 210 218
204 214 224
195 207 215
203 212 219
203 214 223
210 220 229
207 217 228
207 217 228
201 211 220
208 218 226
205 215 223
206 215 224
203 214 223
212 221 229
204 216 227
203 212 219
202 213 223
206 216 225
160 176 173
95 122 73
95 122 72
98 126 76
96 123 73
98 125 76
98 125 75
98 125 75
94 122 73
94 122 73
94 121 72
94 121 73
93 120 71
96 124 75
97 124 74
99 127 77
97 123 76
140 157 140
166 180 176
197 208 215
208 218 227
210 219 228
200 210 218
203 213 222
207 217 227
202 212 219
205 214 222
207 217 227
200 211 219
140 157 140
97 125 75
92 118 70
95 123 74
96 124 74
94 121 73
96 123 74
98 126 75
96 123 73
98 125 75
96 124 74
95 122 72
100 127 76
95 122 74
95 123 74
95 123 74
95 123 73
98 125 75
95 122 73
95 122 73
94 122 74
92 119 71
93 120 71
95 122 73
95 123 74
96 123 74
93 120 72
95 122 73
92 119 70
155 171 161
199 210 220
200 210 219
201 210 218
210 220 231
206 216 225
208 218 229
212 221 232
203 213 223
209 219 229
197 208 216
200 211 219
205 215 222
206 216 226
204 214 222
204 213 222
206 216 225
204 214 224
202 212 220
205 214 222
206 216 225
192 204 212
204 213 221
207 217 227
207 216 225
201 211 219
209 218 227
209 219 229
209 218 229
201 212 220
125 146 118
144 161 146
169 183 179
190 202 207
203 213 222
199 210 220
213 221 229
206 215 223
204 214 222
213 222 232
209 218 227
206 216 226
198 208 213
209 218 229
207 216 227
210 219 228
209 218 227
207 216 224
205 215 225
203 213 222
206 215 224
206 217 227
203 214 223
206 215 223
206 215 223
208 218 229
196 207 215
204 215 224
203 212 219
137 156 139
97 124 75
96 123 73
96 123 74
95 122 72
93 120 72
100 128 77
95 123 74
97 124 74
92 120 72
99 126 76
98 125 76
94 122 73
96 123 74
94 122 75
93 120 72
98 125 75
95 122 73
95 123 73
98 126 76
97 124 74
96 124 74
96 123 73
95 122 73
95 122 73
95 122 73
93 120 71
96 123 73
96 123 74
136 155 138
201 212 223
205 215 223
204 214 224
207 217 226
205 214 223
200 210 220
212 221 232
199 210 218
208 218 226
206 215 224
207 215 222
204 214 224
203 213 221
207 217 226
203 213 221
204 214 224
207 216 224
201 210 217
203 213 222
207 217 225
209 219 228
207 216 226
204 214 221
199 209 216
201 211 219
201 211 220
205 215 223
208 217 225
146 163 150
98 126 75
96 123 74
98 126 75
95 122 73
96 123 74
94 122 74
92 118 71
97 125 75
95 122 73
96 123 73
99 126 75
94 122 74
98 125 75
98 126 75
97 124 75
96 123 73
95 122 73
93 121 72
96 123 73
95 122 73
97 124 75
93 120 72
96 124 75
96 123 74
98 125 75
96 123 74
96 124 75
155 171 160
206 216 225
198 209 218
202 212 220
201 211 219
200 210 218
204 214 223
203 213 222
204 215 226
203 213 222
212 221 230
202 213 222
210 219 229
211 220 229
200 210 218
198 210 218
207 216 225
203 213 223
205 215 222
204 215 224
207 216 226
209 218 228
198 209 217
206 217 227
201 211 218
205 215 225
207 216 225
199 209 214
107 132 91
93 120 71
97 124 75
96 123 73
89 116 69
93 120 71
98 125 76
96 123 73
96 123 74
95 123 73
94 121 73
94 121 73
96 123 74
91 118 70
97 124 75
94 121 72
98 125 75
98 126 76
93 120 72
95 122 72
96 124 74
100 127 76
95 123 74
97 125 75
93 120 71
97 124 74
163 177 170
204 214 222
202 212 220
202 212 219
207 218 229
198 209 217
203 213 222
211 221 231
212 222 234
205 215 224
209 218 226
209 218 228
207 217 226
214 223 233
206 216 226
201 211 220
210 219 228
211 219 227
202 212 221
207 217 226
204 214 223
212 220 229
205 214 224
209 219 230
211 220 231
200 210 217
106 131 90
94 121 72
95 122 72
95 123 75
96 124 75
93 120 72
98 126 76
95 122 73
96 124 75
94 121 72
96 123 73
96 124 75
90 117 70
99 127 76
96 123 74
97 125 75
96 124 74
96 124 75
94 121 73
96 123 74
95 122 72
93 121 72
96 123 73
104 129 89
199 210 217
200 210 218
205 215 226
203 214 223
215 223 235
202 212 218
217 226 236
204 213 221
204 213 219
206 216 226
205 215 225
197 207 214
199 209 216
205 215 224
207 217 228
208 216 223
201 212 221
206 217 229
206 216 224
193 204 213
205 215 225
197 208 216
190 202 208
106 132 88
93 120 72
94 121 72
93 120 72
91 118 71
95 123 74
97 124 75
97 124 74
99 126 75
95 122 73
100 127 77
98 126 76
100 127 76
97 125 76
97 125 75
154 170 157
205 214 223
202 212 220
206 215 222
206 215 223
210 219 230
205 214 222
203 213 220
203 213 222
204 214 222
208 218 227
204 213 222
206 216 226
202 212 221
201 211 219
212 221 230
204 214 224
212 221 230
199 209 218
208 218 228
200 210 219
206 217 227
202 212 219
205 215 225
191 202 205
151 167 155
110 136 95
144 161 147
197 209 218
199 210 218
200 211 219
203 212 219
207 216 226
208 218 227
202 213 222
206 216 225
210 219 228
206 216 225
210 219 228
208 219 230
196 206 214
210 219 227
209 219 228
209 218 228
198 208 216
204 214 222
209 219 231
205 215 224
203 213 221
207 217 227
205 215 224
209 218 227
202 212 220
206 216 225
209 219 230
155 171 162
97 124 74
96 124 74
94 121 72
92 119 71
93 121 72
96 123 74
98 126 76
96 124 74
94 121 72
97 124 75
94 122 73
95 122 72
94 121 72
93 121 73
93 120 71
96 123 74
93 120 71
98 126 77
94 122 72
131 152 129
175 188 187
194 205 212
206 216 226
209 218 228
207 218 228
207 216 223
205 215 223
208 217 226
130 150 128
100 128 77
94 120 72
98 126 76
95 122 72
93 120 72
95 123 74
97 125 75
98 125 75
99 126 76
94 121 73
95 123 73
96 124 74
95 122 73
95 123 74
95 122 73
94 121 72
96 123 74
97 124 74
93 121 72
95 122 73
98 126 75
96 124 74
95 123 74
98 125 75
97 125 75
95 123 74
93 121 72
99 126 76
169 183 177
209 218 226
206 215 224
205 216 228
204 214 221
207 217 225
205 215 222
205 215 224
205 215 225
209 218 225
211 219 228
201 211 220
212 221 230
209 218 226
201 211 221
205 216 226
204 214 224
205 215 225
201 211 220
208 218 230
211 220 231
204 214 223
203 214 223
206 216 227
199 209 216
204 214 223
203 213 220
202 211 218
207 216 225
175 189 186
98 125 75
94 121 72
95 122 73
95 123 74
117 141 105
142 161 145
161 175 167
188 199 203
201 211 219
201 212 220
205 215 224
200 210 218
200 210 219
195 205 212
206 216 224
203 213 221
207 217 227
204 214 223
204 214 222
201 211 220
208 216 223
198 209 216
204 213 221
206 216 225
208 217 225
209 218 227
202 213 220
199 209 216
205 215 223
113 137 99
94 121 72
93 120 71
96 124 74
94 121 72
96 123 75
94 121 72
96 124 74
98 126 76
95 123 73
96 123 73
95 122 73
94 121 72
97 125 75
92 119 71
98 125 75
96 123 74
97 125 75
95 122 73
97 124 74
99 127 76
96 123 74
96 124 74
101 128 76
98 126 75
100 128 77
96 123 74
96 123 74
95 122 73
185 197 199
204 213 222
203 213 222
204 214 222
212 221 229
209 218 225
210 219 229
212 220 229
209 218 228
212 221 230
199 209 217
204 213 222
199 209 217
207 217 227
206 216 226
207 217 227
197 209 218
201 211 219
193 205 213
205 214 222
201 211 220
203 214 224
206 215 223
202 212 221
203 213 223
204 214 221
202 212 220
208 218 227
205 214 222
103 129 83
98 126 77
97 125 75
96 124 74
94 121 72
94 121 73
97 124 74
98 125 75
96 123 73
96 124 74
95 123 74
98 126 77
95 122 72
94 121 73
95 122 73
96 123 73
96 123 73
96 123 73
96 123 73
97 125 75
96 124 74
99 127 76
93 120 71
95 122 73
99 126 75
97 125 76
100 127 76
93 120 71
189 200 203
206 216 227
209 218 226
202 213 222
201 211 218
208 218 228
212 221 230
212 220 230
201 211 218
206 216 224
204 213 220
203 213 223
204 213 221
202 213 222
199 210 219
196 207 214
203 213 222
206 216 225
209 219 229
207 216 225
200 209 216
204 214 222
205 214 221
206 215 224
211 220 230
197 208 218
205 215 223
165 179 172
100 128 77
95 122 73
99 127 76
97 125 74
94 121 72
94 122 73
93 120 72
98 125 75
98 126 76
98 125 75
97 125 75
93 119 71
97 125 75
94 120 72
93 120 71
96 123 73
97 125 75
95 122 73
92 119 71
93 120 72
97 124 75
94 122 72
97 125 75
93 121 72
95 122 73
109 133 95
198 208 216
199 210 218
200 211 220
207 217 227
207 217 228
210 220 232
203 213 221
203 213 220
209 218 229
206 216 224
203 213 221
211 220 230
204 213 222
207 216 225
203 213 221
202 213 222
200 211 218
205 215 224
205 214 222
196 207 217
204 214 221
208 218 228
206 216 225
207 216 225
194 204 212
142 160 143
91 118 70
95 122 72
100 128 77
92 119 71
95 122 74
95 122 73
95 123 73
94 121 73
93 120 72
96 123 74
97 125 75
98 125 75
93 120 72
97 125 75
96 124 74
98 125 75
94 121 72
95 122 74
93 121 72
96 123 74
98 125 75
95 123 74
94 121 72
173 186 181
208 217 224
199 209 218
203 213 221
204 213 221
203 213 220
211 220 230
200 210 216
202 212 220
200 210 217
205 215 223
197 208 218
202 212 220
201 211 221
197 207 214
204 214 223
204 213 220
203 213 221
203 213 222
211 221 232
199 210 220
206 216 226
204 214 221
123 144 119
97 124 74
97 124 75
98 125 76
93 121 73
97 126 77
97 124 74
97 124 75
97 124 74
96 124 75
98 125 75
98 125 75
97 125 75
95 122 73
96 123 74
95 122 73
137 155 136
209 219 228
207 217 227
206 215 224
206 216 225
208 217 226
202 212 221
205 214 222
208 218 227
200 210 216
209 218 226
205 215 223
205 214 222
200 210 218
201 211 219
207 216 224
199 210 219
200 210 216
209 218 226
200 210 218
202 213 222
203 213 221
205 214 223
208 218 227
206 215 224
208 217 227
202 211 217
173 186 184
173 187 186
206 215 221
214 223 234
208 217 226
200 210 219
203 213 221
211 219 228
206 216 226
204 214 223
210 220 230
205 215 223
211 221 231
202 213 221
207 217 227
206 216 225
203 213 221
211 220 229
199 210 219
200 211 218
198 209 218
207 217 228
199 209 216
212 221 231
199 211 221
207 216 224
204 213 222
204 214 223
159 174 167
99 127 77
99 126 75
96 124 74
94 121 72
98 125 75
98 125 75
98 126 76
96 123 74
97 124 74
95 123 74
97 124 75
94 122 73
93 120 72
99 126 75
95 123 74
97 124 74
95 122 73
98 126 76
95 121 72
98 126 76
93 120 71
101 127 81
120 140 118
169 183 180
183 195 197
199 210 219
205 215 224
207 216 223
124 145 118
95 122 72
99 127 77
93 120 71
95 122 73
95 122 73
95 123 73
92 120 72
95 123 73
98 126 76
99 126 76
95 122 73
98 125 76
91 118 70
99 126 76
95 122 73
92 119 71
95 122 73
96 124 74
99 126 75
96 124 74
94 121 72
96 124 74
97 124 75
96 124 74
95 123 73
96 124 75
99 127 76
98 125 74
179 191 190
200 210 216
209 218 227
204 214 224
198 209 215
201 211 221
205 214 224
205 214 223
200 211 220
205 214 223
203 213 220
197 208 215
203 213 221
202 212 220
203 214 224
198 208 216
205 215 224
209 218 230
213 222 233
207 216 225
203 213 220
199 209 217
206 216 224
202 211 218
205 214 222
203 214 224
205 215 223
204 214 222
205 215 225
162 177 172
98 125 75
95 122 73
100 128 77
95 122 73
96 124 75
97 124 75
94 121 72
97 124 74
107 131 92
139 157 136
159 175 168
186 197 197
205 215 223
201 212 222
201 212 222
208 217 226
202 212 220
209 218 226
205 215 226
198 209 218
205 215 223
211 220 229
203 213 222
202 213 222
204 214 220
204 214 223
201 211 217
211 220 231
197 208 214
93 120 72
98 125 75
94 122 73
94 121 72
98 126 76
94 121 72
97 125 75
96 123 73
95 122 72
99 127 76
97 124 74
92 120 72
94 121 73
97 124 74
96 123 74
98 125 74
95 123 74
98 125 75
95 122 73
94 121 73
98 125 75
95 123 73
95 122 73
97 124 75
97 124 75
96 124 74
92 120 72
96 123 73
113 137 96
209 218 227
208 218 228
205 215 224
209 219 228
205 215 224
209 218 228
205 216 226
201 211 218
210 218 226
206 215 223
209 217 224
206 215 222
207 216 225
210 218 227
200 210 218
208 218 227
209 218 227
209 218 229
206 216 226
206 216 227
203 212 221
207 217 226
195 206 214
201 211 219
199 209 217
200 210 217
205 215 225
203 213 223
173 187 184
94 121 72
94 122 73
93 121 72
99 127 76
92 119 71
96 123 73
96 123 74
94 122 74
92 120 72
98 126 76
99 127 77
95 122 73
95 122 73
97 124 74
94 121 72
95 122 73
97 124 75
98 126 76
97 125 75
97 124 74
93 120 72
93 120 71
95 122 73
100 127 76
97 124 75
95 122 73
97 124 75
126 146 122
209 218 229
206 216 224
200 211 218
202 212 221
202 213 223
208 217 227
205 215 224
204 213 219
202 212 221
204 214 222
205 215 225
210 220 230
203 213 222
201 212 220
198 209 217
203 212 220
212 220 229
203 213 220
204 214 224
205 215 225
207 216 225
203 213 222
204 213 221
214 222 229
211 220 231
205 215 222
197 208 216
109 134 94
97 124 74
93 121 73
98 125 75
97 125 76
98 126 75
96 122 73
95 123 73
96 123 74
97 124 74
93 120 71
99 127 76
94 121 73
94 122 73
97 125 76
95 122 73
98 125 75
97 125 76
92 118 71
98 126 76
97 125 75
100 128 77
95 122 73
99 126 75
99 126 76
97 124 74
168 181 174
208 217 226
202 212 221
202 213 223
202 213 222
207 217 226
199 209 217
199 210 217
198 208 215
201 212 220
205 214 222
199 209 214
203 213 222
204 214 223
205 215 225
206 216 226
200 210 218
195 206 213
211 220 230
204 213 222
204 213 221
203 213 222
205 216 225
208 218 228
205 215 224
172 184 182
97 124 74
98 126 76
97 124 74
99 126 75
94 121 72
99 127 77
97 124 75
97 125 75
94 121 72
96 123 74
95 122 72
98 125 75
96 123 74
95 123 74
95 122 73
94 121 72
95 123 73
96 124 74
93 120 71
94 121 73
99 126 76
96 124 74
94 122 73
124 146 118
204 214 224
203 213 221
209 219 228
208 217 226
200 212 221
204 214 225
211 220 228
210 220 230
201 211 219
204 214 223
210 220 229
200 211 221
202 213 224
203 213 223
208 218 229
200 210 220
206 217 227
209 218 228
201 212 221
211 220 231
206 215 223
204 214 221
159 174 167
98 126 75
96 124 75
94 121 73
93 120 71
96 124 75
93 120 71
95 122 73
94 121 72
97 124 75
95 123 74
97 124 74
92 120 72
96 123 74
97 125 75
96 123 73
96 124 74
124 145 118
197 209 219
207 217 227
205 215 225
207 216 223
207 217 229
202 211 217
203 213 222
204 213 222
210 219 230
203 213 222
193 205 213
204 214 223
201 212 220
204 214 223
208 218 230
199 210 219
199 210 220
205 215 225
198 208 217
190 201 209
204 214 222
204 214 223
197 207 214
205 215 225
204 214 221
203 214 225
198 208 213
96 123 74
116 139 107
171 185 182
197 208 214
200 209 216
206 217 228
204 214 222
209 218 226
208 217 227
207 216 223
210 219 228
200 211 220
204 213 221
206 216 224
202 211 218
196 206 214
200 210 219
206 215 224
208 218 227
211 220 229
202 212 220
207 217 227
202 212 220
205 214 224
205 215 224
203 213 222
207 218 228
170 185 181
97 125 75
97 124 74
99 127 76
97 124 74
95 123 74
95 123 74
96 124 74
93 120 72
93 121 72
96 123 74
97 124 74
98 125 75
95 123 73
96 123 74
99 127 77
97 124 75
98 125 75
97 124 74
97 125 75
96 123 73
95 122 73
101 129 78
95 122 73
95 122 73
95 122 72
126 147 120
171 185 181
195 205 209
125 147 120
97 124 75
96 124 74
94 122 73
94 122 73
98 125 75
92 120 72
97 124 74
96 123 73
98 125 75
93 120 72
95 122 73
93 120 72
96 124 75
97 124 74
98 125 74
94 122 73
98 126 76
94 122 73
96 123 74
91 118 70
98 125 76
100 127 76
94 121 73
98 125 75
96 123 74
98 126 76
96 123 74
97 124 75
197 208 217
210 219 228
210 219 227
202 214 225
208 217 225
204 214 222
204 215 226
208 218 227
197 207 214
205 215 224
207 216 225
200 211 219
203 213 221
203 213 223
216 225 235
207 216 226
207 216 224
206 216 224
199 210 220
206 216 225
211 219 227
209 219 228
200 210 219
207 215 224
200 212 221
198 208 215
201 211 218
206 216 226
204 214 224
141 158 144
95 123 74
95 122 73
99 127 76
96 123 73
97 124 75
95 122 72
99 126 76
97 124 74
94 120 72
96 122 73
96 123 74
96 123 73
99 126 78
135 154 131
150 166 151
162 177 172
189 201 206
210 219 228
202 212 222
195 206 213
207 216 226
201 212 223
208 218 228
209 219 229
205 214 223
205 216 227
204 214 222
206 216 226
162 176 169
97 124 74
94 121 73
94 121 73
95 123 73
96 123 74
95 122 73
98 126 76
98 125 75
98 126 76
93 120 72
94 122 73
98 125 75
95 122 73
98 125 75
99 126 76
93 121 72
96 123 74
95 122 73
94 122 74
97 125 75
98 126 76
95 122 73
95 122 73
97 124 74
92 119 71
96 124 75
95 122 73
94 122 73
143 160 146
205 215 225
207 217 226
209 219 230
203 213 223
196 206 213
206 216 226
201 211 220
208 218 227
208 217 227
210 219 227
193 204 211
204 214 221
199 210 218
202 212 221
205 215 223
202 213 221
206 215 224
206 215 223
205 215 222
204 215 227
204 214 222
209 218 227
208 218 227
200 210 217
203 213 221
211 220 228
206 216 226
199 210 217
138 158 139
98 126 76
93 119 70
96 124 75
93 120 72
96 124 75
98 125 75
92 119 71
99 126 76
96 123 74
95 122 73
96 124 75
97 124 73
100 127 77
94 121 72
95 122 73
96 123 74
96 123 74
94 121 72
93 121 72
97 125 75
96 123 74
97 124 74
98 125 76
94 122 73
95 122 73
100 127 77
95 122 73
192 203 206
202 212 221
200 211 220
200 211 222
214 222 232
212 221 230
208 218 228
201 212 221
208 219 230
205 215 223
211 220 230
205 215 225
209 218 227
213 223 234
207 217 227
207 216 225
206 216 225
201 212 220
207 217 226
206 215 224
201 211 219
201 210 220
205 214 223
197 206 213
209 218 227
202 213 223
203 213 220
164 177 170
99 127 77
95 122 73
96 123 73
95 122 72
97 124 75
93 120 72
92 119 71
94 122 74
96 123 74
97 124 75
97 124 74
100 127 76
97 124 74
98 126 76
99 127 77
98 126 76
95 123 74
93 121 72
96 123 74
93 120 72
94 121 72
94 121 72
96 123 74
93 121 72
95 122 73
108 134 92
210 219 227
203 215 228
208 217 227
208 217 224
206 216 226
205 215 223
207 217 227
209 218 229
201 211 217
212 221 230
196 207 214
209 218 226
198 208 216
206 215 224
206 216 226
204 214 222
209 218 228
204 213 221
204 214 223
212 221 232
203 213 223
202 212 220
204 214 223
210 220 230
203 213 222
127 147 123
95 122 73
100 128 77
98 125 75
96 123 74
97 125 75
96 123 74
98 125 75
95 122 74
96 124 75
98 125 75
96 122 73
99 126 76
98 125 74
95 123 73
96 123 74
95 123 73
96 124 74
98 125 75
101 129 77
97 124 74
96 123 73
97 124 75
102 128 84
186 197 197
208 217 227
209 218 227
201 212 222
208 218 230
199 209 216
206 215 222
207 217 227
201 212 220
204 215 225
206 216 226
209 218 226
193 204 209
202 212 221
209 219 228
205 215 226
207 217 226
210 219 230
205 214 223
203 213 224
205 214 222
207 217 227
195 206 212
104 129 85
98 126 76
94 122 73
95 123 73
95 122 73
94 121 73
97 125 75
96 123 74
93 120 71
96 124 75
97 125 75
114 136 105
98 126 77
94 122 73
98 126 76
96 124 74
93 120 72
100 127 79
199 210 220
203 214 225
202 212 220
207 217 227
208 218 227
208 217 225
202 212 221
202 212 223
203 213 222
201 211 220
205 215 224
198 209 217
211 220 231
210 219 228
206 216 225
204 213 220
207 215 222
212 221 232
202 213 223
202 212 222
207 216 224
204 215 226
205 215 224
194 205 212
208 218 228
190 201 206
194 205 209
94 122 73
90 117 69
96 124 74
95 122 75
142 159 143
159 174 171
194 204 210
200 211 221
207 217 226
204 214 221
204 214 223
200 210 219
202 211 219
202 212 220
205 215 225
204 214 221
207 216 225
201 211 220
207 217 227
211 219 228
209 218 228
199 209 217
201 211 220
203 213 222
207 217 226
198 208 216
204 214 222
177 190 188
96 123 73
98 126 76
97 125 75
97 125 75
95 123 75
93 120 72
97 125 75
96 123 74
98 126 76
96 123 74
96 124 75
95 123 74
94 122 73
97 124 75
95 122 73
94 121 72
99 126 75
96 122 72
97 124 75
97 124 74
97 124 75
93 120 71
98 126 75
96 123 74
98 126 75
93 120 72
94 121 72
91 118 71
188 199 200
171 185 182
115 138 105
99 126 76
96 123 74
95 123 73
95 123 73
96 124 74
96 124 74
97 124 75
97 124 75
96 124 74
95 123 74
92 120 72
96 124 74
93 120 72
93 120 71
91 118 70
94 121 73
95 122 73
98 126 76
94 121 72
94 122 73
97 125 75
99 126 76
94 121 72
91 118 70
94 121 72
97 125 76
202 212 219
201 212 219
206 216 226
195 207 216
199 210 218
202 212 222
205 214 221
206 216 225
207 218 228
201 212 221
196 207 214
216 224 234
205 215 224
204 213 222
207 216 223
207 217 226
207 217 227
203 213 221
203 214 224
203 213 222
207 216 225
201 211 220
204 213 222
209 219 230
203 213 221
210 220 232
204 214 224
206 216 225
208 216 223
131 152 128
96 123 74
96 124 74
96 123 74
94 121 72
96 123 74
99 126 75
95 122 73
98 125 76
96 124 74
98 125 75
97 124 74
100 127 76
95 122 74
98 125 74
99 127 76
97 124 75
95 123 75
114 138 102
140 158 141
156 172 163
183 194 194
195 206 211
202 212 220
204 214 220
203 212 219
204 215 226
196 207 215
202 213 225
139 158 140
97 125 74
93 121 73
95 121 72
93 119 71
96 124 75
96 123 74
93 120 72
98 126 75
96 124 74
97 125 76
98 125 75
96 124 75
95 122 73
96 123 73
94 121 72
95 121 73
94 121 72
99 126 76
99 127 76
96 123 73
94 121 72
99 127 77
96 123 74
96 124 74
97 125 75
93 120 72
99 126 75
97 124 74
165 180 174
200 210 219
201 211 220
200 211 219
212 221 231
204 214 221
200 210 217
196 206 212
206 215 223
197 208 215
196 207 215
199 210 218
205 214 221
206 216 227
198 209 216
203 214 225
203 213 222
207 217 226
200 211 220
204 213 222
202 212 221
206 216 226
203 214 223
207 217 226
204 215 224
197 207 214
209 219 229
205 215 226
200 211 220
95 122 73
91 118 70
97 124 74
96 123 74
98 126 76
95 123 74
91 118 70
97 124 75
98 125 75
95 123 74
98 125 75
96 124 74
96 123 73
99 127 76
96 124 74
97 125 76
95 122 74
97 124 75
100 127 77
93 120 72
95 123 73
93 120 72
96 124 74
95 122 72
94 122 73
91 118 70
98 126 76
115 139 107
210 220 230
201 211 219
205 215 223
202 212 221
203 214 225
202 211 217
201 212 219
211 219 229
201 210 217
197 207 213
202 212 221
195 206 213
197 208 215
207 216 225
204 215 225
208 216 224
202 212 221
210 219 228
211 221 232
201 212 222
204 215 225
203 213 222
205 214 223
210 219 228
206 216 225
200 210 218
201 211 219
116 139 104
94 121 72
96 124 74
95 122 72
99 126 76
95 122 73
95 123 74
98 125 75
96 123 74
97 125 76
95 123 74
95 123 74
98 126 75
97 125 75
97 125 75
97 124 74
95 122 73
92 119 72
99 126 76
94 122 74
97 124 75
93 119 71
96 123 74
98 125 75
97 125 75
96 124 75
184 196 194
201 211 220
207 216 224
197 207 215
196 207 214
207 217 227
204 214 225
208 219 229
203 213 222
195 206 213
200 210 218
195 206 214
209 219 230
207 216 223
203 213 220
208 218 227
202 213 221
206 215 222
208 218 227
208 217 227
204 214 223
201 211 219
202 213 223
193 205 213
201 211 221
160 175 165
97 125 76
94 121 73
98 125 75
93 120 71
97 124 75
98 125 75
96 124 74
97 125 75
97 125 76
95 121 72
94 121 73
95 122 73
97 125 75
96 124 74
93 120 71
96 123 74
96 123 74
98 126 76
100 128 77
94 121 73
94 122 74
99 127 77
97 124 74
157 172 165
202 211 219
208 217 227
201 212 220
198 209 215
205 214 223
207 217 227
201 212 222
208 217 226
204 214 223
203 214 222
196 207 216
213 221 230
201 212 221
200 210 219
207 216 226
200 210 217
201 210 217
203 214 223
202 212 220
209 218 226
200 210 217
198 208 216
120 142 110
100 128 77
95 122 73
93 120 72
93 120 72
91 118 71
95 122 72
92 119 72
96 124 75
96 123 74
98 125 75
99 126 76
211 220 230
183 195 197
142 161 142
99 125 80
97 125 75
97 124 74
97 125 75
188 201 205
201 211 220
211 220 230
211 220 230
204 214 223
205 215 225
204 214 225
208 217 226
194 205 212
202 212 221
200 209 217
204 214 222
209 218 227
204 213 222
202 211 219
206 216 227
203 213 222
210 218 226
210 220 230
200 210 219
207 216 226
208 217 226
209 218 228
201 212 220
205 215 225
204 214 224
202 213 222
95 122 73
93 121 72
97 124 75
98 125 75
95 122 74
95 123 74
106 130 92
148 165 149
182 194 196
198 208 216
204 214 223
206 215 224
207 217 228
208 218 229
208 218 229
198 209 216
206 215 223
202 212 221
202 213 223
202 212 219
209 219 229
205 215 224
208 217 226
197 207 215
202 212 222
207 216 224
209 218 228
183 195 195
96 124 74
93 120 72
98 126 76
96 124 74
96 123 74
98 125 75
97 124 75
96 123 74
99 127 76
97 124 75
93 120 72
97 125 75
95 122 74
98 126 76
95 123 74
95 122 73
96 124 74
95 122 73
99 126 76
99 127 76
96 123 73
96 123 74
92 119 71
91 118 71
96 124 74
90 117 70
96 123 73
98 126 76
198 209 217
202 212 221
209 218 227
195 205 209
167 181 176
125 146 119
99 124 81
97 124 74
97 125 75
98 125 75
95 123 74
91 118 70
94 121 72
96 123 74
98 125 76
93 120 71
95 123 74
97 124 73
95 123 74
96 124 75
97 124 75
97 124 74
95 123 74
95 122 72
97 124 75
95 123 74
95 123 74
94 122 73
108 132 94
207 217 226
201 212 220
207 218 229
201 211 221
197 208 215
200 209 215
207 216 224
209 219 229
208 218 229
209 219 229
205 215 225
196 207 216
202 213 223
202 212 221
204 214 222
200 210 216
203 213 221
203 212 220
203 212 221
200 210 219
200 210 218
198 209 217
205 215 223
203 213 222
204 214 220
205 215 223
204 214 223
208 217 227
195 207 216
99 127 78
89 115 68
96 124 75
93 120 71
93 120 72
96 124 74
96 123 74
98 126 76
96 123 74
96 123 74
100 128 77
97 125 75
95 122 73
99 126 75
97 123 73
97 124 74
97 124 74
91 118 71
97 125 75
97 125 75
95 122 73
96 124 75
98 124 77
120 142 113
134 153 135
167 181 177
182 194 196
197 207 216
204 214 223
106 131 90
99 126 76
96 123 74
96 124 74
98 126 75
95 122 73
94 121 73
97 124 74
98 126 75
94 121 73
96 123 74
97 124 74
98 125 75
93 120 72
97 124 75
96 124 74
98 126 76
94 121 72
92 119 72
95 122 73
94 121 72
95 122 72
98 126 76
94 122 73
95 123 74
93 120 72
96 123 74
93 120 72
95 122 73
201 211 220
205 215 222
200 210 217
209 218 229
200 211 220
207 217 226
202 212 221
208 217 225
201 211 220
203 213 221
206 216 225
201 212 225
205 214 222
208 217 226
199 210 220
206 217 226
196 206 216
202 213 224
206 216 226
211 220 229
199 209 217
197 207 215
206 216 225
204 214 225
211 220 229
208 217 226
201 211 219
203 213 222
163 178 169
98 125 75
94 121 72
98 126 75
93 120 72
97 125 75
97 125 75
94 122 73
96 123 74
95 122 73
97 125 75
94 122 73
95 122 73
95 122 73
96 123 74
94 121 72
97 124 74
100 128 76
95 122 73
93 121 72
95 122 73
97 125 75
99 126 75
93 120 71
101 128 77
97 124 75
94 121 72
93 119 71
160 174 164
198 208 212
206 216 223
203 212 221
198 209 218
211 220 230
206 216 226
198 209 217
203 213 221
210 220 229
208 217 227
202 213 220
202 212 221
211 220 230
203 213 223
200 211 220
196 207 215
202 212 221
206 216 225
203 214 225
201 212 221
201 211 220
204 214 225
202 212 221
201 212 221
203 213 221
200 211 220
164 178 172
94 122 73
96 123 73
93 121 73
99 127 76
99 127 77
96 123 74
94 122 73
99 126 76
94 122 74
92 119 71
96 124 74
95 122 74
96 124 76
96 124 74
98 125 75
95 122 74
97 125 75
97 125 76
96 124 75
93 120 72
97 125 75
97 124 74
97 125 76
98 125 75
96 124 74
138 156 140
204 215 226
204 214 224
202 212 221
207 216 224
191 203 209
201 211 218
205 214 223
202 211 219
203 213 222
205 215 223
199 210 217
204 215 225
206 216 224
195 206 214
202 212 218
206 215 224
198 208 216
211 219 228
206 216 227
209 219 228
202 211 221
200 211 219
201 210 217
206 214 220
192 203 206
95 122 73
99 126 76
94 121 73
94 121 72
96 123 74
96 124 74
97 124 74
96 124 75
96 123 74
95 122 73
96 124 74
97 125 74
94 121 73
96 124 75
92 119 71
95 122 72
97 125 75
95 121 72
95 123 73
96 123 74
97 125 75
95 123 74
95 122 74
122 145 114
201 211 220
204 213 220
203 214 222
204 213 221
212 221 230
212 222 233
202 213 223
205 214 222
201 212 221
204 213 222
204 214 222
204 214 224
203 213 222
207 216 225
200 209 216
203 214 224
202 213 222
203 213 223
207 216 225
209 218 227
205 214 221
201 211 221
156 171 161
98 125 75
95 122 73
96 123 74
90 117 70
95 122 73
95 122 73
95 122 73
96 123 74
95 122 73
96 123 74
98 125 75
94 121 72
204 214 223
208 218 226
204 214 223
188 200 203
156 171 160
110 135 97
96 123 74
178 191 189
200 210 219
212 221 230
202 211 220
208 217 227
199 210 221
206 216 225
202 212 220
206 215 223
208 217 227
203 213 221
209 217 225
200 211 220
199 210 218
199 209 217
203 213 221
204 214 224
199 209 217
199 209 216
209 219 228
205 214 224
208 218 227
195 205 213
202 212 220
205 214 221
205 214 222
211 220 230
96 124 75
97 124 74
94 121 72
97 124 74
96 124 74
95 123 73
94 121 72
96 124 75
97 124 74
119 142 111
161 176 169
198 208 216
206 216 225
196 207 215
202 212 222
206 216 225
198 209 217
200 211 220
209 219 228
200 210 218
203 213 222
208 218 230
199 209 216
207 217 227
207 216 226
213 222 232
197 207 214
176 190 187
94 121 73
94 122 73
94 122 73
94 121 72
96 123 74
95 122 74
95 122 73
91 118 70
98 125 76
95 122 73
95 123 74
96 124 75
96 124 75
95 123 74
101 129 78
94 121 72
93 120 71
97 125 75
98 126 77
93 120 72
96 123 74
98 125 76
93 120 72
96 124 75
98 126 76
97 125 75
93 120 72
98 125 75
205 215 224
203 213 220
207 216 226
211 221 231
203 213 222
201 210 216
199 209 217
179 191 190
141 159 141
106 132 91
98 125 75
96 124 74
96 123 73
98 126 76
95 122 73
96 124 74
94 121 73
96 124 75
91 118 71
96 123 74
96 123 74
98 126 75
98 126 76
97 125 75
95 122 72
97 124 75
94 121 72
95 122 73
128 149 122
204 214 224
207 217 226
207 216 223
201 212 221
204 215 224
211 220 231
199 210 220
198 209 219
203 213 223
204 214 223
207 216 224
202 212 221
199 210 218
208 218 227
205 215 224
211 220 229
195 206 214
198 209 218
203 213 221
202 212 221
197 207 213
206 215 222
200 211 220
198 209 216
203 213 222
199 209 216
200 210 218
204 213 222
184 197 201
93 120 72
93 121 72
97 125 75
95 123 73
92 119 71
96 123 73
94 121 72
97 124 74
98 126 76
96 123 74
95 122 73
95 123 73
96 123 74
96 124 74
94 121 72
96 123 74
93 120 72
96 123 74
94 121 71
98 126 75
98 125 75
93 120 72
98 125 75
96 123 74
98 125 75
97 124 75
94 122 74
100 127 81
144 162 147
160 174 167
137 157 140
126 148 120
97 124 75
93 121 74
97 124 75
93 121 72
95 122 73
92 119 71
94 121 73
96 123 74
97 125 75
96 124 74
97 124 74
97 125 76
90 117 70
96 123 74
96 123 73
92 119 71
93 120 72
94 122 73
99 127 77
97 124 75
93 120 72
94 121 72
96 123 73
97 124 75
99 127 76
136 155 135
208 218 228
205 215 223
194 205 212
203 213 220
208 218 227
204 214 223
196 206 213
205 215 223
206 216 225
208 217 227
202 213 223
209 218 228
200 211 219
202 212 222
202 212 219
208 217 226
209 218 229
205 215 224
207 216 226
206 216 224
198 208 216
195 205 212
206 216 225
195 206 215
209 218 228
204 214 222
207 216 225
209 218 226
121 143 114
95 123 74
94 120 71
95 122 73
97 124 75
91 118 71
96 123 74
97 125 76
94 122 73
97 125 74
96 124 74
98 126 75
94 121 73
95 123 73
96 123 74
92 119 71
97 125 76
99 127 76
95 122 73
92 119 70
96 123 73
93 120 72
95 121 72
95 122 72
97 124 74
96 123 74
100 127 77
105 130 90
200 210 219
203 214 225
206 216 225
194 205 212
206 216 226
202 212 220
212 221 231
198 208 215
208 218 229
206 217 228
198 208 217
197 208 214
205 214 223
206 215 224
199 210 220
203 213 222
202 212 221
208 217 224
203 213 220
199 210 218
207 217 225
207 217 225
208 218 227
203 213 223
199 209 217
201 212 220
204 214 224
106 131 92
92 119 71
93 120 71
94 121 72
94 122 73
97 125 76
99 126 76
95 123 74
95 123 73
99 127 76
95 122 73
94 121 72
94 122 74
94 121 72
97 124 74
96 123 74
98 126 75
95 122 73
97 124 74
95 122 74
97 125 75
96 123 73
98 125 75
95 122 73
93 120 72
97 125 75
178 190 190
201 212 221
204 214 224
208 217 227
202 211 218
203 213 220
205 214 223
205 215 226
199 210 217
204 214 224
206 215 224
202 212 220
196 207 214
215 223 234
212 221 232
206 216 224
201 211 219
203 213 221
207 216 226
210 220 229
201 210 218
206 216 225
206 216 226
203 213 222
202 213 221
131 150 127
94 122 73
95 123 73
97 124 75
96 123 74
93 120 72
96 124 74
95 122 73
97 124 75
101 128 77
97 124 75
96 123 74
99 127 76
97 125 75
97 125 75
99 126 75
98 125 75
95 121 72
94 122 74
93 120 72
94 121 72
96 124 74
96 124 75
103 129 84
197 207 213
206 216 226
203 213 220
200 211 221
200 211 219
206 216 225
203 214 223
202 213 223
205 216 226
203 213 220
203 214 223
204 213 222
204 214 223
206 215 223
201 211 219
208 218 230
202 212 221
211 219 227
206 216 225
204 214 224
197 208 216
201 211 220
166 180 175
94 122 73
96 123 74
93 120 71
98 125 75
92 120 72
94 121 72
96 123 74
95 122 73
97 124 75
100 127 76
93 120 71
99 127 76
98 126 76
201 212 220
201 211 220
209 218 227
199 209 217
204 213 223
198 209 216
168 183 181
175 188 188
200 211 220
201 211 219
204 215 224
202 213 221
204 214 222
205 215 224
203 212 219
203 214 224
203 213 222
210 219 229
199 210 219
204 214 224
204 214 222
206 215 226
203 213 222
208 217 226
203 214 224
201 211 220
204 214 224
205 214 223
212 221 232
210 219 229
202 213 222
210 219 228
193 204 211
201 211 219
104 129 87
95 122 73
96 123 73
95 122 73
95 122 73
95 123 73
91 118 71
95 123 74
96 123 74
97 124 75
98 126 76
102 128 82
140 157 139
169 183 180
209 218 225
201 211 219
207 217 227
203 213 221
200 210 218
206 216 224
202 212 219
204 214 222
212 221 229
202 211 219
203 212 219
207 216 224
206 216 227
175 189 186
96 123 74
98 126 75
94 121 72
94 122 73
95 122 73
93 120 72
98 125 74
95 123 73
96 124 74
97 124 75
93 120 72
97 124 75
98 125 75
94 121 72
99 127 77
96 124 74
94 121 73
95 123 73
94 121 73
96 123 74
96 124 75
93 120 72
98 125 75
96 124 75
98 125 75
100 127 77
97 124 75
103 128 84
200 211 221
208 217 225
205 215 222
204 213 223
206 216 225
204 213 223
207 217 227
202 212 222
203 213 220
200 210 217
174 188 186
152 167 155
109 133 95
95 123 74
96 123 74
100 127 76
96 123 74
96 124 74
95 122 72
96 123 74
94 122 72
95 122 73
92 119 71
97 124 75
96 123 74
93 120 71
97 124 74
100 128 77
157 173 159
206 215 222
200 211 220
196 206 210
206 216 227
200 210 217
208 217 227
203 212 219
211 220 230
208 217 226
206 215 225
196 206 215
196 207 215
198 207 213
199 209 215
209 218 227
206 215 224
209 218 226
205 214 224
201 211 221
210 220 230
207 216 225
203 213 220
203 213 221
203 213 222
204 213 220
200 210 217
209 218 227
206 215 222
176 190 189
95 122 72
95 122 72
96 123 74
96 124 74
93 121 72
95 122 73
96 124 74
97 125 76
94 121 73
95 123 74
96 123 74
97 125 75
93 120 72
97 124 75
94 121 72
98 126 76
96 124 74
99 126 76
95 122 72
96 124 74
95 122 73
96 123 73
95 122 73
96 123 74
96 124 75
98 125 75
94 122 73
96 123 74
153 170 159
200 210 218
206 215 224
200 211 221
203 213 221
192 203 207
177 190 187
144 162 147
118 141 110
98 125 77
97 124 75
96 123 74
97 125 75
96 123 74
92 119 71
94 121 73
94 122 73
99 127 76
95 123 74
96 124 74
95 122 73
99 126 75
96 123 75
98 125 75
96 124 74
92 119 71
98 126 75
95 122 73
97 125 75
174 188 183
204 214 223
205 214 219
205 215 225
200 211 219
203 214 222
200 211 220
197 207 214
207 217 227
205 215 224
212 221 231
200 210 219
201 212 220
201 211 220
202 212 221
203 212 221
210 219 229
209 217 225
199 210 221
194 205 210
203 213 222
204 214 222
199 209 217
197 208 215
202 212 220
205 214 222
204 215 226
210 219 228
180 194 197
95 122 73
96 123 74
98 125 75
92 120 72
97 124 74
92 119 71
93 119 71
94 121 72
96 123 74
93 121 73
93 120 72
92 120 72
96 124 75
97 123 74
94 121 73
98 126 76
99 126 76
96 124 75
95 122 73
97 125 75
95 122 73
96 123 74
97 124 74
93 120 72
94 122 73
98 125 74
100 128 77
153 169 157
200 211 219
201 212 222
200 210 218
207 217 227
199 210 218
205 214 222
198 208 215
201 211 218
205 215 223
205 215 223
199 210 218
203 213 223
202 212 222
198 209 217
198 208 214
202 211 219
213 221 232
200 211 219
204 214 223
205 216 227
207 216 225
198 209 216
207 216 225
212 221 232
205 215 225
207 217 226
165 178 173
93 121 72
98 126 76
94 121 72
94 122 73
94 121 72
95 123 73
98 126 75
96 123 74
97 125 75
95 122 73
95 123 74
95 123 74
99 126 75
95 123 74
96 123 74
93 120 71
93 120 72
96 124 74
97 124 75
92 120 72
99 127 76
94 121 72
96 124 74
94 121 72
98 126 76
149 166 149
206 216 226
203 213 222
207 217 227
211 220 229
206 216 226
200 210 218
200 211 219
197 208 215
201 211 220
205 215 224
204 213 222
199 209 218
195 205 210
195 205 211
201 212 222
210 219 230
203 213 221
207 216 226
202 212 222
204 213 220
206 215 225
202 212 219
204 214 224
202 212 220
189 201 203
98 126 75
94 121 72
95 123 74
93 121 73
96 123 73
94 120 71
96 123 74
93 120 71
94 120 72
94 121 72
96 124 74
95 123 74
98 126 76
95 123 75
93 120 72
97 125 75
98 125 76
96 123 74
97 124 74
95 122 73
95 122 72
94 121 73
95 122 73
171 185 180
203 213 223
199 210 218
199 208 215
209 217 225
202 212 220
207 217 226
200 211 219
206 216 227
208 217 226
200 211 220
204 213 221
203 213 223
199 210 219
202 212 221
210 218 226
211 221 231
206 215 223
197 207 215
206 216 225
204 214 224
199 210 217
190 201 206
103 128 86
96 124 74
97 125 75
98 125 75
97 124 75
93 120 72
95 122 73
95 122 73
95 123 74
95 123 73
94 122 73
93 120 71
98 126 75
96 124 74
208 218 227
205 215 225
197 208 214
209 218 225
203 214 222
198 209 217
214 222 232
167 182 177
122 143 114
168 184 179
199 208 213
202 211 219
208 217 226
215 224 234
204 213 220
207 217 226
207 216 224
199 210 219
198 208 215
209 218 228
201 212 221
198 209 218
211 220 229
196 207 216
210 219 228
209 218 227
208 217 225
199 210 218
202 213 221
209 217 222
197 207 214
202 212 220
205 215 225
200 210 217
119 141 111
99 127 76
95 122 73
95 122 73
95 121 72
98 126 76
96 124 74
96 123 74
95 122 74
89 116 69
99 126 75
97 124 74
93 121 72
97 124 74
111 135 96
146 163 146
179 192 192
194 205 212
206 216 225
201 212 221
205 216 226
205 215 222
198 209 218
200 210 218
201 212 221
203 213 222
208 217 225
171 185 180
94 121 72
95 122 73
96 123 74
93 120 72
98 125 75
95 122 73
98 126 76
94 121 73
94 121 72
100 127 77
93 120 71
100 127 76
90 118 71
96 124 75
97 125 75
97 125 75
95 123 74
98 125 76
97 125 75
94 121 72
95 123 74
98 125 75
94 121 72
95 122 72
97 124 74
96 124 74
97 125 75
107 132 95
202 213 223
199 209 216
196 207 216
204 213 221
197 207 214
198 209 218
208 217 225
199 209 217
211 220 229
198 209 218
205 215 222
202 212 221
205 215 223
193 203 207
161 176 169
126 147 123
93 120 71
97 125 75
96 123 74
94 121 72
97 124 74
90 117 69
99 127 76
94 122 73
97 125 75
92 119 71
97 124 74
100 127 77
158 174 164
199 210 218
202 212 221
198 208 215
200 211 218
204 214 223
203 212 219
208 217 227
202 213 222
200 210 216
202 211 218
204 214 221
208 217 225
200 211 219
209 218 226
209 218 227
208 218 228
208 218 230
204 213 220
198 209 216
210 219 228
203 214 222
207 216 225
198 209 214
204 214 224
206 216 225
214 223 234
208 217 226
207 216 225
159 174 164
95 123 74
95 122 73
94 121 73
98 126 76
94 122 73
96 124 74
97 124 74
94 121 72
96 124 75
97 125 74
96 123 73
94 122 73
94 121 73
95 123 73
98 125 75
97 124 75
98 125 75
91 118 71
94 121 73
94 122 73
98 125 75
100 128 77
93 121 72
94 121 73
92 119 71
96 124 74
100 128 77
99 126 76
182 195 196
203 214 224
201 211 220
201 211 218
208 217 227
201 212 222
205 216 227
202 213 222
199 209 217
200 211 219
190 201 206
164 179 174
152 168 156
128 148 127
99 126 80
98 125 75
93 120 72
97 124 74
93 120 72
95 122 73
97 124 75
98 125 75
92 119 70
90 117 70
96 123 73
94 121 72
98 125 75
100 128 77
91 117 72
200 211 217
208 218 228
205 215 224
205 214 222
200 210 219
206 217 229
209 218 227
209 217 224
209 219 228
205 215 223
209 218 228
201 211 220
209 218 227
204 213 221
200 210 217
202 211 220
202 212 221
200 210 220
199 210 217
200 210 218
207 217 227
207 217 227
206 216 224
194 205 212
204 213 223
200 211 220
200 210 219
197 207 215
148 164 149
97 125 75
95 122 73
96 123 73
96 123 74
93 120 73
96 124 74
95 122 73
97 125 75
98 125 75
95 122 73
96 123 74
95 122 73
99 126 75
98 126 76
95 123 73
91 118 70
97 124 75
99 127 76
90 118 70
94 121 72
100 128 77
96 123 73
93 120 71
97 124 74
95 122 73
96 123 74
96 123 74
194 205 208
199 210 219
205 215 224
202 213 224
208 217 226
208 217 225
201 211 219
202 212 221
208 218 227
204 214 223
203 213 223
203 213 221
205 214 222
199 209 218
196 207 215
201 211 219
208 218 227
201 211 220
206 217 229
207 216 225
206 215 225
205 215 223
201 211 220
207 216 224
203 212 220
202 212 220
206 216 225
111 134 99
97 124 74
93 121 72
93 121 72
97 124 74
95 121 72
95 122 74
95 123 74
95 122 73
95 122 74
93 120 72
96 123 74
99 126 75
97 124 75
96 124 75
94 121 73
95 122 73
96 123 74
93 121 72
97 125 75
96 123 73
94 122 73
96 124 75
94 121 73
94 122 73
103 129 85
192 203 208
205 214 220
202 213 221
206 215 224
209 218 228
207 217 226
201 211 219
203 213 222
207 216 225
203 212 220
209 218 228
205 215 225
197 208 217
203 213 222
204 213 220
205 215 225
207 216 223
205 215 224
204 213 219
205 215 224
209 218 227
194 205 213
197 208 216
199 209 217
202 212 220
109 132 97
95 122 74
98 126 75
95 122 73
93 120 72
98 127 77
95 123 74
97 125 75
95 122 73
98 126 75
95 122 73
96 123 73
95 122 73
97 125 76
95 123 75
95 122 74
97 124 75
93 120 72
96 123 74
94 122 73
94 121 72
94 122 73
94 122 73
127 147 120
196 207 214
203 214 224
207 217 227
204 214 222
206 215 223
202 212 220
202 212 221
209 219 229
193 204 209
210 219 229
200 211 219
206 216 225
205 214 223
204 214 223
205 215 226
203 212 220
208 217 227
203 213 221
206 215 225
199 209 216
202 212 220
207 216 225
132 151 130
97 125 75
96 124 74
93 120 71
97 125 75
97 124 75
96 123 74
94 122 73
93 120 72
97 125 75
98 126 76
98 126 76
93 120 72
98 125 75
98 126 76
202 213 223
204 215 225
209 218 225
203 213 223
203 213 221
204 213 221
199 209 216
186 198 200
97 124 75
98 126 76
111 135 99
157 173 165
183 195 197
205 215 224
206 216 225
195 206 212
207 217 226
200 211 221
201 211 219
204 215 225
193 204 211
205 215 223
210 219 228
203 213 221
205 215 224
202 212 221
206 215 224
200 211 219
206 216 225
203 214 225
207 217 226
210 219 228
199 209 217
203 213 221
126 148 125
96 123 74
94 122 73
96 123 73
95 123 73
96 123 74
98 126 75
97 124 74
94 122 73
96 123 74
96 124 74
97 125 75
95 123 74
99 126 76
97 124 73
96 124 74
91 118 70
110 133 99
161 176 167
190 202 207
202 213 221
205 215 223
209 219 229
203 214 223
207 216 223
202 212 221
201 212 222
171 185 181
99 127 77
97 124 75
97 124 75
99 127 76
93 119 71
95 122 74
96 123 74
98 126 75
96 123 73
96 123 73
95 123 74
94 121 73
92 119 71
95 122 74
92 118 70
98 126 75
95 123 73
96 123 74
95 122 73
93 120 72
98 126 76
99 126 76
96 123 74
95 123 74
94 122 74
98 125 75
92 120 73
116 138 107
206 216 223
197 207 213
201 212 221
203 214 224
207 216 227
202 212 219
205 215 226
209 219 231
196 206 213
206 215 223
201 212 221
201 211 219
205 214 223
203 213 221
207 217 225
202 212 220
198 209 215
174 188 187
141 158 139
109 132 97
96 124 74
95 122 73
96 124 74
97 125 75
94 122 73
100 128 77
96 123 74
97 125 76
166 179 175
203 213 222
200 210 217
199 209 215
205 214 223
199 210 218
203 213 223
205 215 224
203 213 222
204 213 221
197 208 217
206 215 224
209 219 229
203 214 222
199 210 220
204 214 223
202 212 219
201 211 220
205 215 224
206 216 226
207 216 225
203 213 222
206 215 223
202 212 222
203 213 222
201 211 217
208 217 228
206 216 224
212 221 230
136 154 134
94 121 72
95 122 73
96 124 74
96 124 75
95 122 73
92 119 71
95 123 74
93 120 71
100 128 77
93 119 71
92 119 71
95 122 73
96 123 73
95 122 73
94 121 72
95 122 73
99 127 76
96 124 74
94 122 73
97 125 75
97 125 75
96 124 74
97 125 75
97 125 75
94 121 73
96 124 74
96 123 74
93 120 71
198 209 214
208 217 225
196 205 212
206 216 226
207 217 226
204 213 221
203 213 222
201 211 219
205 214 221
203 213 222
202 212 221
209 219 228
206 215 225
200 210 216
207 217 227
193 203 206
179 192 190
169 182 178
141 159 140
125 145 116
94 121 75
94 122 73
93 121 72
97 124 74
97 124 75
93 120 72
96 123 74
96 123 74
134 152 131
198 208 217
202 212 219
203 213 225
201 211 220
214 223 235
213 221 231
197 208 215
207 217 227
205 214 221
201 212 220
207 217 227
207 217 227
201 211 219
205 215 226
205 215 224
204 214 222
194 205 212
204 214 222
212 221 232
200 210 217
200 211 220
200 211 221
202 212 221
201 210 217
199 209 220
206 216 226
202 212 223
192 203 208
97 123 79
93 120 71
96 123 73
96 123 74
97 125 75
94 122 73
97 125 75
95 122 73
98 125 75
97 123 73
95 123 74
93 121 73
97 124 74
97 124 75
96 124 74
96 123 73
95 122 73
96 123 73
94 121 72
94 121 72
96 123 73
98 125 75
94 121 72
95 123 74
99 127 77
94 121 72
93 120 71
133 153 130
202 212 219
200 210 216
203 214 223
203 213 222
203 212 220
202 212 220
206 216 224
201 211 219
203 213 220
206 216 224
205 215 224
206 215 224
205 214 222
201 212 221
208 217 227
207 216 224
204 214 222
206 215 224
207 218 230
204 214 222
200 211 220
205 215 223
199 209 217
203 213 222
210 220 229
199 210 217
173 187 185
93 121 72
97 125 74
97 124 74
95 122 73
94 121 73
96 123 74
98 125 75
96 123 74
97 124 74
98 125 75
94 122 74
97 124 74
92 119 71
96 124 74
95 122 73
95 122 73
97 124 75
95 122 73
98 125 75
92 120 72
96 123 74
96 124 74
95 122 73
93 120 72
95 122 74
161 176 167
196 206 214
202 211 219
209 218 226
202 211 219
206 215 222
200 211 220
206 217 227
204 214 222
207 217 227
204 214 222
205 214 222
211 221 231
202 212 220
205 215 225
210 219 228
206 215 224
206 215 224
207 216 225
193 203 210
205 215 224
205 215 225
204 214 223
196 207 216
201 210 218
154 170 158
96 123 73
98 125 75
97 124 75
93 120 72
95 122 73
97 124 75
97 125 75
96 123 74
94 121 72
98 126 76
95 122 74
92 119 70
98 126 76
97 124 74
95 123 73
100 128 77
95 123 73
97 124 73
98 126 75
98 125 75
96 123 74
97 125 74
101 127 84
191 203 207
206 216 225
207 216 227
203 212 219
203 214 224
198 208 215
203 213 223
200 211 219
203 213 221
207 217 226
199 210 219
204 214 223
201 210 217
200 210 217
195 206 214
214 222 231
202 212 220
206 215 224
202 212 220
206 215 223
205 215 224
202 212 219
151 167 154
97 124 75
95 122 72
96 122 72
98 125 74
92 119 70
96 123 74
94 121 72
97 125 75
94 122 73
94 121 72
95 122 73
94 121 72
99 126 76
98 125 76
97 124 74
202 212 221
196 206 213
210 220 231
202 212 220
209 218 227
205 215 225
197 208 216
191 203 207
94 121 72
95 123 74
97 124 74
94 121 72
93 120 72
131 151 126
178 191 189
202 212 219
198 209 217
205 215 224
205 214 223
204 214 224
201 212 221
205 215 224
204 213 223
205 214 224
201 211 220
210 220 231
194 205 212
200 210 218
205 216 225
208 217 227
206 216 226
199 210 218
195 206 212
197 207 214
140 159 140
96 123 74
93 120 71
94 122 73
97 125 75
98 125 75
96 124 74
97 125 75
96 124 74
95 123 74
98 125 75
96 123 74
95 123 74
94 122 73
95 122 73
97 125 76
94 122 72
94 121 72
95 122 73
95 123 74
130 149 126
158 174 166
198 208 216
202 212 221
207 216 224
201 211 221
197 207 213
169 182 180
92 119 71
94 121 73
96 124 74
95 123 74
99 127 76
95 122 73
99 126 76
97 125 75
97 124 74
98 126 76
97 125 75
94 121 72
94 121 72
93 121 73
95 122 72
94 121 73
96 123 74
96 124 74
99 127 77
94 121 73
95 123 74
98 125 75
93 121 73
94 121 73
94 121 72
96 123 74
98 126 76
131 151 125
203 213 224
197 207 215
213 222 234
197 207 216
201 212 221
208 217 227
191 202 209
205 215 223
204 214 223
197 207 214
206 215 224
201 212 219
209 219 231
203 212 221
208 218 226
208 217 226
203 213 220
204 214 223
202 213 222
199 209 213
188 200 205
152 169 158
134 153 131
96 124 74
97 124 75
96 123 74
97 124 74
99 126 75
183 195 195
207 217 226
205 216 226
203 213 223
201 211 219
204 213 219
204 214 224
201 210 217
203 213 221
192 203 210
207 218 228
198 209 215
209 218 229
209 218 227
207 217 226
202 213 222
204 213 221
206 215 224
204 214 223
204 214 224
206 216 226
205 215 224
200 211 218
209 218 227
206 216 225
202 211 219
200 210 218
202 211 219
205 215 224
111 136 97
94 121 73
95 123 74
97 125 75
94 121 73
96 123 74
94 121 72
95 123 74
96 124 74
95 122 73
96 124 74
95 123 74
97 125 75
92 119 71
97 125 75
95 122 73
99 127 76
96 123 73
97 125 75
97 125 75
99 127 77
97 125 75
91 118 70
97 125 75
88 114 68
94 121 73
91 117 70
93 121 72
110 135 99
203 214 224
197 207 215
205 215 225
204 214 222
204 214 222
201 212 221
200 210 219
211 220 230
207 216 224
203 214 224
201 212 222
205 214 223
208 217 227
203 213 223
200 211 219
210 218 227
210 219 227
200 211 221
202 212 221
207 217 227
197 208 215
195 206 212
174 188 186
146 163 151
138 157 136
116 140 103
98 124 77
94 121 73
161 176 170
202 212 221
200 210 219
202 212 219
203 213 221
206 217 227
203 212 220
208 217 227
206 216 225
202 212 219
208 218 228
199 210 217
201 211 219
195 205 213
194 206 215
204 214 222
201 211 219
207 216 225
206 216 226
204 213 222
198 209 217
198 208 215
201 211 221
202 212 221
203 212 221
208 218 228
197 207 214
201 211 219
171 185 183
96 123 74
98 125 75
97 124 75
97 124 74
93 120 71
98 126 76
96 124 75
97 124 74
94 121 72
96 123 73
95 123 73
93 120 72
96 123 74
91 118 71
94 121 73
97 124 75
96 123 74
96 124 75
94 121 72
95 123 74
96 124 74
97 125 75
92 120 72
98 126 76
98 125 76
98 125 75
96 124 74
182 194 196
205 214 222
197 208 216
209 219 229
195 205 211
210 219 228
196 207 215
201 211 220
201 211 220
207 216 224
206 216 225
201 212 222
202 212 221
201 211 219
197 208 216
205 215 225
202 211 218
199 209 217
205 215 225
200 211 219
199 209 217
203 212 221
201 211 218
205 216 226
210 219 228
205 214 222
204 213 222
110 134 96
98 125 75
99 127 77
94 121 72
94 121 72
95 122 74
93 121 72
93 120 72
97 124 75
97 124 75
97 124 74
94 122 73
96 123 74
97 124 74
94 122 74
95 122 72
97 124 74
96 123 74
94 121 72
94 121 72
95 122 73
97 124 74
96 123 73
95 123 74
99 127 76
116 138 106
203 214 224
198 209 216
206 215 224
203 213 223
207 217 230
198 209 216
205 215 225
208 218 227
209 218 227
205 214 221
202 212 221
200 210 218
208 217 226
200 210 219
201 211 219
196 206 213
198 208 216
200 210 217
208 217 227
207 218 229
202 212 219
208 217 226
197 208 216
201 210 218
188 199 201
96 122 76
96 123 74
96 124 75
95 123 73
93 121 72
93 121 73
92 119 70
94 121 71
95 123 74
99 127 77
96 123 74
96 123 74
94 121 73
94 121 72
97 124 75
90 117 70
95 122 73
91 119 71
95 122 73
97 125 74
94 121 73
98 126 76
93 121 73
162 177 168
205 216 226
202 212 219
199 210 218
203 213 222
210 218 225
199 208 215
195 206 213
195 206 214
202 213 221
206 216 225
204 214 222
205 215 223
206 216 224
206 215 222
203 212 221
208 217 226
202 213 222
202 212 220
202 213 223
200 209 215
194 206 214
177 190 191
95 121 75
98 126 76
94 121 72
97 125 76
94 122 73
95 122 74
96 123 74
94 121 72
94 122 74
94 122 73
93 120 72
96 123 74
95 121 72
92 120 71
98 126 76
96 124 74
136 154 139
142 159 142
154 170 158
145 164 150
141 159 143
157 173 162
146 163 150
159 173 162
174 187 184
169 183 177
183 196 195
175 188 185
156 171 161
166 180 174
168 183 178
157 172 165
193 205 212
163 178 172
151 167 159
161 176 166
155 171 159
149 165 152
154 170 158
159 174 165
163 177 169
162 177 171
161 175 167
155 171 163
162 175 165
161 176 172
154 171 163
162 177 170
156 172 162
160 176 170
153 169 155
162 176 169
145 163 150
157 172 162
151 166 155
146 163 147
154 169 156
158 174 163
155 171 159
147 164 149
155 171 157
159 174 165
153 169 159
151 167 154
155 170 161
150 167 152
153 170 158
151 167 156
145 163 147
140 158 139
136 154 138
136 154 137
136 155 135
159 175 170
185 197 201
174 187 184
185 197 196
156 173 161
146 163 151
143 161 144
141 159 144
142 160 141
145 163 146
122 144 118
132 151 133
133 153 134
141 159 140
140 159 138
147 164 151
146 163 146
129 149 126
142 160 143
136 155 137
141 159 142
134 152 133
132 152 127
148 165 151
134 153 135
141 161 145
142 159 141
146 163 150
136 154 134
139 157 143
133 153 134
129 148 125
150 167 155
179 191 191
180 193 193
178 191 189
185 197 201
177 190 189
183 195 196
181 193 193
173 186 187
179 192 192
186 198 201
170 185 185
183 195 198
182 194 197
183 195 198
176 189 188
184 197 200
171 185 184
182 195 195
188 199 201
190 201 207
186 198 199
195 206 212
187 199 200
176 190 188
150 166 156
113 136 103
123 144 117
121 143 115
181 194 195
193 204 210
188 199 201
182 194 194
185 196 196
189 200 203
179 192 190
195 206 213
179 192 193
187 200 203
188 199 203
188 200 203
193 204 209
185 197 199
189 201 205
175 189 187
187 199 201
190 201 207
181 193 194
190 201 204
178 191 191
178 190 187
183 195 198
183 196 199
192 203 207
189 200 202
184 196 201
193 203 205
182 193 193
118 140 107
113 137 105
134 152 130
114 137 105
124 146 118
114 137 105
117 139 106
128 148 123
121 143 115
110 133 99
123 144 116
112 135 102
129 149 124
111 134 97
122 143 115
125 147 119
116 138 104
123 143 117
118 140 111
117 140 111
106 131 92
124 145 114
128 148 122
119 141 112
110 134 98
117 140 112
116 139 106
128 150 125
143 161 147
174 187 188
195 206 216
189 201 207
191 202 206
199 210 217
196 207 215
183 195 197
186 199 202
190 201 203
193 204 210
190 201 205
193 205 210
199 209 215
193 203 207
189 201 206
192 203 207
200 210 217
192 203 210
182 195 198
198 208 215
188 199 203
188 199 204
197 208 215
189 200 203
188 198 201
182 195 198
180 192 194
182 195 197
160 176 168
177 191 191
183 196 201
203 213 222
193 204 209
190 202 206
187 199 203
190 201 204
183 195 198
193 204 208
195 206 212
197 206 212
190 202 206
190 201 205
189 200 203
189 201 206
194 206 214
191 201 206
187 199 203
180 193 196
193 204 209
197 207 215
188 199 201
190 202 210
196 207 214
198 208 212
184 196 198
194 206 211
146 162 148
117 139 108
129 149 121
108 132 98
117 140 111
115 139 104
124 145 118
120 143 115
116 139 110
123 144 116
109 133 95
126 147 116
128 148 124
117 139 106
123 142 120
104 130 86
129 150 125
125 146 120
127 147 120
123 145 116
127 147 122
113 137 105
115 138 108
116 138 104
125 144 117
123 144 113
115 137 105
133 152 133
192 203 206
196 208 212
189 201 206
197 207 212
185 197 200
197 207 213
186 197 201
173 186 182
189 201 205
185 196 201
189 200 203
181 194 196
184 196 199
188 200 205
191 203 207
187 199 201
176 189 190
183 194 197
191 203 207
184 196 201
196 207 214
187 199 202
189 200 201
187 198 200
172 186 185
177 189 185
164 179 174
126 147 121
123 144 119
129 149 123
128 147 121
128 147 122
130 149 129
121 142 114
136 157 137
128 148 122
124 146 122
133 152 132
136 155 132
139 158 137
139 157 138
126 146 118
127 149 121
137 156 134
132 151 131
141 158 140
129 150 125
138 157 137
135 154 135
127 147 120
135 154 132
139 157 139
151 168 155
173 187 187
176 190 188
183 195 196
176 188 185
182 195 196
179 191 193
169 183 178
175 189 189
181 194 194
184 196 199
162 176 170
179 191 189
179 192 191
173 186 184
175 189 187
169 182 176
179 191 189
175 188 185
162 177 167
177 189 187
175 188 187
159 173 164
179 192 190
170 184 179
160 176 171
139 156 141
151 167 152
144 162 144
138 157 141
155 171 160
144 160 146
142 160 147
144 162 147
143 159 145
148 165 149
142 160 142
138 155 138
141 159 142
154 170 160
145 161 147
140 158 143
145 162 147
136 155 134
150 167 154
150 166 154
154 170 161
146 163 148
139 158 138
166 180 172
159 174 166
158 174 166
164 177 171
150 166 153
166 180 173
158 173 163
159 174 165
155 172 162
160 175 167
156 172 160
161 176 168
154 170 160
161 176 170
164 178 170
165 179 173
147 165 152
160 175 167
151 168 155
155 170 161
152 169 156
165 179 171
180 192 192
165 179 171
164 180 172
163 179 170
160 175 165
142 160 145
169 183 180
173 187 182
158 174 166
165 179 174
174 188 188
167 181 175
173 186 181
165 180 177
170 183 178
155 170 160
151 168 156
94 121 73
94 120 71
96 124 74
94 121 73
96 123 74
93 120 71
97 125 75
94 121 73
179 191 192
197 208 214
202 212 219
205 215 223
205 215 225
202 212 220
198 208 216
207 216 226
202 212 222
200 210 216
186 198 201
142 160 142
94 120 74
95 123 74
98 125 75
94 121 72
95 122 74
96 124 74
95 123 74
96 124 75
93 120 71
96 123 73
99 127 76
98 125 75
93 120 72
95 123 74
160 176 172
201 211 219
202 212 219
196 207 214
200 210 219
205 214 222
196 206 212
197 209 217
208 218 228
198 208 215
205 214 225
204 213 222
202 212 220
210 219 228
202 212 222
209 218 225
208 217 226
199 210 220
205 214 222
205 215 226
202 212 219
199 209 218
198 209 218
204 213 222
200 209 216
202 211 220
183 195 196
168 181 175
195 206 212
208 217 226
203 213 221
203 214 223
198 209 217
193 204 212
201 211 219
200 210 218
204 213 222
203 214 223
204 214 224
198 209 216
201 212 222
198 209 217
206 215 225
198 209 218
206 214 222
202 212 222
202 212 220
203 213 219
211 220 230
198 208 215
196 207 214
198 208 213
191 202 210
204 213 221
202 212 221
164 179 174
93 120 72
93 120 71
95 123 74
97 125 75
94 121 72
94 121 73
93 120 72
96 123 74
95 123 74
93 121 73
94 121 73
95 123 74
95 122 74
95 122 73
97 124 75
94 121 72
97 125 75
96 123 74
92 119 71
93 120 72
93 120 72
98 125 75
92 119 71
95 122 73
98 126 75
98 125 75
95 122 75
119 142 109
163 177 172
132 151 130
102 128 85
93 120 72
96 123 74
96 123 74
97 125 76
98 125 75
96 124 75
95 122 73
95 122 73
94 121 73
93 121 72
98 126 76
95 122 72
93 120 71
96 123 73
96 124 74
99 126 75
99 126 76
96 123 74
97 124 75
94 122 73
99 126 76
96 124 74
97 124 75
99 126 76
96 123 73
143 160 144
197 208 216
207 216 224
202 212 219
202 212 220
207 217 227
206 216 226
195 205 211
209 218 228
203 213 223
202 211 218
202 212 222
197 208 216
205 215 225
206 216 226
203 213 220
208 218 227
199 210 219
208 218 230
201 211 220
201 212 221
207 217 226
199 210 219
203 213 221
198 208 216
197 208 217
199 210 218
201 210 218
197 207 213
120 141 114
93 120 72
95 122 73
93 120 71
94 121 72
98 126 76
97 125 75
93 120 72
97 124 74
97 124 75
94 121 72
94 122 73
96 123 74
94 121 72
95 123 74
97 124 75
94 121 72
95 123 74
96 124 75
97 125 75
95 122 73
93 120 71
97 125 75
94 121 72
93 121 72
97 125 75
94 122 73
93 120 72
133 152 132
203 213 220
212 221 232
205 214 222
202 212 221
199 210 217
186 198 201
179 191 191
158 174 169
140 157 141
120 143 110
113 136 105
95 123 74
98 125 75
92 119 71
98 126 76
92 119 71
95 123 74
96 124 75
98 126 76
97 124 74
98 126 75
97 125 76
91 119 71
92 119 71
95 122 74
96 123 74
96 123 74
115 139 104
208 218 228
199 209 216
207 217 227
205 215 225
202 211 219
193 204 211
205 215 224
201 211 219
207 217 227
205 215 226
203 212 222
200 210 216
198 208 217
199 209 218
193 204 210
197 208 218
199 210 219
202 213 222
205 215 222
204 214 221
202 212 221
203 213 219
202 212 220
195 206 214
195 206 214
203 213 221
195 207 215
143 160 147
95 123 74
93 121 72
94 121 73
97 125 75
95 122 73
97 124 75
98 125 75
98 125 75
94 121 72
97 124 74
96 124 74
97 124 74
95 122 73
96 123 74
96 124 74
93 119 70
95 122 74
93 121 72
100 128 77
95 122 74
94 122 73
96 124 75
97 125 75
92 119 71
94 121 72
98 125 78
193 203 209
194 205 213
204 214 223
199 210 217
205 215 224
203 214 223
203 214 223
204 215 226
200 210 217
208 218 228
200 210 216
204 213 221
207 216 225
205 216 226
194 205 212
205 216 227
209 219 229
204 214 223
200 211 219
200 210 218
203 213 222
200 210 218
206 215 223
192 203 211
205 214 221
195 206 213
98 125 77
93 120 72
94 122 73
94 120 72
97 125 76
91 118 71
98 125 75
95 123 74
94 121 72
97 124 75
91 118 70
93 120 71
97 124 75
98 125 75
97 124 74
95 122 73
98 125 75
91 117 69
93 120 72
90 117 69
93 120 72
97 124 74
98 125 75
96 123 73
152 168 157
204 214 224
199 210 219
195 206 212
202 212 221
208 217 226
200 211 220
205 215 226
195 205 213
202 213 221
208 218 227
207 216 223
201 212 222
206 215 223
199 209 215
204 214 224
202 212 219
205 215 223
205 215 225
207 216 226
202 213 222
203 213 220
200 210 218
200 211 219
118 140 110
94 121 73
97 124 74
95 123 73
96 123 74
95 123 73
94 121 72
97 125 75
95 123 74
96 124 74
93 121 72
94 122 73
96 123 73
97 124 74
92 119 71
97 124 74
98 125 75
93 120 72
98 125 75
95 122 73
95 123 74
98 125 79
178 190 190
200 210 218
204 215 226
201 211 219
207 216 223
211 220 230
207 217 227
207 217 226
200 211 221
201 211 219
185 197 199
177 189 187
147 164 152
142 159 144
122 143 113
103 129 85
95 122 73
95 122 73
92 119 71
92 120 72
95 122 74
96 123 73
97 125 75
98 125 74
94 121 73
99 127 76
173 187 186
198 209 217
195 205 212
202 212 221
206 216 224
202 212 221
200 210 219
210 219 228
204 214 226
194 204 212
207 216 226
204 215 225
193 204 210
159 175 168
113 136 105
96 124 74
95 122 73
99 126 76
93 120 71
93 120 71
94 121 72
95 122 73
97 124 74
94 121 72
94 122 73
96 123 73
149 166 157
212 220 230
205 213 221
201 212 221
200 211 220
196 207 214
204 214 225
191 201 207
206 216 225
199 209 216
199 210 220
198 208 215
203 213 221
201 212 220
202 212 221
206 216 225
210 218 227
204 214 224
202 212 221
206 214 222
200 210 218
201 211 219
204 213 221
199 210 217
200 210 218
212 221 230
198 207 214
175 187 186
102 128 85
152 167 158
177 190 189
198 208 215
210 219 228
207 216 225
210 220 230
200 211 219
202 212 221
199 210 216
204 214 222
203 213 221
196 207 214
206 216 224
203 213 222
196 207 219
199 210 217
194 205 212
202 213 222
204 215 225
204 215 227
200 211 221
208 217 226
210 219 228
195 206 213
206 215 223
204 213 222
164 179 171
97 125 75
92 119 70
94 121 73
95 122 73
95 123 74
95 123 74
98 126 75
90 117 69
96 123 74
94 120 72
94 121 73
94 121 73
93 121 73
93 119 71
93 121 72
92 119 71
96 123 74
97 124 74
96 123 74
96 124 74
97 125 75
96 123 74
92 120 71
98 125 75
96 124 75
96 124 74
95 121 72
112 135 101
206 215 225
212 221 230
207 218 229
185 196 198
145 163 149
126 146 121
97 125 76
97 124 75
96 123 74
96 124 74
98 126 76
97 124 74
90 118 71
94 122 73
96 124 75
95 122 73
95 122 73
93 120 72
97 125 75
96 123 73
95 122 74
93 121 72
96 123 74
96 123 75
94 120 71
94 121 73
96 123 74
97 124 74
158 173 166
203 213 222
205 215 224
206 216 224
204 214 223
208 217 226
207 217 228
198 209 215
200 211 218
208 218 229
205 215 225
204 213 221
202 213 222
207 216 225
201 211 219
206 216 226
207 216 224
204 214 223
200 210 218
198 209 217
199 210 218
203 214 223
204 213 222
203 213 223
204 214 224
195 206 213
205 215 224
203 214 223
203 212 217
101 126 83
95 122 73
92 119 71
91 118 71
96 123 74
93 120 72
93 120 71
90 116 69
95 123 73
97 124 75
95 123 74
98 125 75
97 124 74
95 122 73
96 123 74
96 124 75
94 121 72
94 121 73
95 122 73
93 120 72
98 125 75
97 125 75
94 122 72
93 121 73
93 120 72
94 122 72
96 123 74
95 122 73
168 181 174
201 211 219
199 209 216
209 218 226
202 212 221
203 213 221
201 211 219
200 210 218
196 207 214
201 212 221
201 211 220
200 210 218
194 205 211
178 191 193
177 190 187
149 167 153
146 163 145
128 149 126
113 135 102
95 122 73
89 116 69
98 126 76
97 125 75
95 122 73
95 122 72
97 125 75
96 123 73
94 122 74
177 189 186
194 205 212
201 212 222
202 213 222
205 214 221
209 218 227
203 212 219
201 212 222
201 212 221
199 210 218
205 215 225
209 218 228
199 210 222
209 218 227
200 210 217
203 213 224
200 211 220
204 212 218
203 214 225
198 209 220
203 214 224
197 207 215
202 213 222
207 217 225
200 210 219
207 217 224
196 207 214
181 193 193
98 126 81
97 124 75
94 121 73
97 124 74
95 122 72
95 123 74
96 124 74
96 123 73
94 121 72
99 126 76
97 125 75
94 121 73
97 124 74
92 119 71
95 122 74
97 124 75
98 126 76
96 123 74
93 121 73
95 122 73
96 124 75
93 120 72
95 122 74
97 125 75
94 121 73
97 124 74
143 161 147
201 211 220
206 215 224
197 207 216
204 215 224
200 210 218
202 213 223
190 202 209
201 211 219
198 209 220
195 206 212
210 219 228
204 215 225
203 213 221
207 216 224
199 209 217
200 210 219
202 212 220
202 211 219
202 212 220
197 208 217
191 202 211
206 216 226
203 213 222
202 212 221
207 217 226
134 153 134
91 118 70
97 124 75
95 123 74
94 121 72
97 124 75
95 122 73
95 121 73
94 121 73
97 124 74
98 125 75
93 120 72
98 126 75
96 124 74
92 118 70
96 123 74
95 123 74
97 124 74
96 124 75
97 125 75
94 121 73
91 118 70
99 127 77
96 122 73
119 141 107
198 208 214
208 217 226
207 216 226
198 209 218
203 212 220
199 210 218
200 210 216
203 213 221
198 208 215
201 212 221
206 216 224
204 213 221
199 209 217
193 204 210
202 211 218
200 211 220
206 215 224
207 217 227
197 207 215
203 213 220
194 205 211
208 218 228
208 217 225
146 163 149
98 126 76
99 126 75
96 124 74
93 121 72
94 122 73
93 120 72
95 122 73
94 122 73
94 122 73
97 124 74
93 120 72
97 124 75
95 122 74
96 123 74
95 122 73
95 122 73
96 124 74
97 124 75
93 120 72
96 124 74
95 122 72
172 184 180
201 211 220
193 203 209
206 215 223
191 202 207
176 189 187
168 182 180
166 179 172
132 152 127
110 133 98
98 124 80
95 122 73
97 124 74
98 125 75
96 124 75
91 118 70
95 122 73
94 121 73
92 118 70
93 120 72
93 121 72
95 122 73
96 124 74
96 124 74
96 123 73
95 123 74
97 124 73
148 164 149
199 209 218
209 219 230
199 209 218
196 207 214
205 215 223
197 208 215
198 208 215
198 209 217
202 212 221
196 206 213
207 217 227
204 214 223
200 210 218
200 211 218
180 193 193
146 162 146
103 128 86
97 125 75
97 125 75
96 123 73
96 123 73
96 123 74
97 125 74
91 117 69
95 122 72
140 157 142
201 211 219
204 214 223
201 211 220
203 213 221
203 213 221
198 209 217
198 208 215
199 208 216
200 210 219
198 208 214
210 220 231
204 214 223
198 209 218
210 219 228
204 213 221
201 212 222
206 216 226
203 212 219
195 206 214
206 215 222
202 212 220
201 211 218
203 213 221
202 212 223
191 203 209
200 210 218
177 190 189
92 119 71
96 124 74
93 120 72
104 129 86
144 161 145
180 192 193
205 214 221
198 209 217
200 210 219
206 215 224
190 201 209
205 215 225
206 216 226
206 215 225
188 200 207
206 215 225
204 215 226
202 211 219
201 211 220
199 210 218
200 210 217
201 212 220
203 213 220
203 213 220
205 215 223
198 209 218
201 211 221
161 176 167
95 123 73
91 118 70
96 124 75
97 125 75
95 123 75
98 126 76
94 121 72
92 119 71
94 121 72
97 124 74
93 120 72
98 125 75
96 122 72
97 125 75
96 123 74
96 123 73
96 123 74
95 122 73
96 123 74
92 119 71
97 125 75
96 124 74
96 123 74
95 123 74
95 122 73
97 125 75
95 122 73
130 150 128
203 213 222
199 210 220
204 214 224
202 212 220
202 213 223
202 212 220
198 208 215
186 198 199
143 161 145
113 136 101
99 126 75
97 125 75
95 123 73
94 121 72
96 123 74
95 122 72
96 123 74
96 124 74
95 122 73
96 123 74
98 125 75
96 123 74
95 122 73
97 125 75
97 124 75
96 123 74
92 119 71
93 120 72
180 192 191
204 215 225
205 215 223
198 209 217
202 212 220
198 208 215
197 207 214
199 210 218
211 219 227
202 213 221
204 214 223
207 216 225
198 209 216
201 212 219
196 208 216
205 214 223
202 212 219
209 219 228
196 207 212
207 216 226
199 208 214
202 213 223
205 214 221
196 207 214
208 218 229
209 218 228
202 213 222
209 218 229
188 199 202
98 125 75
98 125 75
91 118 71
98 125 75
98 126 75
98 125 75
94 121 73
97 125 76
93 120 72
96 124 74
94 122 73
97 125 75
95 121 72
95 122 73
93 120 71
97 124 75
96 123 74
96 123 73
95 122 73
96 123 74
95 122 74
93 120 72
97 124 75
93 120 72
95 123 74
94 122 74
92 119 71
95 123 75
191 202 209
199 209 218
199 210 220
198 209 216
201 211 220
201 211 221
205 215 224
207 217 227
209 218 228
201 211 218
201 211 218
194 205 214
199 209 216
198 208 216
211 220 229
201 211 220
207 217 226
206 215 223
201 212 220
206 215 222
181 194 196
188 200 204
168 182 174
157 172 163
144 162 146
132 151 129
108 131 94
110 134 95
200 210 219
203 213 220
203 212 219
205 214 223
205 215 225
204 213 221
206 216 226
206 215 224
202 212 220
197 207 215
199 210 220
201 211 220
197 206 211
206 215 223
201 211 218
209 218 226
201 211 218
206 215 223
204 214 223
203 213 223
201 211 220
209 218 228
202 212 220
201 211 219
204 214 222
208 219 229
204 214 221
145 163 150
97 125 75
95 123 73
95 122 73
96 124 75
96 123 75
97 124 75
100 128 77
92 119 71
95 122 73
97 124 74
94 121 73
96 124 74
99 127 77
95 123 74
95 122 73
95 123 75
94 122 73
97 125 75
95 122 73
98 125 75
94 121 72
92 119 71
99 126 76
96 123 73
96 124 74
107 132 93
193 204 208
196 207 214
204 214 223
198 209 218
198 209 217
197 207 213
208 218 230
205 215 222
205 214 223
207 216 224
201 211 219
204 213 221
205 215 224
200 210 217
204 213 221
205 214 221
196 207 215
199 210 218
202 212 221
203 212 217
201 211 220
207 217 227
198 209 217
199 209 216
207 217 227
169 183 182
96 123 73
96 124 74
93 120 72
98 125 75
93 120 73
95 122 74
98 125 75
100 128 77
98 125 75
95 122 73
95 122 73
94 121 72
97 124 74
93 121 72
96 124 74
95 122 73
95 122 73
93 120 72
98 125 76
99 127 77
96 122 73
97 124 75
94 122 73
95 122 73
172 186 183
196 206 213
198 208 216
206 215 223
199 210 219
199 210 218
209 218 228
200 210 219
201 212 221
198 209 218
203 213 221
209 219 230
205 214 221
200 211 218
205 215 224
198 209 216
206 215 224
199 210 219
204 214 222
206 216 228
197 208 216
203 214 223
195 206 213
175 189 188
95 123 73
93 120 72
95 123 73
90 116 69
93 120 72
93 120 72
93 120 71
90 116 70
97 125 75
92 119 71
91 118 71
96 123 74
93 120 72
96 123 74
96 123 74
97 125 75
94 121 73
92 119 71
100 126 81
126 147 119
147 164 148
127 147 125
140 157 138
135 153 133
114 136 104
96 123 74
96 123 74
93 120 71
91 118 70
98 126 76
97 124 75
96 124 75
93 120 72
92 119 71
96 124 74
94 121 72
94 121 73
91 118 70
95 122 73
97 125 75
97 124 74
95 122 73
96 124 74
94 121 73
94 121 73
91 117 69
96 123 73
95 122 73
97 124 74
125 145 120
202 212 219
206 216 224
209 218 228
201 211 219
207 216 226
202 212 220
200 211 221
199 209 217
211 220 230
200 210 219
196 207 214
205 215 224
202 212 222
206 215 223
196 206 214
207 216 227
206 216 223
173 187 183
125 145 119
94 121 72
97 124 75
97 124 74
95 122 74
93 120 72
96 124 74
139 158 141
197 207 214
203 212 221
203 213 220
200 210 215
204 213 221
197 208 216
203 212 220
200 211 219
209 219 229
202 212 221
204 215 225
199 209 217
206 216 225
207 217 226
198 208 215
210 218 227
201 212 220
202 212 221
201 211 218
202 211 218
196 206 215
199 209 219
205 214 223
199 210 217
206 215 221
203 213 222
167 180 177
93 120 72
98 125 75
95 123 73
95 122 73
96 122 73
97 124 74
98 123 81
129 150 126
178 190 188
187 199 202
197 209 218
203 213 222
202 213 223
200 210 217
200 210 219
199 209 216
204 214 223
203 214 223
201 211 218
202 211 219
203 213 220
206 216 224
206 216 225
202 211 219
204 213 221
196 206 214
204 214 222
159 175 166
93 120 71
93 120 72
97 124 74
95 123 74
95 122 73
95 122 73
92 120 71
97 125 75
95 123 73
94 121 72
95 123 74
96 123 74
97 124 74
93 120 71
94 121 73
93 120 71
96 124 74
91 117 70
94 121 72
97 125 76
96 123 74
96 123 73
91 118 70
98 125 76
100 127 77
93 121 72
97 125 75
142 159 145
195 207 216
203 213 223
203 214 223
207 216 225
207 217 225
207 216 225
209 218 228
198 209 218
199 209 218
204 214 224
175 188 189
172 185 183
142 161 141
108 133 93
96 123 72
93 121 73
97 124 75
96 123 74
94 121 73
98 126 76
96 123 74
97 124 73
94 121 73
92 119 72
94 121 72
97 124 75
94 120 72
90 116 69
198 208 215
208 217 226
197 208 215
198 208 216
207 216 225
204 213 221
205 215 226
199 209 215
202 212 220
201 212 220
199 210 218
201 211 220
199 210 219
195 206 213
205 214 223
202 213 222
204 213 219
201 210 217
204 215 224
209 218 227
204 213 220
195 206 214
199 210 220
207 217 226
206 216 227
207 216 225
202 213 221
201 212 222
162 177 170
93 120 72
94 121 73
93 119 72
92 119 72
95 123 74
95 122 73
95 123 74
97 125 75
95 123 74
97 124 75
95 122 74
97 124 74
97 124 75
96 124 74
95 122 72
94 122 73
96 123 74
95 122 73
98 125 75
92 118 70
95 122 73
95 121 72
93 120 71
96 124 74
93 121 72
93 120 73
94 121 72
126 147 122
203 212 219
196 208 216
205 215 224
207 216 226
202 213 221
198 208 216
204 214 225
201 212 224
201 210 217
208 218 228
199 209 217
207 216 224
198 209 217
200 211 221
199 209 216
204 214 223
196 207 213
205 215 223
205 214 221
200 210 219
197 208 216
193 205 212
206 216 226
204 213 221
205 215 224
201 211 218
206 216 226
167 181 178
111 135 100
131 150 128
141 159 140
164 178 170
173 185 182
181 192 192
176 189 192
190 202 209
199 210 219
205 215 224
193 205 212
195 206 214
207 217 225
203 213 222
198 209 218
209 219 228
208 216 224
194 205 212
206 216 226
202 212 222
201 212 219
203 213 222
204 214 224
194 205 213
206 215 224
205 215 225
185 196 201
104 129 87
97 125 75
95 122 73
98 126 76
94 121 73
93 120 71
98 126 76
93 120 71
94 122 73
94 122 74
95 123 74
93 120 72
95 122 73
94 121 73
95 122 73
98 125 75
92 119 70
95 122 73
93 120 72
95 122 73
97 125 75
94 121 72
94 121 71
97 124 75
93 120 72
95 122 73
170 183 180
199 210 219
200 211 220
200 210 218
202 212 221
203 213 221
196 207 214
205 214 223
203 213 220
209 218 228
197 208 217
208 217 227
201 211 219
202 212 218
204 214 223
210 219 229
204 214 224
198 209 216
208 217 225
206 215 225
200 210 217
200 210 218
203 212 221
210 219 228
196 206 213
200 211 219
112 134 102
96 124 74
94 121 72
96 124 74
97 124 74
95 122 73
94 120 72
94 121 73
96 123 74
98 125 75
97 125 75
97 125 75
97 125 75
100 127 77
95 122 73
94 121 72
94 122 73
94 121 73
97 124 74
98 125 75
94 121 73
95 122 73
97 124 74
93 120 72
147 163 148
204 214 223
201 212 222
211 219 229
202 212 220
202 212 223
201 211 219
196 207 213
203 213 220
195 206 214
206 215 225
206 216 226
203 213 221
207 217 226
197 207 213
201 211 220
206 215 224
206 216 226
209 218 226
194 204 212
202 213 223
202 212 222
215 224 234
192 203 208
115 137 107
93 120 72
94 121 72
96 123 74
91 118 70
94 121 72
89 116 69
94 121 72
94 122 73
95 122 74
97 124 74
118 140 110
125 146 121
140 159 141
152 168 156
156 171 164
176 189 189
188 199 202
198 209 216
204 214 223
194 205 213
194 205 211
110 134 96
93 121 73
96 123 74
93 120 72
94 121 72
95 122 72
95 122 73
96 123 74
96 124 74
93 120 72
95 123 74
96 123 74
91 119 71
97 125 75
97 124 74
94 122 73
95 122 74
94 121 72
95 122 73
95 122 74
94 120 72
95 123 74
94 121 72
98 125 75
95 122 73
95 122 73
95 122 74
93 120 72
115 138 105
206 216 224
198 208 216
206 215 222
201 211 221
206 216 226
200 211 221
203 213 222
202 212 220
200 210 220
199 209 217
208 217 227
199 210 218
204 214 222
202 212 221
204 214 223
201 212 222
202 212 221
206 216 227
203 213 223
188 200 203
153 170 161
107 131 93
97 124 74
94 121 73
93 120 72
121 142 115
201 212 221
200 210 218
206 216 225
205 215 223
203 213 223
192 202 207
202 213 223
201 211 219
201 211 219
200 210 217
202 211 219
201 212 221
202 212 221
199 210 219
209 219 229
195 206 215
205 215 224
204 214 223
206 215 224
202 212 221
204 214 222
203 213 221
200 210 220
206 216 225
200 211 219
206 216 223
184 196 198
95 123 73
96 123 74
94 121 73
93 120 72
97 124 74
96 124 74
99 126 76
93 120 72
92 119 71
99 125 82
147 164 151
176 189 187
191 202 206
207 217 225
197 208 214
200 210 221
205 215 224
208 217 226
206 215 224
204 214 223
205 214 222
199 211 221
200 212 221
189 201 208
206 215 221
204 214 225
206 215 224
138 156 138
94 121 73
97 124 74
97 124 74
98 125 75
96 124 74
96 124 74
94 121 73
96 123 74
92 120 72
95 123 73
96 123 74
97 125 75
96 123 73
98 125 75
90 116 69
92 119 70
93 120 71
93 120 72
95 122 74
96 124 74
94 121 72
96 123 74
93 120 71
93 120 72
96 124 74
95 122 72
93 120 72
164 178 173
204 215 224
199 210 218
202 213 222
205 215 224
202 211 218
193 204 211
201 211 221
202 212 220
199 209 215
202 213 222
206 215 222
207 216 225
206 215 224
205 214 224
189 200 204
172 185 180
135 153 133
111 134 96
95 122 73
93 120 72
94 122 73
96 123 74
93 121 73
95 122 73
95 122 73
94 122 73
94 121 73
116 140 106
200 210 216
197 208 215
206 216 224
205 215 226
202 213 221
204 213 222
199 211 220
201 212 223
201 211 220
202 212 222
205 214 223
198 209 217
209 218 228
205 214 223
199 210 220
197 207 214
206 216 226
203 213 223
209 218 227
210 219 229
208 216 224
198 208 217
205 215 224
204 214 223
200 211 221
206 216 225
199 211 220
199 210 217
124 144 117
93 120 71
97 124 74
94 122 73
93 121 73
90 117 70
96 123 74
94 121 72
97 125 75
94 122 73
97 125 75
96 123 74
94 122 73
99 126 76
91 118 70
97 125 75
94 121 72
99 127 76
94 122 73
98 125 75
97 125 75
93 120 71
96 124 74
96 124 75
97 125 75
97 125 75
93 120 72
95 122 73
168 182 175
210 220 228
208 217 225
197 208 215
204 214 220
206 216 226
203 212 220
200 209 215
200 211 218
202 211 218
200 210 217
201 212 222
197 207 213
201 212 220
199 210 220
204 213 221
200 210 219
206 215 225
199 208 215
201 210 217
204 214 223
207 217 229
202 212 221
208 216 224
196 206 214
200 209 215
207 216 224
209 218 228
133 152 132
91 118 70
96 123 73
92 119 72
97 124 74
95 122 72
99 127 76
96 123 74
95 123 74
96 124 74
119 141 114
127 145 122
145 163 148
163 178 170
169 183 179
168 181 177
173 186 183
190 201 206
206 216 227
202 212 222
204 214 223
193 204 211
208 217 226
194 204 211
205 215 223
201 212 223
201 212 222
164 179 172
96 123 73
95 122 74
94 121 72
93 121 72
96 124 75
97 124 75
95 122 73
92 120 72
94 122 73
97 124 74
97 124 75
94 121 73
95 122 73
95 122 73
98 126 76
96 123 74
97 125 75
97 124 74
95 122 73
95 122 73
97 125 75
100 128 77
92 119 71
97 124 74
95 122 73
111 135 99
197 207 213
199 209 218
192 203 209
203 213 220
201 212 221
200 211 220
200 211 221
199 209 217
202 211 219
205 215 224
205 214 221
203 213 220
201 211 218
209 218 226
200 210 219
202 212 221
197 208 217
194 206 215
194 205 213
197 207 214
202 213 225
199 209 219
204 214 224
194 205 212
198 209 215
161 176 166
96 123 73
95 123 74
98 126 75
96 123 73
92 119 71
95 122 73
94 121 72
96 123 73
98 126 76
98 126 76
95 122 74
93 120 72
93 120 72
97 125 75
92 119 71
98 125 76
94 122 73
96 124 75
92 119 71
97 124 74
94 121 73
92 119 71
98 126 77
104 129 87
197 208 216
202 211 218
203 213 222
206 215 223
204 214 225
195 206 212
204 214 224
205 214 221
204 214 222
195 205 212
203 213 223
208 217 225
200 211 222
197 208 217
208 217 226
207 215 223
205 215 224
197 207 215
207 216 224
195 207 216
198 209 216
199 209 217
202 212 222
125 145 121
94 121 72
111 134 98
121 142 111
127 147 123
145 162 147
155 170 158
177 190 187
160 174 167
183 195 196
188 200 203
201 212 220
205 216 227
198 208 216
209 218 227
204 214 223
200 210 220
207 215 222
194 205 213
203 213 220
202 212 219
197 208 219
134 152 130
94 122 73
93 120 72
91 118 71
97 124 74
94 121 73
97 124 75
95 122 73
93 120 72
97 124 74
96 123 73
94 121 73
93 121 72
95 121 72
95 122 74
95 122 74
92 120 72
95 122 73
95 122 73
94 122 74
132 151 129
95 122 72
93 121 73
93 120 72
99 127 76
93 121 72
96 123 74
96 123 73
95 122 73
94 122 73
200 211 220
204 214 223
195 205 210
193 204 212
203 213 222
198 208 215
210 218 226
202 212 221
206 215 225
207 217 227
207 217 227
195 206 214
202 211 220
197 208 215
209 218 229
197 208 216
196 207 215
210 220 230
208 218 227
204 214 224
205 214 221
202 212 220
178 190 188
134 153 133
94 122 73
114 136 103
202 211 217
197 207 215
199 211 221
206 215 224
189 202 211
190 201 209
207 217 226
203 214 222
201 211 218
204 214 222
200 210 217
203 213 221
204 214 222
200 210 219
201 211 221
199 209 217
205 215 225
196 208 217
211 220 229
204 214 221
195 206 212
208 217 227
206 216 225
201 212 221
204 214 222
205 214 220
184 195 198
93 120 72
96 124 74
98 125 75
93 120 72
94 121 72
94 121 73
98 126 75
98 126 76
91 118 70
93 121 72
97 125 75
97 125 75
97 124 77
131 150 130
173 187 185
190 202 208
197 207 215
204 214 224
198 209 217
203 213 221
199 210 218
200 211 221
204 214 223
204 214 224
206 217 227
204 214 224
197 208 215
138 156 138
91 118 70
97 125 75
94 121 73
96 123 74
93 120 71
96 124 75
91 119 71
93 120 71
96 124 74
97 124 74
96 123 74
97 125 75
96 124 75
94 121 72
93 120 72
94 121 73
95 123 73
97 125 75
93 121 73
96 123 73
96 124 74
96 123 74
96 123 74
98 126 75
99 126 76
98 126 76
96 123 74
165 179 174
197 208 216
201 211 219
195 206 213
197 208 214
210 219 229
196 207 214
199 209 218
200 211 221
202 211 219
204 214 222
206 216 227
208 217 225
196 206 211
212 221 229
204 213 222
196 207 216
196 207 215
203 212 220
181 193 198
172 184 183
148 164 149
115 136 104
96 124 74
93 120 72
94 122 73
93 120 72
96 124 75
147 165 155
202 211 220
197 207 215
198 208 216
201 211 219
208 217 227
200 211 221
196 207 217
203 213 223
202 213 222
204 214 223
190 201 209
203 213 222
200 210 218
204 213 222
205 215 224
197 209 218
206 216 224
204 214 222
197 207 214
201 212 220
199 210 219
202 213 223
206 216 226
194 205 215
199 210 217
197 208 216
202 212 221
191 203 210
102 129 82
96 124 75
95 122 73
94 121 73
93 120 72
97 125 75
95 122 74
96 124 74
94 121 72
93 120 72
93 119 70
95 122 73
93 120 72
93 119 71
98 126 76
95 123 74
95 121 73
93 120 72
95 122 73
99 126 76
95 123 74
97 124 74
91 118 70
94 121 71
95 123 74
96 123 74
95 123 74
96 122 75
192 203 207
204 213 220
196 206 213
204 214 223
196 207 215
204 213 221
197 208 215
202 211 218
201 211 220
204 213 221
201 211 220
205 214 222
196 206 213
201 211 219
200 209 216
206 217 228
198 209 217
198 209 218
204 214 222
202 213 223
205 215 225
200 209 217
196 207 216
200 209 216
200 210 216
199 209 217
191 203 211
184 195 198
96 124 74
96 124 75
94 122 73
93 120 71
96 123 74
92 119 71
92 118 70
96 124 74
94 121 73
95 122 73
97 124 74
94 121 72
95 122 73
94 121 72
96 123 74
97 125 74
97 125 75
95 123 73
94 121 72
104 129 87
113 135 104
123 144 118
142 159 142
155 170 158
154 169 160
157 173 166
163 177 172
142 159 143
131 150 128
112 136 101
101 127 86
96 123 73
95 122 73
97 125 76
93 120 72
97 124 74
93 120 72
97 125 75
94 121 72
94 121 73
99 127 76
91 118 70
96 123 73
94 122 73
94 122 74
97 124 74
95 123 74
95 123 75
96 124 74
95 122 73
96 124 75
93 120 72
91 118 71
163 178 173
196 206 213
195 207 214
203 213 222
203 212 219
192 203 209
203 213 222
205 215 223
206 216 226
203 213 223
202 213 223
200 210 218
202 213 223
192 204 212
198 209 217
195 205 212
205 215 225
198 208 215
201 211 222
197 208 215
208 217 225
204 214 224
205 214 223
213 221 231
200 211 220
196 207 213
104 128 91
95 123 73
92 119 71
93 120 72
93 120 72
94 121 72
89 116 69
96 123 74
94 121 72
93 121 73
92 120 72
96 123 74
97 125 75
95 122 74
93 120 72
97 125 75
95 122 73
97 125 75
92 120 72
94 120 72
93 120 72
95 122 73
94 121 72
95 122 73
183 195 193
198 208 215
201 211 219
201 211 220
205 215 225
196 207 215
203 213 223
202 211 219
208 217 227
198 208 216
199 209 217
201 212 222
207 218 230
199 209 216
194 205 213
191 202 207
187 199 203
177 189 188
178 191 190
166 180 175
144 161 145
147 164 151
138 155 139
165 178 173
196 207 212
201 211 219
200 209 216
199 210 219
205 215 224
199 209 216
202 212 222
201 212 221
203 214 224
207 216 226
200 210 218
202 212 220
208 218 230
200 210 217
209 219 228
203 213 224
199 210 220
207 216 225
200 211 219
203 213 224
203 213 223
163 178 171
93 120 71
95 123 73
94 121 72
97 124 75
94 121 72
95 123 75
94 121 72
97 124 74
97 124 74
98 125 75
96 124 74
93 120 72
90 117 69
97 125 75
94 121 72
95 122 73
93 120 72
95 123 74
92 119 72
113 136 103
197 207 213
157 173 166
128 148 124
94 122 73
96 123 74
94 121 73
97 125 76
93 120 71
93 119 72
95 122 73
189 200 204
196 206 213
199 209 216
203 213 223
213 222 233
192 203 208
200 210 217
201 212 221
202 212 222
209 219 229
208 218 228
201 211 218
205 214 221
199 209 217
201 211 220
205 215 226
198 208 217
200 211 219
200 211 220
197 207 213
203 213 220
195 206 214
201 211 219
203 213 222
202 213 221
167 181 176
191 202 207
201 211 219
200 210 219
205 215 224
204 214 222
201 211 220
197 208 217
203 214 223
198 208 215
196 206 211
198 209 218
196 207 215
198 209 218
204 214 223
198 208 216
194 205 212
200 210 219
191 202 208
196 207 216
198 209 218
198 209 218
207 216 224
198 208 214
200 210 218
194 205 212
206 216 227
184 196 195
96 123 74
95 123 74
94 122 73
94 121 73
97 124 75
93 120 72
95 123 74
95 123 74
95 122 73
97 125 75
96 124 74
96 123 74
95 122 73
93 120 72
90 116 69
96 121 78
130 150 128
156 172 163
201 211 220
197 207 214
208 217 225
201 212 220
190 201 208
212 220 229
204 214 224
205 214 222
210 219 229
113 136 102
96 123 73
96 123 74
94 121 72
93 120 71
96 123 74
95 122 73
95 122 73
93 121 72
93 120 72
94 121 73
95 122 73
94 121 73
96 123 74
95 122 73
92 120 72
93 120 72
98 125 76
96 124 74
92 119 71
95 122 73
94 122 72
97 125 76
95 122 73
96 123 74
95 122 73
93 121 72
96 124 75
181 193 196
201 212 220
191 202 208
203 213 221
202 213 224
202 212 220
202 211 218
197 208 217
205 215 223
192 203 212
208 217 227
197 208 216
202 213 223
199 209 215
204 214 225
198 208 216
202 212 220
202 211 219
199 210 218
210 219 230
204 214 224
203 213 221
209 219 229
183 194 198
171 184 179
144 162 146
121 143 114
97 123 79
154 170 161
199 209 216
201 212 220
205 215 222
203 212 220
193 204 210
199 210 220
203 213 223
199 209 217
196 207 217
199 210 218
205 215 225
198 208 217
193 204 212
204 214 223
204 214 222
193 205 211
199 209 216
201 211 219
204 213 221
197 207 216
198 209 217
207 217 225
205 215 223
206 216 226
204 214 223
205 215 226
204 213 221
183 195 196
92 119 71
95 122 73
96 123 74
93 120 72
95 123 74
98 126 75
95 122 73
95 123 74
92 120 72
94 121 72
93 120 72
95 122 73
91 118 71
96 124 74
97 124 75
96 123 74
93 120 72
97 125 75
94 121 73
98 125 75
95 122 73
95 122 73
94 121 72
94 121 72
91 118 69
92 119 72
94 122 73
129 147 125
205 214 221
201 211 218
203 213 221
201 211 219
190 202 208
197 208 218
202 212 220
207 215 222
197 207 215
205 215 223
210 219 229
202 212 222
199 209 218
196 207 214
204 214 222
204 214 222
201 211 218
193 204 209
200 210 217
198 208 216
197 207 213
200 210 217
201 211 219
200 210 221
190 201 206
206 216 224
196 206 213
146 164 153
92 119 71
96 124 75
95 122 73
92 118 70
94 121 72
95 123 74
95 122 73
90 117 69
94 121 73
94 122 74
93 120 72
95 122 73
96 124 74
93 119 71
96 123 73
98 125 75
94 122 73
95 123 74
96 123 74
94 122 73
99 127 77
97 125 75
94 121 73
92 118 70
96 123 74
94 121 73
144 159 144
207 216 225
205 215 224
199 210 218
205 215 224
192 202 207
194 204 209
176 189 191
174 188 190
180 192 191
173 186 183
167 181 178
166 180 174
146 163 146
148 166 154
145 163 146
126 145 119
136 155 134
114 135 106
123 144 117
127 147 118
109 135 95
95 122 73
93 120 72
93 121 73
95 122 72
115 137 103
207 217 226
206 216 226
192 203 210
204 215 224
196 207 217
207 216 224
195 206 212
196 207 214
191 203 210
208 217 227
204 213 220
204 214 222
205 215 225
201 212 221
197 208 215
202 211 219
197 207 214
203 213 221
197 208 215
202 212 222
200 210 218
204 214 223
203 213 222
205 216 226
198 207 213
134 153 134
95 122 73
96 124 74
97 124 75
92 119 71
94 122 74
94 122 73
93 120 71
96 124 74
92 120 72
94 122 73
97 124 75
92 119 71
97 125 75
94 121 73
93 119 71
91 118 71
96 124 74
96 123 74
91 117 70
92 119 71
94 121 72
102 127 86
105 130 90
120 142 114
190 202 207
179 191 191
177 190 192
173 186 185
171 185 179
159 174 166
168 182 176
145 162 148
147 164 151
145 163 146
130 150 126
121 143 114
113 137 100
101 127 84
94 121 73
92 119 71
95 123 74
95 122 73
97 124 74
97 124 75
91 117 69
96 124 74
123 144 118
200 210 217
211 219 228
198 209 218
196 206 214
201 211 221
200 210 218
199 210 218
202 211 218
211 220 231
211 221 232
199 209 216
201 211 218
199 210 219
198 208 216
202 212 221
199 209 217
207 217 226
205 214 221
201 212 221
207 216 224
202 212 221
174 187 185
96 123 73
98 125 76
94 121 72
96 123 74
94 121 72
92 118 70
96 124 75
93 121 72
95 122 73
98 126 76
96 123 74
96 123 74
94 121 73
95 123 74
92 119 71
94 121 72
96 123 74
94 121 73
95 122 73
99 126 81
190 201 208
196 207 215
193 204 210
201 211 221
186 197 199
147 163 149
94 121 75
92 119 71
94 121 72
96 123 73
94 120 71
170 183 179
204 215 226
194 206 214
202 211 218
203 213 222
204 215 225
200 210 220
198 209 215
209 218 227
195 206 215
204 214 222
200 210 219
199 208 214
202 212 222
199 209 216
200 210 219
196 207 215
201 211 222
199 209 217
203 213 223
202 212 219
205 214 222
198 208 216
206 215 224
199 210 221
205 216 226
98 124 79
120 141 112
159 174 170
195 205 211
198 207 213
197 208 216
200 210 218
201 213 224
198 209 216
210 219 228
206 215 223
201 211 220
207 217 227
204 215 225
200 210 216
199 210 220
199 210 218
206 215 223
200 210 217
201 211 218
205 214 220
201 211 220
204 213 223
194 205 212
202 213 223
198 208 215
175 187 186
96 124 74
93 120 71
93 120 72
95 123 73
90 117 69
94 121 73
92 119 72
94 121 72
95 123 74
95 122 73
96 123 74
91 119 71
96 123 73
92 120 71
95 122 73
95 123 74
97 124 74
94 121 73
97 124 74
125 146 116
164 178 170
193 205 211
202 212 220
202 212 221
204 214 222
197 208 216
199 209 217
113 135 103
95 122 73
94 121 72
96 123 74
96 122 73
94 121 73
91 118 70
93 120 71
99 126 75
95 121 72
94 122 73
95 122 73
95 123 73
92 119 71
97 125 74
95 122 73
96 123 74
95 122 73
96 123 74
97 124 74
95 122 73
96 124 74
90 117 70
95 122 73
98 126 75
95 122 73
94 121 73
100 128 77
202 211 217
202 211 219
200 210 219
198 208 216
200 209 216
203 213 222
209 219 230
198 209 217
199 209 217
204 213 221
207 217 226
198 209 217
197 209 218
205 215 225
204 214 222
193 204 210
203 213 222
205 215 225
204 214 223
208 217 227
208 218 227
196 207 217
207 217 228
193 204 210
203 213 220
203 213 223
207 216 226
195 206 214
136 154 136
161 176 170
184 195 198
198 209 216
198 208 216
207 216 225
201 211 220
204 214 225
203 213 220
202 212 221
200 212 224
203 213 221
202 212 223
202 211 219
203 213 223
198 209 217
202 212 221
200 210 218
199 210 217
194 205 212
204 213 221
205 215 223
204 214 223
198 208 216
206 216 225
201 212 220
205 214 223
209 218 228
145 162 147
92 120 71
96 124 74
99 127 76
94 122 73
94 121 72
92 119 71
92 120 72
98 125 75
93 120 72
94 121 73
98 125 75
96 124 74
95 122 73
91 118 70
96 123 74
92 119 70
99 126 76
98 124 74
95 122 73
95 122 74
98 126 75
96 123 74
93 120 72
92 119 71
97 124 75
94 121 72
98 125 75
162 177 169
204 213 221
205 214 224
195 205 213
199 210 220
203 213 223
204 214 224
202 211 220
201 211 222
201 211 220
198 209 218
199 209 219
203 212 220
199 210 218
202 212 220
205 215 225
200 211 221
198 208 215
202 212 222
196 207 216
194 205 211
205 215 224
196 208 217
206 217 228
209 218 227
196 207 215
204 214 224
204 214 223
110 134 96
93 121 73
97 125 75
95 122 73
94 121 72
93 120 71
91 118 71
94 121 72
94 121 72
94 122 73
97 124 74
95 122 73
95 122 73
96 123 74
95 122 73
94 121 73
94 121 72
95 122 74
94 122 73
95 122 73
94 121 73
93 120 71
91 118 70
93 120 72
96 123 75
96 123 74
105 131 88
191 202 208
207 216 225
197 209 218
202 212 220
214 223 233
209 219 229
209 219 229
196 207 215
193 204 210
206 216 226
200 211 220
195 207 215
211 220 229
204 213 221
195 206 213
204 213 220
203 213 221
205 215 225
194 206 213
198 209 218
200 211 219
212 221 232
194 205 213
202 212 220
199 209 217
190 202 206
139 156 140
118 139 111
125 145 119
128 148 124
123 144 120
130 149 131
132 151 131
149 165 152
143 161 145
141 159 145
151 166 155
129 149 129
142 160 147
155 171 161
139 157 141
143 160 146
160 173 164
165 178 173
166 180 173
163 177 169
162 175 171
162 177 170
156 172 162
169 183 175
160 174 166
168 182 181
148 166 151
155 171 159
151 168 157
160 176 169
155 170 163
159 173 165
158 174 163
150 166 157
172 186 181
164 178 172
165 179 174
174 187 184
171 185 181
175 189 186
184 196 195
183 195 198
185 197 198
184 196 198
184 197 202
203 213 221
199 209 215
205 214 222
198 208 213
200 211 220
119 140 112
95 122 73
93 120 71
95 123 74
91 118 70
96 123 74
94 122 73
97 125 75
92 119 71
95 123 74
91 117 70
92 119 71
96 123 73
93 120 71
92 119 72
94 121 73
95 122 73
94 121 72
92 120 71
94 121 72
96 123 74
97 125 76
96 122 75
182 195 199
193 204 211
204 214 223
204 214 223
203 213 222
201 212 220
205 215 223
207 216 225
193 204 210
197 208 217
205 216 228
197 207 214
203 213 221
198 209 219
202 212 220
195 205 212
207 216 224
189 201 206
194 206 214
202 212 222
198 209 218
190 201 205
108 131 95
94 121 72
94 121 72
96 123 74
95 122 73
95 122 73
92 119 71
93 120 72
94 121 72
94 121 72
93 120 72
92 119 71
93 120 71
93 120 71
92 118 70
94 122 73
93 120 72
97 124 74
92 119 71
94 122 73
170 184 182
192 204 211
201 211 219
196 207 216
203 212 220
198 208 216
209 218 227
186 199 205
168 181 177
111 135 96
95 122 73
97 125 75
163 177 170
201 211 220
202 212 219
201 212 222
196 207 214
203 213 220
202 212 220
197 207 212
199 209 214
198 209 217
201 211 219
205 214 223
201 210 217
196 207 215
201 211 219
196 207 214
201 210 219
203 213 220
204 213 221
207 216 225
201 211 218
201 212 220
199 210 219
199 210 220
200 210 219
203 213 223
109 133 98
96 123 74
95 122 73
101 127 81
124 144 119
173 187 185
198 208 213
198 208 215
196 207 215
197 207 214
208 217 226
199 208 217
201 211 218
210 220 230
201 212 220
200 210 217
202 212 220
205 215 224
196 206 212
196 207 215
201 211 219
206 216 226
204 214 222
204 214 223
203 214 223
199 210 219
179 191 189
90 117 70
96 123 74
97 124 75
92 119 71
95 122 73
96 122 73
96 123 74
95 121 72
94 121 71
94 121 72
93 119 71
95 122 73
95 122 74
88 115 68
93 120 71
96 123 74
98 125 75
91 118 71
93 121 73
93 120 72
95 123 74
95 123 74
116 138 106
159 175 164
180 192 193
202 212 221
213 221 230
99 125 80
96 123 74
93 119 70
94 121 73
99 127 77
97 124 75
96 124 74
95 123 74
95 122 74
92 119 71
96 123 74
95 123 74
90 117 69
92 119 71
94 121 72
94 121 72
89 116 69
96 124 74
95 123 74
95 123 74
94 121 72
95 122 73
94 121 73
97 124 74
92 119 71
93 120 72
96 123 74
112 136 103
203 213 220
200 210 218
200 211 220
209 218 227
193 204 211
205 214 222
202 212 220
202 212 221
209 219 229
196 207 214
194 205 212
209 219 229
201 211 219
196 207 215
197 208 214
208 217 227
205 214 222
202 213 221
203 213 221
196 207 213
196 206 215
196 207 213
199 209 215
202 212 221
200 210 216
202 212 219
205 215 223
196 207 215
93 121 72
92 119 70
97 125 75
89 116 69
116 138 106
149 167 154
166 180 176
195 206 212
211 221 231
204 213 222
205 215 225
195 205 212
201 211 219
203 213 222
202 213 223
199 209 215
203 213 220
199 208 216
200 210 218
205 214 222
205 215 225
204 215 225
208 217 227
197 207 215
205 215 224
198 209 219
195 206 213
203 213 222
113 136 100
93 121 73
95 123 74
94 121 72
97 125 75
95 123 75
93 119 71
94 121 72
92 119 71
94 121 72
95 122 73
92 119 71
96 123 74
97 124 74
92 119 71
94 121 72
101 129 78
93 120 72
94 122 73
96 123 73
95 122 73
94 121 73
97 124 74
95 122 74
94 121 72
93 121 72
94 121 72
97 125 78
203 213 220
202 212 221
202 212 222
197 207 215
203 212 219
204 213 222
186 199 206
206 216 226
200 210 217
199 210 218
202 212 222
199 209 217
201 211 220
190 202 210
206 216 226
204 213 220
203 213 222
203 214 222
204 214 223
197 207 212
203 214 225
211 220 231
202 211 219
203 212 220
204 214 222
212 221 232
197 208 216
168 181 180
94 122 73
93 121 73
95 122 73
96 123 73
99 126 76
94 121 72
96 123 73
93 120 71
96 124 74
91 118 70
95 122 73
95 122 74
93 120 71
94 120 71
96 123 73
97 124 75
92 119 71
99 127 77
93 120 71
96 123 74
93 120 71
97 125 75
94 121 72
95 122 73
91 118 71
95 122 73
142 160 144
199 210 218
200 211 219
198 208 213
194 205 212
205 214 221
198 208 217
194 204 209
198 208 214
203 213 222
206 217 227
202 212 220
202 211 218
204 214 222
196 207 214
200 211 221
202 213 223
203 213 222
200 212 223
202 212 221
203 213 223
206 216 225
202 213 224
199 210 219
199 209 216
200 210 217
200 211 219
96 123 76
96 124 74
97 125 75
97 124 75
93 120 72
96 123 74
99 126 76
94 121 72
95 121 72
96 123 73
92 119 71
95 122 74
91 118 70
94 122 73
91 117 69
93 120 71
96 123 73
97 124 75
91 118 70
95 122 73
95 122 73
94 121 72
95 122 73
94 122 74
98 126 78
187 198 199
200 210 220
201 211 218
192 204 211
201 211 220
200 210 220
205 215 227
203 213 223
197 208 215
204 213 221
205 215 226
200 211 220
208 217 226
204 214 223
210 219 228
202 211 220
205 215 225
202 213 223
205 215 226
207 216 225
201 211 219
207 217 227
200 210 218
199 209 218
145 161 146
92 119 71
94 122 73
93 120 72
95 123 74
95 122 73
99 126 76
95 122 73
98 126 76
97 124 75
96 123 73
93 120 73
95 122 73
96 123 74
94 121 73
94 121 73
94 121 72
97 124 75
98 125 75
94 120 71
93 120 72
96 124 75
93 120 71
166 181 176
203 213 222
202 213 222
199 210 218
204 215 224
197 208 217
199 209 217
199 209 219
203 213 223
204 214 225
204 215 224
200 210 218
203 213 223
194 205 210
199 209 218
197 208 216
200 211 220
204 213 222
203 212 218
195 205 212
204 215 225
190 201 206
120 142 111
97 124 74
95 122 74
93 120 72
97 125 76
95 123 73
93 121 72
94 121 72
97 125 75
94 121 73
94 121 72
94 122 74
95 122 73
92 119 71
95 123 74
89 116 69
95 122 72
94 121 72
95 122 73
95 122 74
165 179 173
202 211 219
199 210 217
199 210 220
198 208 216
201 210 217
200 212 222
204 215 227
201 211 219
207 216 225
203 213 221
174 187 184
143 162 147
140 157 138
204 214 223
208 216 223
201 211 220
208 218 228
205 215 224
202 212 221
206 216 223
197 207 214
202 212 221
198 208 215
200 210 217
205 214 222
203 214 223
202 212 221
203 213 223
204 213 220
202 212 219
202 213 223
201 211 221
198 209 219
202 212 220
203 213 221
206 215 223
199 209 217
201 211 219
124 144 118
93 120 71
94 121 72
97 126 76
94 121 73
96 123 73
106 131 91
155 171 157
187 198 201
198 208 216
201 212 222
210 219 229
206 215 224
207 217 226
199 210 218
200 211 219
207 217 227
193 205 211
209 218 227
196 207 213
199 208 215
203 213 222
203 213 222
203 213 221
204 214 224
203 213 222
172 185 182
96 123 73
96 123 74
93 121 73
97 124 74
93 120 72
92 119 71
94 122 73
94 121 72
94 121 73
91 117 69
93 119 70
92 119 70
95 122 73
95 122 73
94 121 73
97 124 74
94 121 73
95 122 73
93 120 71
99 127 76
94 120 71
92 119 71
94 122 73
95 123 74
91 117 69
98 125 80
151 168 157
132 151 126
106 131 90
95 123 74
96 123 75
95 122 73
98 125 76
94 121 72
95 122 73
94 121 73
96 123 73
93 120 71
93 120 72
93 120 72
91 119 71
91 117 70
99 126 76
95 123 73
95 123 74
94 121 72
96 124 74
92 118 70
95 122 74
94 121 73
95 122 73
97 124 74
93 120 72
94 121 72
117 139 108
202 213 222
201 211 219
208 216 225
204 213 223
204 215 226
200 210 218
200 210 219
205 215 223
205 216 225
201 211 220
208 218 229
210 219 229
201 211 218
201 211 220
193 204 212
197 208 217
200 210 219
200 211 219
204 214 223
192 204 210
204 213 220
201 212 221
203 213 222
200 210 219
200 210 218
205 215 225
197 208 217
189 200 203
94 121 73
96 123 74
93 120 71
93 120 72
92 120 72
94 121 73
94 121 73
96 123 74
113 135 101
133 152 133
145 162 146
177 190 190
197 208 215
197 208 216
200 211 219
193 205 212
207 216 225
197 208 215
196 207 213
198 208 216
202 211 218
204 214 223
199 210 220
206 215 225
198 209 216
190 202 209
188 200 207
188 199 200
94 121 72
94 122 73
91 118 70
93 120 71
95 122 73
94 121 73
93 120 71
94 121 73
98 125 76
94 121 72
96 123 73
94 120 71
100 128 77
94 122 73
97 124 75
95 123 74
94 122 73
94 121 72
97 124 74
94 121 72
94 121 72
98 126 75
96 124 74
97 124 74
95 122 73
95 122 74
93 120 72
121 142 114
199 210 220
202 212 219
198 208 216
204 213 222
200 211 219
190 202 211
208 218 229
202 212 221
191 202 209
204 214 223
201 211 219
204 213 222
200 209 215
197 207 213
199 209 218
202 213 222
197 207 213
202 212 221
204 213 221
201 212 222
198 209 218
191 202 207
200 210 219
201 211 220
204 214 223
198 209 216
209 218 227
131 152 130
90 117 69
95 122 73
94 121 72
93 121 72
93 120 72
95 123 74
96 124 74
96 123 73
92 119 71
96 123 74
94 120 72
93 120 72
96 124 74
93 120 72
94 122 73
94 121 73
95 122 74
95 122 73
94 122 73
96 124 74
92 119 70
93 120 71
96 123 74
91 118 71
93 120 72
93 120 71
198 208 215
201 212 224
206 215 225
206 215 224
203 214 225
198 208 217
200 210 216
196 206 213
192 203 209
199 209 215
199 209 215
200 211 220
202 212 220
203 213 222
195 205 214
204 215 223
202 212 219
198 209 217
204 214 222
200 210 217
206 216 226
198 209 219
207 216 226
199 210 219
200 211 220
205 215 224
136 154 137
95 122 73
99 127 76
95 123 74
98 125 75
94 122 73
98 126 75
88 115 68
97 124 74
95 122 73
97 124 75
98 126 75
93 121 73
94 121 72
97 124 75
93 120 72
93 121 73
97 124 75
95 122 73
96 124 75
95 122 73
94 122 73
95 122 74
96 124 74
89 116 69
151 166 159
205 214 222
205 215 224
199 210 219
198 209 219
205 214 223
202 213 223
198 208 216
199 209 217
197 207 213
193 205 213
207 217 226
206 215 224
203 212 221
203 213 219
207 217 227
195 205 213
195 205 212
205 215 225
201 211 219
203 212 220
208 218 226
201 211 218
199 210 218
197 207 212
97 124 75
99 126 75
96 124 75
94 121 73
94 121 72
97 125 75
95 123 74
94 121 72
93 120 72
94 121 72
95 123 73
96 122 73
95 122 74
97 124 74
92 119 71
92 119 71
94 121 72
96 124 74
98 125 75
92 119 71
95 122 73
94 121 73
136 153 136
202 212 221
206 216 225
199 209 215
205 214 223
202 212 220
204 213 223
213 221 229
199 209 215
208 216 225
201 212 220
206 216 227
206 215 223
206 215 223
198 209 218
203 213 221
194 205 210
196 207 215
191 202 208
192 202 207
202 212 219
200 211 219
149 166 152
96 123 74
95 123 74
96 123 73
95 122 73
99 126 76
92 119 71
92 119 71
93 120 71
92 119 71
95 122 73
91 118 70
96 123 74
92 119 71
94 121 72
97 125 75
92 118 70
95 122 73
94 121 73
93 120 72
147 163 149
196 206 213
207 216 225
195 206 214
200 210 217
205 215 226
202 212 221
206 216 226
203 213 221
201 212 221
201 212 221
204 214 223
194 205 212
207 216 225
188 199 201
157 172 164
179 192 194
202 212 222
189 200 205
198 208 216
198 208 214
200 211 220
204 214 221
206 215 224
201 212 222
204 214 222
199 210 217
195 207 216
205 215 226
201 211 218
197 208 217
199 211 221
203 214 222
202 213 222
200 211 220
203 213 220
195 206 213
194 206 214
202 211 217
205 215 225
135 153 136
93 119 71
95 122 73
95 122 73
92 119 71
94 122 73
93 120 71
94 122 73
94 121 73
117 139 107
154 171 162
191 202 205
200 211 220
201 211 219
196 206 214
201 211 221
200 210 216
202 212 221
203 213 222
205 215 225
202 212 219
200 210 218
196 208 217
199 210 219
204 214 223
202 213 223
178 191 188
93 119 71
94 121 73
95 123 74
92 119 71
96 124 75
89 116 69
93 120 72
96 124 75
93 121 72
97 125 75
95 122 73
95 122 73
95 122 73
98 126 75
94 121 72
99 127 77
97 124 74
97 124 74
97 125 75
97 124 75
91 118 70
94 120 71
93 120 72
95 123 74
94 122 73
93 120 71
100 125 82
205 214 223
201 212 221
173 187 185
154 170 159
110 132 101
94 122 73
94 121 72
96 123 73
95 122 73
92 119 71
95 122 73
97 125 75
98 126 76
95 122 73
94 121 72
90 117 70
99 127 76
97 124 74
98 125 75
95 122 73
95 122 73
94 121 72
94 121 72
94 121 72
96 123 73
95 123 74
95 122 72
153 169 157
198 208 218
201 211 219
204 214 222
199 210 218
202 212 221
201 211 218
186 197 203
203 213 222
207 217 226
200 211 219
198 208 217
203 213 221
199 209 218
201 211 221
200 210 219
198 209 218
205 214 221
199 209 215
201 211 220
195 206 215
203 213 222
200 210 219
199 209 218
196 208 220
211 219 227
203 214 224
205 215 225
169 183 178
95 122 72
92 119 71
95 122 74
96 124 75
95 122 73
97 124 74
94 121 72
90 117 69
94 121 73
95 121 72
95 122 73
89 115 69
101 127 82
122 144 115
139 158 141
163 178 173
183 194 196
190 201 207
204 215 226
200 211 220
200 211 219
198 210 219
194 204 212
199 209 216
204 214 223
207 218 227
204 214 222
165 179 172
91 118 70
95 123 73
94 122 73
92 119 71
96 123 73
94 122 73
93 120 71
94 121 72
94 121 72
94 121 72
91 118 70
94 122 73
94 121 72
96 123 74
95 122 72
93 120 72
92 119 71
94 121 73
95 122 73
95 123 73
94 121 72
93 121 72
93 119 71
97 124 74
97 125 74
92 119 71
94 122 73
168 183 181
203 213 223
197 208 215
202 212 219
201 211 219
201 211 218
201 210 217
197 207 212
202 212 219
207 216 225
201 210 216
200 210 218
204 214 223
192 204 213
186 197 203
198 209 215
207 217 225
201 211 218
203 213 221
200 211 221
205 215 224
204 214 223
201 211 219
201 211 218
196 207 215
200 211 220
197 207 214
190 202 205
97 124 74
97 124 75
94 121 73
93 119 71
92 119 71
94 122 73
95 122 73
95 123 73
96 123 74
94 121 73
92 118 70
97 124 74
94 120 71
94 122 73
96 123 75
95 123 74
92 119 71
94 121 73
92 119 71
96 123 74
98 126 75
93 120 72
93 120 72
92 119 71
91 118 70
96 124 75
149 166 152
204 214 224
204 215 225
202 212 221
199 209 217
195 205 212
201 212 219
202 211 219
199 210 218
201 211 218
199 209 217
203 213 223
195 206 214
213 221 231
206 215 225
203 213 221
194 205 213
202 212 220
202 212 219
199 209 216
200 210 219
205 214 224
197 207 215
210 219 229
206 215 223
192 204 212
188 200 203
94 121 73
95 122 73
96 123 74
95 122 74
94 122 73
94 121 72
93 119 71
94 122 73
93 119 71
95 123 74
93 120 72
93 120 72
97 125 75
92 119 71
93 120 71
95 123 74
96 123 75
91 118 71
98 126 76
93 120 72
94 121 72
96 123 75
93 120 71
96 122 73
112 134 104
192 203 210
194 206 214
205 214 224
194 205 212
204 214 222
187 198 203
191 203 211
203 213 221
201 212 221
205 214 221
199 208 214
198 208 215
200 210 218
200 211 219
201 211 219
204 214 222
207 217 227
203 213 221
194 205 214
200 210 219
205 215 223
201 210 218
203 212 220
202 212 219
113 136 102
92 118 70
96 124 75
94 121 72
92 118 70
94 121 72
96 124 74
94 122 73
93 120 72
97 124 75
94 121 72
94 121 72
91 118 70
94 121 72
92 118 71
96 123 74
93 120 72
97 125 75
92 119 71
96 123 74
95 122 72
97 124 75
105 129 95
194 205 212
198 208 214
199 209 218
203 212 220
207 218 230
198 209 219
199 210 219
200 211 220
201 211 220
200 210 219
206 215 225
205 214 221
198 209 217
198 208 217
193 203 207
202 213 224
194 205 213
200 210 219
196 207 215
198 209 219
199 209 217
162 175 170
95 123 74
97 125 74
96 124 74
95 123 73
94 121 72
93 120 72
95 122 74
92 119 72
96 123 74
91 118 71
93 121 73
95 122 73
94 122 73
98 126 76
92 119 71
99 126 75
93 121 73
89 116 70
97 123 74
132 152 129
198 209 216
208 218 227
192 203 209
196 207 215
202 213 223
201 212 221
200 209 218
196 207 216
200 211 220
196 206 213
202 212 221
205 215 225
202 212 220
204 214 224
199 209 216
104 128 91
95 122 73
137 154 136
165 180 175
200 210 217
200 210 217
204 214 221
202 212 221
204 213 222
204 214 223
204 214 222
202 211 219
199 210 218
205 216 226
201 210 217
198 209 217
205 215 223
191 203 213
200 211 220
206 216 226
197 207 213
193 204 209
204 214 223
200 210 219
196 207 215
142 160 146
93 121 73
94 121 72
95 122 73
94 121 73
93 121 72
96 123 74
95 123 74
96 123 74
95 123 74
92 118 70
90 117 70
115 137 106
160 174 165
196 206 211
203 213 221
198 209 218
197 208 215
199 209 216
203 213 221
204 214 224
204 213 221
193 204 211
198 208 215
201 212 220
201 211 222
186 197 201
95 123 73
91 118 71
94 121 72
94 122 73
93 120 72
95 122 73
93 120 72
92 119 71
92 119 71
94 122 73
90 117 70
97 125 75
94 122 73
91 118 71
95 122 73
92 119 71
96 123 73
97 124 74
93 120 73
97 124 75
95 122 73
95 122 73
96 123 74
92 119 71
95 122 72
90 116 69
112 136 98
204 213 222
203 213 221
198 207 212
205 214 221
205 216 225
196 207 212
171 185 182
128 148 124
96 123 73
96 123 73
93 120 72
99 126 76
97 125 75
91 118 70
94 122 73
96 123 74
91 118 71
95 123 74
95 122 74
93 120 72
92 119 71
93 120 72
98 126 76
95 122 73
91 117 70
98 125 75
95 122 73
158 173 165
197 207 213
198 208 216
200 210 218
202 212 220
199 209 215
195 206 213
197 208 215
201 210 218
192 203 209
203 213 223
197 207 216
199 209 217
187 199 205
205 215 224
197 208 216
193 204 211
194 205 211
194 206 215
205 215 225
196 207 216
196 207 215
193 204 210
203 213 220
199 209 217
203 213 220
193 203 209
197 208 216
137 155 136
98 125 74
95 121 72
94 121 73
98 126 75
93 121 72
95 123 74
96 124 74
94 122 73
91 118 71
95 123 74
95 122 73
92 119 71
93 119 71
93 120 71
96 124 74
91 119 71
98 126 76
101 126 83
124 145 117
145 161 148
159 174 169
182 194 197
201 211 220
204 213 221
203 213 220
202 212 219
202 212 221
140 157 142
98 126 76
95 122 73
92 119 71
95 123 74
94 121 72
96 124 74
98 126 76
91 118 71
94 121 72
96 124 74
97 125 75
91 117 69
91 118 70
93 120 72
95 122 72
95 123 74
94 120 71
98 125 75
94 122 74
92 118 71
97 124 74
94 121 72
91 118 71
95 122 73
96 123 74
94 121 72
100 128 79
195 206 215
199 210 218
194 205 212
195 205 213
199 209 216
205 214 223
205 215 225
192 203 210
196 207 215
198 207 213
197 207 214
200 210 218
209 218 228
196 206 212
196 207 214
201 211 219
198 209 217
204 213 221
202 213 222
204 214 223
202 212 220
188 200 208
197 208 218
200 211 220
204 214 224
196 206 213
200 210 219
145 162 150
94 121 73
96 123 74
91 118 70
96 123 73
93 120 72
93 120 72
93 120 71
91 117 69
95 122 73
93 120 71
97 124 74
93 119 71
95 122 73
93 120 72
94 121 73
95 122 73
96 124 74
98 125 75
94 120 72
93 120 72
93 120 72
92 120 72
96 123 74
89 116 69
93 120 72
94 122 73
186 197 200
205 215 225
206 215 225
194 205 212
192 203 209
201 211 220
196 208 218
202 212 222
202 213 224
199 208 215
196 207 216
205 215 224
199 209 216
197 208 218
205 215 226
203 212 221
194 205 213
199 209 215
194 205 215
206 216 225
203 213 222
205 215 224
200 210 217
199 210 218
193 204 213
206 214 222
129 149 125
95 122 73
100 127 76
94 122 73
97 124 74
92 119 71
96 123 74
93 120 71
93 121 72
95 123 74
93 120 71
91 118 70
98 126 76
95 122 73
96 123 73
93 120 73
95 122 73
92 119 71
98 125 75
99 127 75
96 123 74
96 124 74
95 122 73
96 123 74
92 119 70
185 197 201
208 218 226
207 216 227
199 210 217
199 209 218
204 214 222
201 211 219
198 208 215
211 220 230
204 214 225
202 212 221
198 208 214
202 212 220
204 214 224
202 212 220
201 211 221
200 211 220
208 217 228
194 206 214
199 209 217
195 206 213
205 215 222
197 208 218
200 209 215
155 170 158
93 120 72
97 124 74
93 120 71
96 124 74
97 124 74
93 120 72
93 120 71
92 120 72
95 122 72
91 118 70
93 120 71
96 123 74
92 119 71
94 122 73
93 120 71
90 117 70
94 121 73
93 120 72
93 120 70
92 119 71
95 122 73
96 123 74
178 190 191
197 208 215
199 210 220
195 205 213
201 211 219
194 205 211
198 209 216
204 215 224
200 210 218
206 215 224
204 214 223
201 212 222
200 210 218
197 207 216
199 209 217
201 211 220
205 214 223
208 218 229
196 207 214
205 215 223
203 213 219
190 201 204
96 121 78
93 120 72
95 122 72
97 124 74
90 118 71
93 120 71
96 124 75
97 124 75
97 125 75
94 121 73
95 123 74
94 121 72
95 122 73
95 122 74
89 116 69
90 117 70
94 121 73
90 117 69
90 116 70
114 137 102
196 207 214
202 211 218
203 213 220
204 213 223
205 215 226
201 211 220
209 218 227
202 212 221
203 213 221
201 211 218
203 214 224
205 215 224
199 209 216
209 218 228
194 205 213
197 207 214
126 146 121
92 119 71
94 122 73
97 125 75
107 130 94
153 169 158
192 204 209
202 213 223
206 214 221
208 217 226
200 211 220
198 209 218
197 207 216
200 210 217
205 215 224
198 208 214
193 203 210
197 207 216
203 212 220
202 212 221
197 208 216
199 210 218
192 204 211
207 217 228
202 212 221
158 173 166
96 123 74
91 118 69
94 121 72
95 123 74
94 122 73
96 123 74
91 118 70
95 122 73
94 122 73
96 123 74
95 123 74
91 118 70
95 122 73
94 121 72
130 150 130
160 176 170
183 196 198
197 208 216
197 208 215
197 208 214
196 206 214
198 208 214
203 213 222
206 217 227
196 206 213
172 186 185
94 121 72
92 119 72
95 122 73
95 121 72
93 120 72
95 122 73
94 121 73
93 121 72
90 117 69
94 121 71
94 121 72
93 120 71
94 122 74
96 123 74
92 120 72
91 118 70
92 119 71
98 126 75
94 122 73
96 123 74
93 120 72
95 122 73
93 120 71
94 121 72
93 120 72
97 124 75
115 136 106
197 207 215
203 213 222
199 210 219
192 203 209
194 204 213
202 213 223
203 213 220
202 211 219
208 217 226
165 180 176
146 163 151
108 132 93
96 123 74
96 124 74
95 122 73
93 120 71
96 123 73
95 122 73
93 120 71
96 123 73
93 120 72
96 123 74
91 118 70
88 115 69
92 120 72
95 123 74
92 119 71
163 178 176
200 211 219
190 201 207
199 209 218
202 212 220
200 211 220
200 210 218
197 207 215
202 211 219
201 212 222
192 204 212
194 204 211
205 214 223
203 212 221
193 204 212
202 212 220
201 211 219
203 213 220
198 209 218
197 208 216
201 211 219
200 210 218
206 215 223
205 215 225
204 214 225
199 210 219
201 211 219
196 206 213
117 139 110
88 115 68
94 121 72
94 122 73
95 123 74
93 120 71
94 122 73
91 118 71
92 119 71
96 123 74
94 122 73
98 125 75
97 125 75
93 120 72
93 120 71
96 123 74
95 122 73
95 123 74
96 124 74
96 123 74
92 119 71
96 123 74
92 119 71
102 127 84
117 139 110
142 159 144
170 183 177
192 203 208
106 131 90
96 123 74
93 120 71
96 123 74
94 121 73
96 124 74
92 120 72
95 122 73
95 123 74
94 121 72
95 123 74
97 125 75
97 125 75
95 122 73
96 123 74
95 122 72
94 121 73
94 121 73
97 125 75
95 122 73
92 119 71
95 123 74
95 123 73
95 122 73
95 122 73
96 123 74
92 119 71
135 153 133
198 208 214
204 214 223
197 209 219
202 212 222
200 209 217
199 209 217
197 209 217
196 207 216
202 212 220
197 208 214
205 214 222
206 215 223
200 211 220
198 209 218
197 208 216
197 208 216
197 207 217
201 212 220
199 208 216
201 211 218
198 209 217
199 209 219
201 211 221
202 213 223
198 208 215
209 219 228
199 209 215
102 128 86
94 121 73
96 123 73
92 119 71
93 120 71
92 119 72
95 122 74
90 116 69
96 123 74
95 122 74
92 119 71
96 124 74
94 122 74
93 120 71
94 121 72
97 124 74
95 122 73
97 124 74
92 119 71
94 121 73
93 120 71
97 124 74
96 123 72
96 123 74
96 123 74
95 122 73
141 159 141
204 214 223
202 212 220
201 211 219
199 209 216
200 210 218
200 210 219
204 214 222
199 209 216
190 202 210
201 211 220
201 211 218
197 208 216
205 215 224
202 212 220
200 211 219
204 214 222
194 205 213
194 205 214
202 211 219
198 209 216
199 209 216
200 209 214
202 212 221
200 210 219
200 210 219
180 192 190
90 117 70
96 123 74
92 120 72
93 119 71
91 118 70
94 122 73
93 120 72
89 117 69
93 121 72
97 124 74
95 122 73
91 117 70
96 123 73
93 120 72
98 126 76
92 119 72
93 121 73
98 125 75
92 119 71
95 122 74
96 124 75
93 120 71
90 116 69
98 125 75
124 144 119
194 203 209
198 209 216
203 213 224
205 215 222
202 213 222
195 206 214
200 209 216
198 208 215
205 215 223
208 217 226
205 215 225
199 210 218
195 206 213
201 212 220
203 213 222
201 212 222
196 207 214
203 214 222
199 210 218
199 210 220
209 218 228
200 210 219
194 205 214
187 199 204
98 125 75
93 119 71
97 125 75
95 122 73
95 122 73
92 119 71
95 123 74
96 123 73
92 119 71
94 122 73
96 123 74
93 120 72
94 121 73
93 120 71
95 122 73
94 121 72
97 125 76
95 122 72
90 117 69
93 121 72
95 122 73
91 118 71
145 161 146
204 215 225
203 213 222
201 211 218
197 208 217
204 214 224
205 214 222
194 205 212
210 219 228
206 216 225
190 201 208
194 205 211
203 212 218
203 213 222
199 210 217
200 210 219
199 209 215
201 212 221
206 216 226
199 210 218
206 216 225
201 210 215
113 135 105
94 121 73
95 122 73
95 122 73
94 121 72
93 120 72
94 121 72
91 117 70
92 119 71
92 119 71
93 121 72
96 123 73
92 119 71
94 121 72
91 118 71
95 122 74
97 125 75
94 122 72
95 123 73
104 128 91
191 202 208
201 212 220
196 207 214
197 207 216
203 212 223
204 214 223
199 210 218
198 210 220
192 203 212
198 208 218
198 208 216
200 210 217
193 205 212
200 210 219
191 202 207
196 206 213
204 215 225
144 161 148
94 121 73
97 124 74
89 115 69
96 122 73
92 118 70
94 122 73
126 147 121
180 193 195
193 204 212
207 217 225
193 205 214
201 211 220
199 210 217
207 216 225
207 216 225
198 208 215
198 208 213
194 205 211
193 204 212
202 212 220
201 211 219
199 209 218
200 210 220
195 205 211
158 172 165
91 118 70
95 122 73
93 120 73
95 123 73
93 120 71
90 116 70
93 120 72
94 121 72
93 120 72
92 119 72
97 125 75
93 120 72
97 124 74
91 118 70
93 121 72
93 121 72
94 120 75
138 156 137
167 180 178
192 203 209
207 216 226
198 209 218
196 207 217
196 206 213
195 206 214
178 190 191
91 118 71
96 123 74
94 121 72
95 122 73
92 119 71
96 124 74
90 116 68
96 123 74
97 125 75
94 121 72
94 121 72
95 122 73
93 120 71
99 126 76
97 124 75
94 122 74
98 126 77
98 125 75
93 120 72
94 121 73
96 123 75
95 122 73
94 121 73
92 118 70
92 119 71
94 121 73
121 143 117
200 210 217
201 211 218
195 206 214
202 211 217
192 204 213
202 212 218
196 207 217
197 208 216
202 212 220
204 215 224
194 205 212
201 211 221
195 205 211
159 173 166
130 151 127
92 118 73
96 122 73
95 122 74
96 123 73
95 123 74
95 122 73
96 123 75
94 121 72
97 124 75
93 120 72
95 122 73
93 120 72
186 198 201
200 210 220
202 213 222
196 208 218
206 216 225
202 211 219
200 210 217
200 210 218
197 207 214
200 210 217
200 210 218
198 209 218
196 207 215
210 219 227
195 206 212
203 213 223
204 213 219
204 214 222
197 208 216
197 207 214
201 211 218
199 208 214
206 216 225
200 210 218
190 201 209
197 208 216
199 209 216
196 206 213
94 121 73
93 120 72
95 122 73
97 124 74
95 122 73
96 124 75
94 122 74
96 123 74
90 117 69
97 125 75
94 121 73
96 123 74
94 122 73
92 119 71
94 121 72
93 121 72
94 121 72
96 123 74
93 120 72
95 122 73
95 122 73
92 120 72
92 119 71
94 121 73
97 125 75
92 119 72
93 120 72
119 140 113
189 200 205
188 200 204
174 188 186
156 171 160
120 140 115
114 137 102
92 119 71
94 121 72
96 123 74
94 121 72
92 119 71
94 120 72
94 121 73
95 123 75
92 119 72
93 120 72
92 119 71
97 125 75
92 119 71
90 116 69
93 120 72
95 122 73
93 120 72
94 122 73
93 119 71
97 125 75
96 123 74
171 184 183
201 211 220
200 211 219
204 214 224
196 208 217
203 213 221
200 210 218
203 213 222
189 200 209
199 209 216
206 215 223
199 210 217
205 215 225
202 212 218
199 209 216
200 210 218
195 207 216
199 210 217
200 210 220
202 212 220
203 214 224
206 216 227
204 214 221
205 215 226
199 210 218
191 203 210
203 214 224
175 189 184
97 125 75
92 119 71
93 120 72
93 119 71
94 121 73
95 123 74
93 120 72
92 119 71
93 120 71
95 123 74
95 122 73
95 122 74
95 123 75
89 116 69
94 121 73
92 119 71
96 123 73
91 118 70
97 124 75
96 124 74
95 122 73
94 121 73
89 116 69
98 125 75
93 120 72
94 121 73
176 189 190
196 207 217
208 218 228
202 211 219
197 207 214
200 210 219
205 214 222
207 217 227
207 216 225
202 212 222
200 210 219
201 211 218
198 209 217
204 214 221
200 211 221
202 213 223
198 209 216
200 210 218
203 213 221
200 210 219
198 209 216
204 214 223
191 202 208
206 215 224
198 208 213
201 212 221
118 139 109
94 121 73
95 122 73
88 114 67
96 123 74
95 122 73
96 123 74
93 120 72
97 124 75
94 122 73
92 120 71
94 121 73
95 123 74
93 120 72
93 120 72
98 126 75
94 121 73
89 116 69
93 120 72
98 125 75
95 122 74
93 120 72
91 119 71
96 124 75
99 126 81
189 200 202
210 219 228
206 216 225
202 211 218
194 206 215
205 214 222
199 210 218
198 208 216
199 210 219
202 212 219
203 213 222
205 216 226
209 219 228
198 208 216
205 216 227
198 208 216
204 213 223
200 211 219
208 217 225
208 217 227
201 212 222
198 209 217
202 212 219
194 204 208
115 138 106
96 124 74
92 120 72
92 119 71
94 121 72
94 121 73
89 116 68
93 120 72
94 121 73
96 123 74
94 121 72
94 122 73
92 119 71
94 122 73
94 121 72
94 121 73
91 119 71
91 118 71
93 121 72
92 120 72
95 123 74
99 126 75
118 139 111
200 211 219
192 203 209
203 213 221
209 218 229
201 211 218
204 214 222
199 209 216
203 213 223
197 207 214
200 210 220
201 211 221
207 216 225
201 211 218
201 211 218
199 209 216
199 210 217
204 214 223
199 209 218
202 211 220
198 209 218
200 209 218
132 151 134
95 123 74
94 122 72
98 126 76
94 121 73
96 123 73
92 119 71
96 123 74
92 119 71
95 122 73
97 125 75
93 120 71
92 119 72
93 120 72
93 120 72
91 118 71
95 122 73
91 118 70
95 122 73
97 124 77
181 193 195
196 206 211
206 216 224
199 209 215
206 215 223
207 215 224
206 215 223
202 213 221
200 211 220
200 210 217
196 206 211
195 205 212
206 215 224
203 213 222
204 214 223
193 204 212
205 214 224
196 207 214
170 184 180
93 120 71
94 121 72
95 122 73
93 120 72
93 120 72
94 122 73
95 121 72
95 123 74
98 124 79
148 164 151
183 195 197
200 211 219
197 208 215
196 207 214
194 205 213
199 209 217
201 211 220
197 207 214
197 208 215
191 202 207
198 209 218
192 203 209
200 210 219
198 209 218
169 183 178
93 120 71
96 124 75
92 119 71
94 121 73
93 119 72
95 123 73
92 119 72
92 118 71
92 119 71
97 125 75
97 124 75
93 119 71
94 122 73
93 120 72
93 120 72
93 121 72
94 121 72
92 119 71
93 120 73
96 123 77
128 149 123
170 183 178
191 202 208
196 207 215
198 208 216
178 190 190
92 119 71
95 121 72
96 124 74
91 118 71
96 124 74
93 120 72
94 121 72
95 122 73
95 122 73
96 124 74
93 120 72
92 120 72
92 118 70
92 119 72
92 119 72
95 122 73
94 121 72
93 121 72
93 120 72
95 123 73
96 123 74
94 122 72
94 121 73
95 122 74
93 120 71
94 121 73
143 160 145
200 211 221
200 211 220
208 218 228
198 209 217
203 213 219
198 209 219
195 205 211
206 215 224
205 214 224
198 208 214
199 209 217
197 207 214
197 207 214
196 206 213
208 218 228
190 201 206
179 191 190
144 161 146
118 139 108
96 123 74
96 124 75
94 122 73
93 120 72
93 120 72
92 119 71
91 118 70
93 121 72
197 207 212
204 214 223
209 218 227
200 210 219
198 209 217
201 211 219
198 209 218
204 213 221
197 207 216
195 206 215
205 215 224
207 217 226
200 211 219
198 208 216
209 219 230
200 210 217
195 205 211
208 218 227
196 206 214
194 204 211
198 209 218
201 211 220
200 210 219
203 212 220
198 208 216
193 204 211
200 210 220
188 199 201
94 121 72
93 120 72
97 124 74
94 121 72
95 122 73
92 119 71
93 119 71
98 125 75
96 124 75
95 122 74
96 123 74
95 122 73
91 118 70
91 118 71
90 117 70
91 118 70
95 122 73
98 125 75
88 115 68
97 124 75
89 115 68
96 123 74
94 121 72
95 122 73
99 127 77
95 122 73
94 121 73
160 175 170
204 214 223
202 212 220
201 210 216
207 216 224
202 213 222
203 213 222
183 196 200
176 188 186
165 180 178
137 156 138
118 140 113
102 127 85
91 118 71
89 116 69
95 122 73
93 119 70
92 119 71
94 121 72
95 123 74
90 117 70
89 116 69
95 122 74
96 124 75
99 127 76
95 122 73
94 121 73
100 126 80
200 210 219
202 212 221
200 211 220
203 212 219
196 208 219
201 212 222
191 204 213
206 216 226
188 200 206
206 216 226
200 211 220
188 200 206
199 210 219
194 206 214
201 212 222
198 208 214
204 213 222
201 211 219
208 218 228
200 209 216
200 210 217
208 217 227
202 213 222
184 197 204
198 209 218
203 213 221
209 219 231
124 145 117
94 121 72
94 122 73
96 123 73
95 122 73
96 123 74
93 120 71
97 125 75
94 121 73
94 122 73
95 122 73
93 120 72
94 120 72
94 121 72
93 120 71
91 118 70
94 121 72
95 122 74
95 123 73
91 119 71
96 123 74
96 123 74
95 122 74
93 120 72
94 121 73
96 124 74
125 146 121
192 204 212
193 204 211
195 206 215
201 212 221
202 211 217
202 212 221
195 205 210
206 216 225
198 209 218
206 216 225
188 201 207
205 214 222
200 210 217
190 201 207
203 213 223
206 215 223
201 212 223
196 207 213
194 205 214
195 207 215
202 212 219
200 210 217
199 209 217
200 210 218
198 209 216
168 181 175
94 121 72
97 125 74
96 124 74
93 120 71
94 122 73
96 123 73
98 126 76
93 120 72
97 124 74
93 121 72
93 120 72
94 122 73
94 121 72
93 120 72
95 122 74
92 120 73
93 120 72
96 123 74
96 123 73
93 121 73
90 117 70
97 125 75
95 122 73
93 120 72
148 163 150
202 212 220
203 213 219
206 216 226
200 210 220
196 206 213
199 209 215
197 208 216
201 211 220
197 208 214
200 210 218
198 209 218
198 209 216
196 207 215
200 211 222
203 213 221
193 204 210
198 208 215
201 211 219
199 209 215
203 213 224
197 208 216
201 212 223
202 212 221
152 169 159
94 121 72
95 122 74
93 120 71
91 118 71
95 122 73
96 124 75
96 123 73
94 122 74
97 125 75
95 122 74
96 123 73
95 122 73
94 121 72
95 122 73
92 120 72
94 121 72
96 124 74
90 117 69
94 122 72
98 126 75
92 119 71
106 130 92
181 194 196
201 212 222
198 208 217
196 206 214
195 206 214
200 210 219
208 217 225
198 208 216
198 209 217
202 212 219
192 203 209
197 207 216
196 208 219
198 209 216
200 210 219
198 209 218
199 210 220
199 209 215
201 212 221
196 206 213
197 206 212
162 176 171
95 122 73
93 120 72
93 120 72
94 121 72
95 122 73
96 123 74
93 120 72
92 119 71
95 122 73
96 123 74
93 120 72
93 120 71
97 125 76
92 119 71
94 120 71
94 122 73
94 121 72
94 121 72
97 125 74
170 183 180
200 210 218
204 214 223
191 202 208
179 191 193
152 167 157
150 166 156
108 132 95
94 121 73
206 216 224
198 208 216
203 213 223
195 205 213
201 211 219
195 205 212
201 211 219
197 208 215
201 211 221
209 218 228
170 184 180
92 119 72
95 123 73
92 118 70
94 121 72
93 120 71
93 120 71
92 119 72
96 123 74
94 121 73
92 119 71
97 124 74
112 135 102
162 176 171
203 213 220
203 212 220
199 209 216
189 202 210
198 209 218
203 213 222
201 211 219
201 210 218
190 201 209
201 211 218
197 207 214
182 194 195
93 120 71
91 118 70
93 120 71
93 120 72
95 122 73
93 120 71
91 117 70
96 123 73
93 120 72
93 120 71
94 121 72
94 121 73
91 118 69
91 118 71
97 125 75
91 118 70
96 123 73
96 124 74
94 121 72
94 121 72
90 116 69
92 119 72
100 125 83
131 150 129
168 181 176
181 194 197
95 123 73
92 119 70
92 120 72
88 115 67
94 122 74
93 121 73
90 117 70
96 123 73
90 117 70
93 120 72
92 118 70
97 125 75
93 120 72
91 117 70
94 121 72
93 120 71
91 118 70
92 119 71
96 123 73
96 123 73
95 122 73
94 121 72
95 123 73
93 120 72
98 125 75
90 117 70
152 167 156
203 212 222
202 212 220
202 212 222
191 201 208
198 208 215
197 207 214
196 208 217
204 213 223
197 208 214
192 204 212
196 207 215
192 203 210
205 215 225
202 212 221
198 208 216
200 210 217
199 209 216
201 212 221
206 216 225
183 195 197
170 184 180
135 152 136
100 124 86
97 124 74
92 119 71
96 124 75
107 131 94
199 210 219
196 206 212
205 214 222
195 206 214
201 211 219
205 215 225
201 211 222
206 215 224
205 215 225
198 208 214
194 206 215
201 210 217
200 210 218
197 207 214
197 207 214
198 209 216
206 215 224
203 213 221
197 208 216
198 208 217
203 213 222
201 212 222
199 210 218
200 210 218
200 210 219
197 208 218
203 212 220
161 176 171
97 124 75
94 122 73
94 121 73
91 118 71
95 122 73
95 122 73
95 122 73
94 120 71
94 120 72
92 119 71
94 121 73
92 120 72
96 123 75
91 118 71
98 126 75
93 120 71
91 118 70
96 124 74
93 120 71
96 124 74
95 122 72
95 122 74
91 118 70
91 118 71
91 118 70
93 119 72
96 123 74
186 198 199
201 211 221
202 212 222
209 218 227
204 214 222
196 206 214
196 207 213
203 213 220
195 207 215
207 215 223
198 209 216
201 211 218
195 205 213
188 199 202
180 193 192
160 174 168
148 165 154
113 135 104
98 123 79
97 125 75
94 121 72
96 123 73
98 126 76
97 125 75
91 118 70
93 120 72
95 122 73
153 169 155
202 212 221
210 220 231
201 210 218
200 211 220
198 208 217
196 206 213
198 208 215
205 215 224
203 213 220
203 214 222
196 206 214
203 212 220
203 213 223
213 221 231
203 212 218
197 208 215
208 217 226
195 205 212
201 211 219
194 205 211
206 215 224
208 218 228
197 208 214
200 211 220
200 210 216
203 213 221
183 194 195
93 120 72
95 122 73
97 124 75
92 119 71
92 119 71
94 122 73
96 123 74
96 124 75
91 118 70
90 117 70
93 121 73
94 121 72
90 116 69
95 123 73
96 124 75
93 120 72
96 123 74
88 114 66
97 125 75
96 123 74
98 126 76
97 124 75
93 119 71
93 120 71
95 122 72
93 120 72
177 190 192
194 206 215
197 207 217
201 211 220
202 212 221
199 210 218
199 209 218
197 209 218
209 218 227
196 208 219
199 210 219
207 215 223
198 209 218
192 203 211
200 211 219
201 211 220
207 216 227
194 204 210
200 210 216
205 214 223
202 212 219
203 213 220
204 214 224
204 215 224
194 206 214
197 209 218
119 140 113
96 124 75
94 121 73
95 122 73
95 122 73
95 122 73
93 121 73
93 120 71
96 123 74
96 123 74
99 126 75
95 123 74
93 120 73
97 125 75
93 121 73
89 116 69
94 121 72
96 123 74
96 123 74
92 119 71
92 119 70
94 122 73
94 122 73
95 122 73
108 132 93
194 205 211
200 211 220
204 213 222
204 214 223
196 207 214
202 212 220
195 206 213
196 207 217
206 215 224
203 212 220
197 208 215
204 213 223
198 208 215
201 211 219
205 215 225
199 210 218
203 213 223
207 216 226
204 214 222
206 216 227
202 211 220
205 215 223
202 212 220
183 195 198
94 120 75
95 122 73
93 120 71
96 124 75
93 120 71
95 123 74
92 118 70
96 124 74
96 124 74
94 121 73
95 122 74
95 123 74
95 122 73
97 124 74
96 123 74
95 122 73
92 119 71
93 120 72
94 121 72
96 123 74
92 120 71
94 121 73
177 191 190
201 212 221
206 216 224
196 207 216
195 206 214
201 211 220
196 207 215
202 211 220
192 203 212
198 208 216
204 213 220
197 208 215
202 212 219
205 215 224
193 204 210
205 214 223
199 210 219
203 213 223
203 212 221
196 206 214
203 213 222
167 181 174
95 122 73
97 124 75
96 123 74
88 115 68
95 122 73
94 121 73
97 124 75
94 121 73
96 123 74
94 121 72
97 124 74
94 121 73
93 120 72
93 120 72
94 122 73
91 117 70
96 124 74
98 123 79
126 146 122
129 148 127
152 168 159
136 154 133
103 127 90
94 121 72
92 119 71
94 121 72
99 126 76
91 118 71
90 118 70
206 215 223
190 202 208
204 214 222
195 206 214
201 210 217
206 215 223
201 211 219
197 207 215
189 199 205
203 213 222
183 195 198
93 120 72
97 125 75
97 124 75
95 122 73
95 122 73
95 122 74
93 119 72
90 117 69
90 116 69
91 118 71
94 121 72
93 120 72
94 121 72
93 120 72
125 145 123
174 187 185
198 209 219
204 214 222
198 209 216
200 211 219
201 212 222
192 203 210
197 208 217
203 214 224
191 202 207
92 119 71
94 121 73
92 119 71
95 122 74
93 120 72
94 121 72
86 112 67
96 123 74
91 118 70
88 115 69
94 121 72
93 120 72
95 122 73
92 119 72
94 121 73
93 121 72
95 123 73
96 124 74
98 125 75
94 121 72
92 119 71
92 119 71
94 121 71
94 120 72
91 117 70
139 158 139
177 189 189
143 161 148
100 124 85
99 126 76
97 124 74
91 118 70
93 121 72
97 125 75
93 120 72
93 120 72
92 119 71
92 119 71
88 114 68
95 123 74
97 124 74
96 123 74
92 119 71
94 122 73
97 125 75
91 118 70
92 119 71
92 119 71
95 122 73
98 126 76
93 120 72
92 119 70
146 164 151
194 204 211
197 207 215
205 215 224
202 211 219
201 211 220
197 207 215
197 208 217
197 207 215
198 208 213
192 203 210
195 205 212
191 202 208
196 207 214
202 213 224
202 212 223
197 208 217
199 210 218
202 213 225
198 209 216
200 210 218
200 211 219
197 208 217
203 213 222
191 202 204
152 168 159
129 148 126
121 143 113
193 204 211
201 212 221
191 201 207
198 209 217
201 210 218
198 209 217
201 210 217
201 211 219
200 210 217
195 206 214
206 215 223
198 208 217
199 210 220
205 214 221
204 214 226
207 216 225
189 201 207
199 209 215
203 213 222
191 203 211
207 216 223
197 208 215
205 215 224
197 208 215
195 206 213
203 213 221
199 210 218
128 147 127
92 119 70
94 122 73
96 123 74
91 117 70
95 121 72
88 114 67
94 120 72
95 122 73
94 120 71
94 121 72
91 118 70
93 121 72
92 119 71
95 123 74
91 118 71
94 121 73
97 125 75
96 124 75
91 118 72
94 121 72
97 124 75
93 120 72
93 120 72
95 122 73
92 120 72
93 121 73
113 137 99
200 212 222
196 207 217
199 209 217
202 212 219
199 210 220
203 213 222
200 210 219
192 203 209
199 209 217
196 207 216
202 212 220
202 213 223
201 211 220
198 208 216
191 202 207
202 212 222
206 216 224
195 207 215
196 207 215
188 200 204
157 171 165
159 174 165
139 157 142
121 141 112
105 131 88
96 123 74
97 124 74
164 178 174
202 212 220
200 210 220
195 207 217
200 210 218
199 210 221
193 204 212
198 209 216
200 211 222
200 210 217
199 210 217
202 212 221
201 210 218
198 208 214
201 212 223
198 209 217
197 208 217
208 217 227
196 207 215
203 212 221
200 210 217
202 212 220
196 205 211
205 214 225
201 211 220
199 210 219
194 205 212
149 166 150
91 117 70
97 125 75
93 121 72
95 122 73
90 117 69
91 118 70
92 119 71
93 120 71
88 114 67
96 124 74
95 123 74
93 120 73
94 121 72
94 122 73
94 122 73
92 119 71
97 124 74
93 120 71
96 124 74
93 120 72
96 123 73
95 122 73
96 123 74
93 119 71
95 122 72
117 139 109
201 212 221
199 210 221
198 209 217
194 205 213
202 212 220
201 211 219
197 208 214
206 215 222
192 204 213
197 208 216
202 212 220
191 201 207
201 211 221
196 206 215
192 203 210
203 212 219
199 210 219
202 212 221
196 206 211
198 208 215
205 214 223
196 207 216
197 208 215
206 217 226
206 215 225
161 176 170
96 123 74
91 118 70
93 120 72
92 118 70
90 117 69
96 123 73
99 126 76
96 124 75
88 115 68
92 118 70
95 123 74
90 117 70
97 125 76
94 121 72
94 121 73
93 119 71
94 120 72
92 119 70
95 122 73
94 121 73
95 123 74
93 119 71
95 123 74
94 121 73
163 178 174
199 210 219
205 215 224
198 208 215
200 211 219
195 206 213
200 210 218
195 207 216
203 213 222
203 213 222
201 211 219
201 211 219
201 212 221
193 204 211
202 212 219
199 210 218
202 212 221
190 201 208
194 205 213
200 211 220
196 207 214
197 208 215
203 212 219
202 212 221
115 137 107
93 121 73
95 122 74
94 121 72
91 118 70
93 120 72
93 119 71
96 122 73
93 120 71
89 116 69
88 115 68
94 121 72
89 116 69
92 119 72
95 122 73
97 124 75
96 123 74
90 117 69
91 118 70
94 121 73
93 120 72
93 120 72
146 163 147
197 208 215
194 205 213
200 210 218
192 204 211
204 214 223
203 213 221
202 213 222
198 208 214
201 211 222
201 212 221
202 212 221
198 209 218
201 211 220
192 204 211
200 210 220
197 207 214
204 214 223
197 207 213
203 213 220
197 207 216
179 192 192
102 128 87
92 119 71
90 116 69
93 120 72
92 119 71
92 119 71
90 117 70
95 122 73
92 120 72
98 125 75
95 122 73
94 121 73
102 129 82
113 135 107
142 161 145
154 170 161
176 189 189
183 195 198
199 210 219
172 185 184
94 120 71
93 120 72
97 124 74
92 119 71
93 120 72
92 119 71
92 118 71
91 119 72
92 119 71
93 120 72
178 191 193
184 195 199
197 208 216
192 204 210
201 211 218
197 207 214
199 209 218
196 207 214
199 209 215
206 216 226
194 204 211
100 125 84
98 125 75
90 117 70
96 123 74
94 122 73
91 118 70
92 119 71
94 121 73
95 123 73
94 120 72
93 119 71
92 119 71
93 120 72
96 123 74
94 121 73
96 124 74
98 123 84
147 165 153
189 200 202
202 213 221
200 211 221
199 209 217
206 216 226
203 213 222
189 200 205
87 113 67
97 124 74
92 119 71
95 121 72
91 118 70
88 115 69
92 119 71
96 122 73
95 122 73
93 120 72
91 118 70
95 122 73
94 121 73
95 122 72
96 123 74
95 122 72
91 118 69
93 121 72
88 115 69
98 126 76
96 124 75
89 116 69
91 119 71
91 118 70
97 125 75
129 149 127
201 212 220
207 217 226
200 209 217
174 188 187
158 173 164
111 134 100
94 121 72
95 121 73
94 121 73
98 126 75
92 119 71
94 122 73
94 121 72
90 117 70
93 120 72
98 125 74
94 122 72
94 121 73
94 120 72
96 123 73
94 121 73
92 118 71
92 119 70
93 120 71
91 118 71
90 116 69
159 174 168
196 206 213
202 212 221
204 214 225
198 210 220
198 208 217
199 210 219
203 213 222
205 216 225
195 207 215
207 217 226
202 212 220
185 197 199
201 211 219
196 206 214
195 205 214
203 214 223
196 207 214
198 209 219
200 209 218
194 205 214
204 214 224
203 213 223
201 211 219
196 207 213
210 219 229
199 210 218
164 179 173
134 152 134
156 171 159
165 180 176
200 210 217
201 211 219
204 214 223
206 216 225
202 211 219
202 212 221
201 211 219
199 208 215
199 208 216
203 212 221
204 213 220
200 211 220
202 212 221
204 213 223
200 210 218
197 207 216
194 205 212
203 214 224
201 210 219
199 209 217
195 206 215
200 210 219
203 212 219
198 208 217
106 130 92
93 120 72
95 122 73
93 120 72
95 122 73
97 124 74
95 122 73
94 122 73
92 119 71
90 117 70
94 120 72
92 119 71
93 120 71
98 126 75
95 123 73
92 119 71
95 122 73
93 119 70
96 124 75
96 124 74
94 121 72
95 123 74
94 121 73
90 116 69
97 124 75
97 124 75
90 117 70
152 168 157
204 215 225
207 216 225
196 206 213
196 207 215
202 212 223
201 211 218
205 215 224
198 209 219
205 214 221
195 206 213
194 205 212
205 216 227
192 203 206
197 208 216
196 206 212
198 208 215
193 203 209
191 202 211
203 213 221
197 208 217
187 199 204
202 212 221
197 207 215
205 214 223
196 206 213
188 199 201
171 185 183
140 158 140
164 178 172
178 190 190
192 202 205
199 209 218
202 212 220
205 215 224
198 209 219
195 207 215
200 211 221
197 208 215
197 208 218
202 212 222
196 207 214
193 204 211
202 213 221
194 205 215
205 215 224
211 220 229
203 213 221
200 210 218
201 211 219
193 203 210
196 207 215
197 208 215
195 207 217
184 196 199
99 125 80
96 124 74
92 119 71
91 118 70
92 119 71
97 124 74
90 117 69
95 122 73
95 122 74
90 116 69
94 121 73
94 121 72
91 118 70
93 121 72
96 123 73
94 121 72
93 121 72
95 123 74
92 119 71
95 121 72
93 120 71
93 119 71
94 121 73
95 122 73
94 122 74
90 116 69
166 180 177
200 211 220
202 212 221
185 196 201
196 207 216
201 211 220
206 216 226
198 209 218
202 212 221
193 203 208
201 212 222
193 204 212
193 205 213
199 209 216
204 214 222
203 213 222
201 212 221
198 208 217
201 211 220
196 206 212
198 208 213
203 213 221
197 207 214
195 205 211
195 207 216
195 206 213
104 130 90
94 121 73
91 118 71
93 121 72
94 121 72
98 126 76
91 118 71
95 122 74
95 122 73
94 121 73
90 117 70
93 120 72
92 119 71
95 123 75
95 123 75
92 119 71
88 115 68
97 124 75
95 122 73
92 120 72
89 116 68
95 122 73
96 123 73
90 116 68
132 151 131
199 209 216
191 201 210
201 211 219
200 211 220
206 216 226
207 217 228
199 209 217
193 205 212
188 200 209
203 212 221
202 212 221
209 219 230
196 206 214
197 207 214
195 205 212
199 210 221
203 212 219
200 211 221
199 209 216
205 214 222
205 215 224
204 213 221
200 210 219
159 174 165
94 121 73
94 121 73
97 125 75
94 122 73
92 120 72
95 122 73
95 122 74
91 117 70
96 123 74
92 120 72
95 122 74
95 123 73
94 121 72
97 124 75
90 117 69
92 119 71
92 119 71
94 121 72
97 124 74
93 119 71
91 117 69
107 131 96
188 199 206
202 212 219
202 211 219
188 200 209
195 206 214
199 210 218
196 206 213
193 205 213
204 215 224
198 208 216
199 209 215
195 205 212
199 209 216
198 208 216
194 205 211
201 211 220
195 205 212
202 211 219
191 202 211
201 211 219
197 208 214
108 132 93
95 123 73
93 119 71
92 119 71
93 120 72
92 119 70
94 120 72
107 131 95
113 136 108
142 160 143
141 158 147
177 190 194
198 208 214
195 206 213
195 206 214
191 203 210
202 212 221
198 209 220
198 209 218
178 191 192
96 123 74
94 122 73
93 120 72
90 117 69
95 123 73
91 118 70
88 115 68
98 125 75
91 119 71
96 123 74
92 119 70
93 120 71
101 127 86
151 168 159
200 210 217
197 207 214
207 216 224
199 209 217
195 206 212
198 208 215
199 209 217
202 212 222
127 147 124
91 118 71
91 117 70
93 120 72
96 123 74
92 118 71
90 117 70
91 118 71
94 122 73
93 121 72
93 120 72
94 121 72
94 121 72
91 118 70
90 117 69
93 120 72
92 118 70
93 120 72
90 116 69
112 134 104
145 160 151
182 194 199
202 211 220
200 210 218
189 200 205
93 121 72
96 124 74
94 122 73
92 119 71
94 122 73
95 122 73
91 118 71
96 124 74
95 122 74
94 121 73
94 122 73
96 123 74
92 119 71
94 121 72
95 123 74
91 118 70
95 122 73
95 122 73
94 121 72
91 118 70
95 123 74
90 117 70
94 122 73
95 122 73
92 119 71
129 149 124
195 206 211
201 211 219
201 211 220
197 207 215
193 204 211
194 205 211
185 197 199
148 165 153
125 144 120
95 122 73
95 122 73
95 122 73
95 122 73
92 119 71
93 121 73
96 123 74
94 121 72
95 122 72
93 120 72
96 124 74
94 121 73
89 116 69
94 121 73
93 120 71
94 120 72
95 123 74
163 177 172
197 207 215
200 210 217
198 209 218
195 204 210
195 206 215
200 209 216
196 208 217
195 205 213
194 205 212
205 215 222
198 209 219
191 202 208
200 211 220
190 201 207
206 216 224
202 211 219
195 205 210
203 213 222
203 212 221
198 209 218
195 206 215
201 211 218
197 209 218
208 217 226
205 214 220
197 207 213
155 170 163
97 124 74
92 119 71
93 120 71
103 128 86
128 149 126
167 181 177
189 200 202
202 211 219
202 212 220
198 208 216
199 210 218
198 209 218
197 207 215
204 213 222
203 212 219
196 208 217
205 215 226
204 214 221
201 211 219
208 217 225
195 206 213
204 213 220
203 213 223
202 213 223
204 214 224
193 204 211
184 197 199
95 122 73
94 121 72
90 117 70
92 119 71
97 125 75
95 123 74
93 120 72
95 123 74
95 122 73
89 116 69
92 119 70
93 120 72
96 123 74
93 120 72
95 122 74
94 122 73
94 121 72
97 124 75
91 117 70
95 123 74
91 119 71
89 116 69
93 120 71
94 122 74
90 117 70
95 122 73
91 118 71
174 186 183
202 212 220
191 201 207
195 205 213
204 214 222
194 205 212
201 211 219
195 206 215
207 216 226
198 208 216
199 210 220
196 207 215
202 212 219
191 202 209
197 209 218
205 215 225
202 211 219
194 204 209
199 209 217
198 208 212
196 206 213
201 212 220
200 210 218
199 209 216
201 211 220
203 212 221
204 214 222
172 185 181
95 123 74
95 122 73
94 120 72
98 126 76
93 120 71
115 137 107
142 159 143
152 168 155
168 182 178
174 187 185
180 193 195
201 210 216
196 206 213
197 207 215
194 205 214
192 202 208
198 209 218
201 211 220
199 210 220
197 208 217
202 212 221
193 204 210
200 210 218
196 207 215
198 209 217
198 208 217
155 170 160
92 119 70
93 120 72
94 122 73
97 125 75
91 118 71
91 118 70
92 118 70
96 123 73
93 120 71
94 121 72
93 121 72
95 122 73
93 120 71
94 121 72
96 124 75
93 120 72
89 115 68
96 123 74
94 122 73
93 120 72
91 119 71
95 123 73
91 119 71
93 120 71
95 122 74
121 142 118
202 212 220
204 214 224
204 213 220
202 212 220
202 212 221
204 214 225
199 210 217
193 203 210
193 204 213
192 203 210
200 211 221
196 207 214
201 211 220
199 210 219
201 210 218
198 209 217
203 212 221
195 206 212
203 212 220
197 209 220
189 200 207
196 207 214
198 208 215
204 214 223
202 212 221
155 170 161
93 120 71
95 122 74
95 122 73
92 119 71
100 127 76
89 115 69
97 124 75
94 121 73
96 123 74
95 123 74
96 123 73
89 116 68
94 121 73
98 126 75
95 123 74
93 120 72
94 121 73
98 125 75
96 123 74
92 119 71
97 124 75
93 120 73
92 120 71
93 119 73
184 196 199
203 214 222
196 206 212
203 212 219
207 216 224
199 208 214
201 211 221
201 211 219
209 218 227
199 209 217
202 212 219
207 216 225
203 213 222
198 208 214
196 206 212
199 210 218
209 218 228
199 209 217
201 211 219
193 205 213
200 210 218
194 206 216
205 215 224
176 189 190
93 120 72
93 121 72
94 121 72
94 121 73
93 120 72
96 123 74
91 118 71
92 119 72
94 121 73
92 119 71
97 125 75
93 121 73
92 119 71
89 115 67
96 124 74
96 124 74
94 121 73
93 120 72
91 118 71
94 121 72
90 117 70
98 124 77
185 197 201
200 210 220
203 213 221
197 207 215
201 211 219
195 207 217
198 208 217
208 217 226
190 201 207
201 211 218
199 210 218
194 205 212
199 208 216
193 205 212
201 212 222
203 213 222
199 210 220
196 207 215
192 202 207
204 213 221
194 205 212
119 141 112
102 128 84
120 140 115
138 156 136
148 164 151
169 183 179
176 188 188
186 196 201
198 208 216
191 202 210
199 210 218
194 204 210
198 209 218
203 214 223
198 208 216
201 210 218
202 212 221
197 207 213
194 204 211
181 192 191
106 130 92
92 120 71
91 118 71
95 123 74
93 120 72
93 120 72
92 120 72
92 119 71
94 121 72
90 117 69
95 122 73
96 123 74
92 119 72
93 121 72
92 119 72
98 124 84
124 144 125
169 183 179
193 204 212
199 210 220
202 211 219
198 208 216
201 211 220
149 166 153
95 122 74
94 121 73
94 121 72
95 122 73
94 122 73
95 122 73
94 122 73
95 122 73
93 121 72
91 118 70
90 117 70
94 121 72
93 120 71
92 119 72
92 119 70
95 122 73
94 122 73
91 118 70
95 122 73
94 121 73
93 119 71
128 148 125
165 178 175
198 208 216
96 121 78
95 122 73
93 121 72
97 124 75
93 120 72
95 122 73
95 122 73
91 118 71
94 121 72
96 124 75
95 122 72
91 118 70
95 123 73
93 119 71
95 122 74
95 122 73
91 118 70
89 116 69
95 122 73
95 122 73
92 119 72
94 121 72
92 119 71
91 118 70
96 123 73
133 153 132
196 206 212
195 206 215
200 210 219
200 210 218
197 208 216
195 206 213
201 211 218
208 217 228
198 209 217
181 194 198
157 172 162
121 142 117
96 122 78
95 123 74
96 123 74
95 122 74
99 126 76
91 118 71
94 121 73
92 119 71
96 123 73
95 122 73
94 121 72
94 120 72
93 120 72
92 119 71
172 186 186
208 217 225
206 215 224
207 216 226
199 209 218
198 209 217
199 209 217
192 202 208
195 206 214
190 200 207
200 211 219
197 208 215
199 210 220
209 218 229
202 212 221
201 211 220
201 211 218
196 207 215
196 205 212
189 201 207
197 207 214
197 207 217
193 204 213
200 210 217
195 206 214
199 210 218
199 210 219
134 152 136
94 121 72
95 122 73
93 121 72
93 121 72
92 119 71
94 121 73
93 119 71
102 127 85
136 155 130
167 180 173
185 196 197
194 205 212
200 210 218
197 207 215
196 207 213
193 204 211
192 204 212
192 203 211
200 210 218
192 203 210
203 213 221
198 209 218
199 210 220
203 213 222
203 213 221
200 211 221
165 179 176
93 120 72
92 120 71
92 119 71
95 122 73
91 118 70
94 121 72
90 117 70
92 120 72
95 122 73
96 124 75
90 117 70
90 117 70
94 121 72
93 120 72
96 123 74
93 121 73
96 122 73
97 124 75
96 123 74
91 117 70
92 119 71
93 120 71
93 120 72
93 120 71
93 121 72
97 124 74
92 119 71
184 195 199
192 203 210
194 205 213
197 207 215
199 210 219
201 212 223
210 219 229
194 205 213
199 209 215
196 206 213
204 214 222
201 212 223
201 211 220
201 211 219
204 214 222
195 206 215
204 213 221
194 205 211
205 214 223
197 208 216
195 206 214
204 213 221
197 207 215
195 206 214
201 211 218
202 212 219
202 212 219
131 150 131
94 122 73
93 120 72
91 118 70
93 120 72
96 124 74
96 123 74
95 122 73
94 122 73
89 116 70
97 124 75
91 119 71
95 122 73
116 138 109
127 147 123
134 153 133
159 174 168
157 171 163
174 188 188
195 206 214
199 210 218
200 211 221
203 213 222
201 212 221
195 206 215
199 209 217
200 211 221
108 131 98
93 120 72
91 118 71
96 124 75
97 124 74
93 120 71
95 122 73
93 120 72
95 122 73
94 121 72
93 120 72
93 120 72
94 121 72
96 123 74
93 120 71
92 119 71
95 122 73
93 120 72
94 122 74
92 119 71
92 119 71
96 123 74
96 124 74
97 125 75
91 118 70
95 122 74
168 182 179
189 200 207
200 210 219
200 210 220
196 206 214
193 203 209
206 216 226
202 212 219
199 209 217
200 210 220
202 212 221
196 208 218
198 208 214
198 208 216
199 209 216
194 204 210
200 211 221
200 211 220
204 214 223
200 210 219
205 214 223
196 207 216
197 207 215
202 212 221
197 208 216
181 193 196
100 126 81
91 118 71
91 118 71
91 118 70
93 120 72
91 118 71
91 118 71
91 117 69
88 114 68
97 124 74
98 125 74
91 118 70
95 122 73
95 122 73
93 120 72
91 117 70
93 119 71
94 121 73
89 115 68
94 121 72
92 119 70
93 120 72
97 125 75
95 122 73
158 173 164
200 211 219
192 203 210
192 203 210
204 214 222
203 213 222
193 204 212
192 203 210
204 213 221
206 214 222
195 205 212
194 205 213
203 214 223
199 210 218
196 207 213
188 199 203
200 210 217
193 204 210
205 215 225
198 208 216
197 207 214
196 207 215
206 216 227
189 200 206
117 138 110
92 119 71
92 119 71
94 122 73
90 117 69
93 120 72
91 117 70
92 119 71
95 123 74
92 120 72
92 119 71
94 121 73
97 125 75
97 124 74
94 122 73
96 123 73
96 123 74
95 122 73
92 119 71
96 123 75
95 122 73
96 123 74
164 179 172
203 213 223
194 205 213
207 216 224
196 208 217
194 206 214
194 204 211
199 209 217
203 213 223
193 205 213
195 206 213
194 204 213
200 210 220
193 203 210
201 212 223
203 214 224
194 204 211
172 186 184
170 183 179
166 181 175
144 160 147
172 186 186
189 199 205
200 210 217
193 204 209
199 209 217
199 209 218
200 209 216
201 211 219
204 213 219
193 205 214
203 213 221
202 211 219
199 210 218
201 212 221
198 209 218
201 211 219
194 204 210
200 210 218
194 205 213
199 209 214
108 132 95
92 119 70
93 120 72
94 121 72
98 125 76
91 118 71
93 120 71
96 123 74
97 125 75
90 117 70
95 123 74
93 120 72
91 118 71
95 123 74
93 120 72
93 120 71
97 124 75
86 112 66
95 123 74
109 133 97
162 176 172
196 207 215
199 209 217
202 213 224
158 173 165
92 120 72
95 122 74
97 124 75
94 121 72
94 122 73
93 120 71
93 121 72
95 123 74
90 118 70
90 117 70
96 123 74
93 120 73
90 117 69
92 119 71
94 120 72
97 124 75
96 123 74
92 118 70
87 113 67
91 118 70
93 120 72
95 122 73
96 123 73
91 117 72
170 183 182
121 142 118
102 128 84
93 119 71
92 119 71
90 117 70
88 114 68
93 120 71
95 122 73
93 120 72
94 121 72
94 121 72
86 112 66
94 121 72
94 122 74
94 121 72
94 121 72
95 122 73
93 120 72
94 121 72
94 121 72
93 120 71
93 120 72
91 118 70
94 122 74
117 138 110
204 213 221
202 212 222
189 201 207
201 211 218
198 208 215
200 211 221
206 216 225
199 209 218
199 210 221
196 207 214
202 212 220
196 207 214
176 190 192
156 171 163
124 145 122
95 121 78
94 120 72
92 119 71
96 123 74
93 121 73
93 120 72
93 121 72
92 118 70
93 120 72
93 120 71
89 115 68
174 187 188
193 204 210
200 211 219
200 210 219
201 211 217
193 204 211
192 204 213
200 211 220
198 208 215
191 201 207
192 202 208
198 208 215
190 202 212
200 211 219
197 208 216
199 210 219
198 209 217
193 204 211
199 209 218
201 211 218
200 210 219
201 211 219
207 216 226
196 207 214
191 201 205
198 208 214
193 204 212
116 138 110
95 122 73
91 117 70
97 124 74
93 120 72
97 124 75
94 121 72
95 122 73
91 118 71
90 117 70
93 120 72
92 119 71
106 131 90
129 148 127
157 172 166
176 189 190
183 196 203
197 208 217
196 207 213
198 209 218
196 206 214
200 211 220
199 209 216
203 213 222
197 208 216
203 213 221
193 205 214
145 161 148
91 118 71
92 119 71
95 123 74
94 121 72
94 121 72
91 118 71
95 122 73
95 122 73
93 121 73
93 120 71
94 121 72
91 118 71
86 112 66
92 120 72
89 116 69
93 121 72
94 122 73
96 124 74
92 119 72
91 118 70
90 117 70
90 117 69
94 121 73
94 121 72
93 120 72
96 123 74
128 147 122
199 209 217
195 206 212
194 205 212
194 205 214
203 213 222
195 207 217
203 213 222
199 210 219
194 205 213
200 210 219
202 212 220
192 203 209
200 211 220
194 204 210
202 211 219
193 204 209
200 211 219
203 213 223
201 212 220
199 210 219
195 206 213
204 214 223
202 212 221
195 206 213
202 212 221
204 214 222
198 208 213
94 120 71
94 121 72
93 120 72
95 122 74
92 119 71
94 121 73
94 121 73
94 121 73
97 125 76
90 117 69
96 123 73
97 125 75
95 122 73
91 118 71
95 122 73
93 121 73
91 118 70
95 122 73
93 120 72
95 122 73
97 125 75
106 130 96
143 160 143
134 152 133
147 164 151
156 171 162
163 179 177
141 159 140
109 133 97
96 122 75
90 117 70
97 124 75
88 115 68
95 122 73
95 122 74
88 115 69
94 121 72
91 118 70
98 126 76
95 122 73
95 123 74
92 119 71
94 122 74
93 120 71
92 119 72
93 120 71
96 124 75
96 123 74
97 124 75
92 119 71
94 121 73
94 122 74
108 131 95
198 209 219
209 219 228
196 206 215
197 207 215
197 207 215
199 210 219
199 209 215
201 211 217
198 208 216
201 211 220
201 211 220
207 217 227
195 206 212
206 215 224
189 200 207
201 211 219
202 212 222
201 212 221
198 208 215
199 210 220
202 212 219
196 208 218
198 209 219
196 207 215
205 214 223
145 162 146
97 124 74
95 122 73
92 119 71
97 124 74
91 118 70
95 122 73
92 118 70
95 122 73
91 118 70
93 121 73
97 124 74
95 122 73
93 120 72
92 118 71
92 119 71
91 117 70
95 122 73
92 119 71
95 123 74
93 120 72
94 121 72
92 119 71
95 122 73
111 134 98
199 209 216
199 209 215
191 202 207
184 196 203
201 211 220
200 210 219
199 210 218
193 203 209
193 204 211
198 208 216
195 206 215
195 206 216
191 202 208
202 212 219
200 210 218
196 207 212
200 210 218
195 206 214
197 207 214
203 214 224
201 212 220
199 210 220
197 208 215
144 162 146
94 121 73
89 116 70
92 118 70
92 119 71
94 121 72
95 122 74
93 120 71
89 116 69
89 116 69
91 118 71
93 119 71
93 119 71
95 123 74
92 118 70
92 118 70
91 118 70
98 125 75
91 118 71
90 117 70
93 120 72
94 121 72
129 148 128
190 202 211
198 209 217
201 211 218
194 205 212
200 210 218
202 213 222
197 207 214
189 200 205
178 191 193
170 183 179
160 175 169
151 167 158
147 164 148
125 145 121
123 144 115
96 122 78
94 122 74
92 119 71
93 121 73
92 119 71
160 175 164
195 206 214
201 211 218
201 212 222
195 205 213
190 202 210
199 209 216
193 204 210
204 214 225
198 208 217
202 211 218
208 217 228
195 205 213
200 210 218
196 207 215
201 211 220
204 214 222
200 211 221
205 215 225
184 196 200
117 138 109
94 121 73
93 120 71
91 118 70
95 122 74
94 121 72
93 120 72
90 117 70
92 119 71
91 118 70
94 121 72
92 119 71
93 120 72
92 119 72
92 119 72
92 119 71
93 120 71
90 117 70
92 119 72
92 119 71
94 121 73
92 120 72
92 120 72
141 159 143
169 182 179
173 185 186
92 119 71
94 121 73
92 119 71
92 119 71
90 116 69
93 120 72
97 124 74
97 124 75
96 124 75
93 120 71
91 118 70
94 121 73
91 117 70
93 121 73
94 121 73
94 122 73
91 118 71
98 126 76
94 122 73
94 121 73
93 120 72
93 120 72
90 116 69
92 119 71
179 191 190
203 213 222
181 194 199
173 187 185
136 154 139
97 123 77
96 124 75
96 123 74
94 121 73
95 122 73
95 122 73
91 117 70
92 119 70
94 121 73
95 122 72
94 121 72
93 120 72
92 119 72
92 119 70
94 121 73
93 120 72
95 122 73
90 117 69
94 121 72
95 122 73
131 150 128
196 207 214
186 198 205
201 211 220
198 208 213
202 212 220
193 204 212
193 203 209
196 207 217
201 211 221
197 208 216
208 217 225
196 208 218
199 210 218
202 212 222
203 213 221
198 208 214
164 178 174
145 163 148
105 130 91
94 121 72
96 124 75
93 120 72
90 117 70
95 123 74
91 118 70
96 124 74
179 190 191
203 213 222
191 202 209
198 208 215
202 212 220
196 207 214
202 212 222
192 202 208
195 206 212
198 208 215
203 213 222
188 199 206
199 209 218
201 211 218
201 212 222
204 214 223
205 215 224
200 210 218
191 202 210
203 214 223
200 210 220
196 207 215
199 210 218
193 204 214
202 212 222
198 208 216
202 212 220
105 129 91
96 123 73
92 120 72
92 119 71
95 122 73
95 123 74
95 123 74
95 122 74
91 118 71
94 121 72
96 123 73
98 126 76
86 113 67
95 122 73
93 120 72
93 119 71
98 124 80
133 152 130
143 160 145
169 183 179
197 207 213
199 209 218
195 206 214
199 210 219
205 214 222
203 212 220
208 217 224
132 152 130
92 119 71
91 117 70
95 122 73
95 122 73
95 122 73
93 121 72
93 120 73
87 114 68
95 122 74
91 118 71
92 119 71
94 121 72
95 122 73
95 122 72
97 124 74
95 123 74
92 119 71
94 121 72
95 122 73
89 115 68
93 120 71
91 119 71
92 119 71
95 122 73
94 122 73
92 119 71
148 164 154
195 205 211
197 207 213
201 212 222
201 211 219
190 202 210
198 209 218
197 208 216
201 211 218
194 205 213
204 213 220
194 204 211
195 206 215
200 211 219
198 208 215
204 214 222
189 199 205
181 193 196
201 211 218
204 213 222
193 204 212
192 203 211
201 211 221
199 209 216
196 207 214
191 202 210
198 209 218
161 175 167
94 122 73
95 122 73
95 122 73
97 124 74
91 118 71
95 122 73
91 118 70
97 125 76
94 121 72
91 117 70
86 113 67
95 122 72
91 118 70
94 121 72
94 121 73
92 119 71
98 125 75
93 121 72
95 122 74
94 121 72
94 122 73
92 119 71
92 119 71
95 122 73
96 124 75
94 121 72
179 191 192
195 207 216
207 218 229
205 215 224
193 204 211
185 198 199
174 187 184
168 182 178
161 177 168
155 170 157
146 163 149
129 150 126
117 139 108
106 130 92
93 121 72
95 122 73
91 118 70
94 120 72
91 118 70
95 122 74
94 121 73
94 120 72
94 121 72
93 120 71
94 122 73
92 118 70
174 186 183
196 207 217
199 210 217
188 200 208
204 213 221
190 201 208
197 208 216
199 210 218
194 204 211
190 201 208
205 215 225
204 215 226
200 210 218
195 205 212
200 211 221
201 211 220
191 203 210
196 207 216
192 203 209
204 214 221
191 202 209
199 209 218
200 210 219
202 212 221
200 211 219
178 191 191
97 124 74
93 120 72
93 120 72
89 116 69
92 119 71
96 123 74
90 117 69
93 120 72
92 120 72
89 115 68
94 121 73
91 117 70
91 118 71
93 120 72
91 118 70
88 115 69
91 118 71
91 118 71
93 120 72
94 121 73
92 120 71
92 119 71
95 122 73
96 123 74
170 183 179
192 203 210
201 212 221
197 207 217
200 210 219
202 212 220
197 208 217
195 205 212
205 214 223
206 215 223
202 211 218
192 203 208
201 212 222
204 215 224
204 214 222
202 211 219
202 213 223
200 211 220
191 202 208
196 207 213
202 212 221
201 211 218
192 203 208
170 184 181
96 123 74
93 120 72
93 120 72
95 123 74
93 120 72
93 121 72
94 121 72
93 121 72
94 121 72
93 120 72
94 122 73
91 119 71
95 121 72
94 121 73
97 124 74
89 116 70
95 122 74
94 120 71
95 122 72
95 122 74
100 126 81
113 134 103
177 190 192
172 185 182
166 180 178
149 166 156
144 162 148
124 145 119
122 143 113
102 128 87
97 125 75
96 124 75
93 120 72
95 123 74
92 118 71
93 120 71
94 121 72
93 119 71
90 117 70
97 124 74
91 118 71
89 116 70
127 147 120
200 211 221
198 209 218
201 210 218
193 204 212
204 214 223
198 208 217
191 203 211
190 201 208
197 207 216
200 210 218
198 208 215
198 209 217
194 204 210
195 206 213
200 210 217
196 208 217
199 209 214
199 210 219
185 196 202
118 138 112
91 118 71
95 122 74
92 119 71
90 117 69
94 120 72
93 120 71
97 125 75
94 121 72
97 124 74
92 119 71
93 120 72
93 120 72
93 121 72
95 122 74
106 129 93
102 127 86
98 125 80
100 126 82
93 121 72
97 124 75
96 124 75
96 123 74
92 119 71
98 125 74
94 121 73
110 133 97
155 169 161
118 139 113
90 117 70
95 123 74
93 120 73
86 112 65
92 118 71
93 120 72
92 118 71
94 122 73
95 122 73
95 122 73
87 113 67
93 120 72
91 118 71
92 118 70
96 124 75
96 123 74
91 118 71
95 122 73
92 119 72
89 115 68
95 122 73
96 123 74
167 181 179
196 206 212
193 204 210
187 199 203
198 209 217
188 200 204
156 172 165
124 144 122
91 117 70
95 122 73
96 123 73
94 122 74
93 121 73
91 118 70
92 118 71
94 121 72
95 123 74
91 118 69
96 123 74
88 114 67
95 122 74
92 119 71
96 124 75
95 122 73
92 119 71
122 142 116
202 213 222
196 206 216
190 201 208
200 210 218
192 203 209
198 209 217
198 208 216
185 197 204
202 212 219
200 211 219
197 207 215
200 211 222
197 206 212
195 206 214
196 207 216
199 209 217
191 203 210
195 206 212
197 209 218
177 190 189
153 169 161
114 137 109
93 120 72
93 120 72
92 119 71
93 120 72
198 209 218
199 209 218
198 209 216
203 214 224
201 211 217
205 214 223
205 214 222
195 206 216
200 211 221
195 205 211
200 210 219
194 205 212
207 216 224
196 206 212
190 202 209
201 212 221
192 204 212
197 207 217
197 207 215
204 214 223
189 200 207
186 197 201
199 209 217
197 208 217
199 209 218
199 210 219
190 202 208
96 123 74
94 121 72
91 118 70
94 122 73
92 119 71
94 122 73
93 120 72
96 123 73
94 121 73
94 121 72
91 118 71
93 120 71
92 119 71
95 122 73
95 121 72
91 118 70
93 119 71
97 125 75
94 121 73
91 117 70
86 112 66
111 133 101
141 158 141
174 187 187
182 195 198
201 211 218
187 199 204
94 121 72
93 121 72
93 121 73
93 120 72
94 121 72
90 117 70
93 120 72
96 123 73
93 119 71
95 123 74
95 122 74
94 121 73
87 114 67
94 121 73
94 122 74
93 120 72
95 123 73
93 120 72
93 119 71
93 121 73
94 121 72
97 124 75
94 121 72
95 123 74
91 118 70
92 119 71
94 122 73
172 185 184
203 213 221
193 204 211
205 215 225
200 211 218
201 211 220
195 206 216
195 206 212
195 206 214
197 208 216
199 210 220
196 207 215
201 211 220
199 210 220
203 213 222
194 205 213
199 208 214
199 209 217
196 207 215
195 207 216
197 208 216
193 204 211
198 209 218
194 205 212
202 211 218
195 206 215
199 209 216
118 140 108
93 121 73
91 118 70
91 117 70
91 118 71
97 124 75
96 123 74
94 121 72
94 121 72
95 122 74
94 121 72
95 122 73
92 119 71
93 120 72
92 119 71
95 123 74
96 124 75
88 115 69
96 123 74
93 120 72
93 120 72
92 119 71
93 120 72
93 120 72
95 122 73
94 121 72
125 145 121
202 212 221
201 211 219
193 204 210
202 212 220
200 211 218
200 210 217
205 214 222
200 211 220
199 209 218
213 222 231
194 206 214
195 205 212
197 208 218
196 207 214
199 209 218
195 206 213
184 196 197
171 185 184
170 183 178
169 183 177
158 173 166
134 153 134
150 166 150
124 144 119
96 121 82
133 152 131
199 209 215
199 209 217
199 209 216
193 204 210
204 214 225
194 205 212
190 202 210
192 202 207
198 208 215
205 215 226
196 207 215
190 201 206
199 208 214
205 216 226
195 205 212
194 204 210
199 209 216
197 207 212
191 202 210
196 207 216
189 201 207
197 208 216
194 205 210
199 210 219
198 209 217
123 143 118
93 120 71
92 119 71
94 121 73
93 120 72
92 119 72
95 123 73
89 115 69
93 121 72
95 122 72
93 120 72
93 121 72
91 118 70
90 117 70
92 119 72
92 119 71
90 117 69
94 121 72
95 122 74
91 117 70
94 122 73
96 123 74
94 121 73
91 118 70
134 151 135
197 209 217
201 212 221
198 209 217
195 206 214
191 201 206
203 212 221
201 211 219
200 210 218
204 214 224
205 215 224
200 210 218
198 208 216
201 212 221
194 204 212
193 203 209
197 208 219
197 208 216
194 205 214
201 211 219
201 211 218
198 208 217
195 206 214
191 202 210
105 131 90
87 114 67
93 121 72
89 116 69
92 119 71
92 119 71
92 119 72
89 116 69
94 121 76
104 129 87
118 140 114
125 145 119
114 135 108
149 165 152
148 164 154
160 174 169
167 182 179
169 183 182
175 188 188
182 194 198
195 205 210
194 204 209
125 145 122
94 120 72
94 120 72
93 120 72
94 122 73
94 121 72
93 120 72
93 120 72
95 123 74
96 123 74
95 123 74
92 119 71
93 120 71
94 121 73
94 121 73
92 118 71
89 116 68
95 123 74
93 120 72
95 122 74
113 136 104
190 201 207
199 210 218
182 194 198
200 209 217
198 208 214
204 213 219
193 204 209
194 205 214
193 203 207
196 206 214
192 204 211
197 209 219
198 209 218
203 213 222
197 207 213
193 203 209
195 207 216
200 210 218
188 199 205
151 168 156
96 123 74
90 116 70
87 113 67
95 122 73
100 127 76
94 121 72
93 120 72
96 124 74
92 119 71
95 122 73
96 124 75
93 119 71
98 123 83
109 132 96
104 128 91
191 202 209
199 208 214
199 209 217
194 205 212
194 206 214
199 209 215
189 200 205
181 193 197
189 201 208
188 199 203
176 187 186
179 191 192
153 169 156
119 140 116
115 138 108
120 141 114
168 182 179
162 177 174
165 179 174
156 171 164
155 169 160
158 174 167
141 159 146
147 163 151
140 158 144
163 178 173
151 167 158
144 160 149
130 149 130
131 150 130
129 148 126
134 152 134
121 143 117
122 141 118
117 137 110
118 140 112
159 173 166
181 194 199
196 207 216
196 206 213
197 207 213
197 207 215
196 206 213
195 206 214
184 197 199
156 171 162
118 139 115
95 122 74
90 117 69
90 116 68
92 120 72
90 117 69
95 122 73
94 122 73
90 117 70
91 118 70
89 116 69
95 122 73
90 117 70
93 120 72
92 119 72
120 141 114
196 207 215
203 213 221
197 209 217
195 205 210
198 208 215
198 209 215
200 210 219
202 213 222
191 202 210
198 208 216
200 210 220
199 210 217
193 204 212
199 209 216
197 207 213
196 207 214
198 208 216
195 206 212
195 207 217
193 203 207
200 210 218
190 202 209
188 198 202
147 162 152
123 143 120
103 128 91
199 209 217
197 208 215
201 211 220
186 198 205
202 212 220
199 208 214
203 213 222
203 213 224
193 204 212
194 205 215
197 208 214
196 207 213
192 203 210
194 205 214
204 214 223
204 214 224
197 206 213
200 210 219
198 209 217
196 207 215
199 210 218
197 208 217
196 206 213
202 212 219
203 213 222
202 212 220
172 185 185
90 117 69
94 121 72
93 119 71
93 120 72
94 121 73
93 120 73
92 120 72
93 120 71
93 120 72
91 119 71
91 118 71
91 118 70
91 119 71
91 117 70
91 118 71
91 117 69
92 120 72
93 120 72
92 119 71
91 118 71
92 119 71
94 121 73
95 122 74
94 121 72
94 120 72
103 129 89
145 161 150
159 174 169
132 152 136
107 131 94
95 122 73
94 122 73
91 118 71
94 121 72
95 122 73
97 125 76
92 119 71
93 119 71
92 120 72
91 117 70
92 119 72
95 122 72
95 122 74
92 118 71
94 121 72
93 120 71
94 121 73
94 121 72
92 119 71
91 118 70
92 120 72
94 121 73
94 121 72
112 133 107
189 200 206
198 208 216
197 208 216
194 205 213
195 205 212
197 208 216
196 207 215
201 211 219
204 215 226
193 203 210
199 209 217
194 205 210
206 215 223
199 210 218
191 203 210
200 210 219
203 213 220
196 207 216
202 212 221
199 209 217
198 209 218
197 206 211
196 207 214
202 212 219
184 196 201
194 204 213
186 197 200
94 121 73
94 121 72
94 121 73
92 119 72
91 118 71
90 117 69
91 118 70
99 127 76
92 119 72
93 120 72
91 118 70
94 121 72
95 123 74
89 116 70
94 121 72
93 121 72
97 125 75
90 116 69
95 122 73
94 121 72
93 120 72
90 117 69
96 123 74
91 117 70
94 122 73
94 121 72
158 172 167
194 204 211
188 200 206
197 207 215
199 209 218
205 215 226
200 210 219
198 208 215
195 205 211
196 207 216
205 214 222
199 208 215
201 211 219
201 212 222
197 208 213
197 208 215
195 206 212
203 211 217
202 211 220
191 203 211
192 204 215
204 214 223
201 211 219
196 207 215
203 213 223
207 216 224
134 153 135
92 118 70
100 126 83
124 145 115
109 131 100
132 152 129
132 152 132
141 159 144
143 159 146
149 164 152
157 172 163
169 182 180
164 178 173
164 178 175
174 188 190
170 183 183
181 194 198
185 197 201
186 199 205
185 197 203
198 208 217
204 213 222
196 208 217
201 211 220
201 212 220
176 188 187
95 123 74
95 122 74
96 124 74
91 118 70
91 118 70
95 122 73
95 122 74
92 119 71
94 122 73
92 119 71
92 119 72
95 123 74
92 119 72
94 121 73
96 123 73
94 122 74
96 124 74
96 124 75
95 122 73
94 120 71
90 116 69
91 118 71
95 122 73
104 130 89
192 203 210
194 205 212
194 204 211
190 201 208
197 208 216
200 211 222
203 212 220
195 205 213
195 206 212
194 205 213
198 208 215
199 209 217
205 214 223
199 209 216
196 207 216
186 199 204
186 197 201
177 189 190
187 198 202
179 192 194
174 186 186
161 176 170
166 180 178
165 180 176
156 171 163
150 167 159
157 171 163
175 188 188
180 192 195
189 201 204
192 203 210
197 207 214
200 209 214
203 213 222
200 210 220
202 212 221
205 214 221
186 198 205
192 203 209
195 205 210
198 208 216
195 206 213
196 207 214
194 204 211
201 212 221
130 149 130
92 119 71
90 116 69
92 119 71
91 118 71
93 121 72
93 121 72
93 120 72
91 119 71
95 122 73
87 114 67
92 119 71
91 118 71
93 120 72
93 120 72
96 124 75
100 123 86
98 123 79
103 127 91
104 128 90
105 128 90
162 177 172
192 202 208
185 198 203
178 191 195
186 198 199
177 190 191
164 178 175
167 181 178
155 171 165
174 188 187
163 177 173
167 181 181
157 173 165
154 170 161
156 171 163
148 166 156
139 155 144
144 160 148
145 161 147
180 192 192
169 182 183
171 184 182
168 181 179
173 187 189
181 193 196
188 200 206
181 194 195
181 193 195
193 203 208
188 199 203
191 202 208
199 210 218
203 213 222
204 214 223
189 201 206
195 206 212
203 213 222
192 203 209
194 205 212
196 207 216
196 207 215
195 206 215
200 210 218
202 212 220
197 208 217
203 213 222
202 213 225
202 212 221
138 158 139
91 117 70
94 121 72
94 122 73
98 124 79
138 156 138
169 183 181
199 208 216
187 199 206
199 209 217
203 213 221
194 205 212
200 211 219
202 212 219
196 207 215
197 208 215
202 213 224
196 206 212
198 208 217
199 209 216
199 209 218
204 214 222
203 214 223
196 207 215
161 176 168
91 118 70
91 118 70
90 117 70
94 121 72
94 121 73
96 123 76
98 123 81
102 128 85
109 131 98
102 126 87
112 134 104
139 157 143
172 186 182
183 195 198
188 199 200
175 187 186
176 189 191
184 196 200
179 192 193
186 197 198
167 181 175
172 185 182
161 176 170
173 186 186
161 176 171
140 158 141
152 168 158
147 163 150
145 162 152
149 165 152
154 169 161
156 171 165
165 179 175
163 177 170
149 165 155
167 181 176
166 180 177
169 183 178
178 190 189
180 193 192
172 185 184
169 183 184
168 182 180
181 193 195
180 192 194
183 195 194
177 189 190
176 188 188
182 194 195
178 190 190
180 193 194
168 181 176
189 200 201
184 195 199
191 202 207
190 200 204
187 200 207
186 198 202
193 204 207
186 197 202
196 206 213
191 201 207
198 210 219
196 206 213
199 209 217
201 210 219
193 204 209
201 211 219
196 206 213
204 214 220
196 207 214
199 211 222
194 205 210
195 207 216
205 214 222
202 213 222
204 213 220
169 183 178
91 118 70
90 117 70
88 115 69
92 120 72
89 115 69
88 114 68
92 118 70
94 121 73
91 118 70
94 121 73
90 117 69
94 121 72
93 120 72
94 121 72
93 120 71
92 119 71
95 123 74
93 120 72
93 120 72
95 122 73
94 121 72
95 122 74
92 119 70
94 121 72
93 120 72
91 118 70
156 172 161
193 205 212
193 203 210
203 212 221
193 204 211
173 186 183
153 169 157
124 145 114
100 127 83
90 117 70
94 121 72
94 121 73
93 120 71
96 124 75
95 122 74
94 121 73
96 123 74
92 119 71
90 117 70
91 118 70
92 119 71
90 117 69
91 118 72
93 120 71
93 120 71
94 121 73
94 121 73
144 161 149
190 201 209
195 205 212
199 209 219
192 204 211
202 211 220
189 200 206
200 209 215
197 208 214
202 212 221
204 214 225
190 200 207
201 211 221
197 207 215
198 209 218
197 208 219
195 205 214
203 213 223
202 212 222
201 211 219
196 207 216
199 209 218
193 204 209
193 204 213
196 207 214
203 213 222
200 211 221
157 171 163
92 119 71
91 118 70
94 122 73
92 119 71
93 119 71
96 124 75
95 122 74
94 121 73
96 123 74
86 113 67
95 122 73
93 120 71
92 119 71
85 111 65
95 122 73
95 122 73
94 121 72
93 120 71
91 118 71
92 119 71
90 117 68
89 115 69
91 118 70
94 122 72
92 119 71
102 127 90
193 204 210
194 205 213
203 212 220
207 216 224
192 203 211
194 205 213
194 205 213
198 209 215
203 213 222
204 215 226
186 198 203
199 209 217
197 208 214
201 211 219
195 206 214
200 211 219
200 210 218
197 207 214
193 204 213
202 213 223
196 206 212
201 211 217
202 211 220
193 204 211
190 201 207
188 199 204
95 122 73
90 116 69
97 124 74
95 122 72
91 118 70
93 119 71
92 118 71
96 123 74
92 119 71
95 122 73
91 118 71
95 122 73
88 114 68
93 120 72
93 119 71
91 117 70
96 124 74
95 123 74
95 122 73
87 113 67
91 118 70
93 120 71
99 125 80
112 135 100
119 139 113
186 198 199
181 193 195
184 195 198
178 189 190
180 193 195
180 192 192
169 182 178
173 187 185
173 187 187
164 179 174
169 183 180
165 179 174
152 169 161
170 183 181
150 166 157
175 188 188
172 185 181
172 186 185
160 175 173
153 169 159
168 182 179
161 175 168
169 182 181
156 171 166
143 158 145
141 158 140
124 145 120
133 151 131
134 152 131
134 153 135
138 157 138
139 157 138
136 154 138
124 144 120
127 147 123
112 135 104
133 152 135
108 130 101
118 140 107
116 138 107
119 142 116
133 151 129
118 140 110
137 154 141
137 155 137
130 150 130
127 147 129
135 154 137
167 182 176
175 188 188
166 179 174
164 178 173
163 176 171
175 188 189
172 185 185
158 174 166
160 175 166
153 169 160
161 176 169
160 174 168
156 171 165
153 169 160
150 166 156
151 167 155
150 166 152
136 154 136
134 153 135
136 153 139
140 158 142
180 192 192
172 185 185
173 187 187
171 184 183
172 185 185
174 187 189
186 198 204
184 196 200
181 194 199
190 202 209
187 199 203
190 201 206
192 204 210
189 201 206
198 209 217
200 210 217
196 207 215
197 207 215
190 202 210
196 206 213
195 206 215
127 147 122
93 120 72
96 123 74
92 119 71
96 123 74
94 121 72
94 121 73
94 121 72
93 119 71
93 120 71
92 119 71
91 117 70
98 125 75
93 120 72
93 119 71
95 122 74
91 118 70
97 124 74
92 119 71
152 167 159
189 200 206
199 209 217
191 202 209
199 209 216
198 209 217
192 202 209
195 208 219
195 205 211
201 212 222
204 213 219
196 206 211
195 206 216
193 205 213
204 214 223
199 209 216
198 207 214
198 208 215
199 208 216
204 214 222
200 211 221
207 217 226
203 214 224
193 205 212
199 210 220
194 204 209
201 210 218
194 205 214
192 204 212
196 206 214
150 166 157
94 121 72
93 120 72
93 121 72
90 117 69
90 117 70
91 118 71
111 133 101
170 184 180
181 193 197
200 210 219
193 204 211
198 208 216
202 213 222
191 202 210
204 215 225
196 207 217
195 206 215
195 207 215
204 214 223
196 205 211
203 212 219
190 201 208
195 206 212
177 190 189
94 121 72
92 119 71
92 119 71
93 120 72
93 120 72
92 119 71
91 118 70
90 117 70
89 115 69
94 122 73
91 118 71
95 123 74
94 121 73
104 129 87
151 166 157
181 193 193
196 207 214
196 206 215
203 213 223
191 202 207
192 203 210
199 210 220
201 211 219
202 212 221
188 199 202
90 117 70
91 118 70
92 119 71
89 116 69
93 120 72
91 117 70
93 119 71
92 119 71
93 120 71
94 121 72
90 116 69
92 118 70
93 120 72
93 120 71
93 120 72
98 125 75
90 117 69
94 121 72
95 122 73
91 119 71
93 121 72
93 121 73
92 119 71
90 116 68
93 120 71
105 129 92
206 216 224
193 204 210
201 212 220
181 194 200
152 168 160
112 135 102
96 124 77
92 119 70
96 123 74
92 119 70
93 120 71
93 121 72
90 117 70
92 120 72
95 122 73
99 125 80
92 120 71
102 128 84
100 125 85
92 119 74
107 131 94
100 126 85
109 133 97
113 136 105
113 135 104
113 135 102
160 174 168
190 202 207
178 191 195
183 196 198
184 196 201
184 196 200
188 199 201
174 187 186
189 200 205
181 193 193
190 202 206
174 188 188
185 197 199
169 183 181
172 186 185
166 181 177
160 174 168
177 189 190
174 186 183
168 182 179
156 171 165
176 190 187
174 187 183
166 180 176
173 186 185
165 179 175
170 183 180
149 165 155
139 156 139
147 163 154
146 162 150
143 160 147
136 155 134
141 159 144
144 161 146
145 162 149
139 157 140
102 127 90
112 135 101
140 158 139
149 165 157
158 173 164
155 171 163
153 168 158
166 180 173
157 171 164
161 176 169
154 170 162
163 177 173
157 171 161
155 170 160
161 176 170
153 168 158
143 159 144
146 163 151
153 168 159
159 173 167
175 189 185
158 173 166
154 171 163
148 165 153
160 173 168
171 184 179
147 163 153
155 169 161
160 174 167
162 177 173
158 173 165
150 167 157
171 184 182
157 171 165
164 179 173
156 169 161
155 170 163
161 177 170
158 173 166
161 177 170
173 186 185
160 175 167
161 175 171
168 181 176
149 165 153
145 162 151
136 153 137
144 160 146
161 175 166
149 165 156
144 161 150
149 165 152
139 157 144
140 159 144
132 151 135
143 160 148
138 156 139
150 167 157
156 171 161
136 153 140
140 157 141
146 163 150
149 165 158
149 165 157
146 164 152
146 163 150
156 172 161
147 164 150
142 157 145
149 164 154
140 158 141
160 174 167
144 161 148
151 166 155
167 181 174
160 175 168
155 171 163
157 172 163
163 178 173
163 178 174
157 171 165
148 164 151
159 174 166
159 174 164
160 174 167
153 168 159
152 166 155
147 164 153
162 176 171
153 168 159
158 172 164
148 164 152
147 163 148
149 165 154
152 168 157
152 168 156
167 180 176
160 176 169
162 177 171
166 180 177
163 178 172
169 183 180
171 185 182
162 176 171
175 188 187
164 178 172
169 182 182
170 182 179
164 180 179
157 171 164
163 178 174
170 183 180
172 185 181
161 176 170
165 179 172
170 183 181
179 191 191
173 185 182
179 191 190
171 184 183
169 182 183
154 170 160
129 149 125
121 141 117
121 142 114
135 155 133
129 149 126
128 147 126
133 151 129
123 144 120
134 152 131
127 148 121
113 134 105
117 139 111
107 129 97
113 136 103
102 126 90
115 137 107
94 120 79
103 128 85
109 133 96
108 131 94
99 125 84
100 125 84
96 123 76
138 155 134
189 200 206
195 206 213
199 209 216
201 212 222
199 209 217
198 208 216
204 213 222
196 207 215
194 204 212
201 212 220
202 212 221
196 206 213
205 215 223
194 204 210
197 207 214
201 211 219
191 202 207
197 208 216
194 205 213
195 207 215
206 215 224
195 205 211
188 199 204
89 115 68
91 118 70
94 121 73
94 120 71
90 117 70
91 118 70
95 122 74
93 120 71
95 122 73
94 120 72
91 118 70
90 116 69
91 118 70
92 120 72
91 117 69
95 122 73
95 122 73
92 119 71
88 115 68
93 120 72
92 119 71
126 146 123
204 214 223
205 215 226
191 202 209
203 213 221
192 204 213
198 208 216
200 209 217
198 208 215
199 210 219
198 208 215
194 205 213
191 202 209
196 206 214
197 207 214
194 204 211
198 208 215
199 210 217
195 205 214
198 209 218
189 200 206
155 171 163
92 119 71
93 119 71
92 119 72
93 121 73
94 121 72
93 120 72
90 117 69
88 115 69
90 117 70
92 119 71
94 121 73
95 123 73
94 121 72
88 115 69
92 119 71
90 117 71
92 119 71
95 123 74
156 172 164
201 212 220
199 209 219
202 212 221
194 205 211
200 211 219
198 208 215
200 210 218
202 213 221
195 206 215
193 204 211
199 209 217
191 203 211
190 201 207
196 206 212
203 213 224
189 200 205
167 181 178
172 184 187
195 206 214
196 207 215
199 209 216
195 206 214
196 206 214
197 207 216
202 212 219
201 211 221
194 204 212
190 202 210
192 204 213
195 206 215
164 177 173
94 122 73
93 119 71
87 113 67
93 120 72
91 118 70
91 118 70
92 119 71
96 123 74
93 119 74
131 151 128
158 171 165
195 207 214
206 214 222
192 204 211
202 211 219
181 194 199
199 210 221
200 210 217
195 206 213
205 214 224
196 206 212
192 203 210
202 212 222
150 165 158
94 121 72
92 119 72
97 124 74
92 119 71
96 123 74
92 119 71
92 119 71
94 121 72
92 119 71
94 121 72
90 117 70
91 118 70
92 119 71
90 117 70
92 119 71
92 119 71
108 131 98
158 172 164
191 202 209
188 198 203
198 208 215
195 206 214
193 204 211
198 208 216
181 193 196
95 122 73
91 118 71
89 116 69
89 116 69
93 119 72
91 118 70
92 119 71
88 115 68
92 118 70
95 122 73
89 116 69
96 123 74
92 118 70
92 118 70
91 118 71
91 118 70
92 118 70
90 117 70
92 120 72
91 118 71
94 120 72
95 122 72
92 119 71
92 119 71
91 118 70
122 143 120
200 212 222
194 205 214
202 211 219
201 211 220
202 212 220
194 205 212
190 201 209
170 184 184
141 158 144
112 134 105
93 120 71
93 120 73
94 121 73
93 120 72
95 122 73
91 118 70
95 122 73
92 119 71
92 119 71
90 117 69
96 124 74
92 119 71
92 119 71
85 111 65
96 123 73
89 116 69
170 184 180
194 205 212
198 208 215
195 206 212
191 203 210
198 208 216
204 214 222
203 213 223
190 201 206
200 210 216
195 206 212
196 207 214
199 209 216
202 213 223
193 203 208
192 203 208
183 195 201
196 208 218
197 207 215
193 204 211
195 206 214
186 198 206
193 205 211
195 206 214
199 210 219
198 208 216
196 207 217
116 139 104
94 121 73
92 120 72
92 119 71
94 122 73
94 121 72
93 120 71
94 121 73
90 117 70
91 118 70
92 119 72
97 124 75
91 118 71
96 122 78
114 137 109
160 175 166
153 169 160
175 189 190
189 201 206
202 212 222
201 210 217
201 211 221
200 210 217
194 205 214
195 205 213
198 208 215
195 206 212
103 129 85
95 122 73
92 119 71
95 123 74
89 115 69
92 120 72
93 121 72
93 121 73
96 123 73
93 120 72
92 120 72
94 121 72
91 118 71
92 120 72
91 118 70
93 121 73
91 117 70
92 119 71
95 122 73
91 117 70
92 118 70
93 119 71
88 114 68
95 122 74
94 122 73
90 116 69
137 155 139
198 209 216
201 212 220
199 209 219
193 205 213
192 203 209
194 204 211
200 210 219
198 209 218
190 202 210
195 207 217
199 209 218
196 206 214
198 209 217
197 207 215
199 210 219
187 198 205
200 211 221
196 207 216
203 213 222
191 203 208
198 208 213
195 206 212
198 208 216
200 210 217
185 197 203
198 208 214
101 124 88
95 122 73
97 124 74
93 120 72
96 123 74
88 114 68
91 117 70
91 118 70
93 120 72
89 116 69
96 123 73
91 119 71
96 123 73
92 119 71
95 122 73
95 122 73
94 122 73
95 122 74
92 118 70
88 115 68
91 118 71
96 123 74
91 118 71
91 119 72
95 122 73
124 145 120
196 206 212
199 210 218
196 206 214
200 211 220
196 207 215
195 205 210
198 209 216
203 212 220
193 203 209
195 205 212
190 201 207
201 212 221
199 209 218
197 208 215
200 210 219
194 206 214
194 204 211
190 202 210
195 207 216
195 206 215
197 207 215
200 210 219
197 207 215
193 203 210
182 192 193
101 127 84
94 121 73
89 115 68
92 120 72
94 121 73
94 121 72
95 122 74
89 116 70
94 121 73
94 121 72
92 119 71
93 120 72
94 121 73
93 120 72
92 118 69
97 124 74
92 118 70
92 119 71
95 123 74
93 120 72
91 118 71
94 121 72
92 119 71
97 123 79
194 205 212
191 203 211
199 209 219
199 209 218
207 217 227
194 205 210
193 204 212
202 211 220
201 211 220
201 210 216
199 209 217
198 208 215
190 201 209
201 211 219
195 205 211
191 201 207
192 203 212
186 197 201
204 215 226
204 213 223
198 208 218
199 210 219
190 201 208
115 138 105
94 121 73
94 121 72
92 119 70
92 120 71
92 119 71
95 123 73
94 122 73
92 119 71
94 121 73
93 120 72
91 118 70
94 121 72
92 119 71
92 118 70
89 116 69
94 121 73
92 120 72
91 118 70
91 117 69
96 123 74
112 135 100
185 197 201
196 207 214
196 207 215
194 205 212
203 213 221
195 205 213
193 204 211
198 208 215
206 215 225
195 204 210
199 209 219
197 208 217
203 213 223
197 208 217
197 207 214
192 203 209
195 206 215
194 205 212
194 205 213
194 205 212
159 173 165
93 120 72
92 119 71
88 115 69
92 119 71
90 117 70
94 122 73
89 116 69
93 120 72
95 122 73
93 120 71
95 122 74
92 119 71
86 112 66
89 116 69
92 119 72
94 121 72
95 122 73
97 125 75
138 156 142
204 214 222
192 203 211
197 208 217
200 210 219
194 205 213
193 204 211
204 214 223
196 206 214
186 198 204
206 216 225
190 201 209
193 204 210
179 191 190
148 165 155
135 154 134
106 130 92
101 126 85
174 186 186
196 207 218
100 125 87
146 161 150
189 200 204
196 207 213
197 207 214
194 205 214
193 204 213
197 207 214
191 203 211
194 205 210
203 212 223
193 205 213
190 200 205
90 117 70
93 120 72
92 118 70
90 117 70
94 120 72
91 117 69
93 120 71
92 119 71
94 121 73
90 118 71
96 123 74
100 127 84
140 157 141
176 190 192
205 214 223
192 203 210
199 208 217
202 212 220
199 208 216
203 213 224
191 203 210
195 206 214
200 211 220
187 198 200
95 122 73
92 120 72
92 119 71
92 119 72
91 118 71
91 118 70
89 116 69
93 120 72
93 120 72
91 117 69
93 120 72
94 122 73
93 119 71
94 121 73
90 117 69
90 116 69
91 117 69
89 116 69
94 122 73
108 130 97
150 166 157
179 191 193
196 206 212
195 206 213
182 195 197
89 116 68
93 120 72
94 121 72
94 121 73
92 119 72
88 116 69
94 121 73
91 118 71
92 119 70
94 121 73
90 117 70
93 120 72
94 121 73
92 119 72
91 118 70
93 120 72
94 121 72
92 119 72
91 117 70
94 122 73
96 123 74
93 120 71
91 118 70
94 121 72
94 121 72
134 153 133
201 212 222
193 205 214
191 203 210
203 213 222
201 211 220
194 205 213
202 212 221
202 213 222
195 206 213
194 205 213
188 200 203
157 172 167
132 151 131
103 127 88
94 121 73
90 117 71
94 121 72
92 118 70
95 122 72
90 116 69
90 116 69
89 116 68
95 122 73
90 117 70
93 120 72
97 124 75
191 201 206
191 201 205
198 209 218
208 218 228
197 207 214
196 207 214
198 208 217
196 207 216
198 208 216
199 209 216
197 207 217
197 207 215
196 207 214
202 212 221
199 209 215
199 209 218
200 210 219
203 213 222
190 201 208
191 202 211
199 210 218
199 209 216
201 211 220
191 203 213
197 208 216
197 207 215
176 188 188
95 122 73
88 114 68
95 122 73
91 119 71
90 117 69
91 118 70
96 123 73
92 119 71
92 119 71
92 119 72
94 121 72
93 121 73
90 117 70
91 118 71
92 119 71
94 121 72
93 120 71
91 118 70
91 118 70
121 142 116
125 144 122
166 180 174
182 193 194
193 204 210
202 212 220
192 204 212
165 180 178
91 118 70
93 120 71
92 119 71
93 120 72
98 125 76
90 117 70
91 118 70
91 117 69
94 121 72
90 116 69
88 114 68
94 121 72
91 118 70
94 121 72
93 120 72
94 121 72
94 122 73
93 120 72
93 120 72
98 126 76
93 120 72
94 122 73
89 116 70
92 118 71
93 120 71
95 122 73
178 191 190
200 211 220
203 213 222
186 199 206
199 209 217
199 210 220
199 210 219
199 210 219
193 203 210
196 206 212
200 210 217
206 215 225
190 201 206
197 207 214
196 206 214
196 206 213
198 209 218
191 203 211
207 217 226
190 202 209
200 210 217
187 200 207
191 202 211
190 201 210
201 211 219
193 203 208
160 176 170
91 119 71
89 116 69
90 117 70
94 121 73
93 120 72
94 121 73
93 120 72
93 120 72
94 121 73
92 119 72
93 120 72
95 123 74
95 122 73
92 118 71
90 117 70
93 121 73
93 120 71
95 123 74
94 121 73
90 117 70
95 122 73
93 120 71
94 121 72
97 124 75
95 122 73
162 177 174
204 214 225
199 209 217
196 206 214
196 206 214
206 215 225
203 214 225
192 204 212
200 209 215
204 213 222
200 210 216
195 206 213
199 209 215
190 201 207
200 210 218
188 199 206
194 204 211
189 201 209
194 206 215
197 208 215
192 203 211
192 202 208
194 205 212
193 204 211
190 201 208
136 154 137
99 126 76
94 120 72
93 120 72
91 119 71
95 123 74
89 116 70
93 120 71
93 120 71
95 121 72
92 119 71
94 121 73
92 119 71
92 120 72
89 116 69
94 120 72
94 121 72
89 116 68
88 115 68
91 118 69
90 116 68
89 115 68
90 117 70
89 115 68
164 179 174
187 198 204
197 207 215
202 212 220
195 205 213
204 213 221
200 210 219
194 204 211
199 209 216
196 207 215
191 202 208
198 208 216
190 201 209
201 211 219
197 208 216
199 210 221
200 211 221
194 204 212
185 197 202
191 202 209
198 208 216
189 200 205
201 212 223
142 158 143
94 121 72
90 117 70
93 120 72
92 119 70
93 120 72
93 120 72
92 119 72
91 117 70
93 120 72
88 115 68
94 121 72
98 126 76
92 118 70
89 116 69
96 124 75
91 118 70
92 118 70
91 118 71
93 120 72
94 121 72
90 116 71
179 191 194
196 207 216
201 211 221
198 209 218
203 213 221
208 218 230
197 208 214
192 202 211
203 213 221
191 203 210
196 207 214
193 204 211
202 212 220
190 201 207
196 206 213
197 208 213
190 202 208
190 200 208
201 210 219
187 199 205
169 181 178
92 119 71
87 114 67
91 118 71
92 118 70
93 121 72
89 116 69
95 122 73
91 118 71
95 122 73
93 120 71
92 118 71
92 120 72
92 119 71
94 121 72
90 116 69
92 118 70
88 115 68
91 118 70
122 141 118
192 203 209
196 206 214
194 206 214
195 206 214
191 203 209
191 203 210
197 207 214
182 193 197
182 194 195
159 173 165
145 162 151
119 140 113
93 120 72
92 119 71
93 119 71
93 120 72
96 123 79
183 195 200
202 212 220
203 212 221
94 121 73
90 117 70
93 120 74
126 146 127
163 177 172
198 209 218
199 209 216
194 204 211
194 205 213
189 200 207
192 203 211
195 206 214
200 210 219
96 122 78
89 116 69
88 115 69
91 118 71
95 122 73
91 118 70
93 120 72
96 123 74
94 121 72
92 119 71
91 117 70
92 119 71
95 122 73
94 121 73
102 125 91
145 160 152
178 191 190
196 206 213
187 198 204
195 206 213
196 207 213
197 207 215
191 203 210
187 198 199
93 119 71
97 125 75
93 120 72
93 119 71
92 119 71
93 120 72
93 121 72
93 120 72
90 116 68
92 119 70
91 118 70
91 118 70
91 118 70
92 119 71
93 120 72
90 117 70
91 118 70
91 118 71
92 119 71
95 122 73
91 118 70
91 118 70
116 139 108
142 161 145
166 180 177
93 120 72
93 120 72
94 121 72
95 122 73
88 115 69
88 114 68
95 122 73
92 119 71
94 121 72
94 121 73
91 118 70
95 122 74
94 121 72
92 120 71
91 118 71
94 122 73
90 116 69
91 118 70
89 116 69
93 120 72
94 121 73
88 115 68
91 118 70
93 121 73
91 118 70
145 163 149
192 204 212
198 208 217
184 196 202
188 199 205
205 216 228
199 209 217
197 207 215
197 208 217
196 207 215
201 211 219
195 206 214
198 209 216
188 199 204
195 206 214
181 193 194
161 175 169
126 145 122
100 125 87
92 119 71
92 119 72
92 119 71
92 119 71
94 121 72
95 122 73
96 124 74
98 124 79
199 210 218
193 204 212
198 208 216
200 210 217
200 210 220
196 206 214
195 206 213
191 202 209
190 201 207
193 204 210
198 208 218
195 206 213
199 208 214
194 204 210
201 211 219
196 206 214
193 204 212
192 203 212
192 204 212
198 207 215
187 199 207
203 212 221
200 210 218
191 203 209
188 199 207
200 210 218
161 176 171
86 112 66
92 119 71
93 120 72
96 123 74
94 121 72
92 119 71
91 118 71
94 121 72
93 120 72
92 119 72
92 119 71
93 120 71
93 120 72
93 121 72
94 121 72
93 120 72
93 120 71
94 121 73
92 119 71
95 122 74
92 120 72
94 122 73
91 118 70
95 122 73
105 130 92
135 153 135
159 176 171
131 150 131
121 141 117
92 119 71
94 121 72
91 119 71
91 118 71
90 118 71
90 118 70
91 118 70
91 118 71
90 116 69
94 122 73
93 120 71
93 120 72
93 120 71
93 120 72
91 118 70
93 120 72
92 119 72
96 124 75
90 117 69
90 117 69
97 124 75
92 119 71
91 118 71
112 135 102
202 212 221
202 212 220
196 206 213
188 199 202
205 215 225
199 210 218
199 209 216
201 211 220
204 214 223
196 206 212
199 209 217
197 206 215
201 211 219
202 213 223
203 213 221
202 212 220
200 210 218
200 210 217
196 206 212
210 218 227
194 205 214
193 205 211
189 200 204
190 202 209
198 208 217
202 211 219
112 134 104
94 121 73
88 115 69
93 121 73
91 118 70
93 120 72
90 117 69
90 117 70
91 117 70
91 118 71
93 119 71
94 122 73
86 112 67
93 120 72
92 119 71
96 124 74
91 118 70
92 119 71
91 118 70
94 121 73
94 121 73
95 122 73
94 120 71
93 120 71
90 117 70
134 152 131
187 198 205
188 200 208
193 204 212
196 207 212
193 205 213
199 209 216
193 203 208
192 204 211
201 212 222
188 200 206
200 210 219
197 207 213
206 216 225
200 210 217
192 203 212
192 203 210
199 209 217
197 207 215
196 206 212
200 210 218
196 207 214
195 205 212
201 210 217
201 211 220
170 183 184
91 118 70
90 117 69
91 117 70
93 120 72
92 120 72
93 120 72
93 120 72
93 120 72
90 116 69
91 118 71
94 121 72
89 116 69
93 120 71
94 121 72
95 122 73
91 117 70
93 120 72
92 119 71
92 118 71
90 116 69
96 123 74
92 119 71
95 122 72
134 153 133
193 203 209
198 209 219
196 206 213
193 203 210
196 207 214
183 195 201
196 206 213
199 210 219
196 207 216
196 206 213
196 207 215
192 202 208
201 211 219
194 205 212
198 208 215
195 207 215
198 208 216
197 209 219
194 205 212
200 210 218
200 210 218
193 204 211
173 186 184
90 117 70
93 120 72
92 119 72
91 118 70
92 118 70
94 121 72
92 119 70
95 121 72
94 121 73
89 116 69
90 117 69
92 119 71
89 115 68
93 120 71
90 118 70
93 120 72
93 120 72
94 121 73
91 118 70
91 118 70
92 120 72
158 172 166
196 207 215
198 208 216
203 212 219
197 207 214
200 209 218
193 204 211
199 208 217
200 210 218
203 212 221
199 210 220
195 206 214
203 212 221
204 215 225
193 205 211
201 211 221
197 208 216
189 200 207
194 205 211
195 207 215
175 188 191
102 126 90
92 118 70
91 118 70
91 118 70
90 117 70
89 115 68
91 118 70
93 120 72
90 117 69
90 117 69
90 117 70
91 118 71
92 119 71
88 115 68
90 117 69
93 121 73
90 117 70
93 120 72
116 137 112
202 211 220
198 208 215
205 215 224
190 201 207
180 192 198
165 179 174
131 151 130
120 141 112
95 122 79
92 119 71
93 120 72
94 121 73
92 119 70
92 118 71
94 121 73
95 122 74
106 129 93
177 189 191
197 207 213
194 205 213
193 203 210
94 122 73
96 123 74
92 119 70
92 119 72
97 125 75
102 127 86
149 164 153
181 193 197
194 205 214
195 206 215
188 199 205
200 212 224
199 209 219
115 137 106
92 119 71
91 118 71
90 117 69
94 121 73
93 120 71
97 125 75
90 116 70
91 118 71
91 118 71
92 119 71
93 120 72
96 124 75
92 119 70
92 118 71
89 116 69
92 118 70
119 139 111
152 168 160
186 197 203
198 209 217
200 211 219
194 204 210
185 197 200
92 118 70
90 117 69
88 114 68
93 120 71
95 122 73
95 123 74
94 121 72
92 119 72
91 118 70
92 120 72
92 118 71
90 117 70
92 120 72
92 118 70
88 115 68
95 122 73
95 122 74
92 118 71
94 121 72
91 118 71
96 123 74
89 117 70
92 119 71
92 120 72
123 143 118
188 199 203
155 170 167
131 150 129
99 124 81
95 122 73
88 115 69
92 119 71
89 116 69
92 119 70
91 118 71
90 116 69
93 120 72
92 118 70
90 117 70
88 115 68
92 119 71
91 117 70
90 118 70
90 116 69
92 119 71
96 124 75
95 122 73
92 119 71
93 120 72
90 116 69
148 164 154
201 210 218
192 204 212
199 209 216
202 212 220
196 207 216
197 208 216
204 213 221
196 206 213
198 209 218
194 205 212
187 199 206
195 206 214
197 208 218
205 214 221
199 208 216
199 209 217
193 204 212
188 200 206
175 188 187
161 175 168
123 144 118
97 124 79
93 120 72
93 120 73
94 121 73
120 139 116
197 208 216
193 204 211
199 210 220
198 209 216
195 205 212
196 207 214
190 201 208
202 211 219
188 199 206
198 208 217
200 210 218
205 215 225
199 210 218
201 211 220
195 206 215
195 205 212
202 212 221
198 208 218
196 207 215
196 207 214
196 207 213
203 212 219
194 205 213
198 208 216
197 208 217
191 202 208
122 142 119
93 120 72
89 115 69
92 119 71
94 122 73
94 122 73
97 124 74
89 116 69
89 116 70
94 121 73
94 120 71
93 120 71
94 121 72
93 120 72
91 118 70
93 120 72
89 116 69
94 121 72
94 121 72
95 122 73
94 121 72
92 119 71
92 119 71
95 122 73
92 119 71
92 118 70
92 119 71
193 205 213
192 203 210
195 207 215
194 206 213
183 196 202
168 181 176
155 171 162
143 160 145
112 134 105
95 120 77
93 120 72
95 122 73
95 123 74
90 117 70
92 119 71
86 112 66
93 120 72
92 120 72
90 117 70
94 121 72
97 124 74
93 120 72
89 116 69
96 123 74
93 119 71
91 119 71
152 166 155
191 203 208
198 209 220
197 208 217
193 205 213
199 209 218
204 214 224
192 203 210
196 208 215
192 203 209
197 207 214
197 207 213
197 208 214
203 213 222
197 207 214
196 206 215
198 209 216
194 205 213
199 209 218
193 204 213
202 211 219
199 210 219
189 201 208
192 203 210
203 213 223
197 207 215
159 174 171
95 123 73
91 119 72
94 121 72
92 118 70
90 116 69
96 123 74
91 118 71
89 115 69
94 121 72
97 125 75
93 120 71
95 122 74
91 118 70
92 119 71
91 118 70
94 121 72
89 116 69
92 119 71
91 118 70
92 118 71
86 112 66
93 120 72
89 116 69
91 117 69
89 115 68
170 184 182
190 202 211
188 199 206
201 211 217
184 196 200
194 205 213
188 199 205
195 205 212
204 214 223
201 211 217
202 212 222
186 198 204
193 204 210
201 211 222
201 211 220
198 209 216
191 202 209
190 202 210
196 207 215
197 206 214
198 208 217
198 209 218
194 204 211
202 212 222
190 201 207
106 129 95
89 116 69
92 119 71
93 120 72
94 122 73
93 121 72
93 120 72
90 116 69
95 122 73
95 122 73
92 119 71
92 120 72
92 119 71
91 118 71
90 117 69
93 120 71
88 115 68
88 114 68
88 114 68
91 118 71
93 120 72
97 124 74
91 118 71
99 125 79
180 191 192
197 208 216
199 210 220
183 195 202
198 208 216
192 204 212
195 207 217
199 208 214
197 207 215
192 203 211
195 205 213
194 206 214
198 208 214
196 207 215
195 206 214
200 210 219
192 203 211
192 202 209
200 210 219
195 207 215
197 208 215
199 210 218
184 195 194
100 125 84
89 116 70
96 123 74
89 115 68
92 120 72
92 119 72
91 118 70
91 118 70
93 120 72
90 116 69
91 117 70
94 122 73
95 122 73
95 122 73
94 122 73
93 120 72
93 120 71
89 116 69
92 119 72
94 121 73
94 121 72
137 157 139
196 207 214
200 210 218
195 206 213
194 204 212
198 209 218
188 200 207
199 209 217
204 215 224
201 212 223
197 208 218
198 208 216
191 202 209
201 211 218
193 204 210
204 214 223
194 205 214
193 204 210
203 213 221
197 207 213
183 196 201
112 135 104
92 119 71
91 118 70
90 116 69
90 117 69
94 121 72
94 122 73
93 120 72
89 116 69
93 119 71
89 115 68
91 118 70
90 116 69
89 116 69
91 117 70
95 122 73
93 120 72
94 120 75
104 128 91
167 181 177
162 176 170
137 156 141
108 132 98
86 113 67
88 115 68
94 121 72
89 116 68
87 113 67
87 114 67
92 119 71
98 125 76
92 119 71
91 117 70
94 121 72
95 122 73
103 127 88
174 187 185
195 206 212
197 207 216
199 209 218
194 205 214
91 118 70
95 122 73
92 119 72
91 118 70
95 123 74
90 116 69
90 117 70
93 120 72
116 136 110
161 175 170
186 197 203
193 204 211
201 211 218
140 157 142
90 117 69
94 122 73
95 122 73
88 114 67
96 123 74
92 119 70
96 123 74
92 119 71
92 119 71
94 121 73
94 121 72
93 120 71
95 122 73
90 117 71
92 118 70
87 114 67
90 117 69
92 119 71
92 119 71
109 131 101
153 168 157
185 197 201
198 208 217
97 123 79
94 121 73
91 118 71
91 118 70
93 121 73
95 122 73
89 115 68
91 118 70
90 116 69
92 119 71
89 116 68
92 119 71
92 119 71
90 116 69
92 119 72
96 124 74
92 119 71
92 119 71
95 123 74
94 121 72
89 115 69
94 122 73
96 123 74
92 119 71
117 139 108
197 208 215
197 208 215
187 198 204
191 203 209
154 170 163
134 152 135
108 131 94
92 118 70
91 118 70
90 117 69
90 117 70
93 120 72
93 120 71
91 118 70
87 114 68
95 122 73
93 120 72
91 119 71
89 116 70
90 116 69
90 117 69
96 124 75
96 123 74
93 121 73
90 117 70
155 171 164
196 207 215
186 198 203
193 204 210
193 204 212
199 210 219
194 204 211
199 209 217
191 202 207
195 206 215
198 209 216
199 210 219
198 209 217
194 205 211
189 200 207
197 207 215
204 214 224
194 205 214
199 209 218
199 210 221
195 206 213
187 198 203
194 205 212
160 175 168
145 162 149
126 145 124
147 163 151
193 204 212
193 205 214
195 205 212
189 200 205
192 203 212
192 203 209
193 205 213
189 200 207
192 202 208
194 204 210
191 203 210
190 202 209
188 200 208
191 202 208
192 204 211
205 214 220
196 207 217
190 201 211
198 209 218
181 193 197
196 207 215
199 210 218
198 208 216
192 204 212
187 199 206
200 210 217
116 139 108
93 121 72
92 119 70
94 121 73
91 118 70
95 122 73
94 121 72
91 118 71
93 120 72
89 116 69
92 119 72
92 118 71
95 122 73
90 116 69
90 117 70
92 118 70
90 117 69
88 115 68
93 120 72
96 123 73
89 115 69
90 117 70
93 120 72
93 120 72
94 122 73
95 122 74
128 148 127
192 204 211
197 208 216
192 204 211
197 207 215
191 202 211
199 209 215
201 211 219
197 207 214
194 205 210
194 205 215
186 198 203
167 181 177
152 168 161
140 158 143
129 149 129
95 121 77
91 117 70
91 118 70
94 121 73
93 120 71
92 119 71
88 114 68
90 116 69
91 117 69
93 120 72
91 118 70
185 197 202
199 209 217
201 212 220
191 202 210
196 207 215
193 203 211
201 212 221
200 210 216
198 209 218
198 208 215
202 212 222
203 213 220
190 201 211
196 206 214
196 206 213
194 205 211
203 213 223
186 197 202
197 206 212
203 213 221
202 213 225
202 212 220
199 209 218
196 208 217
192 203 209
196 206 214
129 148 126
93 120 72
89 116 69
90 116 68
94 121 73
92 118 70
89 116 69
92 119 70
91 118 71
92 119 71
92 119 72
93 120 72
93 120 71
93 120 72
91 119 71
94 120 72
90 117 70
90 116 69
90 117 69
91 118 70
96 123 73
93 120 72
95 122 73
90 118 71
91 118 70
131 150 131
189 200 208
201 210 217
196 207 217
198 209 216
196 206 214
187 199 205
198 208 216
199 209 214
202 213 223
194 205 212
193 204 215
193 205 213
206 216 224
196 208 217
195 205 212
200 210 219
202 212 221
194 205 212
191 203 212
193 204 211
194 205 214
193 203 211
198 209 218
199 210 219
138 155 143
93 120 71
89 114 67
92 119 71
91 118 70
88 114 69
92 119 70
95 122 73
92 119 72
93 121 72
95 123 74
93 120 71
89 116 69
88 115 68
89 115 68
94 121 72
91 118 70
91 118 70
90 116 69
89 116 69
95 123 73
91 118 70
90 117 71
87 113 67
173 185 185
193 204 213
192 202 208
201 211 221
189 200 207
191 202 210
199 208 216
196 207 216
204 214 223
190 202 209
203 214 224
202 212 221
192 203 211
185 198 205
193 204 211
195 206 215
201 211 220
187 197 202
190 202 211
207 216 225
194 206 214
194 206 214
199 209 216
117 138 109
87 114 67
89 115 68
94 121 73
91 118 71
88 114 68
92 119 71
91 117 69
96 123 74
93 120 71
93 120 72
92 119 71
92 118 70
90 116 69
94 121 73
93 120 73
93 119 70
89 116 69
91 118 70
94 121 73
94 121 72
130 149 129
193 204 210
192 203 209
191 203 213
197 207 213
201 211 219
195 205 213
187 198 202
189 200 207
193 204 213
192 203 211
197 207 214
192 203 210
194 205 213
197 208 216
197 207 215
204 214 222
192 203 207
195 206 212
201 211 220
191 202 209
111 133 103
94 121 72
91 118 70
92 119 72
91 118 71
94 122 73
96 123 73
87 113 67
93 120 71
91 118 71
93 120 72
94 121 72
88 115 68
102 127 88
126 145 124
130 150 130
174 187 185
183 195 198
183 195 197
96 123 79
94 121 73
93 120 71
91 118 71
92 119 71
95 122 74
91 118 71
90 117 69
91 117 70
94 121 73
95 121 72
96 123 74
93 121 73
92 119 71
90 116 69
91 118 70
99 125 82
186 198 200
195 206 214
185 197 202
188 199 206
190 201 209
189 201 208
91 118 70
92 119 72
95 123 74
90 116 68
95 122 73
95 123 74
93 120 71
90 117 70
90 116 69
91 117 70
95 120 77
139 156 141
171 184 183
172 185 183
87 114 67
91 118 70
88 115 67
91 117 70
85 112 67
89 116 69
93 120 72
92 120 71
92 118 70
93 120 72
94 121 72
93 120 71
90 116 69
92 119 71
93 119 71
91 118 71
92 119 72
93 120 71
88 115 68
95 123 73
93 120 72
96 122 77
133 150 135
128 147 130
97 122 78
94 121 73
93 119 71
93 120 72
91 117 69
93 120 72
94 122 74
89 116 68
89 116 70
93 119 71
86 113 67
93 120 72
92 119 71
90 116 69
96 123 74
88 115 69
90 117 69
95 122 73
90 117 70
92 119 71
89 115 68
89 116 69
90 116 69
118 139 111
198 209 216
200 211 221
193 203 209
191 202 208
192 203 211
193 205 213
198 208 215
183 196 201
140 157 145
111 133 101
93 120 71
89 115 70
93 120 72
90 117 70
92 119 71
95 122 73
91 117 70
89 115 69
93 119 70
92 119 72
90 117 70
92 119 71
94 121 73
90 117 70
91 118 71
162 176 171
206 215 222
198 208 216
202 212 222
200 210 220
197 208 215
198 210 221
194 204 211
202 212 219
196 207 216
200 211 219
197 207 213
201 210 218
198 208 215
186 198 205
188 198 203
193 205 214
202 212 220
195 207 215
194 204 211
194 205 211
199 209 216
192 202 208
190 202 209
202 212 221
195 205 213
146 163 151
129 147 129
158 172 164
184 196 198
194 204 212
201 211 219
193 203 209
199 209 219
199 210 218
198 209 215
202 212 223
191 202 209
193 204 210
201 211 220
195 206 213
199 210 219
197 207 214
202 211 220
201 212 221
193 204 210
201 212 222
198 208 217
191 202 210
191 201 206
203 212 220
195 206 213
188 201 206
90 116 69
94 120 71
94 121 72
93 120 72
91 118 71
95 122 74
90 117 70
92 119 72
92 119 71
92 119 71
93 120 71
94 120 72
95 123 74
95 122 74
90 117 70
93 121 73
92 119 71
90 117 69
90 117 70
92 119 71
98 125 75
90 116 69
92 119 71
94 122 74
96 123 74
93 120 72
164 178 175
187 198 204
203 213 220
187 199 204
202 212 219
195 206 213
203 212 221
197 207 215
189 201 208
201 211 220
201 211 216
204 214 224
207 216 226
194 205 214
200 209 215
197 208 216
199 210 218
186 198 202
176 189 188
161 175 166
149 164 152
129 150 128
109 131 98
92 119 71
92 119 71
90 116 69
118 139 111
199 209 217
204 214 223
191 202 208
192 202 208
190 201 208
196 207 215
201 211 220
198 209 217
185 196 200
194 205 213
197 207 216
197 208 216
193 204 212
197 208 215
198 209 219
198 209 218
201 211 221
194 205 213
196 207 215
196 206 212
198 209 217
199 209 218
194 205 214
190 201 208
192 204 213
174 186 187
92 119 71
87 114 67
91 118 70
91 117 70
93 120 72
94 120 71
92 119 71
90 116 70
92 119 71
98 125 75
91 118 70
94 121 72
92 119 70
91 118 70
93 120 71
91 118 70
93 120 72
88 115 68
95 123 74
91 118 70
94 122 73
88 114 67
93 119 71
94 121 72
91 118 70
167 180 181
191 202 211
201 212 221
190 201 210
185 195 201
199 209 218
197 208 215
194 206 214
190 201 207
195 206 214
194 205 213
196 207 215
188 199 204
202 213 223
202 212 221
191 202 208
196 206 213
203 213 221
196 207 215
200 211 221
195 206 212
197 207 216
199 209 218
197 208 216
187 198 200
101 125 86
91 118 71
89 116 69
93 120 71
89 115 68
94 121 72
93 120 72
88 115 69
93 120 72
91 118 70
90 116 70
93 120 72
91 118 70
90 116 69
91 118 71
91 118 71
96 123 74
93 119 71
93 120 71
90 117 70
96 123 74
91 118 70
87 114 68
115 136 110
192 203 210
196 207 216
198 208 216
192 203 212
192 202 209
196 206 216
197 207 213
200 211 220
198 209 218
198 208 216
195 206 214
198 209 217
190 202 211
195 206 216
200 211 219
202 212 221
186 197 203
196 207 215
203 212 220
198 208 217
183 195 200
196 206 211
160 174 168
91 118 71
93 120 72
94 121 72
94 121 72
87 114 68
88 115 68
93 120 72
94 121 72
94 121 72
93 120 73
94 121 72
92 119 70
91 118 71
96 123 73
91 118 70
93 121 72
90 116 69
89 116 69
88 115 68
90 117 70
99 124 86
197 208 213
197 207 213
203 212 221
199 209 219
192 203 211
198 209 217
194 206 214
199 209 215
200 210 218
195 205 213
196 207 216
184 196 201
200 210 219
189 200 208
189 201 208
198 208 215
197 207 214
198 209 216
192 203 211
195 206 212
121 141 116
94 121 73
92 119 71
90 117 70
92 119 72
94 121 74
88 114 68
97 124 77
112 134 104
134 152 135
153 170 162
159 174 171
168 182 179
186 198 204
204 214 222
193 204 210
192 203 212
198 208 216
179 191 193
110 134 98
87 114 68
93 120 71
92 120 72
90 117 70
89 116 70
94 121 73
95 123 73
92 119 71
87 113 67
88 115 68
95 122 73
91 117 70
93 120 71
93 120 72
92 118 71
107 130 94
176 189 191
189 201 208
186 197 204
191 202 209
189 200 205
205 215 224
197 207 212
89 115 69
91 117 70
93 120 71
89 115 69
93 120 72
93 121 72
93 120 72
94 122 73
91 118 70
89 116 69
93 120 72
92 119 71
91 118 70
110 134 102
148 164 152
114 135 106
92 119 71
94 121 73
94 121 72
95 122 73
96 123 73
89 115 68
91 118 71
92 119 71
93 120 72
88 115 68
92 119 71
89 115 68
91 117 69
89 115 69
90 117 70
93 120 72
88 114 68
90 117 70
89 116 69
95 122 74
92 119 71
176 190 192
194 205 212
162 177 174
136 154 137
92 118 75
94 121 72
92 119 71
93 120 71
93 120 72
91 118 70
92 119 71
90 117 69
93 120 72
94 121 73
88 115 68
91 118 69
93 119 71
91 117 71
90 117 70
89 116 70
91 117 69
91 118 70
93 120 72
90 116 69
114 136 103
197 207 216
198 209 215
189 200 205
195 205 212
195 204 208
200 209 217
201 212 222
187 199 209
192 203 210
196 207 215
191 202 206
149 165 153
121 141 116
92 119 71
92 119 71
94 121 73
88 115 69
90 117 69
94 121 73
93 121 72
91 118 70
95 122 73
93 120 72
87 113 66
89 115 68
176 189 190
196 207 214
199 209 217
194 206 214
195 206 213
186 197 203
202 212 223
192 203 208
193 204 211
203 213 220
192 204 212
183 196 203
195 205 210
186 196 201
197 207 214
194 204 208
197 208 217
198 208 216
199 209 217
186 198 204
184 196 203
196 206 214
198 208 217
190 201 207
194 206 214
197 206 211
129 148 127
93 120 72
93 120 72
93 121 73
101 126 85
128 147 131
141 159 145
183 196 199
189 200 205
195 206 213
200 209 215
202 212 220
199 209 219
199 209 218
192 203 210
201 212 221
195 206 213
196 207 217
185 197 201
202 212 220
198 209 218
200 210 219
195 205 212
191 202 209
196 207 215
194 204 211
164 179 177
90 116 69
91 118 70
90 117 70
95 122 73
94 121 73
91 118 70
94 121 72
91 118 70
94 121 72
96 123 73
93 121 73
96 123 74
91 118 71
90 117 70
89 116 69
94 121 73
91 118 70
91 118 70
89 116 70
91 118 71
93 120 71
96 123 74
90 116 70
92 119 71
92 118 70
90 116 69
187 199 204
194 205 214
193 204 211
198 208 216
202 211 219
196 207 215
202 212 221
193 204 212
194 205 214
195 205 211
195 206 213
203 213 222
196 207 216
201 212 223
196 207 214
198 208 216
197 208 216
203 213 223
192 204 211
200 211 219
204 214 222
207 215 222
190 202 207
185 197 204
170 183 183
171 184 182
152 167 159
162 176 172
175 188 188
192 202 207
192 202 208
194 205 212
198 208 216
198 208 216
195 206 214
201 211 221
192 203 209
194 205 213
191 203 211
192 203 210
190 201 207
202 212 221
197 207 213
191 202 210
201 212 224
200 209 218
187 199 205
196 206 212
195 206 212
205 214 224
194 206 215
187 198 203
129 148 132
89 115 69
90 117 69
93 120 72
91 118 71
94 121 72
94 121 73
92 119 72
95 122 73
91 118 70
89 116 69
91 118 70
90 117 70
92 119 71
91 119 70
95 123 74
89 116 69
91 118 71
91 118 70
89 116 69
93 120 72
90 117 70
87 114 68
93 120 72
88 115 70
137 155 140
192 203 212
188 199 206
197 206 211
197 208 215
198 209 217
190 201 209
202 211 218
204 213 220
196 207 216
195 206 215
197 207 214
197 208 216
205 215 224
198 209 218
193 204 212
196 206 213
186 198 204
194 205 211
200 211 221
209 219 229
193 204 209
191 202 208
192 203 211
192 203 210
132 151 131
92 119 71
95 122 73
89 116 70
91 117 70
90 117 69
91 118 71
94 121 73
93 121 72
92 119 71
91 118 71
91 118 71
93 120 72
91 118 71
89 116 69
93 120 72
90 116 69
90 116 69
94 121 73
93 120 72
91 118 70
91 117 70
91 118 71
99 124 84
190 201 207
198 209 217
189 200 207
189 201 208
194 205 214
197 207 214
195 206 214
190 201 208
197 207 215
192 202 208
193 203 209
198 209 218
196 207 215
193 203 208
197 208 216
200 211 219
194 204 211
180 192 199
190 201 208
193 205 213
190 201 207
202 212 221
170 183 181
102 128 82
93 121 72
90 116 69
91 118 69
91 118 70
93 120 71
89 116 68
89 116 68
91 119 71
96 123 74
94 122 74
90 116 70
91 118 70
92 119 71
92 119 71
92 119 71
91 118 70
90 116 69
90 117 69
91 117 69
94 121 74
179 191 193
195 206 215
196 205 211
201 211 219
189 201 209
194 204 212
191 202 208
198 208 217
199 209 215
197 207 215
205 214 223
198 209 218
198 209 216
198 207 214
191 203 210
200 209 218
197 206 213
186 198 205
185 197 200
194 205 215
145 162 147
93 120 72
112 135 105
129 149 128
154 170 160
164 178 173
177 190 189
172 185 185
196 206 214
187 198 204
200 210 219
191 202 208
197 208 217
197 207 214
196 207 214
193 204 210
191 202 210
199 208 216
198 209 217
107 130 98
90 117 70
93 120 73
89 115 68
92 119 71
93 120 71
92 120 72
95 122 73
90 117 70
86 112 67
90 116 69
94 121 73
93 120 71
91 118 71
91 118 71
93 120 72
100 124 86
168 182 178
191 202 208
194 205 211
186 198 207
183 195 199
192 203 210
194 204 211
198 208 215
92 119 70
90 117 71
95 122 74
89 115 69
90 117 70
94 121 72
91 118 71
92 119 71
89 115 68
93 119 70
91 118 70
91 118 70
87 113 68
100 125 84
192 202 210
191 202 208
174 187 189
153 170 160
100 125 85
93 119 71
94 121 73
92 119 71
92 119 71
91 118 71
90 117 70
92 119 72
93 119 70
91 118 71
92 118 70
93 120 72
91 118 71
85 112 66
93 120 71
91 118 71
89 116 68
89 116 70
93 120 71
156 170 165
191 202 209
200 210 218
194 205 214
189 201 209
163 177 173
135 152 139
99 124 82
93 119 71
93 120 72
90 117 70
92 119 71
91 118 70
89 116 69
86 113 67
91 117 70
89 116 69
94 122 73
88 115 68
93 121 72
90 116 69
91 118 70
93 121 73
98 125 75
120 139 115
192 202 205
194 205 213
191 202 208
193 204 212
187 198 204
189 200 207
198 209 218
200 210 219
194 204 209
194 206 216
192 204 211
197 207 216
199 210 219
192 203 210
163 177 172
127 146 124
96 120 84
89 115 68
88 114 67
95 122 73
89 116 69
89 115 69
89 115 68
90 117 70
89 116 69
184 195 198
192 204 212
194 205 213
189 199 204
196 206 214
182 194 198
199 209 216
201 210 217
188 199 206
200 211 222
198 209 218
203 213 222
186 198 204
206 215 224
196 207 215
191 202 209
201 212 220
196 207 216
195 205 211
192 203 211
195 205 214
198 209 217
197 207 214
190 201 208
193 202 206
191 202 209
112 135 103
89 116 69
90 117 71
94 122 73
88 115 69
91 118 70
91 118 71
91 117 69
95 121 78
124 144 117
147 164 151
169 183 180
190 201 207
192 203 211
184 196 202
200 211 219
203 213 221
196 206 214
196 206 214
194 205 212
200 211 221
202 212 222
199 209 218
193 204 213
190 200 205
193 205 214
128 146 129
90 117 70
92 119 71
92 119 71
91 118 71
93 119 71
94 121 72
88 114 68
92 119 71
91 118 70
91 117 70
89 115 69
94 122 73
94 121 72
92 119 71
94 121 72
92 119 71
91 118 70
95 122 73
89 116 69
90 117 70
92 119 71
93 120 72
96 123 74
87 114 67
90 117 69
126 145 122
187 199 206
200 210 219
194 206 214
198 208 217
195 205 213
199 209 218
194 206 216
194 204 210
197 207 216
195 205 212
199 209 216
188 200 205
194 204 210
199 210 218
196 206 214
188 200 207
194 204 210
196 206 213
201 212 222
206 215 223
199 208 216
204 214 224
201 210 218
189 201 207
192 203 209
194 205 212
92 118 73
90 117 69
89 116 69
91 118 71
94 121 75
121 142 118
127 147 128
143 161 146
161 176 171
165 179 175
172 185 185
183 195 201
196 207 215
202 212 220
187 198 204
198 208 218
194 205 212
201 212 219
198 208 214
191 203 211
201 210 218
198 209 219
194 205 213
188 201 210
190 202 210
182 194 197
95 122 76
96 124 74
93 119 71
87 114 68
92 119 71
93 121 73
95 122 74
91 118 70
91 118 70
91 118 71
88 114 68
91 117 70
93 120 72
89 115 69
94 121 72
92 119 72
93 119 71
90 116 70
93 119 71
91 118 70
94 121 72
91 118 70
96 124 75
86 112 65
89 116 69
178 189 191
196 207 215
201 211 221
195 206 217
200 210 219
192 203 210
200 211 220
190 200 206
191 202 210
198 209 216
197 208 215
191 202 210
198 208 215
193 205 212
197 208 217
198 208 215
189 200 207
193 204 212
192 203 210
202 212 220
193 204 211
198 208 214
197 208 215
197 207 215
181 193 194
93 121 73
93 120 72
90 116 69
93 120 72
90 117 70
92 119 71
90 117 70
89 117 70
91 118 71
90 117 70
92 119 71
94 121 73
98 125 76
90 117 70
93 120 71
91 118 71
90 117 69
92 119 73
93 120 72
91 118 70
85 112 66
97 124 74
88 114 68
166 180 176
194 205 211
200 211 219
185 197 202
194 205 214
195 206 213
193 203 210
196 206 213
190 201 208
194 205 213
192 203 212
192 204 212
197 208 215
201 211 219
186 197 202
194 205 213
190 201 208
197 208 216
191 201 207
192 205 214
197 208 217
197 207 215
183 194 197
111 135 102
91 118 71
95 122 74
91 118 70
93 120 72
90 117 69
90 117 70
92 118 70
92 119 71
91 118 72
86 112 66
89 116 69
93 120 71
96 123 74
92 119 71
90 116 69
92 118 70
90 116 69
91 118 71
93 120 72
91 118 70
160 174 169
192 203 210
191 202 208
196 206 211
189 200 206
198 209 219
191 202 208
200 209 218
181 191 196
189 201 208
193 204 212
194 205 213
201 211 221
194 205 212
192 203 209
187 200 206
180 192 195
168 181 179
166 180 173
149 165 155
180 192 195
183 194 198
188 199 204
193 204 211
201 211 219
192 203 211
200 210 219
199 211 221
194 205 214
198 209 218
196 207 215
188 201 207
184 195 200
194 204 210
186 198 202
201 211 220
197 207 216
190 202 210
186 197 203
108 130 98
94 122 73
93 120 71
95 122 73
94 121 73
89 116 70
88 115 69
95 123 74
93 120 72
94 121 72
90 117 70
92 119 71
93 119 72
93 120 71
93 120 71
92 119 71
121 141 118
174 187 189
184 196 203
194 204 211
204 214 223
197 207 215
193 204 210
193 204 211
200 210 219
198 208 217
130 149 130
89 116 69
89 115 68
94 120 72
91 118 71
92 118 70
96 123 74
92 119 71
89 115 68
94 121 72
90 117 70
91 118 70
93 120 71
87 113 67
186 197 199
204 214 224
198 209 219
197 207 214
197 208 216
154 169 164
126 146 126
91 117 72
97 124 75
87 113 67
93 120 72
89 117 70
91 118 70
93 121 73
89 116 70
93 120 72
92 119 72
95 122 73
91 117 69
92 119 71
88 115 68
95 122 73
87 113 66
174 186 184
198 208 215
192 203 209
190 203 212
201 211 218
196 207 212
200 210 219
182 194 198
172 185 183
127 147 125
97 122 80
90 117 70
90 116 69
88 115 68
97 124 75
90 116 69
91 118 70
92 118 71
95 122 73
92 119 71
89 116 69
90 117 70
92 120 72
86 112 66
127 146 125
192 203 211
196 206 215
190 202 209
198 210 220
193 203 210
196 207 216
194 205 209
193 203 209
196 206 212
192 203 208
196 206 215
188 201 209
203 213 223
197 207 213
195 206 214
203 213 223
189 201 207
173 185 185
140 157 142
120 141 113
93 120 75
90 117 69
93 120 72
89 116 69
92 119 71
192 204 208
190 201 208
197 207 215
201 212 223
196 207 216
192 203 210
196 207 216
195 207 214
187 199 208
199 209 216
193 203 210
195 206 214
190 200 207
196 207 216
188 199 206
194 205 212
194 205 211
203 213 221
200 210 218
196 206 213
199 210 218
192 203 210
197 207 213
196 206 213
192 203 208
184 194 198
96 123 76
93 119 71
93 120 72
89 115 69
92 118 70
94 121 72
89 115 69
90 117 69
91 118 70
97 124 75
91 118 70
91 117 70
93 120 72
115 138 108
133 151 133
166 181 177
173 187 189
187 198 204
184 196 203
194 204 211
193 205 213
199 209 220
196 208 217
198 208 216
202 213 222
195 205 213
110 132 106
94 120 71
91 118 70
93 120 72
91 118 70
92 119 71
89 116 68
91 118 70
91 118 70
92 118 71
91 118 70
93 119 71
93 120 72
92 119 71
92 119 71
90 117 70
94 121 74
93 120 73
94 121 72
93 120 71
93 120 73
86 113 67
91 117 69
89 115 68
92 119 71
93 121 73
168 181 178
198 208 216
203 212 220
190 201 209
191 203 211
193 205 213
201 211 218
192 203 210
207 216 225
196 207 215
194 205 212
191 202 209
190 203 214
203 213 222
194 205 211
191 201 207
197 207 214
192 203 209
189 201 208
196 207 216
197 208 218
196 207 216
188 200 205
196 206 213
199 209 216
195 205 212
162 176 172
95 122 74
91 118 70
92 119 71
90 117 69
92 119 71
94 121 72
94 121 73
92 119 71
94 121 72
91 118 70
87 114 67
91 118 70
93 118 76
110 133 99
130 148 131
155 170 160
156 171 162
162 176 171
166 179 175
181 193 195
185 196 201
198 208 215
194 205 214
196 208 217
202 212 221
152 167 157
94 121 73
90 116 69
95 122 73
93 119 72
91 118 70
91 118 70
92 120 72
95 122 73
89 116 69
93 120 72
91 118 70
90 116 69
93 120 72
93 120 71
92 119 71
92 119 71
91 118 70
94 121 73
93 121 73
88 115 69
92 119 71
91 118 70
91 118 71
94 121 72
145 161 149
202 212 220
201 211 218
208 217 225
192 203 211
186 198 204
196 206 215
197 207 215
207 216 226
191 202 209
195 206 213
199 209 218
190 201 206
208 217 225
190 202 209
202 212 222
195 206 211
193 204 212
197 208 217
192 204 212
196 207 214
195 206 214
198 208 216
194 206 214
194 206 214
112 134 103
91 117 69
91 117 69
90 116 69
93 119 70
90 117 70
93 121 73
92 119 71
92 119 71
91 118 70
93 120 72
94 122 73
96 124 74
91 118 71
92 120 72
87 114 68
91 117 70
96 123 74
95 123 75
94 121 72
93 120 72
91 119 71
93 121 72
132 151 130
190 202 212
186 197 200
192 204 212
199 210 218
190 201 208
193 204 213
199 211 223
195 205 210
188 199 205
196 208 216
197 207 215
196 207 216
194 204 210
192 204 214
193 204 212
192 203 209
201 211 221
195 206 212
197 208 216
195 205 215
193 204 211
194 204 210
121 141 119
93 119 71
94 122 73
91 118 70
91 118 70
93 119 71
89 116 69
93 120 72
93 120 71
90 116 69
94 121 73
95 122 73
86 113 67
96 123 73
90 117 69
98 125 75
96 124 75
93 120 72
92 119 72
92 119 71
92 120 72
158 173 167
194 204 213
191 203 209
190 202 210
197 208 217
201 210 219
190 200 208
197 207 215
193 203 209
181 193 198
163 177 173
148 165 156
139 157 143
135 153 133
122 141 117
99 124 84
92 119 72
90 117 69
86 113 67
94 121 73
140 156 145
200 209 218
192 203 210
195 205 212
196 206 213
185 195 201
196 206 214
199 209 218
201 210 216
203 213 222
193 204 211
195 205 211
194 205 214
200 209 217
198 208 215
193 205 215
189 200 207
186 197 203
185 197 204
115 136 108
91 118 71
89 115 69
91 118 70
93 120 72
93 119 71
91 117 69
90 117 70
97 124 74
91 118 71
87 113 68
96 123 74
89 115 69
94 121 73
91 118 70
93 121 72
100 125 84
182 193 196
192 203 210
198 209 218
194 205 211
197 207 212
188 200 207
199 209 218
187 199 206
181 193 195
162 177 174
189 201 210
175 188 188
155 170 160
98 123 86
95 122 73
93 120 72
91 117 70
90 117 69
88 114 68
89 115 68
92 119 72
91 118 70
93 119 70
91 118 70
154 170 167
193 204 213
197 208 215
186 198 206
198 209 220
185 197 202
192 203 211
190 201 207
156 171 165
123 144 121
94 122 74
91 119 71
92 118 71
92 119 71
92 119 71
93 120 72
89 116 69
91 118 71
91 117 70
94 120 72
88 115 68
92 119 71
91 118 71
140 157 145
190 200 207
191 202 209
191 203 210
193 204 213
194 205 213
203 212 221
203 212 220
200 209 218
195 206 211
188 200 206
169 181 181
123 142 119
94 120 77
95 122 73
89 116 69
91 118 71
92 119 71
93 120 72
91 117 70
91 118 70
96 123 74
92 119 71
90 116 69
120 141 117
198 208 216
202 212 222
196 207 215
194 205 215
190 201 206
196 207 214
195 206 213
199 209 217
201 211 220
196 208 218
202 212 222
198 208 217
200 210 221
191 203 209
183 194 200
194 205 212
196 207 217
197 208 217
192 202 209
191 203 211
189 200 205
161 176 171
134 153 135
93 120 74
90 116 69
197 208 217
193 204 211
196 208 216
196 206 215
192 202 209
194 205 211
194 206 214
201 212 220
196 208 216
191 202 211
189 200 207
193 204 211
199 210 219
196 207 214
195 206 213
194 205 212
189 201 207
196 207 216
196 208 216
188 200 208
194 204 212
188 200 208
189 200 208
199 209 216
185 197 202
175 188 189
91 118 70
89 116 69
91 118 70
93 120 72
96 124 74
92 119 71
88 114 67
93 121 73
90 117 70
93 120 72
89 116 70
89 116 68
90 117 70
94 121 72
95 122 73
93 120 72
87 114 68
106 130 94
125 144 122
134 151 135
165 180 176
198 208 215
191 202 210
199 210 220
194 205 214
191 203 211
91 117 70
91 118 71
94 121 72
90 117 70
90 116 69
87 113 67
96 123 73
90 116 69
88 114 68
94 122 73
96 123 74
93 120 73
92 120 72
93 120 71
90 117 70
90 116 70
90 117 69
91 118 71
93 120 72
89 116 69
91 118 70
92 119 71
95 123 73
89 115 68
91 118 71
93 120 72
182 194 200
197 208 216
196 208 216
197 208 218
191 202 209
192 202 208
196 207 214
193 204 211
192 202 208
205 215 222
187 199 205
198 208 218
191 201 208
185 197 204
200 210 216
188 199 203
196 207 215
194 204 211
199 209 215
195 205 211
191 201 207
197 208 218
194 205 212
194 205 213
188 200 205
195 206 212
123 144 116
92 119 71
93 120 72
89 115 69
91 119 71
93 121 73
91 118 71
91 118 70
96 123 73
89 116 69
91 118 70
93 120 71
91 118 71
93 120 72
91 118 70
89 116 69
90 116 70
89 116 69
90 117 70
91 118 70
93 120 72
90 117 69
99 124 84
114 136 107
131 150 130
145 161 154
166 179 176
141 157 144
141 158 144
122 143 116
99 123 85
100 125 87
90 117 70
92 119 71
94 121 73
89 116 69
93 120 72
89 116 68
90 117 69
94 121 72
95 122 74
88 115 69
92 119 71
90 116 69
94 122 73
92 119 72
89 116 69
92 119 71
93 120 72
89 116 69
93 120 74
181 194 199
188 199 205
189 201 208
198 208 215
193 204 212
193 205 214
188 199 205
198 209 218
192 203 210
193 204 208
188 201 207
196 207 216
199 209 218
194 206 214
194 205 214
195 205 212
192 203 210
194 204 211
194 206 215
198 208 215
195 206 215
195 205 211
192 203 210
206 215 225
148 164 155
89 116 69
90 117 70
91 118 71
92 119 71
94 121 72
93 121 72
93 120 72
90 118 71
89 116 70
90 117 69
90 116 69
91 118 70
92 119 70
91 118 71
89 115 68
91 119 71
93 120 71
92 118 70
92 119 72
89 116 69
92 119 71
90 116 70
104 127 90
195 205 213
193 203 209
199 209 217
197 207 214
195 206 215
185 197 203
194 205 212
194 204 211
191 202 210
198 209 218
190 200 206
198 209 219
190 202 208
187 199 205
194 205 211
192 202 209
198 208 215
182 194 201
195 206 214
191 203 211
193 204 212
195 206 215
153 169 157
95 122 73
91 118 71
93 120 72
89 116 69
92 119 72
92 119 71
94 120 71
92 119 72
89 115 68
92 119 71
91 118 70
90 117 70
91 118 70
92 119 72
92 119 71
94 121 72
89 116 69
91 118 71
95 122 73
92 119 71
119 139 111
187 198 203
170 183 180
160 175 171
153 167 159
124 144 122
126 145 125
117 138 110
98 122 85
88 114 67
86 111 66
92 119 71
87 114 68
89 116 70
88 115 69
90 117 70
89 116 69
91 118 70
91 118 70
91 118 71
136 154 140
195 206 215
190 202 210
199 210 220
190 202 210
197 208 217
195 205 213
190 201 208
194 205 212
191 201 208
192 203 210
193 204 210
182 195 199
192 202 208
195 204 211
188 200 207
197 207 214
197 208 216
188 199 206
114 136 104
90 116 69
94 121 73
91 118 70
90 117 70
91 118 70
90 117 70
88 114 68
89 115 68
89 116 69
88 114 68
91 118 70
89 116 69
91 118 71
91 117 70
91 118 70
114 136 105
190 200 203
198 209 217
191 202 209
186 198 204
185 197 202
192 204 212
160 175 169
137 154 138
99 124 87
92 119 71
88 115 68
192 204 211
197 207 214
194 204 211
194 205 213
160 174 168
127 146 125
89 115 68
90 116 69
90 117 70
89 116 69
89 117 71
89 116 70
92 119 71
92 120 72
130 148 129
200 211 220
186 198 205
195 205 212
203 213 223
188 199 204
190 201 208
193 204 210
194 204 212
190 202 209
175 188 191
153 169 162
103 127 90
93 120 72
93 120 71
85 111 66
94 121 72
89 115 68
92 119 70
94 121 72
92 119 71
93 119 72
93 120 71
151 166 158
201 211 218
191 201 209
195 206 214
188 199 204
194 205 212
196 206 215
195 206 213
189 200 206
195 206 217
205 214 223
194 205 213
193 204 213
191 203 211
181 192 194
128 147 126
98 123 81
91 117 70
87 114 67
87 113 68
90 117 69
95 123 74
87 114 68
87 113 67
117 140 112
191 203 210
189 200 206
197 208 217
190 201 208
191 202 209
192 202 207
192 203 210
196 207 215
192 203 211
193 204 212
190 202 209
198 208 215
197 208 215
199 210 218
188 200 209
188 199 205
185 197 202
198 209 216
199 210 219
186 196 201
202 212 221
190 202 208
190 201 210
191 202 209
183 196 199
157 171 164
179 191 193
191 203 211
195 206 213
189 200 209
190 202 209
194 204 209
196 207 215
199 209 216
195 205 212
196 207 215
185 196 202
189 201 207
190 201 206
195 206 215
187 199 205
188 200 208
189 200 207
207 216 225
190 202 211
192 203 210
203 213 221
191 203 211
191 202 210
191 202 209
150 165 158
90 117 70
93 120 72
92 120 72
93 120 72
92 119 71
91 118 70
93 120 72
92 119 72
93 119 72
93 120 72
88 115 69
90 117 70
90 117 70
92 118 70
88 115 68
93 120 72
91 117 69
93 120 73
92 118 71
93 120 72
91 118 71
90 116 70
108 133 96
130 148 127
154 168 160
160 175 169
96 122 81
90 116 70
94 121 72
96 123 74
86 112 66
94 121 73
92 119 71
91 118 70
89 115 68
90 117 69
95 123 74
92 119 71
91 118 70
91 118 70
92 119 71
93 120 72
93 120 72
92 119 71
93 120 72
89 116 70
90 117 70
91 118 70
90 117 70
93 121 73
92 118 71
113 134 106
199 209 216
202 213 223
202 212 220
188 199 206
205 215 224
198 208 216
203 213 222
190 202 210
195 206 214
199 209 217
189 201 207
189 201 209
200 211 222
196 206 215
194 205 212
205 214 223
190 201 209
192 202 208
197 208 217
191 202 209
193 204 210
193 203 211
194 205 213
185 195 200
194 205 213
182 193 195
88 114 68
90 117 71
91 118 70
88 115 68
89 116 69
93 120 71
91 117 69
97 124 75
96 123 74
92 119 71
93 121 72
91 118 70
91 118 71
94 122 73
88 115 68
93 120 71
90 116 70
89 116 69
93 120 72
94 121 72
94 121 73
92 119 72
92 119 71
90 116 70
94 121 73
155 171 164
193 204 212
191 202 207
193 203 210
200 211 219
195 206 212
198 209 216
193 204 210
176 188 190
182 194 195
178 190 191
165 180 177
154 169 162
151 166 157
133 152 132
124 144 120
122 143 113
114 135 103
100 124 86
96 122 76
93 120 72
93 120 72
90 117 70
89 116 69
89 116 69
140 157 147
189 200 205
195 205 212
193 204 212
197 208 216
199 210 217
197 208 215
202 212 221
196 207 216
192 203 211
195 206 213
193 204 211
199 209 217
200 210 218
197 207 213
193 204 211
203 214 223
192 202 207
193 204 212
194 205 213
198 209 218
185 196 201
181 194 202
191 202 207
181 193 198
97 123 79
92 119 71
89 116 69
95 122 73
86 112 66
92 119 72
91 117 70
93 120 72
89 116 69
90 117 69
95 121 73
89 115 69
92 119 71
90 117 70
91 117 70
91 118 70
90 117 70
92 119 71
87 113 68
89 116 69
91 118 70
95 122 73
92 120 72
169 183 183
185 198 206
203 214 223
203 212 221
192 204 212
198 208 214
198 208 216
193 205 215
200 210 217
194 205 213
199 210 218
190 201 208
189 201 210
200 210 218
193 203 209
189 200 205
192 203 212
191 202 209
187 198 203
188 199 204
198 208 215
192 203 212
174 187 185
90 117 70
92 120 72
84 110 65
90 117 70
92 119 71
93 119 71
93 120 72
95 123 73
91 118 70
116 138 109
125 145 122
115 136 112
133 150 130
145 161 153
140 157 140
164 177 174
181 194 194
173 186 185
190 202 208
194 204 212
181 193 196
105 128 92
89 116 69
93 120 72
90 117 69
93 120 72
91 118 71
94 121 72
90 117 70
89 115 69
89 116 70
85 111 65
91 117 70
94 121 73
89 116 69
92 118 71
92 119 70
88 114 67
86 112 66
87 114 68
123 144 118
190 202 209
192 202 210
197 208 215
199 210 219
191 203 209
194 206 216
191 201 207
191 202 208
194 205 213
189 200 208
188 199 206
195 205 211
203 212 221
197 208 216
184 195 201
197 207 214
195 205 212
188 200 204
117 138 113
90 117 69
91 118 70
93 120 72
94 121 72
91 118 71
89 116 69
89 116 69
90 116 69
90 117 70
96 124 75
92 119 71
90 117 69
90 116 69
89 115 69
92 119 72
118 138 114
195 205 211
187 198 204
178 191 192
151 165 158
126 147 124
104 129 89
91 118 70
92 119 71
87 115 68
84 110 65
91 118 70
94 121 73
186 196 202
190 203 211
196 207 217
188 200 206
194 205 213
195 206 213
182 193 196
145 161 148
113 135 106
92 118 70
91 118 70
89 116 69
90 117 70
91 117 70
127 146 127
193 203 209
191 202 209
192 203 211
192 204 213
192 202 209
195 206 214
186 195 199
186 198 205
193 204 212
193 204 212
192 204 212
187 199 204
182 194 198
134 152 135
95 120 82
90 117 70
94 121 73
91 117 70
93 120 71
91 118 71
89 115 69
92 119 71
134 153 132
188 200 207
198 209 218
195 205 211
195 206 213
185 196 200
201 211 218
195 205 210
191 201 208
180 192 194
190 202 209
192 203 210
199 209 219
184 197 204
189 200 206
191 202 209
194 205 214
174 186 186
138 156 143
102 127 88
92 119 71
94 121 73
83 111 66
91 118 70
119 140 113
189 200 205
186 197 202
194 204 212
188 198 203
180 193 199
188 199 205
193 204 212
195 206 215
195 206 216
202 212 221
189 200 206
192 203 210
200 210 217
196 208 216
188 199 206
193 203 211
195 206 212
192 204 211
205 215 225
193 204 213
184 195 201
202 212 222
194 205 211
191 203 209
174 187 190
91 119 71
92 119 72
98 123 81
132 150 131
171 184 180
195 205 213
194 205 212
188 200 206
198 207 215
197 207 216
197 207 215
194 205 213
199 210 220
187 198 205
196 207 212
191 202 211
185 197 204
185 196 203
191 201 207
195 205 213
198 208 215
196 206 214
190 200 205
200 210 220
192 202 210
137 155 141
92 119 71
87 114 68
90 116 68
90 117 70
91 119 71
92 119 71
91 118 70
91 118 71
92 119 71
93 120 72
89 116 69
90 117 70
90 116 69
94 121 73
92 119 71
93 119 71
93 121 73
91 118 70
90 116 69
92 118 70
93 120 72
88 114 68
87 114 68
93 120 71
94 122 73
157 172 167
197 207 214
192 204 211
155 171 162
141 157 145
110 130 101
92 118 76
90 117 70
91 118 71
90 117 70
94 121 72
89 116 70
86 112 67
87 113 67
95 122 73
91 117 71
88 115 69
89 116 69
95 122 73
94 121 72
94 121 73
92 119 71
91 118 70
90 117 70
86 113 67
92 119 71
149 165 156
190 201 208
194 204 210
193 203 210
199 209 217
184 197 202
193 204 210
194 205 212
200 210 219
188 200 208
192 203 209
204 214 222
187 198 202
192 203 211
197 208 217
201 212 220
199 210 219
194 205 211
192 202 209
193 204 212
201 212 221
198 208 216
198 208 216
189 199 204
195 206 213
191 202 210
140 158 145
92 119 71
91 118 71
94 121 72
91 119 72
92 119 71
94 122 73
89 115 68
86 112 66
95 122 73
90 116 69
91 118 70
92 119 72
92 119 72
95 123 74
93 121 73
92 119 72
92 118 71
92 119 71
86 112 66
91 118 70
88 114 68
97 125 74
93 120 72
92 119 71
108 131 94
195 205 211
190 202 209
195 205 214
191 203 212
193 204 210
187 199 204
196 206 212
199 209 216
192 202 207
195 205 214
193 204 212
190 201 209
191 203 211
193 205 214
199 208 215
203 212 222
195 206 214
183 195 199
189 201 207
187 198 203
191 201 204
179 190 191
177 190 190
164 177 173
163 176 172
131 150 133
137 154 139
151 167 160
170 183 179
158 173 168
167 181 180
172 185 184
182 194 196
187 198 201
182 194 197
183 195 198
191 201 206
198 208 215
189 202 210
186 197 203
193 205 212
201 211 220
197 208 219
189 200 209
201 211 220
189 200 204
196 207 215
198 208 217
187 198 206
127 146 126
90 117 70
88 114 69
92 119 71
90 117 70
93 121 72
91 118 70
88 114 69
96 123 73
93 120 72
87 113 67
92 119 71
90 117 70
94 121 72
90 116 69
93 120 72
90 116 70
91 118 70
96 123 74
96 123 74
91 118 70
92 119 71
97 124 75
142 159 147
195 206 212
188 200 207
187 199 206
195 205 212
192 203 208
170 184 189
192 204 211
200 210 219
188 200 207
199 210 218
191 201 207
185 196 202
193 203 211
189 200 207
188 199 205
196 206 214
193 204 210
185 197 201
181 192 195
174 187 189
176 189 190
170 184 182
152 168 158
150 166 157
149 166 158
158 174 170
168 181 178
179 191 192
172 185 184
182 194 200
184 196 201
189 200 206
187 199 202
197 207 216
196 207 216
197 208 218
188 200 209
177 191 197
198 209 217
195 206 214
185 197 204
194 205 212
193 204 210
110 133 99
92 120 72
91 118 70
91 118 71
91 118 71
89 116 69
95 122 73
90 117 71
93 119 71
92 119 71
91 119 71
94 121 72
90 117 70
92 119 71
92 119 71
90 117 69
89 116 68
91 118 71
94 121 72
124 143 124
192 203 209
188 200 206
184 196 200
202 211 217
190 201 208
195 206 212
190 201 207
189 201 207
188 199 203
189 201 210
195 206 212
190 201 209
187 199 205
198 208 217
194 205 213
195 205 212
190 201 207
188 199 206
119 140 114
93 120 72
90 117 70
92 118 70
92 119 72
96 123 74
92 120 72
89 116 68
92 118 70
90 116 68
92 118 70
93 120 72
88 115 69
84 110 65
94 120 74
107 130 96
100 124 89
151 168 156
115 138 109
97 123 79
90 117 69
91 117 70
90 117 70
89 116 69
89 115 68
91 117 70
87 114 68
95 122 73
90 117 70
91 118 70
202 212 221
193 205 214
188 200 206
193 203 210
196 207 214
194 206 214
194 205 213
192 202 209
188 200 206
171 184 181
136 154 136
94 120 80
90 116 69
86 113 68
98 123 84
191 202 208
186 197 204
184 195 200
189 201 208
192 203 209
178 190 194
194 205 214
190 200 206
193 204 212
193 203 207
197 207 213
188 199 204
190 201 206
196 207 216
194 205 213
168 181 180
126 144 126
100 125 85
91 118 71
89 115 68
90 117 69
92 119 72
133 151 132
194 205 213
194 205 212
197 207 214
196 206 213
194 205 212
189 201 208
186 198 204
199 208 215
195 206 216
194 205 215
194 205 213
194 205 213
201 211 219
191 203 210
193 203 211
183 195 200
185 197 201
195 206 214
196 206 213
182 194 197
142 158 147
114 136 109
89 116 70
118 138 114
188 198 203
194 205 212
197 207 214
184 196 201
199 209 218
194 206 213
190 201 207
190 202 210
196 206 212
194 205 213
198 208 214
194 205 211
195 205 212
193 203 209
199 210 220
193 205 211
191 202 208
192 203 209
202 212 221
191 202 208
195 205 212
186 198 204
192 202 209
195 206 213
170 185 184
92 119 71
90 116 70
86 112 67
90 117 70
92 119 71
91 117 70
119 141 113
144 161 149
169 182 180
191 202 206
203 213 222
191 202 210
197 209 219
199 208 214
195 206 214
187 198 202
200 210 221
192 203 210
198 208 215
195 205 214
201 211 220
197 208 215
187 199 206
194 205 213
198 208 217
129 147 128
96 123 74
92 119 71
95 122 73
91 117 69
91 118 71
87 113 67
94 121 73
91 118 70
91 118 70
94 122 73
90 117 69
91 118 71
90 117 69
91 117 70
93 120 72
93 120 72
87 114 68
90 116 69
88 114 68
90 117 70
91 119 71
91 118 70
89 115 68
90 117 69
91 118 70
183 195 199
195 206 215
195 206 213
193 205 214
200 210 217
191 202 210
187 198 204
185 197 201
155 170 167
147 162 151
132 152 130
101 126 85
93 120 72
91 118 69
89 116 69
94 121 72
93 120 72
91 118 70
95 122 73
90 116 69
92 119 71
90 117 70
91 117 70
92 119 71
95 121 73
89 115 68
185 196 199
197 207 214
192 203 208
196 207 215
190 201 208
193 203 210
200 210 217
197 209 219
187 199 205
195 205 211
199 209 216
190 200 206
193 203 210
204 214 223
195 206 212
187 199 206
192 203 211
198 208 215
199 209 216
194 204 213
190 201 207
195 205 212
192 203 210
190 201 207
194 204 213
190 200 204
90 115 74
89 115 69
89 116 70
93 120 73
87 113 67
94 121 72
92 119 70
92 119 71
91 118 70
89 116 69
90 117 70
90 117 69
84 109 64
92 119 71
91 118 70
92 119 71
90 117 70
89 115 68
90 118 70
94 122 73
92 119 72
95 122 73
93 120 71
88 114 68
91 118 71
156 170 165
196 207 214
200 210 218
200 211 222
191 203 210
185 198 205
192 204 211
201 212 223
191 202 209
191 203 210
203 213 222
196 206 214
191 202 210
200 211 220
195 206 214
198 209 219
188 201 209
194 205 213
190 201 206
197 208 217
194 204 213
193 204 212
199 209 217
195 206 212
196 206 213
139 156 140
92 119 71
94 122 73
90 117 69
90 117 70
89 116 69
91 117 70
90 117 70
88 114 68
94 122 73
88 115 68
95 122 74
86 113 67
90 117 72
94 120 78
106 130 93
106 129 95
111 134 102
128 147 127
122 142 121
131 149 130
137 154 138
135 152 135
126 145 126
158 172 166
159 173 169
163 177 171
159 174 169
169 183 181
145 160 150
152 166 159
153 169 160
151 167 158
149 164 155
146 163 150
154 168 162
155 169 160
152 167 157
131 148 133
147 164 157
141 160 140
145 161 147
154 170 165
160 175 169
149 164 154
157 172 168
157 171 166
140 158 145
129 148 130
155 170 161
143 161 146
136 154 138
124 143 118
130 150 129
131 148 131
121 142 117
125 145 121
117 139 111
122 143 117
97 122 82
91 117 74
103 127 90
93 121 72
90 117 70
88 115 69
89 115 68
90 117 70
91 118 71
93 120 72
94 120 77
171 184 185
199 210 218
196 207 214
200 209 216
189 201 209
203 213 222
193 205 215
194 205 212
198 208 216
195 205 212
186 197 201
189 200 206
188 200 207
197 207 215
191 201 208
197 208 218
200 211 221
199 209 217
189 200 207
192 204 212
195 206 212
128 147 125
95 121 72
92 119 71
90 117 70
84 110 66
94 121 73
89 115 68
91 118 71
89 115 69
90 116 69
91 118 70
88 115 68
89 115 68
90 116 69
91 118 70
93 120 71
91 117 70
90 116 69
91 118 70
111 134 102
183 194 199
203 213 221
196 207 214
197 206 213
185 197 203
188 200 207
197 208 217
191 203 212
196 206 214
196 207 214
190 200 206
188 199 206
193 204 213
190 200 208
193 204 212
188 200 209
191 203 212
184 196 201
121 140 115
91 118 71
92 119 71
90 116 69
92 119 70
91 118 70
91 118 70
92 119 71
93 120 72
93 120 71
94 121 72
103 128 93
130 149 124
144 160 150
160 173 170
193 203 208
159 174 171
95 120 79
90 116 69
85 111 66
92 120 72
92 120 72
87 113 67
87 114 67
91 117 70
92 119 71
87 113 67
89 116 69
87 113 67
86 112 66
93 120 72
193 204 213
196 207 215
197 208 216
197 208 217
184 196 201
189 200 208
190 200 205
191 203 210
198 209 219
191 202 208
196 207 215
185 196 203
167 180 179
127 147 126
90 116 69
179 192 193
193 205 214
191 202 208
189 200 206
187 199 207
198 208 216
199 209 215
195 205 212
190 201 206
192 204 213
191 202 207
195 206 215
196 205 212
202 213 224
182 193 199
185 197 202
202 212 222
192 202 208
162 176 171
125 145 125
97 122 80
95 122 72
110 130 107
189 201 207
190 201 207
194 205 213
194 204 212
190 201 208
184 196 203
202 212 220
192 202 209
187 198 203
194 205 213
193 204 211
195 205 214
195 206 216
192 203 212
200 209 218
195 206 213
204 214 224
194 206 215
193 204 211
197 207 216
194 205 211
191 203 211
182 194 198
159 173 169
158 175 174
189 200 207
192 203 208
195 206 214
195 205 212
193 204 212
198 209 217
198 209 218
190 201 208
194 205 212
195 205 212
198 208 216
194 204 211
198 209 217
199 210 221
194 205 211
186 198 207
190 202 210
193 203 209
197 208 219
205 214 221
196 207 216
192 203 211
200 210 219
160 175 170
91 118 70
91 118 71
92 119 70
86 112 66
91 117 69
88 114 68
84 111 66
88 115 69
91 118 70
93 119 73
123 143 118
139 155 143
168 181 179
189 201 207
199 210 219
193 204 210
187 197 202
197 207 213
195 205 212
187 198 206
189 201 208
192 203 211
199 210 218
194 206 216
192 203 212
104 128 92
97 124 74
92 119 72
91 117 69
89 116 69
87 114 67
92 119 71
90 116 69
89 115 67
89 116 69
92 119 72
91 118 70
92 119 71
91 119 71
89 116 69
92 118 70
92 118 71
92 119 71
93 120 72
91 118 70
92 118 71
90 117 70
95 123 74
92 119 70
91 119 71
109 131 98
193 204 210
198 208 217
201 211 219
193 203 210
199 209 219
193 204 212
191 202 209
203 213 223
185 198 206
190 201 207
200 211 220
187 198 204
181 193 197
163 177 175
148 164 155
139 158 140
104 128 88
86 113 67
89 115 68
94 121 72
90 116 70
90 117 70
88 115 69
90 117 70
89 116 69
121 142 118
198 208 216
192 203 209
192 204 214
185 197 203
195 206 214
201 211 219
196 208 218
198 208 214
194 204 211
190 201 208
196 207 215
190 201 209
187 198 207
193 205 213
190 201 208
191 202 209
196 207 215
194 204 209
189 201 208
189 200 208
189 201 207
190 201 208
199 209 216
190 201 208
196 205 212
156 171 161
90 117 69
92 119 71
92 118 70
89 116 70
92 119 72
90 117 70
92 119 71
93 119 71
90 117 69
91 117 69
90 117 70
91 118 71
89 116 69
90 117 70
87 113 68
89 116 69
93 120 71
91 118 70
90 117 70
93 120 72
88 115 69
91 118 69
88 115 68
89 115 68
111 134 102
189 200 207
195 206 214
188 199 206
197 207 216
192 203 212
194 205 213
196 206 215
201 211 219
195 206 213
185 197 204
193 204 212
197 208 215
198 209 217
191 201 207
193 204 212
200 210 218
194 204 212
181 193 200
189 201 207
197 207 215
193 205 214
200 211 220
196 207 218
195 205 214
182 195 198
94 119 76
92 119 71
94 121 72
95 122 73
90 116 70
93 120 71
92 118 70
94 121 72
91 118 70
89 116 69
92 119 71
96 124 74
91 119 71
93 120 71
90 116 69
89 115 69
91 118 70
91 117 70
95 122 73
95 122 73
95 122 74
87 113 68
91 118 71
96 122 80
187 199 206
195 206 214
190 201 207
192 203 209
200 210 219
191 203 210
189 201 208
197 207 216
198 208 216
192 204 214
185 197 203
190 202 211
200 210 219
197 208 215
196 206 215
192 204 213
196 208 217
195 206 214
188 199 203
198 209 217
195 205 211
192 203 213
193 204 211
114 134 109
94 121 72
90 117 70
89 115 68
88 114 68
90 117 70
92 120 71
93 120 71
90 117 70
92 119 70
94 121 72
92 119 71
88 115 68
87 113 67
89 117 70
92 120 72
91 118 70
92 119 71
92 119 71
95 122 73
92 119 72
93 120 71
161 175 171
191 202 209
189 200 208
185 196 200
195 206 215
195 205 212
197 207 214
190 200 206
191 202 211
191 202 208
190 200 205
199 209 218
187 198 204
189 199 206
196 207 214
191 202 210
193 204 210
189 200 207
189 200 206
193 204 214
199 209 218
139 156 141
92 119 71
91 117 70
90 117 70
91 118 70
84 110 65
91 118 70
95 122 73
85 111 65
91 118 70
92 119 71
86 112 66
86 113 67
92 118 71
94 121 72
91 118 70
92 119 71
90 116 69
90 117 69
110 132 99
184 197 202
184 194 199
185 197 202
195 205 213
190 201 207
193 204 213
201 212 222
195 206 215
180 192 196
196 207 215
194 205 212
194 205 215
198 209 219
197 207 216
189 200 205
194 205 212
194 204 211
198 208 215
124 143 122
89 115 68
90 117 70
93 120 72
93 120 72
93 120 72
91 118 71
109 133 101
130 149 130
146 161 153
169 182 181
174 187 187
197 207 213
190 201 206
198 208 218
198 209 218
165 179 173
90 117 70
90 117 70
90 117 70
90 117 70
93 120 73
89 116 69
89 117 70
92 119 71
90 118 70
87 113 67
92 118 71
94 121 72
93 120 71
93 120 74
154 169 163
181 193 198
185 197 204
203 213 222
189 200 206
195 205 211
189 201 206
203 212 221
195 206 213
189 201 208
183 194 201
189 200 209
197 207 217
196 207 215
194 204 212
175 188 189
156 171 167
190 201 206
192 204 213
190 201 209
179 191 194
191 201 208
189 201 209
191 201 208
200 211 218
193 204 213
192 203 210
190 202 210
195 206 213
191 202 210
196 206 214
199 209 216
188 199 205
184 196 202
201 211 219
196 207 217
184 195 198
162 175 171
134 153 135
184 196 201
197 208 216
183 194 199
196 207 215
196 207 215
178 190 195
184 196 202
193 204 213
197 207 215
197 207 216
189 201 208
192 202 208
180 192 198
183 195 201
197 207 213
193 202 208
185 197 204
192 203 211
190 202 210
200 210 217
191 203 212
198 209 216
187 200 209
178 191 195
93 120 72
117 139 106
140 156 144
172 185 185
189 200 205
187 199 205
187 199 205
195 205 212
194 204 211
194 204 211
194 204 211
197 207 214
187 198 204
200 211 220
185 197 202
189 201 208
190 201 208
189 200 205
196 206 212
190 200 207
192 203 210
201 212 220
193 204 212
198 208 214
155 169 162
91 118 70
89 115 69
90 117 70
90 117 70
91 119 71
91 117 69
90 117 69
95 122 73
85 111 66
87 114 68
90 117 69
89 115 68
92 119 71
93 117 77
124 144 119
150 166 159
171 185 185
184 197 201
194 205 212
199 209 215
189 200 207
194 205 213
190 201 208
194 204 211
190 201 207
88 114 68
91 118 71
93 120 72
89 116 69
90 117 70
90 116 69
88 114 68
88 115 68
91 117 70
90 117 68
88 115 68
89 115 68
92 118 70
89 116 69
90 116 68
94 120 72
89 116 70
88 115 68
90 117 70
92 119 72
94 121 74
92 119 71
95 123 74
87 113 67
91 118 71
129 148 132
186 197 204
186 197 204
192 203 210
193 203 210
190 201 207
186 198 206
196 206 212
192 203 211
203 213 220
188 199 206
195 206 216
183 194 199
193 204 213
190 201 210
181 193 200
188 200 209
187 199 207
179 191 192
168 181 178
141 158 148
139 156 142
125 144 123
107 132 91
94 121 72
91 119 71
157 172 163
189 200 208
187 198 204
196 207 216
187 199 205
202 213 224
186 198 203
196 206 213
193 204 209
196 206 214
197 207 214
202 212 221
193 204 213
187 200 206
190 201 209
195 207 217
192 202 210
200 210 218
197 208 216
202 212 222
186 197 204
195 205 214
198 209 217
197 208 217
192 203 212
197 208 216
116 138 106
94 122 73
90 117 70
93 120 71
93 120 72
89 116 69
90 117 70
89 116 68
91 119 71
91 118 70
91 118 71
94 121 73
85 111 66
92 119 71
88 114 67
86 112 66
93 121 72
94 122 73
95 122 73
88 115 68
88 114 68
88 114 67
93 120 72
88 115 69
93 120 72
146 163 149
203 212 220
183 195 200
187 198 205
197 207 216
192 203 210
192 203 210
200 210 218
195 206 214
194 205 213
193 203 209
189 200 206
191 203 211
198 208 216
197 206 214
193 203 211
197 208 217
198 208 216
198 209 217
197 208 218
191 203 210
201 210 216
196 208 217
188 200 208
193 204 212
131 151 130
90 117 70
93 120 71
90 117 70
92 119 71
93 119 72
90 116 69
90 116 69
93 120 71
92 119 71
92 119 71
91 117 70
93 120 72
91 118 70
90 117 70
90 116 69
93 120 72
91 117 69
91 118 70
90 117 70
91 118 70
88 115 69
91 118 70
88 115 68
163 176 171
195 206 213
199 209 216
201 211 217
193 204 213
192 202 209
189 201 211
198 208 216
200 211 217
188 200 205
193 204 212
190 200 206
191 202 209
191 203 211
198 209 217
188 199 204
200 210 216
201 210 219
196 206 213
201 211 219
186 198 204
188 199 205
195 206 213
172 185 184
91 118 70
93 120 72
95 122 73
93 120 71
93 120 72
88 115 68
89 115 69
89 116 70
89 116 70
88 114 68
86 112 67
86 112 66
95 123 74
91 118 71
93 120 72
88 115 68
86 113 67
87 113 67
92 119 71
90 117 69
86 112 66
141 158 142
185 197 203
196 206 213
196 207 215
201 210 218
196 206 214
193 203 212
189 200 206
198 208 217
183 195 200
199 209 218
194 205 212
196 207 214
189 201 209
196 207 215
188 199 205
197 207 215
196 207 216
193 204 210
190 202 208
193 204 212
156 170 165
91 118 71
91 118 71
91 118 70
92 119 71
90 117 70
88 115 68
93 120 72
88 115 68
88 114 67
90 116 69
91 118 70
94 121 73
91 117 70
92 119 71
88 115 68
96 123 73
88 114 69
93 120 72
94 120 75
188 199 204
200 210 219
192 203 210
192 203 212
190 200 206
194 205 212
190 202 210
195 206 211
188 199 207
191 202 208
188 199 205
198 208 217
195 206 213
190 202 209
193 204 213
189 200 207
204 214 225
188 200 204
114 136 106
92 119 72
90 117 70
112 133 103
126 146 128
145 162 153
175 188 190
177 189 190
182 192 196
195 206 213
187 198 205
193 203 212
198 208 218
187 198 204
192 203 208
198 208 216
149 166 152
86 112 66
91 118 71
92 118 70
89 115 69
89 115 68
90 116 69
86 113 67
91 118 70
93 121 73
90 116 69
94 121 73
92 119 71
91 118 71
93 116 78
175 188 189
187 199 205
93 119 76
148 163 155
176 189 191
186 197 203
193 204 213
194 205 214
193 204 214
191 202 208
186 198 206
198 208 214
186 196 200
195 206 215
191 202 210
198 209 220
189 200 205
150 167 156
89 116 69
116 136 112
151 167 162
192 203 208
183 195 202
179 192 196
183 195 202
184 196 202
188 199 205
194 204 211
195 205 211
191 203 211
193 203 210
201 212 221
187 200 207
186 198 206
186 197 202
197 207 214
195 206 212
188 199 206
194 205 214
188 199 204
117 139 112
131 150 134
174 186 185
190 200 207
188 199 205
189 200 206
189 200 208
192 202 209
185 197 203
189 200 207
191 202 207
196 206 215
200 211 220
197 208 217
194 206 215
204 214 222
184 196 203
188 200 205
189 200 207
195 205 212
185 196 202
198 208 215
190 201 208
168 182 182
89 116 69
90 116 69
91 118 70
92 119 71
89 114 73
144 161 146
159 174 170
194 204 210
196 207 216
183 195 202
182 194 200
189 200 207
183 194 197
197 208 217
192 204 213
186 197 201
193 203 211
191 202 208
191 203 212
201 211 219
191 202 210
191 202 209
178 191 194
185 197 204
149 166 156
94 121 72
90 117 69
87 113 67
86 113 67
90 116 69
90 116 69
90 117 70
89 116 70
89 115 68
90 117 70
91 118 71
92 120 73
89 116 69
91 118 71
94 121 72
88 114 68
89 116 69
96 122 78
126 146 127
143 159 145
174 187 185
191 202 208
194 206 215
190 201 207
172 184 185
89 116 69
89 116 69
92 118 71
89 115 69
92 119 71
92 119 71
85 111 66
89 116 69
87 113 67
87 114 68
89 116 69
92 118 71
89 115 69
88 115 68
88 114 68
92 119 71
89 115 69
85 111 65
93 120 71
91 117 69
89 115 68
92 119 71
88 115 69
92 118 71
86 112 66
172 185 186
184 197 205
185 196 200
186 198 205
197 208 216
197 209 220
192 203 209
196 206 214
195 205 213
197 208 216
198 208 215
187 199 204
195 206 213
194 205 214
197 207 214
190 202 214
192 204 211
185 197 204
194 206 216
182 194 199
191 203 211
196 206 214
201 211 219
182 193 197
175 187 190
167 180 178
140 156 143
176 189 191
186 198 201
179 192 196
187 198 203
188 200 207
194 205 212
194 205 214
195 207 215
189 200 207
191 201 208
186 198 203
190 201 206
191 202 209
193 203 211
198 209 218
196 207 213
194 205 213
190 202 210
189 200 207
196 207 215
194 204 210
192 203 210
186 198 205
184 196 202
171 184 184
85 111 65
94 121 73
90 116 69
92 119 71
90 117 69
90 117 70
89 116 69
90 117 70
93 121 73
89 116 69
92 119 70
90 117 70
86 113 67
91 118 71
87 113 66
94 121 73
90 117 70
93 120 72
91 117 69
90 117 70
89 116 69
93 120 71
95 123 74
91 118 70
106 130 92
190 202 206
187 198 204
198 207 214
193 204 213
195 206 213
191 203 212
182 194 200
187 198 205
197 207 215
205 214 223
191 202 210
193 204 211
192 203 209
195 205 212
194 205 212
197 207 214
183 195 200
189 201 209
184 196 203
192 204 212
194 204 210
191 202 210
187 199 205
197 208 217
174 187 188
89 115 69
92 119 71
91 118 70
90 117 70
90 116 70
91 117 70
90 117 70
96 123 73
93 120 71
94 121 73
84 110 65
91 118 71
91 117 70
93 120 72
89 116 69
91 118 70
92 119 71
91 119 72
91 117 70
92 118 70
90 117 69
94 121 72
93 120 73
130 148 131
191 202 209
191 201 208
199 209 218
193 204 212
208 217 227
192 203 212
189 200 205
200 210 218
187 198 203
196 207 217
190 201 209
200 209 218
191 202 209
198 208 218
192 203 212
188 199 207
196 206 213
193 204 211
191 202 211
189 201 209
188 200 208
191 202 210
166 179 179
93 119 74
90 117 70
85 111 66
92 119 72
90 117 70
90 116 69
93 120 73
85 111 66
88 114 69
93 120 72
96 124 74
93 121 73
91 118 70
87 113 67
94 122 73
91 118 70
92 119 71
93 120 72
93 120 71
93 120 72
92 119 71
112 132 112
178 191 195
187 199 205
180 192 198
195 205 211
205 215 225
188 199 207
196 206 213
203 213 223
189 200 207
198 208 219
195 206 214
191 202 207
187 199 206
186 199 207
186 197 202
191 201 207
195 206 214
189 199 205
186 197 204
195 205 212
164 178 177
91 117 69
89 115 69
86 112 66
87 113 68
85 111 65
88 115 68
89 116 68
92 118 70
91 117 70
90 116 69
89 116 69
91 118 70
87 114 67
88 115 69
95 122 73
89 115 68
86 112 67
88 115 68
113 136 103
183 195 200
194 205 213
196 206 214
187 197 200
180 192 197
194 204 210
194 204 212
191 202 208
196 208 216
194 204 209
196 207 215
200 210 218
194 204 214
189 201 208
187 197 200
191 203 213
194 204 211
183 195 200
152 167 161
160 176 171
160 175 171
176 189 194
187 198 205
202 212 221
193 203 209
182 194 201
184 196 202
193 204 211
192 203 210
189 199 205
182 194 201
198 208 218
193 203 209
183 195 201
136 152 138
89 116 69
86 113 67
91 119 72
89 117 70
89 115 69
90 116 69
92 119 71
90 116 69
86 113 67
91 118 70
87 114 68
90 116 69
88 115 68
110 131 103
176 188 190
192 203 211
174 186 187
181 194 199
181 194 198
171 184 185
184 195 198
173 186 189
142 158 147
159 173 171
153 168 159
163 177 176
165 180 176
178 190 192
172 185 186
178 190 191
187 198 202
192 203 211
177 189 190
87 114 67
92 119 72
91 118 70
97 122 80
138 155 137
175 187 185
197 208 216
188 199 207
196 207 216
198 209 216
194 205 213
196 207 217
186 198 203
192 203 212
189 200 205
179 191 196
197 208 218
200 211 220
185 197 202
192 203 211
195 206 214
186 198 204
119 140 114
95 122 73
91 118 71
104 127 94
136 153 140
179 191 192
183 195 200
192 203 209
187 198 204
192 203 209
186 197 201
194 205 214
189 200 207
185 197 203
197 208 216
200 210 218
192 202 208
185 195 200
197 207 214
194 205 211
185 196 202
189 201 208
187 198 205
188 199 202
87 114 67
90 117 70
92 119 71
90 116 69
92 119 71
86 113 67
92 119 72
94 120 75
124 145 119
147 164 154
179 192 195
186 196 201
195 206 215
197 208 217
201 210 219
191 202 208
191 202 208
191 202 209
191 201 209
179 193 198
195 206 213
194 205 211
186 198 204
196 207 217
123 143 123
90 116 69
86 112 67
88 114 67
83 110 65
88 114 68
94 122 74
89 116 68
92 119 72
91 118 70
91 118 71
85 111 65
91 118 71
88 115 68
89 115 69
94 121 73
89 115 69
92 119 72
93 121 73
93 120 72
91 118 71
91 118 71
100 124 86
121 142 116
145 161 150
142 159 148
103 127 88
85 111 65
92 119 71
89 116 69
88 115 68
93 120 71
91 119 71
89 115 69
90 117 70
91 118 71
91 118 71
96 124 74
91 118 70
87 113 67
91 118 71
90 117 70
88 115 69
89 116 69
91 119 71
91 117 70
91 118 70
90 117 70
92 118 71
90 117 70
88 115 69
176 189 192
188 199 207
190 202 209
193 203 211
184 196 202
189 201 206
191 202 208
187 199 207
195 207 216
203 213 225
190 202 209
187 197 202
190 201 207
185 196 201
191 202 210
196 207 216
200 210 218
186 198 204
182 194 201
197 208 217
189 200 206
190 201 207
189 200 208
195 205 212
196 206 214
174 187 190
93 119 71
90 117 70
93 120 72
88 113 69
109 131 102
126 144 127
159 173 166
164 177 174
184 195 198
192 203 212
197 208 216
196 207 215
198 209 217
195 205 212
195 205 214
186 198 203
185 197 205
202 211 219
189 201 209
196 206 211
193 204 211
191 202 207
190 201 206
195 206 214
196 206 213
142 159 146
91 118 71
95 122 72
88 115 68
91 118 71
92 119 72
88 114 67
89 116 69
92 119 71
92 119 71
92 118 70
89 116 69
89 116 69
91 118 70
93 120 72
91 118 71
95 121 72
89 115 69
93 120 72
92 118 71
90 117 70
93 120 71
92 118 70
88 114 68
90 116 69
149 165 155
204 214 224
194 206 215
192 202 210
194 205 215
194 204 211
185 197 205
192 203 211
191 202 209
201 210 218
190 201 208
187 199 206
190 202 213
194 205 212
185 196 203
192 203 211
186 197 203
186 198 206
185 196 199
188 199 206
186 197 202
195 205 211
199 210 218
192 203 209
184 195 200
110 132 101
88 115 69
90 117 70
96 123 74
90 117 70
86 113 67
87 114 67
90 117 70
91 117 70
91 118 70
91 118 71
88 116 70
91 117 70
93 120 72
91 117 70
94 120 71
89 116 69
94 121 72
92 119 71
94 121 72
91 118 70
89 115 69
93 120 72
96 121 79
184 197 203
184 195 201
188 199 203
189 200 207
197 207 213
192 202 208
191 202 210
189 199 204
193 203 211
190 202 210
185 196 203
186 196 201
193 204 211
185 198 205
193 203 211
191 202 208
196 206 216
194 205 213
198 209 217
191 201 207
183 194 198
194 204 212
195 205 213
115 135 107
93 119 71
89 115 69
88 115 69
88 115 69
90 117 70
92 119 71
91 118 70
87 114 67
88 115 68
88 114 68
91 118 70
96 124 75
89 116 70
89 116 69
88 115 68
90 117 69
90 117 70
93 121 73
89 116 69
95 122 73
99 124 84
177 189 191
192 203 210
184 196 206
193 205 214
191 201 206
191 202 211
194 204 212
192 204 212
189 200 203
201 212 221
186 198 206
181 194 201
188 199 206
197 208 219
187 198 203
192 203 208
186 197 202
192 203 210
193 204 213
193 204 211
177 190 191
92 118 72
92 118 70
89 115 68
89 116 69
88 115 69
90 116 70
88 114 68
88 115 68
92 119 71
92 119 72
93 120 72
90 116 69
88 114 68
92 119 72
89 116 69
94 122 73
86 112 67
89 116 70
97 123 79
168 180 181
191 202 207
184 195 200
195 206 214
188 199 205
191 202 210
191 201 208
188 199 207
193 204 209
189 200 207
191 202 208
195 205 212
169 183 185
170 184 186
160 174 170
138 156 142
108 130 98
107 130 99
186 199 205
184 196 203
197 207 216
188 199 207
200 210 216
193 202 210
188 198 204
188 199 206
189 201 208
189 201 207
195 205 214
182 194 201
201 211 220
196 207 216
196 207 217
193 204 210
120 140 117
87 113 67
89 115 69
90 116 69
92 120 72
91 118 71
113 135 102
116 138 110
116 137 111
115 135 111
137 155 138
142 160 146
152 167 160
155 170 163
136 153 138
159 173 168
175 187 186
190 202 209
191 203 211
200 210 218
181 193 198
190 201 208
190 201 208
193 204 211
195 205 211
155 169 162
122 139 120
90 117 70
93 120 72
89 115 69
87 114 67
91 119 71
91 118 71
96 120 79
110 131 100
171 184 186
183 194 196
161 176 173
173 185 183
158 172 165
160 173 169
140 156 146
172 185 185
187 198 204
160 173 170
176 189 190
178 190 192
177 189 193
190 201 205
185 198 205
195 206 214
203 213 224
190 202 210
196 206 213
179 191 197
192 203 210
188 199 206
115 134 113
88 114 67
93 120 72
86 113 67
91 118 71
94 121 73
103 128 90
127 147 128
168 180 178
188 198 204
187 198 205
189 199 204
191 203 211
190 200 206
189 200 206
190 200 208
200 210 216
188 198 204
192 204 212
193 204 210
183 195 200
191 202 209
191 202 207
178 190 192
90 117 70
94 121 73
93 120 72
91 118 70
89 116 69
90 117 69
90 117 71
91 118 71
91 118 70
89 116 70
91 118 70
98 124 84
142 159 147
161 177 171
181 193 194
200 211 220
193 203 210
196 206 212
200 211 220
184 196 203
187 198 206
185 196 201
190 201 208
195 206 216
131 149 129
91 118 70
92 119 71
88 115 68
95 122 73
89 115 69
93 120 72
90 118 70
89 116 69
90 117 70
92 118 71
94 121 74
87 114 67
89 116 70
91 117 70
88 115 68
89 116 69
96 124 75
87 113 67
88 115 68
81 107 62
93 120 72
89 116 69
88 114 67
93 119 72
169 182 180
187 198 203
179 192 193
163 177 176
127 145 126
100 124 88
93 120 72
91 118 71
90 117 69
93 120 71
93 120 72
90 117 70
90 117 70
92 119 71
87 114 69
90 118 71
85 111 65
89 116 69
89 115 69
93 121 73
90 117 70
90 117 69
93 120 71
90 117 71
93 120 72
121 142 116
190 201 208
189 201 209
189 201 208
198 209 216
187 200 208
193 204 212
193 204 211
194 205 213
195 205 212
185 197 205
194 205 212
195 205 213
199 210 219
186 197 202
193 204 212
200 210 219
193 203 211
188 199 205
198 208 216
192 203 212
186 197 203
182 195 202
193 204 212
185 196 202
196 207 217
142 158 142
93 120 72
86 112 66
89 116 70
88 114 68
92 119 71
92 119 71
91 118 70
89 115 68
91 118 70
93 120 75
109 132 97
131 150 130
140 155 142
151 166 159
178 190 192
192 203 210
189 200 206
202 211 218
191 202 209
196 207 215
189 200 207
189 199 204
193 205 213
194 204 211
182 195 199
92 118 73
90 118 71
92 119 71
88 115 68
91 117 70
88 115 69
93 120 71
95 122 73
94 120 72
93 120 72
88 115 68
88 115 68
89 116 70
88 115 68
94 122 73
92 119 71
93 121 73
90 117 70
92 119 71
86 112 66
89 116 69
90 116 69
89 116 70
88 114 67
99 124 84
185 197 203
196 207 215
199 209 217
195 206 215
191 203 211
191 201 208
193 205 213
190 200 208
190 201 208
200 211 220
194 205 212
191 202 208
190 201 207
187 199 207
191 202 208
191 202 208
195 205 213
188 199 207
198 209 217
195 207 216
189 200 206
190 202 210
193 204 211
194 206 213
158 172 165
91 118 71
90 117 70
91 118 70
90 116 69
90 117 70
91 118 70
88 114 68
88 114 68
91 118 71
90 116 69
89 115 69
90 117 70
91 118 71
93 120 71
94 121 73
86 112 66
89 116 70
90 117 69
93 120 71
90 117 69
92 119 71
88 114 67
88 115 68
161 174 170
193 204 212
191 202 207
200 210 216
189 200 205
190 201 207
193 204 214
185 197 205
188 200 207
189 200 207
181 193 198
192 203 211
195 206 214
193 204 212
192 204 213
194 205 211
185 196 204
192 203 210
193 204 210
192 203 211
192 203 211
199 210 221
194 206 215
124 144 123
91 118 70
90 117 70
92 119 72
91 119 72
89 115 69
90 117 70
89 115 69
92 119 72
92 119 70
86 112 67
89 116 69
90 117 70
93 120 72
84 111 66
88 115 68
90 116 69
90 117 70
91 118 71
90 116 69
87 114 67
97 123 79
174 187 188
192 204 211
206 215 224
187 198 204
188 199 205
193 204 212
187 200 207
189 200 208
193 203 210
181 193 198
187 198 203
196 208 218
190 201 207
191 202 210
201 211 219
188 199 204
192 204 212
189 201 207
197 208 217
185 197 203
179 191 195
91 117 72
91 118 70
89 116 69
95 122 73
89 116 69
92 119 70
89 116 69
91 118 70
91 117 70
88 114 68
89 116 69
92 119 71
88 114 68
91 118 71
87 114 68
87 114 68
88 114 68
96 124 74
103 126 91
179 191 192
186 197 201
195 206 214
193 204 212
194 205 212
197 208 216
192 203 210
188 199 205
154 169 162
140 157 145
130 149 131
119 139 116
91 118 73
91 117 70
93 120 72
91 117 70
94 121 73
114 136 104
180 193 197
188 200 206
186 198 204
175 187 191
193 204 210
192 204 209
181 194 198
178 190 192
173 186 188
162 176 174
160 175 170
163 177 175
149 164 154
141 158 149
143 160 151
147 162 152
173 186 189
162 177 174
177 189 190
174 187 189
182 194 198
191 203 210
195 206 214
196 207 215
182 195 201
177 188 192
186 198 201
179 191 196
165 179 177
139 156 142
164 178 176
191 202 209
192 203 212
191 202 207
193 205 213
195 206 213
193 203 209
187 199 207
192 203 210
193 204 213
180 192 196
189 200 207
185 197 203
188 199 207
173 186 188
142 158 149
111 133 101
89 116 69
86 113 67
86 112 66
91 118 71
91 117 70
169 182 179
190 201 209
194 205 213
191 202 209
188 199 206
195 205 213
191 202 208
198 209 218
180 193 199
181 193 197
156 170 165
120 140 116
92 119 71
90 117 69
85 111 66
83 108 63
100 124 86
104 126 95
119 138 114
126 145 123
113 134 108
139 155 144
146 163 150
166 180 177
150 165 157
155 170 161
148 165 155
142 158 144
138 155 139
124 143 121
128 147 124
114 135 109
148 164 155
173 186 188
185 197 201
195 205 212
191 202 208
193 205 216
194 205 214
184 196 202
189 200 207
194 204 212
190 201 209
196 207 216
192 204 211
168 181 180
87 113 67
91 117 70
92 119 70
87 113 67
89 115 69
91 118 71
89 115 68
93 120 72
88 114 68
91 117 70
89 116 69
91 118 71
95 122 73
92 119 71
92 119 71
118 140 112
144 160 147
169 183 181
190 200 207
188 200 205
203 213 223
184 196 202
175 187 191
196 206 211
116 137 112
85 111 65
93 120 71
93 120 72
84 109 64
92 119 71
85 112 65
94 121 72
93 120 71
87 113 67
93 120 72
87 113 68
92 119 71
90 117 70
89 116 69
90 117 70
87 113 66
93 120 71
86 113 68
89 116 69
94 121 72
93 120 72
91 118 70
90 117 69
88 115 68
187 198 202
195 205 213
192 203 212
193 205 213
191 202 208
188 200 207
179 192 196
160 174 171
153 168 159
121 142 120
92 117 79
88 115 69
91 117 70
92 120 73
90 117 70
90 117 71
92 119 72
90 117 70
89 116 69
94 121 73
90 118 71
85 111 65
86 113 66
90 117 69
91 118 71
142 160 145
181 193 198
192 204 212
188 200 209
197 206 214
198 210 220
195 206 215
186 198 203
193 204 211
191 202 208
195 206 212
187 198 205
187 199 205
200 211 221
185 197 201
187 198 206
186 198 205
185 197 202
197 206 213
192 203 212
191 202 209
187 197 202
196 207 214
192 202 207
184 194 200
190 201 208
114 137 108
88 114 68
93 121 73
90 116 69
87 113 67
91 118 71
90 117 70
90 117 70
93 121 72
86 112 67
89 115 68
89 116 69
90 117 70
87 114 67
91 119 71
93 121 73
90 117 70
96 122 78
110 132 103
133 150 132
141 157 146
154 168 162
164 177 176
175 188 191
192 203 210
151 167 159
90 117 70
89 115 68
89 116 68
90 117 70
87 114 67
90 117 69
91 118 71
93 119 72
88 115 68
88 114 68
90 116 69
96 123 74
89 115 69
94 121 73
91 118 71
92 118 71
86 113 67
90 117 69
91 118 70
88 114 68
90 116 69
89 115 68
90 117 69
90 116 69
150 167 159
184 195 201
188 199 205
202 212 222
193 204 211
194 205 214
184 195 200
186 197 202
199 210 219
193 204 211
195 206 214
191 202 209
197 208 217
191 202 210
198 208 215
194 205 213
189 201 207
197 208 215
185 197 204
185 196 202
188 199 206
198 208 217
193 204 211
187 198 205
180 193 197
115 137 110
89 116 69
90 117 70
87 113 67
92 119 71
91 117 70
89 116 69
89 116 69
90 116 69
90 117 70
91 117 70
91 118 71
93 120 72
96 123 74
91 117 70
91 119 71
93 120 72
89 116 69
94 121 73
91 117 69
89 116 69
91 118 70
87 114 68
124 144 120
202 212 222
185 197 203
181 193 199
192 203 210
203 213 223
194 205 213
193 204 212
191 203 211
188 200 208
195 206 215
184 195 201
189 200 207
190 202 209
190 202 208
189 200 209
192 203 212
189 201 207
194 205 212
185 198 205
190 201 207
185 197 204
184 195 200
160 174 169
89 116 69
89 116 69
90 117 70
84 110 65
91 118 71
89 115 68
93 119 71
91 118 70
88 114 68
90 116 70
89 115 69
89 116 69
90 117 70
85 110 64
86 112 66
91 118 71
92 119 72
92 119 71
86 112 67
91 118 70
89 116 69
151 166 156
199 210 217
199 210 219
193 204 211
193 204 214
189 201 210
197 207 215
184 196 203
190 201 206
193 204 212
198 209 218
174 186 191
187 198 205
187 198 206
185 196 201
179 192 197
191 202 210
194 204 212
197 207 215
195 206 215
186 197 201
110 132 100
85 112 66
89 115 68
86 113 67
87 113 66
89 116 70
88 114 68
85 111 65
91 117 70
86 113 67
86 113 67
95 122 73
91 118 71
89 116 69
90 116 69
93 120 71
91 117 70
90 117 70
93 119 76
180 191 192
176 189 192
169 183 185
155 170 167
151 166 157
138 155 142
135 153 138
111 133 104
117 137 112
130 147 134
125 144 122
140 157 145
143 161 144
146 162 151
155 171 163
151 166 160
151 166 159
150 166 157
122 142 117
122 142 116
113 133 105
97 122 82
100 123 90
86 111 68
87 114 67
89 115 69
88 115 68
92 119 72
90 117 71
87 113 67
93 120 72
88 115 69
91 118 70
111 132 101
177 188 192
183 195 202
196 207 218
190 201 206
195 206 213
196 207 215
182 194 201
188 199 205
172 184 183
167 181 181
150 165 157
111 132 106
89 114 71
94 119 79
162 176 174
189 199 206
189 201 209
190 201 207
192 203 212
186 197 203
195 207 215
201 210 218
188 199 205
190 202 209
195 205 211
186 198 204
186 198 207
186 198 205
190 201 209
188 199 206
180 192 197
176 188 190
172 186 188
127 144 130
96 121 79
92 119 70
91 119 72
144 160 151
193 204 211
192 202 207
184 196 201
191 202 208
194 205 214
188 199 204
181 193 199
196 207 215
197 208 217
191 203 209
193 204 212
175 188 193
145 160 151
99 123 90
90 117 70
88 115 69
93 120 73
88 114 67
89 115 68
92 119 71
89 116 69
145 160 150
183 195 203
193 204 210
192 203 211
188 200 206
193 203 209
204 215 224
190 201 209
197 207 216
194 205 213
185 197 203
186 197 204
182 194 202
169 182 182
143 159 148
111 133 107
104 127 96
107 130 96
113 134 105
118 138 113
119 138 117
120 141 120
118 138 117
149 165 153
156 171 163
151 167 158
151 166 157
141 158 146
143 159 150
143 161 148
144 162 148
136 153 135
141 157 142
121 141 117
132 151 133
109 131 105
110 132 99
108 130 99
123 143 117
102 126 91
96 122 78
100 126 85
101 126 90
129 147 129
159 173 166
176 189 190
190 201 208
194 205 214
100 123 90
87 114 68
91 118 71
91 118 70
91 117 70
92 118 70
86 113 67
88 114 68
90 116 69
90 117 70
91 117 70
92 119 71
91 119 71
92 119 71
91 118 70
90 117 69
92 118 70
89 115 69
91 118 70
91 118 71
89 115 69
88 114 68
87 114 68
91 118 70
92 118 75
183 195 200
190 201 208
188 199 206
188 200 207
187 198 205
197 208 219
197 207 216
190 202 209
194 205 213
183 195 201
185 198 205
171 185 187
155 170 162
124 144 122
100 123 88
89 116 69
89 115 68
93 120 73
87 114 68
89 116 69
90 116 69
89 115 68
89 116 69
89 115 68
89 116 69
169 183 180
194 204 210
197 207 216
197 207 215
194 205 214
197 207 215
192 202 208
194 204 212
191 202 210
183 195 200
187 198 205
197 207 216
197 206 214
188 199 205
195 207 216
190 201 210
194 205 213
200 210 219
182 194 199
197 208 217
202 212 220
195 206 213
190 202 211
194 205 211
181 192 197
172 184 181
92 119 71
94 121 73
91 118 71
91 117 70
90 117 69
90 117 70
88 114 68
95 123 74
92 119 71
89 116 69
88 115 69
89 115 69
92 118 71
88 115 69
90 116 69
94 121 73
89 116 69
89 115 68
93 120 72
93 121 73
91 118 71
90 117 70
90 117 70
91 118 70
97 123 79
165 179 177
167 180 175
165 179 177
151 167 159
136 154 140
117 137 110
111 135 102
92 119 72
90 116 69
90 117 69
87 114 67
90 116 69
89 116 69
95 122 73
92 118 71
88 115 68
88 115 69
90 117 70
89 115 68
89 115 69
87 114 67
87 113 67
91 118 70
91 119 71
103 127 90
184 195 198
190 201 208
194 205 213
193 203 211
198 208 215
190 201 209
197 208 216
193 204 211
193 203 211
196 208 216
192 203 211
197 208 217
191 202 211
188 200 207
186 198 207
197 207 215
192 203 211
197 208 217
186 197 202
190 201 207
187 199 206
189 199 205
189 200 207
193 204 211
145 162 149
90 116 69
93 119 71
87 113 67
89 115 68
88 114 68
88 115 69
91 118 70
87 113 66
91 118 70
88 114 68
90 116 69
91 118 71
89 117 70
89 116 69
92 119 71
89 115 68
90 116 68
91 117 70
90 116 69
91 117 70
93 120 72
91 118 70
98 123 84
186 198 202
198 209 217
193 204 210
191 202 210
195 205 214
188 200 206
192 203 211
188 199 206
186 198 202
194 205 210
178 190 194
187 198 204
188 199 206
197 207 214
187 198 204
187 199 206
189 200 205
194 205 215
197 208 217
185 196 202
194 205 212
197 209 220
178 191 194
94 121 75
93 121 72
89 115 69
90 117 70
89 115 68
90 117 70
89 115 68
91 117 70
89 116 70
91 118 71
89 116 69
92 120 72
85 111 66
89 115 68
88 115 68
91 117 69
88 115 69
90 117 70
88 115 68
89 116 69
92 118 71
137 155 140
189 200 208
192 203 209
193 204 212
201 211 219
186 196 202
193 205 213
197 208 217
193 204 210
193 204 212
198 209 217
187 198 206
193 204 211
191 202 209
179 190 196
187 198 207
184 195 199
185 197 202
191 203 209
179 192 196
184 196 200
138 154 140
118 138 114
120 141 115
124 143 120
130 149 130
126 145 124
138 155 140
143 159 146
145 160 151
146 163 153
138 156 141
160 174 167
149 164 155
167 181 179
154 169 162
138 154 139
115 134 111
106 128 95
108 130 100
166 180 179
187 198 203
179 192 197
196 207 215
188 200 208
197 207 214
191 202 210
188 200 208
195 205 212
190 201 207
191 201 208
189 199 206
189 200 207
191 202 210
194 205 216
192 203 210
172 184 189
168 180 177
101 125 89
88 115 69
86 112 67
90 117 69
90 117 70
90 117 70
87 113 67
89 116 70
89 115 68
88 115 69
88 114 68
88 114 68
87 114 68
89 116 69
88 115 69
127 145 129
178 190 194
192 203 208
193 203 209
187 199 206
189 200 207
184 195 199
163 177 175
152 167 156
115 136 112
81 107 62
82 107 62
94 120 72
92 119 71
108 131 103
181 193 198
198 209 219
187 198 206
180 193 201
187 199 204
190 201 209
193 204 212
181 193 197
98 122 85
145 161 151
166 179 180
195 205 212
192 203 210
189 200 205
173 185 188
184 195 199
181 194 201
178 190 195
198 208 216
195 206 213
184 196 200
187 200 206
139 156 148
128 147 127
107 129 99
174 186 187
194 204 211
181 193 201
192 203 211
183 194 198
195 206 216
188 199 205
190 202 211
194 205 214
193 204 209
189 200 207
185 197 206
187 199 204
184 195 200
173 185 186
142 157 146
118 139 115
87 114 68
87 114 67
92 119 71
87 114 68
138 155 146
182 194 198
196 207 216
191 201 208
193 204 211
190 202 209
190 201 210
184 195 199
185 197 202
185 196 202
191 202 209
190 201 208
184 195 202
192 203 211
190 201 207
188 199 206
166 178 175
143 160 152
113 134 106
87 113 67
90 117 70
90 117 70
78 104 60
124 144 126
192 202 209
191 203 211
187 198 204
174 187 191
196 207 215
194 205 212
180 192 196
189 200 208
187 198 204
191 203 213
186 198 206
197 207 215
188 200 208
192 203 209
190 201 209
190 200 205
196 207 215
192 203 212
189 201 208
198 208 215
183 195 200
188 198 202
180 193 198
168 181 181
148 164 155
172 185 183
174 188 189
181 193 194
163 178 173
164 177 173
171 185 182
156 171 165
165 178 174
159 174 167
154 169 161
146 161 152
140 157 141
140 157 144
141 158 146
135 152 138
133 151 132
139 155 141
119 139 116
123 143 121
135 153 136
127 146 123
131 149 130
113 134 107
129 146 128
178 190 193
177 190 194
185 197 201
176 188 190
182 195 201
183 195 199
186 196 204
182 194 200
184 195 201
178 191 194
189 200 205
187 199 205
188 200 208
178 190 195
195 205 212
184 196 202
154 168 161
153 168 160
125 144 124
92 118 73
91 118 70
92 118 71
95 122 73
95 123 74
95 121 78
182 194 197
194 204 211
182 194 201
195 206 215
195 205 213
200 210 219
194 205 214
189 201 206
198 208 215
195 206 213
192 204 212
195 206 213
193 203 209
190 201 208
190 202 209
190 200 206
188 200 207
198 208 217
193 204 212
189 201 210
198 208 216
193 204 211
196 206 214
191 202 211
193 204 212
135 153 138
93 120 71
88 114 68
87 114 67
92 119 71
91 118 70
89 115 68
86 113 67
88 115 68
90 117 69
89 116 69
87 114 68
89 116 69
91 118 71
93 120 72
88 114 69
90 116 69
89 116 69
89 116 68
91 117 70
94 121 73
91 118 70
88 114 67
90 117 69
90 116 69
139 156 145
198 209 218
197 207 215
197 207 216
189 200 207
186 197 202
183 194 196
191 204 213
189 201 210
179 191 195
164 178 176
162 177 173
147 164 154
139 156 143
120 140 118
111 133 103
104 128 92
95 122 73
91 117 70
91 118 70
91 118 70
91 117 69
93 120 72
87 114 68
90 116 69
145 162 152
194 204 212
193 204 211
190 201 208
187 199 206
196 206 215
186 198 205
191 202 210
198 209 218
198 208 216
189 200 208
194 205 213
189 200 208
193 204 212
182 193 198
192 204 212
196 207 216
195 205 212
191 201 208
195 205 212
187 199 207
195 206 213
195 206 215
192 204 212
180 193 198
98 123 79
92 119 71
92 118 71
92 119 71
87 114 67
87 114 68
90 116 69
89 116 69
94 121 73
90 118 70
91 118 70
87 112 66
87 113 67
88 114 67
89 116 69
92 119 71
88 115 69
93 120 72
89 115 68
91 119 71
90 116 69
92 119 71
90 116 70
153 168 162
188 199 204
191 203 211
184 197 205
173 186 188
195 207 218
192 203 210
192 203 210
195 205 212
190 201 206
194 206 215
192 202 209
192 203 211
181 192 195
190 202 210
199 209 219
186 197 203
193 204 211
192 203 211
186 198 204
191 202 208
191 202 211
182 193 199
125 145 121
95 120 77
99 123 86
103 126 91
110 133 103
111 133 105
119 138 119
112 132 104
125 145 119
114 137 109
120 141 116
131 149 132
125 145 126
126 144 126
140 158 145
139 156 145
142 158 145
138 155 141
150 165 155
139 156 143
157 171 167
141 158 146
145 160 151
130 148 130
138 155 142
138 155 141
137 153 140
125 144 124
134 152 133
131 149 132
121 142 117
98 122 85
107 130 97
119 139 114
105 128 97
104 127 90
94 120 76
94 120 77
89 115 68
89 116 69
89 116 69
98 123 83
162 176 176
194 204 211
191 202 209
190 200 206
188 199 206
190 202 211
182 194 198
181 192 194
158 173 169
158 173 169
147 163 154
124 144 120
106 128 95
97 121 80
87 114 68
85 112 67
90 117 70
87 114 67
98 123 83
166 180 180
185 197 205
184 196 201
181 194 203
189 200 208
196 206 216
192 204 213
199 209 219
193 204 213
199 208 215
181 193 198
192 203 209
186 197 203
182 194 201
190 201 207
195 206 213
185 197 204
168 182 183
90 116 71
83 109 64
85 111 65
91 118 71
87 113 68
84 111 66
91 118 70
88 114 68
83 109 64
89 116 68
90 117 70
90 116 70
84 110 65
83 108 64
90 117 70
141 158 147
188 200 206
180 193 198
175 187 188
133 151 138
147 163 154
102 125 93
93 120 72
90 117 70
86 112 66
87 113 67
90 117 69
84 111 66
88 114 68
132 150 135
187 199 205
189 200 206
182 194 197
195 205 215
180 193 198
190 201 207
193 205 214
185 195 199
192 203 212
88 115 68
91 118 70
90 116 69
121 140 119
158 173 169
178 190 197
186 197 202
189 200 207
194 204 212
190 201 209
196 207 215
191 202 210
183 195 202
191 201 208
192 203 207
188 199 206
184 195 202
146 161 155
179 192 194
192 203 213
189 200 206
184 195 201
190 202 210
190 201 207
188 200 209
186 197 203
188 199 205
188 199 205
192 203 210
191 202 208
189 201 207
194 204 213
182 195 201
186 197 204
176 189 191
149 165 155
115 137 107
85 111 65
131 148 130
185 196 201
191 202 209
187 198 204
189 200 209
195 206 214
190 201 208
189 199 205
190 201 209
179 192 198
188 199 208
193 204 212
186 197 206
201 211 220
197 207 216
185 196 202
189 200 206
190 201 208
188 199 207
178 190 193
147 162 153
127 146 126
88 115 68
115 136 107
199 210 220
188 200 208
187 199 207
188 200 208
195 206 214
180 193 201
184 196 202
192 202 208
197 208 215
186 198 206
194 205 213
193 203 210
189 200 207
196 206 213
187 199 206
194 205 216
198 209 217
186 197 203
183 195 201
193 205 214
189 201 208
183 195 200
189 200 205
180 192 194
89 115 68
91 116 74
125 144 121
133 152 134
160 174 170
185 197 201
199 210 219
179 191 195
190 200 208
191 202 209
191 202 209
180 192 196
195 207 216
188 199 204
189 200 208
186 197 203
196 206 215
192 203 209
190 201 207
193 203 209
187 199 206
193 203 208
192 202 210
183 194 199
159 174 169
92 119 71
85 111 66
90 116 70
87 114 68
86 112 66
91 118 71
92 118 71
89 116 70
93 121 72
94 120 77
98 122 83
96 120 81
99 124 84
97 121 83
108 131 99
116 136 110
114 136 104
109 131 100
124 144 120
126 145 123
98 123 83
117 138 111
129 147 127
151 166 160
153 168 161
140 157 140
130 147 130
133 151 133
135 153 136
125 144 123
135 151 137
135 153 139
137 154 139
137 155 138
143 160 149
150 165 155
153 168 161
127 146 128
139 156 141
141 157 143
149 164 156
150 166 155
142 158 147
157 171 166
146 162 152
153 168 160
150 165 158
163 178 172
156 170 165
155 170 166
146 161 152
135 151 135
130 147 135
121 140 120
142 159 145
130 147 130
133 151 136
142 159 147
143 160 147
139 155 141
135 152 136
133 151 133
133 151 136
138 155 141
130 149 129
131 149 132
124 144 123
131 151 129
131 149 129
115 136 112
108 129 103
125 143 125
125 144 122
131 150 132
116 137 110
157 173 162
168 182 180
172 184 184
167 180 180
173 186 187
180 192 196
168 182 180
169 183 184
178 189 192
175 188 190
168 182 183
166 181 181
181 194 198
170 184 186
167 181 180
175 188 191
177 189 190
172 186 184
160 174 170
143 160 146
147 163 152
133 151 134
127 146 124
121 141 116
98 123 85
178 189 194
183 196 203
167 181 181
178 190 193
170 183 185
164 178 174
175 188 188
164 177 175
167 181 179
167 180 178
162 176 173
167 180 179
159 173 169
162 175 171
165 179 176
164 177 171
159 174 170
166 179 180
158 172 168
173 186 184
163 177 171
162 176 173
150 165 158
157 171 169
149 164 157
139 157 143
136 153 136
126 144 126
141 158 145
140 157 146
152 167 157
142 159 147
138 154 143
146 161 151
141 158 144
147 164 156
145 162 152
143 160 150
154 169 160
155 170 164
161 174 171
141 157 144
157 172 164
149 163 157
155 170 166
152 167 158
157 172 168
128 147 127
130 148 130
135 153 138
124 143 123
135 152 137
118 139 113
118 138 114
141 157 143
116 137 112
120 139 119
114 134 110
131 149 129
128 148 123
110 132 102
118 141 109
95 121 79
102 124 90
101 125 89
106 128 94
98 123 81
96 123 76
94 120 75
91 117 69
150 166 157
182 193 201
190 201 208
195 206 215
194 205 212
192 203 210
192 203 212
187 199 206
183 194 199
198 208 218
190 201 208
183 195 201
186 197 202
197 207 215
193 203 210
199 209 218
192 203 210
199 209 217
187 199 204
183 194 199
185 197 203
173 185 187
106 128 97
87 114 67
89 116 68
90 117 69
90 117 70
92 118 71
86 112 66
87 113 67
91 118 71
90 117 70
84 110 65
89 114 68
84 110 64
89 116 69
90 118 71
88 115 69
90 117 72
101 125 88
101 124 91
123 142 126
112 132 110
162 175 170
138 156 142
133 150 136
118 138 113
104 126 92
87 112 72
86 112 66
83 109 64
93 119 71
88 115 69
87 113 66
89 115 69
89 116 70
84 110 64
86 112 66
90 117 70
86 112 66
88 114 67
176 187 188
197 208 217
191 203 209
192 203 211
193 204 213
193 204 210
184 197 204
186 198 208
197 208 217
184 195 201
198 209 218
201 211 222
188 200 206
197 208 216
195 205 212
195 206 215
199 209 216
173 187 188
94 120 79
87 114 68
86 113 67
89 116 69
87 113 67
89 115 69
89 115 68
88 115 69
87 113 67
85 112 67
91 118 70
94 121 73
87 113 67
86 112 66
97 122 83
121 141 120
138 156 145
125 145 125
94 119 80
89 116 68
90 116 70
90 117 70
93 120 72
90 117 69
88 113 67
87 114 69
87 113 67
90 116 69
96 120 79
159 174 170
192 203 213
185 196 201
184 197 205
188 200 208
185 197 202
186 198 206
184 196 203
177 190 194
175 188 188
135 153 136
91 117 70
88 115 68
90 117 70
89 116 69
83 109 64
97 122 83
137 154 140
182 193 194
182 195 203
189 200 206
189 200 208
184 195 200
176 188 192
182 194 199
187 199 207
186 198 203
194 205 214
129 148 129
87 113 67
113 133 110
146 161 154
179 192 195
174 186 189
190 201 209
189 200 206
187 198 205
193 204 212
195 205 213
178 190 195
176 188 194
194 204 212
189 201 209
192 203 210
192 202 209
197 207 215
190 201 210
184 195 200
174 188 193
158 172 168
184 195 199
187 198 204
190 200 206
190 202 211
191 202 210
189 200 206
188 200 210
187 198 203
191 202 209
185 198 205
196 206 213
177 190 195
192 203 210
194 204 213
193 203 208
185 197 202
187 199 208
185 196 202
185 196 203
187 199 208
183 196 201
192 202 207
158 173 168
167 182 182
184 195 201
192 203 211
181 194 200
187 199 206
194 205 214
183 195 203
192 204 213
178 191 197
185 195 201
185 197 204
190 201 208
190 202 208
190 201 207
186 198 203
187 198 204
182 193 200
192 203 210
190 202 212
194 204 211
189 200 206
190 202 211
177 190 193
175 187 186
84 110 65
91 118 70
89 116 69
89 116 69
84 111 66
86 111 69
130 149 130
153 167 161
163 177 174
193 204 211
194 204 212
197 207 213
190 201 208
189 201 210
187 198 204
191 204 214
189 201 208
191 202 208
191 203 210
190 201 207
177 190 195
189 200 206
184 196 203
186 198 206
146 162 150
93 119 71
92 119 71
85 111 66
89 116 69
91 117 70
89 116 69
86 113 67
90 117 70
89 115 68
90 116 69
90 117 70
85 111 66
88 114 68
87 113 67
89 116 70
89 115 68
82 108 63
93 120 71
87 114 68
90 116 69
94 121 72
91 118 71
90 117 70
87 114 69
136 154 142
182 194 198
160 175 172
133 149 138
133 151 132
91 117 72
88 114 68
92 119 71
90 116 69
88 115 69
90 117 70
87 114 68
87 113 66
89 115 69
88 114 68
92 119 71
93 120 72
92 119 71
87 113 67
90 117 70
89 116 69
90 117 69
90 117 69
91 118 70
91 117 70
135 153 138
188 199 204
192 203 210
187 198 204
190 201 208
191 202 209
185 197 205
188 199 205
186 199 207
192 202 210
186 198 204
183 194 198
192 203 210
185 197 202
183 195 201
187 198 206
189 200 208
185 197 203
190 202 210
173 186 190
183 195 199
192 203 211
193 205 213
193 205 211
188 199 208
166 180 177
89 115 69
87 113 67
91 118 70
90 117 69
89 115 69
89 116 69
85 112 66
87 113 67
90 117 70
86 112 66
90 116 69
92 119 72
90 116 69
90 116 69
90 117 70
89 116 69
95 122 73
92 120 72
91 118 70
89 116 69
88 114 68
92 119 71
88 115 68
96 123 73
155 169 164
195 206 213
182 195 199
191 202 208
189 201 209
190 201 207
169 181 179
166 180 176
162 176 175
158 172 167
141 158 144
124 144 121
127 148 128
115 135 109
110 133 104
105 128 91
87 113 68
89 115 68
91 118 70
88 116 70
89 115 69
86 112 67
87 113 68
90 116 69
140 158 146
192 204 212
188 200 207
190 200 206
189 200 207
183 195 201
192 203 209
192 203 210
188 200 206
186 197 200
194 205 211
200 210 219
192 203 210
185 197 205
189 199 203
191 203 211
185 196 203
188 199 206
182 193 199
188 199 206
177 190 196
198 209 218
195 207 216
187 198 201
110 133 103
84 110 65
93 120 72
89 116 69
86 112 66
82 107 63
89 116 68
90 116 70
87 113 67
87 113 67
89 115 69
91 118 70
90 117 70
88 114 69
88 115 69
89 117 71
89 115 68
90 117 70
91 118 70
89 116 69
89 116 70
89 115 68
128 147 126
191 202 207
188 199 204
185 197 206
190 201 208
191 202 208
200 209 216
194 205 213
195 205 214
191 202 209
192 203 211
194 205 213
190 201 208
181 192 196
184 195 202
192 203 210
193 204 211
192 203 211
186 197 203
185 197 205
186 197 203
179 190 194
118 139 114
83 109 65
92 119 71
90 117 70
94 122 73
97 122 83
106 129 97
113 134 106
114 135 108
128 146 127
150 166 156
133 151 137
153 168 162
158 172 169
169 182 181
179 191 191
186 197 202
181 192 195
189 199 206
183 195 199
135 152 136
90 117 70
91 118 71
89 116 70
89 115 68
88 114 68
89 115 69
87 113 68
89 115 69
85 112 66
94 121 73
88 114 68
93 120 72
89 116 70
93 120 72
86 112 67
92 119 71
85 111 65
92 117 75
162 175 174
185 197 203
201 212 223
188 200 207
185 197 201
195 206 214
181 193 200
187 199 204
183 195 202
193 204 212
192 203 209
186 197 204
187 199 206
191 202 211
193 204 211
201 210 217
193 203 210
154 168 164
87 114 68
89 115 68
86 113 67
89 115 68
91 118 70
89 115 68
86 113 67
90 117 70
85 111 66
90 117 69
93 118 77
115 135 113
133 151 137
170 183 186
182 194 197
131 149 134
87 113 67
87 113 68
88 115 68
91 118 71
89 115 68
89 116 68
87 113 67
87 113 67
88 114 67
90 117 70
93 120 72
89 116 69
114 135 108
172 185 187
179 191 195
192 203 210
186 198 204
186 198 205
187 198 205
174 186 186
153 169 159
122 141 122
94 119 81
87 114 67
121 141 116
87 111 72
83 109 64
86 112 67
93 120 72
87 113 67
86 113 67
91 118 70
83 109 65
99 123 87
153 169 160
170 184 184
189 200 209
195 206 214
175 188 192
194 204 209
180 191 195
182 194 201
136 153 139
87 114 67
86 112 66
88 115 68
91 118 70
107 130 99
142 159 147
189 200 204
172 184 188
198 209 218
190 201 208
180 192 197
182 194 198
185 197 204
183 195 203
179 192 196
188 200 206
189 202 209
181 194 200
182 194 200
187 199 206
178 190 192
90 116 69
100 123 90
133 151 136
178 190 190
185 196 200
193 203 212
185 197 203
182 195 202
188 199 204
192 203 212
199 208 217
186 198 204
185 196 200
184 196 203
189 199 205
187 199 205
191 203 211
186 198 204
191 202 209
186 197 203
183 195 201
192 202 208
170 183 185
90 117 69
88 113 70
118 138 112
153 167 160
180 192 196
179 191 197
181 194 199
186 198 204
186 198 204
181 192 196
188 200 208
188 199 204
197 208 216
187 199 207
193 204 209
186 197 201
192 204 212
187 198 204
191 202 209
185 198 206
190 202 210
191 202 209
182 194 201
166 179 176
88 114 69
89 116 69
90 117 70
87 114 68
86 112 67
88 115 69
86 112 67
90 117 70
93 119 71
89 114 70
124 144 120
157 171 166
174 186 188
188 199 206
196 207 214
192 202 209
193 204 211
186 198 204
190 202 211
187 198 204
191 201 209
192 204 212
186 197 203
181 193 195
116 138 112
86 113 67
92 119 72
87 113 68
86 113 67
85 111 66
92 119 71
89 115 68
91 119 71
92 119 71
87 114 68
86 113 67
83 109 64
90 117 70
89 115 68
86 112 66
91 117 70
89 115 68
87 113 67
86 113 68
89 116 68
87 114 68
91 118 71
93 119 71
87 113 67
168 182 183
190 201 208
185 196 201
191 203 210
194 206 215
191 201 205
173 186 188
162 177 172
142 159 143
115 135 110
106 129 97
92 119 71
91 118 70
93 120 71
87 114 68
89 115 69
94 121 73
89 116 69
91 119 71
86 112 66
93 120 72
87 113 67
88 114 69
86 113 67
86 113 67
165 178 175
183 194 197
181 193 198
193 204 211
189 200 209
193 203 210
188 199 203
178 190 194
185 197 203
195 206 216
188 200 207
196 207 216
187 199 206
196 207 215
192 204 211
181 193 198
192 204 212
186 197 205
192 203 211
182 193 197
180 193 201
182 194 202
189 200 206
196 206 213
190 201 206
131 149 129
91 119 72
86 111 66
89 115 69
86 113 67
88 115 68
88 114 68
86 112 66
91 117 70
91 118 70
90 117 69
89 115 68
91 117 70
87 114 68
83 109 64
92 118 71
92 119 71
87 114 68
93 119 72
89 116 69
87 114 68
90 117 70
92 119 72
84 111 65
108 131 100
183 195 200
186 198 203
194 204 213
189 200 207
177 190 194
195 206 214
180 191 195
203 213 223
195 205 212
186 197 204
181 193 198
192 204 212
194 205 213
190 201 208
189 200 207
190 202 210
185 196 199
179 192 194
184 197 201
171 185 188
166 180 175
176 188 189
164 177 173
139 156 142
155 170 160
147 164 157
163 177 177
163 177 173
164 178 178
168 182 182
176 188 188
176 188 189
178 190 194
183 195 200
190 201 205
194 205 214
199 208 214
192 203 211
181 194 200
183 194 199
185 197 202
194 204 212
183 195 200
188 200 208
191 203 212
180 192 197
185 197 201
138 155 141
91 118 71
90 117 70
90 117 70
86 112 66
88 114 68
87 113 67
93 120 73
88 115 68
88 115 69
88 114 68
88 114 68
84 110 66
89 115 68
88 114 69
92 119 71
88 115 69
88 115 70
90 118 71
93 121 72
91 118 71
91 118 70
109 132 99
179 191 193
186 197 204
184 194 198
184 196 204
184 195 200
188 200 206
193 204 213
197 208 217
185 196 201
187 199 207
181 195 199
176 188 191
176 188 192
162 176 175
165 179 181
153 169 160
160 175 172
159 172 168
139 156 146
145 162 149
143 159 150
162 176 174
167 180 177
176 188 190
163 176 174
178 191 196
181 193 198
191 202 210
189 200 204
179 191 195
192 202 208
187 198 204
197 206 215
186 198 204
183 194 199
192 203 211
186 198 204
190 200 208
197 207 216
192 204 215
188 199 206
143 159 150
85 112 65
87 113 68
87 114 67
91 118 71
90 116 69
88 114 67
90 116 69
89 116 69
90 117 69
91 118 70
91 118 71
86 112 66
93 120 72
88 114 68
85 111 66
84 110 65
87 114 67
101 126 86
171 184 184
178 190 193
191 202 208
175 187 193
188 201 209
194 205 216
189 200 206
192 204 211
188 200 208
192 202 208
188 200 207
185 196 201
192 203 213
189 200 208
186 197 202
193 205 213
181 193 199
141 157 147
87 114 67
88 115 68
79 105 62
91 118 71
87 114 67
89 115 69
94 119 76
130 148 129
150 166 158
166 179 175
177 189 192
182 194 200
189 200 207
182 193 200
184 194 197
106 130 97
89 116 69
85 112 66
86 112 67
90 117 70
88 115 68
84 110 65
86 112 66
84 110 64
90 116 69
87 114 68
88 115 69
87 114 68
131 148 131
176 188 192
181 192 198
185 197 203
184 196 202
161 175 172
131 148 133
105 128 95
90 117 70
88 114 67
91 117 70
96 120 81
157 172 166
189 200 207
189 200 208
148 164 156
122 141 121
92 119 72
83 110 65
87 114 68
90 117 70
89 116 69
83 110 65
86 112 66
90 118 70
116 136 111
152 168 160
181 194 199
176 188 193
193 204 212
194 204 211
170 184 186
88 114 68
87 113 67
88 115 68
87 113 68
88 114 68
88 115 68
89 115 68
120 140 119
156 170 166
191 201 206
184 196 203
184 195 200
177 189 192
193 204 211
192 203 209
194 204 211
188 201 210
187 199 206
186 196 202
188 200 207
185 196 200
89 114 71
90 116 70
94 120 72
85 111 66
112 133 105
156 171 163
173 186 191
186 198 205
178 191 196
183 196 204
184 196 203
189 200 207
181 192 196
186 197 202
191 202 209
182 193 198
181 193 197
179 191 197
186 197 204
188 199 205
184 196 202
187 199 206
156 171 170
90 117 70
89 115 68
90 117 70
94 121 72
92 119 72
98 123 88
136 152 141
167 180 179
177 192 200
196 206 214
188 199 205
182 193 198
188 199 206
189 201 208
188 198 205
191 202 208
190 200 205
191 203 211
193 203 210
189 200 207
186 197 203
195 205 214
187 199 207
164 178 176
87 114 68
89 116 70
90 117 70
90 117 70
90 117 70
92 119 71
87 114 67
87 113 67
91 118 70
84 110 65
87 112 66
87 114 68
87 113 66
86 111 69
131 150 129
158 172 170
166 179 178
183 194 199
194 205 212
198 209 218
185 195 200
191 201 208
189 200 207
173 186 188
98 121 85
86 112 66
91 118 71
90 116 68
89 115 68
91 118 71
87 113 67
91 118 71
91 118 72
89 116 69
88 114 67
90 116 69
89 115 68
86 113 66
85 111 66
90 116 69
90 117 70
87 113 66
88 115 69
88 114 68
85 111 65
84 109 64
88 115 69
88 114 68
99 123 85
190 201 209
183 195 200
188 199 207
192 203 212
190 201 209
190 201 209
188 199 206
194 205 212
193 204 212
186 198 205
185 196 199
174 187 189
179 191 193
145 161 150
132 151 135
117 137 113
87 114 67
89 116 69
92 119 71
92 119 72
91 118 70
89 116 69
89 115 68
88 115 68
101 124 90
183 195 202
191 202 209
188 200 206
190 202 211
185 197 205
191 201 209
188 199 204
181 193 199
185 197 205
186 199 208
186 197 203
189 201 210
178 190 195
193 204 213
187 198 203
187 198 204
189 200 208
184 195 200
192 203 209
194 204 211
179 191 196
174 187 192
195 206 215
194 205 214
182 193 197
87 114 67
87 114 68
89 115 69
86 113 67
90 116 70
90 117 70
89 116 69
91 118 70
87 114 67
91 118 70
88 114 68
88 115 69
85 111 66
86 112 66
90 117 70
91 118 70
88 115 69
90 116 69
88 115 69
85 111 66
87 113 67
87 114 68
91 117 70
89 116 69
156 170 167
190 201 208
196 206 214
177 189 194
191 201 208
191 202 210
182 194 201
184 195 201
191 202 210
198 208 216
191 201 206
190 201 208
192 204 213
195 207 217
191 202 208
187 199 204
186 197 202
183 194 200
194 205 213
185 196 202
186 198 203
198 208 217
189 200 208
183 195 200
142 160 147
90 117 70
89 115 69
85 111 66
86 112 67
88 115 68
93 121 72
88 115 68
86 112 66
84 110 65
89 115 69
87 113 67
91 117 73
94 119 78
99 122 88
105 128 93
115 137 108
115 137 110
116 136 111
126 144 124
111 132 103
121 141 119
126 145 125
152 167 158
159 173 170
161 176 174
154 170 164
172 185 186
167 180 177
159 173 168
169 182 178
148 164 155
152 168 162
150 165 155
158 171 166
159 174 168
158 172 165
153 168 162
153 168 164
158 174 171
157 172 165
151 166 158
166 181 181
162 175 173
162 176 177
165 179 177
116 137 113
121 141 119
115 136 110
119 139 115
112 134 105
120 141 112
106 128 95
99 122 84
89 114 73
91 118 70
87 113 67
89 115 69
90 116 69
83 109 64
91 118 71
90 117 70
90 116 70
87 114 68
89 116 70
91 118 71
87 113 67
145 162 152
192 202 210
186 197 204
183 195 202
197 207 215
186 198 204
182 194 200
185 198 206
178 190 194
184 195 200
196 207 213
186 197 201
189 200 205
184 196 200
187 198 205
172 184 186
194 205 215
185 198 203
181 193 198
197 207 214
148 164 154
89 116 69
90 117 70
87 113 67
94 121 73
87 113 67
93 119 71
89 116 70
87 113 67
88 114 68
91 117 70
90 117 70
90 117 69
89 116 69
88 115 68
91 118 72
89 116 69
90 117 70
99 123 88
164 178 176
188 201 209
191 203 212
186 198 203
191 202 208
181 193 198
189 201 210
191 202 208
188 199 207
192 203 211
186 197 200
188 200 209
175 188 192
190 201 209
193 204 211
183 195 203
182 193 197
139 156 144
92 119 72
92 119 71
89 114 73
119 139 117
137 153 141
164 178 177
167 180 179
183 194 201
197 207 214
185 197 203
180 193 199
182 194 201
183 196 203
182 194 200
171 183 183
99 123 86
87 114 68
86 113 67
85 110 66
92 119 71
86 112 66
86 112 66
88 115 69
90 117 70
89 115 68
86 112 66
89 116 69
87 113 68
140 157 148
179 192 197
155 170 166
139 156 146
125 144 121
85 111 68
90 117 70
85 111 65
87 113 67
83 109 64
90 117 71
104 126 99
173 185 185
183 195 201
181 192 199
183 195 202
181 193 199
186 197 204
177 189 191
138 155 145
104 128 92
81 107 63
88 114 68
86 113 67
87 114 67
85 111 66
85 111 66
87 113 68
91 117 72
132 149 134
165 176 174
186 197 203
191 203 211
94 120 80
89 116 69
86 113 67
87 113 67
88 115 69
91 117 70
89 115 69
92 119 71
89 115 69
90 117 72
118 137 115
156 170 166
181 192 196
180 192 199
178 191 197
198 208 218
182 194 201
201 211 219
177 190 196
179 191 196
187 198 204
109 131 102
87 113 67
90 116 69
91 118 70
90 117 70
90 116 69
90 116 69
98 122 83
139 156 144
154 168 165
192 203 211
182 194 200
184 197 204
184 196 203
191 201 208
191 202 208
175 188 194
185 197 204
186 196 200
187 198 203
191 202 211
190 201 207
169 182 182
87 114 68
88 115 69
85 111 66
85 111 66
90 116 69
87 113 67
84 110 65
92 118 70
91 116 74
136 155 141
147 163 156
159 172 172
184 196 203
186 198 205
185 196 204
187 197 201
184 196 201
181 193 198
193 204 210
184 197 203
194 205 211
185 196 200
183 195 198
139 155 146
89 115 68
88 115 69
92 119 71
87 113 68
86 112 67
86 112 67
91 118 71
91 118 71
89 116 70
92 119 71
88 115 69
86 113 67
85 111 65
91 117 69
85 111 66
88 114 68
88 114 68
84 110 67
109 129 103
148 164 155
153 169 164
183 195 200
181 194 200
167 181 181
91 118 71
89 116 68
88 114 68
86 113 68
90 117 70
90 117 70
89 116 68
90 116 69
90 117 69
85 111 66
88 115 68
94 121 72
90 117 70
90 116 69
88 114 67
85 112 67
86 112 66
93 120 71
92 120 72
89 115 68
89 116 70
89 116 69
86 112 66
89 116 69
138 154 145
192 202 209
183 196 203
180 193 199
183 195 201
187 199 205
199 209 217
194 205 211
198 208 215
184 195 200
186 197 203
193 204 211
190 201 207
193 203 209
187 199 207
191 202 207
184 197 204
183 194 198
182 194 197
153 168 161
152 166 157
127 145 130
97 120 88
87 113 70
91 118 70
143 159 147
196 206 215
191 202 211
189 200 207
191 203 210
188 199 203
186 198 205
192 203 208
195 206 213
186 198 207
188 199 205
191 202 211
185 196 203
187 198 202
179 191 195
195 206 214
181 194 202
176 188 192
189 200 208
186 197 204
194 204 212
181 193 201
192 204 213
195 206 214
190 200 206
136 152 139
88 114 68
90 116 69
89 115 69
94 120 71
88 114 68
92 119 71
92 118 71
90 117 69
88 115 68
88 115 69
88 115 68
89 116 70
89 116 70
92 119 70
90 116 69
88 114 68
88 114 67
86 112 66
90 116 68
94 121 73
84 110 65
85 111 65
88 115 69
115 136 108
184 195 201
196 207 216
186 197 203
192 203 211
191 202 209
192 203 211
185 197 203
192 202 207
181 193 200
193 205 214
190 202 209
185 198 206
192 203 208
180 192 197
190 202 210
189 200 208
181 193 199
193 205 214
182 193 197
190 200 207
197 208 216
187 198 205
196 207 215
160 174 173
88 114 68
90 116 69
89 115 68
85 112 67
88 115 68
90 116 69
90 116 70
86 113 67
91 119 73
90 117 70
87 114 67
90 117 70
87 114 67
89 116 69
89 116 69
90 116 69
88 114 67
87 114 67
91 118 71
85 111 65
95 122 74
86 112 66
105 129 95
183 194 198
186 198 202
183 195 201
181 193 199
184 196 202
190 201 207
181 193 199
187 199 205
195 206 214
185 197 204
204 214 223
190 200 207
190 201 206
194 205 212
179 192 199
191 201 208
187 198 203
185 196 202
182 193 200
189 201 209
189 201 209
186 198 204
137 154 139
90 117 70
93 120 72
88 114 68
87 113 67
87 114 67
90 117 70
87 113 68
92 119 72
89 115 68
87 113 67
87 113 67
85 112 66
94 121 73
90 116 70
91 118 70
91 118 71
88 114 67
87 114 68
89 115 69
84 110 64
147 162 152
181 192 198
185 197 205
186 197 206
193 205 213
181 192 200
185 197 202
183 195 203
174 186 192
184 196 202
184 196 202
191 202 211
183 194 199
192 203 209
191 202 210
188 200 204
187 197 201
198 209 218
188 199 205
190 202 210
159 175 170
91 118 70
91 118 71
88 114 68
88 114 68
91 118 70
89 116 69
89 116 69
87 113 67
89 115 68
90 117 70
83 109 64
92 118 71
90 117 70
93 121 73
90 117 70
88 114 68
92 119 71
98 122 83
167 181 181
185 197 204
190 202 209
180 192 198
186 198 204
184 196 203
187 199 207
180 192 198
188 200 207
177 189 194
191 202 209
184 196 203
183 195 202
186 197 204
191 202 208
202 212 220
177 189 195
159 173 167
146 161 152
164 177 174
178 190 195
190 201 209
191 202 208
189 200 207
185 197 203
186 197 202
192 203 209
189 201 209
191 203 211
182 193 196
186 197 205
177 189 194
149 163 156
91 118 71
89 115 70
89 116 69
80 105 62
89 116 69
84 110 65
85 111 65
89 116 69
88 115 68
86 113 68
84 111 65
95 120 79
105 128 95
136 154 142
112 133 107
93 119 77
90 117 69
79 104 61
86 113 67
83 110 64
88 115 69
92 119 71
90 117 70
88 114 75
152 167 161
184 195 202
176 189 195
167 181 180
136 152 139
174 187 191
181 192 197
175 188 193
182 194 200
179 191 196
180 193 198
149 164 158
125 143 127
99 125 84
87 112 67
92 118 71
85 112 67
84 110 65
85 112 67
82 107 63
88 115 68
94 118 80
136 153 142
117 138 116
83 109 65
87 113 67
83 109 65
90 116 69
84 110 65
88 115 68
88 115 69
82 108 64
92 119 70
87 114 67
88 115 68
94 117 82
128 146 127
166 180 178
176 189 194
192 203 210
186 198 203
189 200 206
186 198 207
187 198 204
130 148 130
86 112 67
89 115 69
85 111 66
90 117 70
85 112 67
89 116 69
85 112 66
88 115 68
84 110 65
106 128 100
132 150 133
157 172 169
182 194 197
185 197 205
184 197 203
176 188 189
185 196 203
181 192 197
178 190 195
188 199 205
187 199 206
175 187 186
84 110 65
91 117 71
83 109 65
84 110 64
89 115 69
86 113 67
90 117 70
89 116 69
89 116 69
88 114 67
85 111 66
92 119 72
101 125 87
138 156 143
160 173 168
190 201 209
191 202 208
188 198 205
179 192 197
174 187 191
196 206 214
182 194 199
193 204 211
128 148 127
84 110 65
88 114 67
86 112 67
83 108 63
90 116 69
87 114 68
91 119 71
85 110 66
84 110 65
91 119 71
88 114 68
92 119 71
89 115 69
85 110 65
87 113 67
88 115 69
87 114 68
87 114 68
88 114 68
93 120 73
86 112 66
91 118 73
111 132 102
146 162 151
139 156 144
114 136 110
88 115 69
88 114 68
89 116 70
89 116 69
87 114 68
86 112 66
83 109 64
89 116 69
87 113 67
89 116 69
93 120 72
84 110 64
86 112 66
93 120 71
89 116 70
89 116 69
87 113 67
88 115 68
90 116 69
92 119 71
90 116 69
86 113 67
155 169 165
184 196 202
190 201 208
180 192 198
182 194 201
182 194 200
186 197 204
189 200 206
184 196 201
187 199 206
192 203 213
190 201 208
187 198 205
196 206 213
192 203 210
186 197 203
189 200 208
188 200 207
187 199 207
193 204 214
187 197 203
195 206 213
179 191 196
176 188 192
175 188 188
141 157 142
146 162 153
158 173 169
172 184 185
197 207 212
185 197 204
184 196 201
196 207 217
196 206 214
197 209 218
186 197 203
184 195 199
194 205 212
175 187 191
190 201 209
182 194 200
185 197 203
190 201 207
193 204 211
188 199 204
187 198 204
192 204 213
189 200 206
186 197 204
187 199 205
93 118 76
91 117 71
89 115 68
87 113 67
90 117 70
88 115 68
92 118 70
87 114 68
91 118 70
85 112 66
88 115 68
85 111 66
88 115 68
87 114 67
87 114 68
91 118 70
89 115 68
89 116 69
87 113 67
89 116 69
89 116 70
86 112 66
87 113 67
85 111 66
165 177 171
192 203 213
189 201 207
190 202 210
188 199 206
183 194 199
189 201 208
188 200 208
188 199 209
195 206 214
189 201 208
191 201 205
192 202 209
183 195 200
200 211 220
191 202 211
171 185 190
184 195 201
184 196 202
185 198 207
187 199 205
191 202 209
184 197 205
190 201 207
110 132 106
88 115 69
84 111 66
88 114 68
89 116 70
89 115 68
90 117 69
92 119 72
93 120 71
88 114 67
93 120 72
91 118 70
84 110 65
86 113 67
83 109 65
91 118 70
86 113 67
86 113 68
90 117 69
84 110 65
87 114 67
89 115 69
91 118 70
157 170 165
195 206 213
186 198 204
194 205 212
196 206 215
185 196 201
192 202 209
187 198 204
190 200 205
183 194 199
192 203 208
186 197 203
188 199 207
188 200 208
191 203 212
189 200 208
194 205 214
192 203 209
189 200 208
182 193 200
181 194 200
200 211 220
161 176 169
85 112 66
86 112 66
90 117 70
89 115 68
86 112 66
85 111 66
88 114 67
87 113 68
90 117 70
85 112 67
85 111 66
82 108 63
89 115 69
90 116 69
85 112 66
92 119 71
86 112 67
93 119 71
88 114 68
91 118 72
127 145 127
191 202 210
200 210 219
185 196 204
193 204 212
191 201 208
197 208 215
183 194 197
190 201 209
192 203 211
189 200 207
191 202 208
189 200 208
193 204 212
186 198 205
186 198 205
191 202 208
189 199 206
196 207 215
190 201 208
158 172 170
90 117 70
91 118 71
92 118 71
87 113 66
87 113 67
93 120 72
88 114 68
85 111 66
86 112 66
90 117 70
90 117 70
88 115 69
94 121 73
85 111 66
85 110 65
89 116 69
89 116 69
108 130 102
172 184 185
189 201 210
187 199 208
185 197 204
190 201 208
191 202 209
190 200 207
181 193 199
193 205 213
191 202 212
180 192 198
173 186 189
155 170 164
143 160 149
134 151 136
114 135 106
121 141 116
173 186 189
187 199 207
184 195 200
191 202 208
193 204 212
189 200 208
188 200 206
193 204 211
187 199 208
191 202 209
184 194 197
178 190 197
180 192 196
187 199 205
179 191 196
133 152 135
86 113 67
84 110 65
85 111 65
86 112 66
86 113 66
78 103 60
84 110 65
85 111 66
87 112 70
104 125 98
142 159 150
162 175 176
162 176 173
86 111 69
88 114 68
89 115 70
88 115 69
89 115 69
87 114 68
83 108 64
89 116 68
90 116 70
85 110 65
126 145 125
168 182 183
170 182 184
135 152 137
96 119 83
84 110 65
88 115 69
127 145 126
119 137 120
163 176 175
180 191 198
184 195 200
184 195 202
180 192 198
183 194 201
181 192 197
151 166 162
118 139 117
90 116 72
91 117 70
88 115 69
86 113 67
86 112 66
85 111 66
85 111 66
139 155 143
177 190 193
152 168 162
105 127 98
86 112 67
83 108 64
89 115 69
87 114 69
92 119 72
88 115 68
87 114 68
85 111 65
86 112 67
88 115 69
87 114 67
84 109 67
131 147 133
147 163 158
176 188 191
181 193 197
179 191 198
133 150 137
86 112 66
85 111 65
85 112 66
92 119 72
85 111 66
88 114 68
88 114 68
87 113 68
85 112 66
90 117 70
86 113 67
86 113 67
92 119 74
120 138 118
153 167 160
181 193 199
190 201 210
185 196 204
178 190 195
193 204 212
199 211 221
161 176 174
91 117 70
89 115 69
88 114 68
86 111 65
90 117 70
81 107 64
85 111 67
90 117 70
84 110 65
87 113 66
84 110 65
88 115 70
90 117 70
90 117 69
86 113 67
88 114 70
102 125 91
143 158 148
174 186 188
185 197 202
173 185 188
182 194 201
182 194 200
107 130 101
91 118 70
90 117 70
87 114 67
88 115 68
87 113 66
87 114 68
89 116 69
82 108 64
89 116 70
87 113 68
87 113 67
89 115 68
86 113 67
86 112 66
90 116 69
90 116 70
88 115 68
90 116 69
85 111 67
83 109 64
88 114 67
90 117 70
86 112 66
135 153 140
190 201 210
192 203 208
187 198 202
171 184 184
145 162 152
115 137 115
93 118 78
89 115 69
84 110 65
91 117 70
84 110 65
88 115 69
90 117 70
88 115 68
90 117 69
89 115 69
88 114 68
86 113 66
88 115 68
93 120 71
88 114 68
88 115 69
89 115 68
89 115 71
183 195 201
190 202 212
190 202 210
189 201 207
194 205 213
189 200 207
189 201 207
184 196 202
183 195 202
185 196 202
194 205 213
198 208 217
186 197 204
191 203 211
194 204 208
191 201 207
188 199 206
184 196 204
191 202 211
187 198 204
175 187 192
181 194 200
180 192 198
189 200 207
179 191 194
89 116 69
87 113 68
83 108 64
89 116 68
86 111 69
106 127 98
122 141 120
139 156 142
155 170 167
183 194 197
177 189 193
198 207 215
193 203 210
184 196 203
180 192 196
192 203 211
186 198 206
187 199 205
189 199 205
190 201 210
198 208 216
182 195 203
197 207 216
185 196 200
142 158 148
90 117 70
91 118 71
87 114 67
88 115 68
88 115 68
87 113 67
89 116 69
87 113 67
94 121 73
87 114 68
85 112 67
90 116 69
90 117 71
89 116 69
91 117 69
85 111 65
91 118 71
89 116 69
89 116 69
90 116 69
88 115 69
93 120 71
87 114 68
117 138 114
180 192 199
184 196 201
183 194 199
186 198 206
190 200 207
187 199 205
195 205 215
178 190 196
187 199 207
195 205 213
189 200 207
196 207 216
174 186 192
193 204 212
185 196 201
185 197 204
187 198 204
191 201 206
190 201 207
188 200 207
187 199 205
188 200 207
191 202 209
157 172 166
90 116 69
89 115 68
84 110 66
90 117 70
89 116 70
87 114 67
87 112 67
90 116 69
86 112 66
89 115 68
89 117 70
89 115 69
90 116 69
87 114 68
85 112 66
88 114 68
87 113 67
85 111 65
88 114 68
86 112 66
88 114 68
86 112 67
126 144 130
189 200 206
193 205 213
191 202 210
189 201 208
188 200 207
180 191 195
190 201 208
185 197 204
188 199 206
179 192 200
192 203 210
189 199 205
181 192 196
189 201 209
189 201 211
183 195 203
187 198 205
184 195 201
189 199 208
178 189 193
196 207 216
165 180 180
88 115 69
88 115 69
85 112 66
86 112 67
88 115 68
87 113 67
85 112 66
88 114 68
88 114 68
90 116 69
88 114 68
84 109 64
84 109 65
85 111 67
87 114 68
81 107 62
87 114 68
91 117 70
89 116 68
91 118 71
115 137 107
189 200 205
187 198 204
177 190 197
188 199 207
176 189 193
194 204 211
188 199 203
188 199 205
186 197 204
183 196 202
184 195 202
192 203 208
191 202 210
187 198 203
175 187 192
192 203 212
183 195 202
175 187 192
188 200 205
150 165 159
86 111 66
85 111 65
92 119 71
88 114 68
90 117 69
86 112 67
87 113 67
89 115 69
87 113 67
88 114 67
87 113 67
87 113 66
87 114 68
85 112 66
91 118 70
87 114 68
82 108 64
103 125 93
178 190 193
189 200 208
187 197 202
187 198 206
181 193 196
178 190 197
179 191 194
159 174 172
149 164 158
127 144 129
121 141 119
98 121 84
87 114 68
86 112 67
84 110 65
88 115 69
113 134 110
169 183 187
186 197 202
185 196 205
182 194 200
187 199 206
188 200 208
190 200 207
187 198 203
194 205 214
199 209 219
187 198 203
182 195 202
188 200 209
182 194 199
160 174 171
113 134 108
85 111 66
86 112 67
89 115 69
87 113 67
88 114 67
92 116 82
125 143 124
144 160 151
167 178 176
180 192 198
192 204 212
170 183 188
118 136 116
88 114 68
89 115 69
88 114 68
90 116 69
87 113 67
89 115 68
91 118 70
88 115 70
89 115 69
97 121 83
117 135 113
130 149 131
89 115 71
89 115 69
88 114 68
85 111 66
82 108 64
85 111 66
155 169 166
95 119 78
85 111 66
98 121 87
133 150 138
172 185 186
175 187 192
186 198 204
168 182 185
177 188 193
182 194 202
168 181 184
134 151 136
100 122 90
85 111 66
85 111 66
88 115 68
86 111 66
111 131 106
185 196 201
177 189 193
185 198 202
168 180 183
152 167 162
113 133 111
88 114 68
85 110 65
86 112 67
87 113 68
90 117 71
84 109 65
91 117 70
87 113 67
87 114 68
83 109 64
88 114 68
86 112 66
135 151 135
161 176 173
129 147 130
85 112 66
87 113 66
85 111 66
85 111 66
86 113 67
87 113 67
88 114 68
88 115 68
86 113 67
80 105 61
85 112 66
89 116 69
87 114 67
86 113 67
84 111 66
93 119 73
105 126 94
140 156 145
161 175 174
185 196 201
193 204 210
179 192 194
86 112 66
88 114 67
86 112 67
87 114 67
89 115 69
88 114 68
86 112 66
88 114 68
85 111 66
88 115 69
84 110 66
89 115 68
90 116 70
86 112 67
91 118 71
89 115 68
93 120 71
85 111 66
87 113 67
86 112 69
122 141 121
146 161 154
155 169 167
97 122 85
88 114 69
91 117 70
87 114 68
84 111 65
90 117 70
93 119 71
83 108 64
86 112 66
85 111 66
85 111 65
92 119 72
89 115 68
88 115 69
92 119 72
88 115 68
86 112 66
83 109 65
84 110 66
90 117 70
91 118 70
86 113 67
92 119 72
86 113 67
162 175 172
183 195 202
181 192 197
184 196 202
177 189 195
178 191 196
186 198 204
188 200 207
166 180 181
162 176 174
118 138 117
107 130 97
90 117 70
86 112 66
89 115 68
87 113 67
92 119 71
91 118 70
87 113 67
83 108 63
88 114 67
88 115 68
88 114 68
92 119 71
122 142 124
190 202 210
195 205 214
176 189 195
185 197 202
184 196 200
184 195 198
182 194 201
186 197 202
192 203 209
192 201 206
175 188 192
185 196 204
181 193 199
189 201 206
182 194 201
181 194 201
193 204 211
193 203 210
185 196 202
183 196 204
189 199 204
175 188 193
192 202 209
186 197 203
132 151 132
88 116 70
81 106 62
85 111 66
94 121 73
88 115 69
88 113 67
88 114 68
87 113 67
87 113 68
88 115 69
86 113 67
89 116 69
121 140 118
128 147 129
145 160 151
158 173 167
163 177 176
172 184 186
176 188 194
187 197 203
184 197 204
193 205 215
182 194 199
187 198 205
93 118 76
87 114 68
91 118 70
91 118 71
86 112 66
88 115 68
90 117 70
87 114 68
94 121 73
87 113 67
89 116 69
89 115 68
89 116 70
89 116 69
89 115 69
87 114 68
89 116 70
86 112 66
89 116 68
90 117 70
86 111 66
87 114 68
85 111 66
95 122 74
169 182 184
182 193 195
182 193 199
190 201 208
190 200 208
177 189 194
192 202 210
189 200 207
194 205 214
194 205 214
179 192 197
192 202 207
192 203 210
187 198 205
187 198 203
188 199 206
188 199 207
185 197 206
184 195 199
192 204 213
192 203 209
190 202 209
197 208 217
179 191 193
88 113 73
84 110 65
89 116 70
90 117 70
83 109 64
91 118 70
85 111 66
90 117 70
88 114 67
92 118 71
88 115 69
86 112 66
88 115 69
89 115 69
88 115 68
90 116 69
85 112 66
89 116 69
91 118 70
85 111 66
87 113 68
86 112 66
106 128 100
181 193 199
189 200 205
189 201 208
185 196 202
187 199 208
188 198 205
182 195 202
194 204 211
196 207 216
187 198 202
180 192 196
185 196 203
183 195 199
184 195 201
184 195 202
180 192 198
179 191 196
189 200 204
194 204 212
187 198 202
189 200 208
180 192 197
98 122 83
90 117 70
87 114 68
89 116 69
91 118 70
89 116 70
88 115 69
90 116 69
89 115 69
83 109 64
89 116 69
83 109 65
88 114 68
84 110 65
89 116 70
85 111 66
86 112 65
88 115 69
90 118 71
90 116 69
102 125 95
176 188 194
191 202 208
189 200 205
189 200 206
186 197 202
186 197 202
187 198 204
185 197 204
184 195 200
192 204 213
188 200 207
184 196 201
188 200 205
178 191 196
180 193 197
169 181 183
189 200 207
182 194 198
185 197 204
149 165 157
87 113 67
85 111 66
88 115 68
91 117 70
90 116 70
88 115 69
89 116 69
90 118 71
87 113 67
85 111 66
89 116 69
87 113 67
90 116 69
87 113 67
93 120 71
93 120 72
89 116 70
109 131 102
166 180 178
168 181 182
151 166 158
143 159 150
128 146 129
109 131 102
88 113 70
88 114 68
88 114 67
86 112 66
89 116 69
89 116 70
90 116 69
89 116 69
86 112 67
83 109 65
128 146 129
183 194 200
196 206 212
180 191 197
181 193 199
183 196 203
182 194 197
190 201 208
176 188 193
184 196 202
182 194 199
179 191 197
186 197 202
196 206 214
181 192 197
167 180 179
93 117 78
84 110 64
87 113 68
101 125 87
114 136 114
140 155 146
168 182 185
180 193 198
187 198 204
180 192 199
183 195 200
183 194 198
161 174 172
103 126 95
88 115 68
85 112 66
86 112 66
85 111 66
86 113 67
84 110 65
87 113 70
121 141 120
140 156 145
134 151 135
94 118 83
86 112 67
86 111 66
86 112 66
86 112 67
81 106 63
85 112 67
99 124 86
93 118 80
158 172 167
130 148 134
95 121 82
86 110 73
80 106 62
85 111 66
111 132 106
146 161 152
179 190 195
187 198 205
185 197 203
185 197 204
182 194 201
183 194 199
165 178 174
129 147 132
98 122 85
87 114 67
88 114 68
164 177 177
182 193 199
178 190 197
182 195 201
179 191 196
181 194 200
165 178 178
151 165 160
109 131 100
85 112 67
82 107 63
83 109 64
89 116 70
83 109 64
87 114 69
88 115 69
87 113 67
83 109 65
90 116 70
84 110 65
134 152 143
157 172 166
120 139 120
101 124 91
87 113 68
89 116 69
90 117 71
81 106 63
84 110 65
89 115 68
80 105 62
88 115 69
83 109 65
89 115 69
89 116 70
85 112 67
88 114 67
86 112 67
86 112 67
88 114 68
98 120 88
135 154 141
153 168 161
91 116 71
82 108 64
87 113 67
88 115 69
81 106 62
84 110 65
85 111 65
92 119 71
90 117 70
83 108 63
87 113 67
83 109 65
83 110 65
90 116 69
88 115 68
89 116 70
89 115 69
86 112 67
92 119 71
88 114 68
89 116 69
83 109 64
91 117 70
189 200 207
158 173 170
142 158 150
108 128 100
89 116 68
87 114 67
86 112 66
89 115 69
83 109 64
92 119 71
86 113 67
90 116 69
88 115 69
89 115 68
90 116 69
88 114 67
86 113 68
87 114 68
87 114 67
85 111 65
84 110 64
89 115 69
86 113 67
88 114 69
179 191 196
182 194 201
182 194 201
192 203 212
178 190 194
169 182 185
178 192 198
190 201 209
186 197 203
184 196 202
190 201 207
181 193 201
175 188 190
175 187 185
143 160 150
131 147 132
103 126 97
87 113 67
89 116 69
90 117 70
85 111 65
90 116 70
85 111 66
85 111 66
153 167 161
188 200 208
188 199 206
187 199 207
186 197 205
199 209 215
190 201 208
182 193 198
184 196 205
188 199 205
193 204 210
195 206 215
189 200 208
191 202 210
179 191 194
188 198 205
193 204 212
188 199 206
186 197 204
187 198 207
192 203 211
180 192 198
190 201 207
192 203 210
184 196 201
83 110 65
85 111 65
88 115 69
80 106 62
88 115 69
90 116 68
88 114 68
83 109 64
86 112 66
90 117 70
88 115 69
88 115 69
92 118 71
89 116 69
86 112 66
87 114 68
90 116 69
86 112 66
86 112 66
88 113 70
110 130 103
107 128 99
119 138 117
137 154 143
155 170 162
120 139 120
103 125 97
95 120 80
85 111 66
88 114 68
82 108 63
91 117 70
87 113 68
89 116 69
89 116 69
86 111 66
86 113 67
87 114 68
89 116 70
89 115 68
93 121 72
88 114 68
84 110 65
90 117 70
89 115 69
91 118 71
87 113 67
86 112 66
129 145 130
185 195 200
199 210 218
180 192 198
178 189 193
187 199 206
195 205 213
188 199 205
193 204 211
190 202 211
197 207 215
187 197 205
194 204 212
186 197 204
184 195 201
183 195 200
196 207 216
188 199 205
193 203 211
176 188 191
172 185 189
176 188 192
185 196 202
186 198 204
119 138 116
87 114 68
85 111 65
89 116 69
84 109 64
86 113 67
90 116 70
88 115 68
83 108 64
87 113 67
85 111 66
87 113 68
91 118 71
86 112 66
85 112 67
86 111 66
90 118 71
92 118 71
90 117 70
86 113 68
86 113 67
87 113 68
90 116 72
176 188 190
191 202 210
183 195 200
184 196 203
193 204 210
181 193 196
180 193 198
186 198 205
193 205 212
187 198 203
185 197 204
183 195 201
185 197 201
183 195 200
191 202 211
181 192 195
192 203 213
187 199 207
179 190 195
183 195 201
181 194 201
186 198 204
117 138 109
84 110 66
91 118 71
89 115 69
90 116 69
88 116 70
91 118 71
87 115 69
90 117 70
87 113 67
85 111 66
87 113 67
87 114 68
89 116 69
86 112 66
86 113 67
91 118 71
89 115 68
88 115 69
88 114 69
103 125 93
174 188 190
185 197 205
181 193 201
183 195 201
186 197 201
185 197 204
175 189 192
186 197 203
184 196 202
188 199 206
181 194 200
182 194 200
195 206 215
188 201 209
190 201 207
184 196 202
188 200 208
177 189 192
185 196 202
155 170 166
87 113 67
85 112 66
87 113 67
88 114 68
87 114 67
90 116 69
87 114 68
85 112 67
86 112 67
87 114 69
90 117 69
101 125 91
112 134 104
127 146 126
141 158 147
155 171 167
155 170 166
156 171 167
93 117 83
84 110 66
85 111 67
89 116 70
83 110 65
85 112 67
81 107 63
85 111 66
89 116 69
86 113 67
86 112 66
87 113 67
85 111 66
85 111 66
85 111 66
85 110 68
131 149 131
188 199 205
185 198 206
188 199 206
183 195 201
182 193 198
172 185 189
182 193 197
200 210 220
184 196 203
194 204 211
194 205 215
181 192 197
184 196 203
177 189 194
134 151 138
114 134 112
138 154 143
156 170 168
172 184 184
173 186 189
180 192 197
180 192 196
183 195 200
184 196 203
183 196 203
174 186 191
183 195 204
140 156 148
88 114 67
86 113 68
86 112 67
86 112 67
83 109 65
105 128 97
113 134 110
162 176 172
175 187 189
174 187 190
119 139 119
88 114 68
88 114 68
90 116 69
87 114 68
99 123 90
126 144 127
148 165 158
150 164 157
141 157 146
145 160 153
152 168 163
159 171 169
140 156 149
91 116 80
135 151 141
130 147 132
126 143 129
106 126 103
113 134 109
122 141 122
150 165 162
180 193 199
185 196 202
177 189 195
172 184 187
187 198 205
187 198 204
171 184 186
134 152 137
144 159 153
181 192 196
181 192 195
179 192 197
184 195 202
186 198 205
180 193 201
180 191 197
189 200 207
167 180 178
137 153 143
94 117 83
89 116 69
84 111 65
84 110 65
82 108 64
83 109 63
87 113 67
85 111 66
85 112 66
124 142 122
184 196 202
177 189 197
180 192 199
168 182 185
134 151 139
109 132 106
88 114 68
91 118 71
90 117 69
83 109 65
88 114 68
81 106 62
85 112 66
88 114 68
86 112 67
85 110 65
90 116 69
90 116 69
90 116 69
91 117 70
91 118 71
105 126 100
177 189 194
164 178 176
141 157 145
123 142 124
85 111 66
89 116 70
86 112 67
87 114 68
84 110 66
88 114 67
83 108 64
86 111 66
87 114 68
85 112 66
85 110 65
81 107 63
91 119 72
84 110 65
89 116 69
85 112 66
88 115 68
85 110 65
103 125 95
191 202 210
199 209 217
186 197 205
187 198 206
176 189 193
151 167 157
146 161 155
92 116 82
85 111 66
87 113 67
89 115 69
86 112 66
87 113 67
88 114 68
88 114 69
88 115 68
86 113 67
87 115 69
91 118 71
86 112 67
90 117 71
85 111 65
85 111 66
104 126 100
184 196 204
186 198 204
188 200 208
186 196 203
189 200 206
192 203 211
179 192 197
187 198 204
191 203 212
184 196 205
187 198 202
178 190 193
184 196 203
184 196 201
188 201 209
182 193 198
186 197 203
181 192 198
173 187 189
151 167 161
127 145 129
105 126 98
83 109 64
82 108 63
175 188 189
189 200 207
185 196 201
189 201 208
180 192 198
184 197 204
183 193 199
204 214 223
192 204 212
178 190 195
188 199 205
188 200 206
189 200 206
178 190 195
184 196 202
188 199 205
190 200 206
181 193 198
190 200 207
191 202 211
188 199 207
183 196 202
182 194 201
185 197 202
159 174 171
87 113 67
87 113 67
89 115 68
89 115 69
87 113 67
87 114 67
87 113 67
88 115 68
86 112 66
90 116 69
91 118 71
86 112 67
92 119 72
91 118 70
88 115 69
88 114 68
89 115 69
87 113 67
90 117 70
89 116 69
85 111 65
88 115 68
87 113 67
97 122 81
188 199 207
196 206 214
187 198 205
191 203 213
185 196 202
173 185 187
145 162 156
161 176 171
134 152 140
143 159 147
104 126 97
104 127 92
81 106 62
85 112 67
86 113 66
91 118 71
87 113 67
88 115 68
87 114 68
91 118 70
86 112 67
84 110 65
85 112 67
91 117 76
181 194 201
185 197 203
191 203 211
181 193 198
183 194 200
184 196 202
185 196 201
185 196 202
180 193 198
193 204 213
186 198 202
191 202 210
188 200 209
187 199 206
184 197 205
183 195 201
192 203 208
191 201 209
185 197 203
182 194 202
181 193 197
184 196 203
179 190 196
163 177 175
83 109 64
91 118 71
88 115 68
86 111 66
90 117 69
90 116 70
86 112 66
85 111 66
86 111 65
90 116 69
95 122 74
90 117 70
87 113 67
86 112 67
89 115 68
89 116 68
89 115 68
85 112 66
88 114 68
85 112 67
86 112 67
90 117 70
148 163 159
193 204 211
178 191 196
197 207 216
183 195 202
186 198 206
194 205 212
185 197 204
187 199 206
188 200 207
193 203 211
188 200 207
192 203 212
183 195 202
183 195 200
177 191 195
185 197 203
183 195 202
191 201 208
186 196 202
196 206 214
193 204 211
130 146 133
88 115 69
90 117 70
86 112 66
91 118 71
82 108 64
91 118 71
85 111 66
87 113 67
86 112 67
87 113 67
83 109 65
89 115 68
84 110 65
92 119 71
87 114 69
86 112 67
88 115 69
89 116 70
91 117 71
103 127 90
167 180 179
190 201 208
189 201 208
181 193 201
187 198 204
191 201 208
187 199 204
182 193 199
190 201 209
195 205 213
183 194 199
184 196 201
190 200 206
186 198 207
182 194 200
186 197 202
175 189 193
189 199 205
182 194 199
168 181 180
96 121 80
87 114 68
85 112 66
90 116 72
94 118 79
108 130 104
125 143 122
143 160 152
147 162 153
166 180 177
177 190 194
184 196 203
185 197 204
182 194 200
183 195 200
190 202 211
183 194 199
165 180 180
90 115 76
87 113 67
90 117 70
85 111 65
88 115 69
87 113 67
89 115 69
85 111 66
88 114 67
87 113 67
85 112 66
86 113 67
87 114 68
84 110 65
89 116 69
91 116 74
169 181 179
181 193 197
177 189 195
188 199 205
184 196 203
175 189 195
182 194 201
183 195 202
184 196 203
186 197 206
184 196 203
189 200 208
170 183 186
157 171 166
151 167 162
177 188 188
180 192 199
186 198 206
180 191 195
186 197 205
171 183 187
189 200 207
190 202 210
195 206 214
179 191 196
185 197 204
178 191 198
172 185 186
102 126 90
81 107 64
83 110 65
86 111 69
121 140 122
156 170 165
176 188 189
184 196 204
181 193 200
167 180 185
140 156 146
93 119 76
86 112 67
91 116 75
92 116 79
97 121 87
123 140 123
129 146 131
164 177 176
190 201 209
156 171 166
136 152 141
139 156 147
225 238 255
209 223 236
167 182 184
129 148 133
119 138 117
86 113 68
115 135 110
141 156 146
182 194 199
182 194 199
167 180 179
162 175 172
171 184 186
167 179 181
158 171 168
169 183 185
189 199 204
182 194 202
183 196 204
169 182 183
123 142 124
145 160 155
179 191 196
194 205 212
176 188 193
181 193 200
185 196 201
181 192 199
179 191 195
187 199 206
180 192 198
165 179 177
143 158 150
98 121 91
83 109 65
85 112 67
90 116 69
87 113 67
89 117 70
115 136 109
169 182 185
183 194 200
180 192 196
191 201 208
178 190 194
178 191 198
172 185 188
154 170 164
118 137 115
88 114 70
86 112 66
83 108 64
89 115 69
86 112 67
81 106 62
88 115 68
85 111 66
90 117 69
86 112 66
85 112 66
85 111 66
126 143 127
192 203 211
176 188 193
189 201 208
185 197 202
179 191 196
150 167 160
124 142 125
103 126 93
87 113 67
85 111 66
88 115 68
84 111 66
83 109 64
88 114 67
90 117 70
83 109 65
84 111 65
88 114 69
88 115 69
86 112 67
84 110 65
85 112 66
127 146 124
187 198 204
177 190 197
185 197 203
187 198 205
174 186 191
181 194 200
184 195 201
172 185 189
179 190 193
167 181 180
130 148 131
125 143 124
89 114 73
88 115 68
90 117 70
85 112 66
85 111 65
85 112 66
87 113 67
87 113 66
89 115 68
89 115 68
88 114 67
126 144 127
194 204 212
186 197 203
181 193 198
173 186 191
193 204 213
184 195 199
192 203 210
186 197 204
184 195 200
190 201 209
188 199 206
190 202 210
190 202 210
174 186 188
191 202 210
183 194 202
188 199 204
188 199 207
189 199 207
177 190 194
184 196 202
186 197 202
178 190 194
145 161 155
152 167 161
163 177 175
185 197 202
185 195 199
186 197 204
184 196 203
199 209 218
190 201 209
179 192 198
177 189 193
181 193 200
182 193 198
186 196 202
180 193 199
184 196 202
189 201 210
180 193 201
176 188 192
182 194 201
183 194 200
184 195 200
182 193 199
183 194 201
180 192 197
111 133 105
83 109 63
81 106 62
87 114 68
88 115 69
86 113 67
88 114 68
87 113 67
86 113 67
85 111 66
89 115 68
88 115 68
84 110 65
90 117 70
88 115 69
89 116 69
83 109 65
88 115 68
92 119 71
87 113 67
86 113 68
90 116 69
82 107 64
89 115 69
142 158 148
187 199 207
178 190 194
180 192 198
188 199 204
196 207 217
195 206 215
187 198 205
198 208 215
193 204 213
186 197 200
185 197 204
185 198 205
189 200 208
175 187 191
176 188 191
165 178 176
143 159 148
151 167 162
127 145 131
128 146 129
115 134 112
98 122 87
89 116 72
148 164 153
188 200 207
189 200 206
189 199 206
182 194 200
181 192 198
182 194 199
183 195 202
195 206 214
189 200 207
189 199 206
184 196 202
182 194 201
189 200 206
187 198 206
187 198 205
186 197 203
174 185 189
196 206 214
184 196 202
187 199 206
177 189 192
188 199 206
176 188 192
99 122 87
86 112 67
86 113 67
84 110 65
87 114 68
88 114 68
89 117 71
87 113 68
88 115 68
86 112 66
88 115 69
88 114 68
89 116 69
85 112 66
84 110 66
81 107 63
84 111 67
87 113 67
81 106 63
88 115 68
86 112 66
87 114 68
115 135 111
185 197 204
189 200 207
192 202 212
190 201 208
184 195 202
185 197 205
192 202 210
182 194 200
185 196 205
185 197 203
192 203 212
181 193 198
189 200 207
179 191 195
189 200 207
183 194 200
187 199 205
171 184 186
176 188 189
174 187 191
179 190 195
144 160 150
87 113 67
89 115 68
87 114 68
89 116 68
91 117 70
86 112 67
83 110 66
89 116 70
88 114 67
86 111 66
87 114 68
85 111 66
90 117 70
88 114 68
85 111 66
82 107 63
92 118 71
89 116 69
82 108 64
91 116 75
165 178 178
189 200 209
185 196 200
180 193 198
186 198 204
188 200 208
186 197 203
179 192 199
183 194 200
183 194 200
180 192 200
191 203 212
192 203 212
186 197 205
193 202 207
176 188 191
172 185 186
176 188 191
153 168 165
163 176 176
146 162 153
159 173 171
177 190 191
182 195 200
184 196 203
189 200 210
187 198 207
188 199 206
179 191 196
170 183 187
187 198 206
193 204 213
182 194 196
184 195 199
183 194 200
194 205 215
180 191 196
150 165 160
92 118 74
86 112 66
85 111 67
90 116 70
88 114 68
88 115 69
84 110 65
85 111 66
86 112 67
89 116 70
89 116 69
89 116 69
92 118 71
83 109 65
85 112 67
108 131 96
162 177 178
185 196 204
186 197 202
193 204 213
185 196 201
178 190 196
185 197 205
188 199 205
172 185 188
164 177 176
143 158 149
131 148 136
107 130 97
83 108 63
123 142 124
175 187 192
184 196 202
185 196 202
179 191 197
181 194 200
175 186 188
185 197 204
182 193 200
182 193 198
181 193 198
183 196 203
175 187 191
140 158 145
92 117 80
113 134 106
131 147 134
158 172 172
177 188 193
187 198 204
182 194 198
175 187 191
170 183 184
175 186 190
136 152 141
153 166 159
137 154 145
135 151 138
101 123 92
82 107 63
99 121 93
151 166 161
160 175 175
128 147 130
103 125 98
154 170 168
200 214 225
225 238 255
225 238 255
225 238 255
225 238 255
224 237 254
210 223 237
184 197 202
141 157 151
105 127 96
85 111 65
115 135 116
149 164 159
169 181 184
179 191 196
180 192 197
170 184 189
147 162 158
110 131 106
100 122 92
127 145 126
131 147 134
128 147 129
126 143 127
110 129 107
134 152 136
154 168 164
181 192 199
175 187 192
178 189 195
175 188 193
187 198 206
185 197 202
177 191 199
191 202 208
167 180 185
178 190 194
143 158 150
107 129 97
87 114 67
82 108 64
87 112 70
181 192 197
184 196 204
186 198 204
185 198 206
173 185 191
184 194 200
176 188 194
181 193 200
172 186 191
171 184 189
167 180 180
119 136 118
90 115 75
84 111 66
88 114 68
87 113 66
90 117 70
80 105 62
83 110 65
87 113 67
87 114 67
125 145 125
190 200 207
184 195 204
188 200 208
179 191 196
187 198 205
182 194 198
184 195 202
187 198 205
153 167 162
141 157 147
126 144 126
90 117 70
82 109 65
87 113 67
87 114 67
85 110 65
87 114 68
85 111 65
86 112 66
90 117 70
85 110 65
86 112 67
127 144 129
186 199 204
186 198 207
187 198 207
192 203 211
177 189 193
178 190 195
182 194 199
190 201 209
177 189 193
179 191 195
172 184 186
186 197 205
178 191 197
153 168 164
147 162 152
127 147 128
89 114 74
88 114 67
88 114 67
86 113 67
89 116 70
87 113 67
90 116 69
161 175 174
187 197 202
185 198 206
190 202 211
189 201 208
186 198 204
194 205 213
183 195 201
188 199 204
182 194 198
176 189 192
186 198 205
187 198 202
189 201 209
186 198 204
187 197 203
181 193 198
182 193 197
169 182 186
185 196 203
182 194 200
181 194 202
182 193 198
174 188 193
150 164 159
85 110 65
90 118 71
90 117 70
89 114 71
113 133 108
117 136 115
145 160 153
167 180 179
176 188 194
189 202 209
188 198 205
172 185 189
194 205 213
178 191 196
180 192 198
179 190 193
187 198 205
187 198 203
183 195 200
176 187 193
180 192 196
187 198 205
184 196 202
167 180 178
88 114 68
91 118 70
89 116 69
89 115 68
89 115 68
87 113 68
84 110 65
90 117 70
87 114 68
93 120 72
86 112 67
80 106 61
90 117 70
86 111 65
90 117 69
86 112 66
90 117 70
90 117 70
84 109 65
91 118 70
89 115 69
86 112 67
87 114 67
92 117 75
177 190 193
180 193 199
182 193 200
181 194 199
184 195 200
185 196 202
192 203 211
180 192 198
182 194 200
180 192 197
189 201 209
186 198 203
186 197 204
190 202 210
185 197 204
180 192 198
179 191 196
183 194 200
190 201 208
179 191 196
182 194 198
183 195 201
178 189 191
182 195 201
103 125 91
106 128 98
115 136 110
142 160 147
139 156 148
131 147 133
143 161 153
157 171 167
161 175 173
173 185 187
179 191 194
175 187 189
180 192 196
190 202 211
178 190 195
184 196 202
187 198 204
185 196 202
186 197 203
189 201 210
192 203 211
178 189 191
190 201 208
138 155 138
87 114 68
88 114 67
87 113 68
87 113 68
87 113 67
86 112 66
85 111 65
88 114 67
89 116 69
92 119 72
86 112 67
83 109 65
92 119 71
88 115 69
85 111 65
86 113 66
86 112 67
91 118 71
84 110 65
88 115 69
88 114 68
110 131 103
181 192 198
183 195 202
184 195 199
184 196 200
185 197 203
186 198 203
188 201 212
188 200 207
194 205 213
184 196 202
180 192 198
179 190 194
176 189 195
188 200 209
182 194 199
186 197 203
182 193 200
182 194 201
180 192 196
187 198 204
185 197 203
160 175 172
86 112 67
88 115 68
86 113 68
92 118 70
85 112 65
91 117 69
85 111 66
86 112 67
86 112 66
88 114 68
86 112 66
85 111 66
88 114 68
82 108 64
87 114 68
88 114 68
88 114 68
92 118 70
84 110 65
93 117 78
147 163 154
191 203 211
185 197 206
186 198 205
184 196 201
177 189 194
162 175 174
158 173 170
160 174 172
155 171 165
142 158 149
124 142 123
117 136 115
107 128 99
94 119 79
85 111 66
93 120 73
88 114 68
92 119 71
137 154 139
170 182 184
189 199 204
185 197 204
175 188 194
180 191 195
182 193 198
186 197 202
181 193 199
188 198 205
184 195 201
177 188 193
186 198 204
186 196 201
176 188 193
189 199 207
187 199 207
196 207 219
147 163 155
92 117 73
86 112 67
88 115 69
85 111 65
83 109 63
87 113 67
89 115 69
88 115 69
89 115 68
86 112 67
81 106 62
88 114 68
86 113 67
82 108 63
85 111 66
112 133 108
173 187 189
191 202 209
185 197 201
187 199 206
180 192 195
168 181 182
148 163 155
128 146 128
93 118 80
86 113 67
89 115 68
83 109 64
88 115 68
87 109 73
161 175 174
177 188 191
175 188 193
180 191 197
179 192 197
190 201 209
179 191 195
186 198 206
178 190 195
177 189 195
177 189 194
184 195 203
169 181 184
145 161 153
161 176 175
166 180 181
159 172 171
148 164 156
154 169 163
141 157 151
115 134 114
100 124 88
113 134 109
169 182 183
155 169 165
132 149 134
107 129 98
85 111 66
81 107 63
104 125 99
113 134 110
138 155 143
94 117 84
146 162 157
192 206 216
224 237 254
225 238 255
225 238 255
225 238 255
225 238 255
225 238 255
225 238 255
225 238 255
225 238 255
225 238 255
219 232 249
205 217 229
157 171 172
120 139 119
98 121 87
89 115 72
130 149 136
169 182 184
170 181 185
180 192 199
182 194 200
181 193 199
140 156 147
105 125 99
150 164 159
172 183 185
185 197 203
173 185 188
186 197 205
179 192 195
175 186 190
156 170 168
146 161 155
147 162 157
144 159 152
156 170 165
166 181 182
178 191 195
180 192 195
167 179 181
177 188 195
171 183 185
145 161 151
112 133 106
178 190 194
183 195 200
176 189 196
184 197 203
180 191 196
185 196 202
183 195 201
177 189 192
183 195 202
186 197 203
175 187 191
176 186 190
183 194 197
163 178 176
144 160 150
104 124 96
86 112 66
81 107 63
89 115 69
87 113 67
86 112 66
125 144 128
175 186 192
183 195 202
180 192 197
187 199 206
189 199 207
182 194 200
182 194 202
186 197 204
182 193 198
179 191 196
176 188 192
180 191 198
168 182 185
134 149 137
103 126 96
86 113 67
88 115 69
90 117 70
84 111 66
88 114 68
83 109 64
88 115 68
142 157 150
184 196 203
187 198 204
187 199 206
179 191 196
189 200 207
189 201 208
191 202 209
185 197 205
190 201 208
181 192 197
185 197 204
186 196 204
189 200 206
172 184 188
184 196 203
179 191 196
173 184 188
166 179 179
136 153 141
125 145 125
91 116 75
88 114 68
85 111 66
171 183 187
185 196 203
186 198 205
186 199 208
173 185 188
168 182 186
187 198 204
185 196 202
181 193 198
172 185 191
175 187 192
186 197 203
187 198 205
198 208 215
183 194 201
184 196 203
183 195 203
182 194 201
182 194 201
185 196 202
181 193 201
168 182 184
176 188 193
180 191 196
118 138 112
88 115 69
86 112 67
83 108 63
89 116 69
84 109 64
85 112 66
87 113 67
88 114 69
85 111 66
104 126 92
124 143 124
145 161 149
153 167 163
152 167 165
186 197 203
184 196 205
183 194 199
182 195 203
180 192 198
186 198 207
191 202 209
190 201 209
193 204 210
140 157 146
84 110 64
79 104 61
87 112 66
87 113 67
86 112 66
85 112 67
90 117 70
86 112 66
83 108 64
91 118 71
89 115 69
87 113 68
80 106 62
87 113 67
83 109 64
84 111 66
83 109 65
86 112 66
89 116 69
85 110 65
84 110 64
87 114 68
87 113 67
147 163 152
181 193 199
176 187 191
184 196 202
179 191 197
186 198 205
179 192 198
188 200 210
179 190 197
189 200 207
186 198 204
178 190 196
185 197 205
180 192 197
182 194 199
188 199 209
182 193 198
182 193 199
187 199 206
184 195 202
187 199 208
189 200 206
189 200 209
178 190 197
131 149 135
88 114 68
88 115 69
88 114 68
91 117 70
87 114 67
87 114 68
86 112 67
88 114 68
89 116 69
89 115 68
88 113 67
85 112 66
89 116 69
99 123 84
115 136 108
116 135 113
112 132 108
120 140 120
127 146 127
129 147 130
139 157 146
160 173 168
154 168 163
127 144 129
122 140 121
111 132 104
111 131 105
109 131 102
112 132 106
105 126 95
99 122 89
90 115 72
84 110 65
85 111 67
87 114 68
90 117 70
89 116 69
87 114 68
82 108 63
86 113 67
89 116 69
86 112 67
85 111 66
87 114 68
88 115 69
164 178 178
193 204 212
186 198 206
184 196 205
190 201 208
187 198 203
180 191 198
190 202 211
176 189 194
193 204 213
190 201 209
188 199 206
190 201 209
184 196 202
195 205 215
176 188 190
190 201 208
176 188 193
180 193 199
181 192 198
186 198 206
169 182 183
88 113 70
85 112 67
86 113 68
85 111 66
85 110 68
93 118 80
90 114 75
100 122 91
101 124 91
103 125 93
122 141 121
113 133 109
124 143 125
127 144 128
127 146 128
146 162 152
144 158 152
157 171 165
174 187 186
152 167 162
115 135 111
110 131 101
90 114 76
89 114 70
82 108 63
89 115 68
87 114 67
85 111 66
85 111 66
84 110 65
82 107 63
82 107 63
81 107 63
86 113 67
86 112 66
87 113 67
84 110 65
85 111 67
86 112 67
126 145 127
183 194 199
182 194 199
181 193 198
194 205 214
184 195 201
179 190 193
185 197 204
176 189 196
184 196 204
182 193 201
184 195 201
188 198 206
183 195 201
193 205 214
175 187 191
193 203 211
176 189 196
131 148 134
84 110 65
83 109 65
92 119 71
81 106 62
87 113 68
88 114 68
82 108 63
87 114 68
82 107 63
84 110 65
84 110 65
82 108 63
85 111 67
90 116 70
90 117 70
135 152 138
158 172 173
157 171 169
134 151 137
128 146 128
97 120 86
86 113 66
89 115 68
86 113 67
86 112 67
85 111 66
90 117 70
83 109 64
86 112 67
107 127 103
173 186 190
185 197 205
177 190 198
188 199 207
186 198 207
185 196 204
177 190 196
174 187 193
169 181 181
165 179 182
176 189 194
169 182 182
107 129 101
116 135 114
102 124 96
85 112 67
86 113 67
76 101 58
81 106 63
83 108 64
89 116 70
83 108 68
112 132 110
125 143 126
95 118 87
81 107 63
87 113 68
86 113 67
98 120 90
93 116 82
95 118 83
139 156 148
192 206 216
221 234 251
225 238 255
225 238 255
225 238 255
225 238 255
225 238 255
225 238 255
225 238 255
225 238 255
225 238 255
225 238 255
225 238 255
225 238 255
225 238 255
225 238 255
225 238 255
212 225 239
195 208 217
169 183 187
127 146 128
86 112 66
94 118 80
140 156 147
162 176 174
187 198 206
180 191 197
181 193 197
164 177 175
131 147 137
161 175 174
181 193 199
173 187 192
176 187 193
177 188 193
167 181 184
178 190 195
166 179 179
126 144 127
99 121 89
83 109 65
80 106 63
96 120 84
104 126 99
123 141 125
125 142 126
136 153 144
160 174 169
140 155 146
166 178 178
177 189 195
188 199 206
181 193 200
179 191 195
179 191 196
181 193 201
177 188 191
180 191 196
181 192 196
178 190 196
175 187 193
181 193 200
179 192 197
192 203 210
178 190 194
153 168 163
118 137 119
97 121 82
84 110 65
129 147 129
176 187 193
188 199 206
186 197 203
175 188 192
177 189 195
187 198 205
184 195 201
190 200 208
184 196 205
184 196 201
190 201 209
185 196 202
175 189 197
175 186 192
191 202 208
169 182 186
153 166 164
133 150 136
92 117 80
81 107 63
88 115 68
86 112 66
160 173 173
187 198 205
182 194 202
192 203 212
184 197 206
182 194 198
182 195 201
176 187 192
174 186 190
180 191 196
180 193 201
180 192 199
183 194 201
170 182 182
181 193 199
189 199 208
174 187 194
182 195 203
188 200 209
184 195 202
184 195 198
176 189 193
169 183 182
144 160 151
157 172 168
174 187 189
184 196 200
178 190 197
172 185 190
185 197 203
183 194 200
183 195 201
179 192 197
175 188 193
191 202 210
182 194 201
187 198 204
186 197 203
193 204 213
184 196 202
181 194 201
186 198 206
176 189 195
182 194 200
182 194 201
184 196 203
182 194 201
173 187 189
88 114 68
90 117 69
88 114 68
85 111 66
89 115 69
84 110 65
85 110 65
86 112 67
86 112 66
83 109 65
92 119 71
87 114 68
86 113 67
83 109 64
88 115 68
89 114 72
111 132 104
105 125 100
138 155 143
154 168 164
168 182 183
173 184 188
186 197 204
182 194 198
94 118 78
86 113 67
85 111 66
81 106 62
84 109 65
88 115 68
88 114 68
82 108 63
83 108 64
84 110 65
89 115 69
88 114 67
87 113 67
81 107 63
79 104 61
87 112 66
82 108 63
89 116 69
89 116 70
89 115 69
85 111 66
91 118 70
86 113 67
97 122 82
170 182 184
197 208 216
181 193 200
192 203 211
191 202 210
178 190 193
185 196 202
191 202 209
188 200 206
186 197 202
179 190 196
192 204 212
180 192 196
182 193 198
182 194 199
174 186 191
188 200 207
190 201 207
185 196 205
178 191 195
190 202 210
188 200 208
181 194 199
175 188 190
88 114 71
90 117 70
82 108 64
91 118 71
89 116 68
90 117 70
86 112 67
89 115 69
84 110 64
87 113 66
88 114 68
81 107 63
90 117 69
90 116 69
85 112 66
87 113 68
86 112 67
84 110 66
82 108 64
88 115 68
88 115 69
83 108 64
104 127 93
181 193 199
175 188 194
184 195 200
177 190 195
183 195 201
183 194 198
180 192 200
186 199 207
186 197 203
181 192 195
187 199 207
183 195 200
181 193 197
172 185 188
173 185 185
183 195 202
173 185 189
167 181 184
163 177 178
174 186 188
166 181 180
158 171 170
137 153 139
128 146 129
118 139 113
130 146 132
109 130 106
145 160 149
117 135 114
115 134 114
128 145 129
119 138 117
125 144 124
127 145 128
122 139 121
127 146 128
123 141 124
126 144 125
112 133 104
115 134 111
119 138 117
111 130 109
103 124 95
105 126 100
179 191 196
171 184 187
181 193 199
185 195 201
169 181 185
175 187 191
186 198 205
183 195 203
191 203 212
188 199 206
189 201 209
182 193 200
187 198 204
173 187 191
180 192 196
195 206 213
182 194 200
188 199 206
184 196 201
183 194 197
141 157 148
83 109 65
89 116 69
85 111 66
85 110 65
86 113 67
87 114 68
86 113 68
87 113 67
88 115 68
89 115 69
81 107 63
88 115 68
86 112 66
88 114 68
88 114 68
86 112 67
87 113 67
86 112 66
133 151 139
188 200 208
186 198 206
181 193 202
178 191 198
172 184 187
186 197 205
190 201 209
186 197 205
175 188 192
186 197 204
176 187 191
185 196 202
184 195 200
188 199 206
187 198 205
178 190 196
174 186 188
125 145 122
88 114 67
86 113 67
88 115 69
86 112 66
88 114 68
81 107 63
85 111 66
81 107 62
81 107 63
86 113 67
88 115 69
106 128 98
128 147 130
130 147 134
153 168 164
108 130 101
87 112 72
80 106 61
87 113 68
86 113 67
84 110 65
84 110 65
86 112 66
83 109 65
82 108 63
86 112 66
94 119 76
112 133 105
107 128 103
116 137 110
141 158 149
144 160 155
136 153 139
123 142 123
119 138 120
105 127 100
118 139 114
130 148 135
165 178 175
172 184 188
175 187 192
144 158 152
100 121 93
83 109 65
84 111 66
82 108 64
83 108 64
89 116 69
82 107 63
109 131 109
127 143 132
113 130 112
87 112 69
79 105 63
85 111 65
86 112 69
111 131 108
125 143 126
104 125 94
132 151 135
175 189 195
209 222 236
225 238 255
225 238 255
225 238 255
225 238 255
225 238 255
225 238 255
225 238 255
225 238 255
225 238 255
225 238 255
225 238 255
225 238 255
225 238 255
225 238 255
225 238 255
225 238 255
225 238 255
225 238 255
225 238 255
225 238 255
224 237 254
215 228 243
196 208 219
153 168 166
105 126 102
89 113 76
94 115 84
133 149 138
174 186 191
182 194 201
124 141 120
81 106 62
97 119 91
151 167 164
169 182 185
176 188 193
175 187 191
172 184 188
189 200 208
176 189 199
183 196 202
163 176 177
134 151 137
84 108 70
87 113 67
83 110 65
87 113 67
87 114 68
84 110 65
151 165 164
182 194 202
179 191 197
175 187 190
163 177 174
131 149 136
111 131 107
117 135 116
111 132 106
126 144 128
139 156 144
141 157 147
151 164 156
150 165 160
149 164 161
157 172 172
174 187 191
180 191 194
184 195 201
178 189 193
146 162 155
134 150 138
159 172 172
186 198 205
185 197 203
186 196 202
185 197 204
191 203 211
177 190 196
185 195 201
181 193 198
188 199 206
186 197 205
180 192 198
183 194 199
185 196 201
191 202 211
184 197 204
184 196 203
179 191 198
170 183 187
172 183 185
154 169 165
127 144 125
175 186 187
178 190 194
185 197 202
181 194 200
183 195 202
182 193 199
192 203 209
182 194 198
181 193 199
177 189 194
184 196 205
191 202 210
184 196 201
179 191 194
177 189 193
178 190 195
185 197 205
174 186 190
186 197 202
184 196 204
185 196 204
164 178 181
181 194 199
155 170 166
85 111 67
86 112 66
103 127 90
118 138 117
143 159 150
159 173 169
171 184 187
185 197 206
174 187 192
175 187 192
179 193 199
181 193 197
178 191 196
188 200 208
182 193 199
194 205 212
187 199 208
187 199 207
193 203 211
186 198 204
188 200 209
176 188 191
175 188 192
142 159 151
85 110 65
85 112 67
87 113 67
86 112 67
88 114 68
85 111 66
82 107 63
88 115 69
89 116 69
88 114 67
81 107 63
87 114 67
90 117 70
88 115 68
86 113 67
87 113 68
83 110 65
83 109 64
89 115 69
86 113 67
86 113 68
86 112 66
104 126 97
146 162 155
136 152 141
139 155 142
117 138 117
101 126 87
87 113 67
83 109 65
85 111 66
85 111 66
88 114 67
88 114 68
88 113 66
83 108 64
86 113 67
88 115 69
89 116 70
88 114 67
82 107 63
82 107 63
87 113 68
86 112 67
84 110 65
87 114 68
89 115 68
134 152 137
179 192 198
178 190 193
188 199 208
181 193 199
179 191 196
188 199 204
180 191 195
190 201 209
188 200 207
169 182 184
183 194 200
178 190 194
185 196 200
183 195 202
177 189 194
181 193 199
169 183 188
174 187 192
191 202 209
186 197 203
184 196 202
192 202 208
183 194 202
105 125 99
88 115 69
82 108 64
84 109 65
85 111 66
91 117 69
85 112 66
85 111 66
86 112 66
87 114 68
85 111 66
84 110 65
85 110 65
83 109 64
84 110 66
86 113 67
84 110 65
87 113 68
85 111 66
86 112 66
87 113 66
83 109 65
84 110 65
146 161 153
184 196 204
181 193 199
185 197 205
181 192 198
189 201 210
180 192 196
181 193 198
192 202 208
193 204 211
180 192 199
184 197 203
181 192 195
182 193 200
189 200 206
184 195 199
191 202 209
174 186 189
187 198 203
184 196 201
187 198 202
181 194 201
159 173 170
86 112 67
87 114 68
88 114 68
86 111 66
84 110 65
89 116 69
85 111 65
85 111 65
88 115 68
81 106 62
89 116 69
83 108 64
86 112 66
84 110 65
89 116 68
79 105 62
91 118 71
88 115 67
87 114 67
90 116 68
87 111 71
166 178 180
190 201 207
181 192 196
188 198 204
187 200 208
185 198 206
186 197 204
174 187 193
182 194 201
177 189 194
184 195 202
183 196 203
195 206 214
186 197 206
183 196 202
176 187 192
188 199 208
189 200 206
178 190 194
170 182 184
129 145 133
88 114 68
89 115 69
86 112 67
89 115 68
82 108 63
87 114 68
89 115 69
89 116 69
83 109 65
83 109 64
87 113 68
87 113 68
84 111 65
86 112 66
82 107 63
88 115 68
85 111 67
86 112 67
152 167 163
180 192 197
170 182 185
182 194 202
185 196 202
183 194 197
184 195 204
183 194 200
184 196 205
183 196 202
187 198 205
185 196 201
183 194 201
188 200 208
185 197 205
177 189 194
176 188 192
182 194 200
124 142 123
85 111 66
86 112 66
81 107 64
80 105 62
84 109 64
84 111 65
112 132 108
124 141 125
137 153 141
150 164 159
169 182 183
186 198 202
177 189 194
190 201 209
169 182 182
111 132 105
101 124 92
117 135 116
122 141 124
127 144 129
143 159 150
146 161 153
151 167 163
157 171 171
144 159 153
167 181 181
174 186 190
179 191 194
175 188 192
110 130 107
80 106 62
85 111 66
92 115 79
134 151 138
137 154 145
158 172 170
181 193 199
183 195 201
175 186 191
176 188 191
174 187 190
117 137 114
83 109 64
85 110 65
81 106 63
84 110 64
104 126 94
124 143 125
137 153 143
167 181 186
137 154 141
95 118 85
82 107 63
84 108 70
117 137 114
139 154 144
140 155 150
126 144 130
169 183 188
206 219 233
225 238 255
225 238 255
225 238 255
225 238 255
225 238 255
225 238 255
225 238 255
225 238 255
225 238 255
225 238 255
225 238 255
225 238 255
225 238 255
225 238 255
225 238 255
225 238 255
225 238 255
225 238 255
225 238 255
225 238 255
225 238 255
225 238 255
225 238 255
225 238 255
225 238 255
225 238 255
225 238 255
214 226 240
194 206 215
141 157 148
115 134 112
87 113 68
105 126 100
128 146 131
102 124 97
87 113 67
82 108 64
83 108 66
108 127 105
129 146 136
175 187 192
167 180 184
182 193 200
186 198 206
169 182 186
174 187 193
183 195 202
150 165 160
122 140 123
97 120 84
82 108 64
88 115 69
138 155 145
179 190 198
174 187 191
181 192 198
176 188 195
182 194 201
171 184 187
165 178 179
131 148 136
107 127 102
83 109 64
82 108 63
81 107 63
80 105 62
85 111 67
80 105 62
85 111 66
82 108 64
95 117 84
101 124 93
118 137 116
121 140 125
150 165 160
173 186 189
175 188 192
170 182 184
151 165 159
150 165 161
151 167 161
167 180 182
170 183 186
181 193 200
181 193 199
186 198 206
170 184 189
175 188 192
182 193 199
174 187 190
181 193 198
179 193 199
185 197 203
188 199 208
185 197 205
186 197 203
88 113 72
105 127 98
140 156 146
168 182 184
173 186 186
183 195 201
171 183 189
179 191 196
185 196 204
183 195 203
186 197 204
177 189 194
184 196 203
178 190 194
188 198 203
182 195 203
180 192 200
189 200 208
183 194 200
175 188 193
175 188 194
182 194 200
182 193 199
134 151 137
83 109 65
84 110 65
85 111 65
85 111 66
87 114 68
84 110 65
81 106 62
100 122 91
127 146 128
141 155 148
161 176 175
182 194 199
190 201 207
177 189 195
179 192 197
183 194 202
190 200 207
185 196 203
179 191 195
182 195 203
170 183 187
192 203 212
173 185 188
109 131 102
85 112 67
83 109 64
84 109 64
85 111 66
88 114 68
85 111 66
88 115 69
89 116 69
89 115 69
87 114 68
82 108 64
83 108 63
85 111 65
83 109 65
84 109 66
91 118 70
86 113 67
88 114 68
85 112 66
92 119 71
91 117 70
84 110 65
88 112 70
162 176 180
192 203 213
191 202 210
187 198 203
185 196 203
188 199 205
167 181 182
152 167 161
147 162 154
146 164 152
115 136 111
109 131 102
96 121 80
86 112 67
85 111 66
82 107 63
80 106 63
84 109 65
84 110 65
84 110 65
86 112 66
89 115 68
87 113 67
92 116 78
172 184 187
181 193 199
178 189 195
166 180 181
183 195 202
186 197 203
176 190 195
188 199 206
175 187 193
176 188 194
182 192 196
179 190 193
178 189 193
171 184 191
174 187 192
189 201 208
182 193 200
186 198 206
180 192 197
188 198 205
183 195 202
181 193 200
182 194 200
144 159 151
85 110 65
85 111 66
87 113 67
84 110 65
83 109 64
88 115 68
89 115 68
88 114 67
87 113 67
80 106 62
84 109 65
85 110 64
89 115 69
86 113 67
85 112 67
84 109 65
94 122 73
83 109 64
89 115 69
88 115 69
83 109 64
82 108 63
141 156 144
184 195 201
176 189 195
179 190 197
180 191 196
193 204 214
171 184 191
183 196 203
185 197 203
193 204 211
178 190 195
183 195 201
187 198 204
180 192 197
182 193 198
185 197 204
181 192 200
182 194 200
176 189 195
192 202 211
184 196 203
187 199 208
157 171 167
91 115 79
87 113 67
86 112 67
85 111 66
85 111 67
87 113 67
88 114 68
85 111 66
86 112 67
88 114 68
87 113 67
87 113 67
86 113 68
82 108 64
85 111 66
86 112 66
77 103 61
87 113 67
85 112 66
84 110 64
87 113 70
159 173 171
183 195 201
177 189 194
181 193 198
186 197 204
182 192 197
193 204 214
183 195 201
190 201 209
177 189 193
182 194 203
185 195 201
184 196 203
179 192 198
177 189 195
180 190 194
182 194 199
182 195 202
176 188 192
184 196 201
144 160 152
84 110 66
91 117 70
85 111 65
83 108 64
84 110 66
88 114 68
85 111 66
85 112 67
86 112 66
87 114 68
85 110 66
81 106 62
84 111 65
84 110 66
89 116 69
83 109 64
85 111 66
90 116 72
146 161 154
183 195 201
182 193 198
170 183 187
183 194 200
178 190 196
176 189 196
182 193 198
180 192 195
176 188 195
178 191 196
178 190 196
177 189 192
188 199 207
174 186 188
170 183 189
185 196 202
164 177 177
103 125 93
96 118 88
101 123 92
117 136 116
116 136 112
139 155 146
147 161 155
135 151 142
133 150 137
146 162 155
134 151 139
144 160 148
112 132 107
113 133 110
106 126 97
125 144 128
175 186 190
183 194 200
180 192 198
194 205 215
178 190 194
179 191 195
180 192 196
186 198 204
174 187 191
188 198 205
183 195 203
171 184 189
168 181 183
134 149 139
106 128 99
112 132 110
154 169 163
157 171 171
171 184 188
182 193 198
173 186 192
170 182 187
179 191 199
173 186 191
176 189 193
125 142 129
82 107 64
82 107 63
92 117 75
118 137 117
132 148 138
160 172 171
177 189 193
181 192 197
145 161 151
87 112 73
86 110 71
131 148 136
149 163 159
171 185 191
161 174 175
176 190 194
209 221 235
225 237 255
225 238 255
225 238 255
225 238 255
225 238 255
225 238 255
225 238 255
225 238 255
225 238 255
225 238 255
225 238 255
225 238 255
225 238 255
225 238 255
225 238 255
225 238 255
225 238 255
225 238 255
225 238 255
225 238 255
225 238 255
225 238 255
225 238 255
225 238 255
225 238 255
225 238 255
225 238 255
225 238 255
225 238 255
225 238 255
225 238 255
225 238 255
222 235 252
202 216 229
193 206 216
136 153 143
109 130 103
143 158 153
164 177 180
122 140 123
95 118 85
82 108 64
80 106 62
79 105 62
106 128 101
135 151 141
164 177 177
181 193 200
174 187 193
181 192 200
170 184 189
184 196 203
182 193 198
153 167 167
133 151 139
138 155 145
182 195 201
180 192 199
178 190 197
175 188 193
180 192 198
177 187 192
168 181 184
177 189 194
180 193 199
169 182 185
151 165 160
115 134 112
81 107 62
82 108 63
87 113 67
84 110 66
84 110 66
81 106 63
83 109 64
89 114 68
132 149 135
179 192 199
178 190 198
183 195 201
181 192 197
177 190 195
157 170 168
151 166 158
100 121 91
85 111 65
88 115 68
84 109 64
99 123 86
93 116 79
105 127 99
116 136 117
120 138 121
140 157 146
129 148 133
143 159 151
142 158 148
144 161 150
156 171 166
107 128 103
120 139 118
115 135 112
110 130 106
105 127 98
116 135 115
134 151 138
156 169 165
184 196 201
193 204 213
184 196 202
179 192 199
183 195 203
173 185 188
186 197 202
190 201 209
181 193 200
175 187 190
180 192 200
183 195 201
182 194 203
188 199 207
174 185 190
107 128 99
84 110 65
83 109 64
83 109 64
84 110 65
85 111 65
87 113 67
85 111 66
85 111 65
85 112 66
94 121 72
82 108 64
82 108 64
105 127 95
127 146 130
141 158 149
158 171 169
170 182 185
182 194 199
190 201 208
176 189 194
179 192 197
179 191 196
162 175 178
82 107 63
83 108 64
87 114 68
83 110 65
86 113 67
86 113 67
82 108 63
87 114 68
85 111 66
86 112 67
84 110 65
87 113 67
82 109 65
81 107 63
87 113 66
85 111 67
85 110 66
84 109 64
90 116 69
87 113 67
82 107 62
86 112 67
87 113 67
146 161 152
194 205 211
183 195 203
180 191 197
184 196 202
194 205 215
180 192 197
176 189 194
180 192 196
178 190 195
190 202 211
177 189 193
190 201 210
172 186 191
161 175 176
168 180 179
150 165 155
131 149 133
137 155 142
106 128 95
88 111 74
84 110 65
87 113 68
88 115 69
138 155 141
184 196 203
196 207 215
173 186 190
181 192 196
184 197 202
169 182 185
184 196 201
186 198 204
188 198 205
184 195 204
174 187 190
185 196 202
191 202 210
182 193 199
177 190 195
183 195 200
190 201 211
183 195 203
179 191 197
170 182 185
180 192 197
178 191 196
170 184 188
102 124 90
89 116 70
83 109 64
86 112 67
84 110 65
90 117 70
84 110 65
90 116 69
92 119 71
87 113 67
87 114 68
87 114 68
85 111 66
87 113 68
83 109 64
83 109 65
85 111 66
84 110 66
86 112 66
85 111 66
83 109 65
83 109 65
99 122 89
178 191 196
180 191 196
188 200 208
173 186 192
177 189 194
181 192 198
182 195 203
178 190 193
195 206 215
178 189 193
192 203 212
186 196 203
185 198 205
187 199 209
188 199 206
181 192 197
181 193 199
180 193 199
183 195 202
183 194 200
195 206 214
171 183 183
107 128 100
85 111 66
87 113 68
86 113 67
81 107 63
81 106 62
90 117 70
87 113 67
88 115 68
86 112 66
87 113 67
85 111 66
89 115 69
81 106 62
91 118 71
81 107 62
83 109 65
89 115 69
84 110 65
86 112 66
89 115 69
167 180 180
173 185 189
183 195 198
190 201 211
177 189 189
188 200 206
171 183 186
187 198 204
183 195 203
187 198 205
191 202 212
174 187 191
175 187 191
172 185 190
178 190 195
185 196 203
181 193 199
185 197 205
191 202 210
189 200 207
143 159 151
87 113 67
86 112 66
87 113 67
86 112 67
81 107 62
85 111 66
85 111 66
84 109 65
85 112 67
85 111 66
83 109 65
83 109 64
89 115 69
82 108 64
86 113 68
84 110 64
89 116 69
84 110 65
164 178 174
176 189 194
175 187 195
176 188 192
175 188 192
171 184 188
163 177 175
158 173 171
146 161 152
153 168 165
133 149 139
141 159 147
130 148 131
142 158 148
144 160 155
151 167 164
160 174 173
131 147 139
106 127 100
88 114 70
86 111 69
82 108 64
83 109 64
83 109 65
84 110 65
79 104 61
85 112 66
87 112 66
81 107 63
84 110 65
80 106 62
80 106 62
100 124 89
140 156 150
187 198 205
175 187 191
179 191 199
190 201 207
181 193 200
172 184 189
184 195 200
184 195 202
170 183 185
183 195 201
182 194 199
158 172 170
149 164 159
172 185 187
172 184 188
183 195 204
184 196 204
181 193 199
173 185 190
178 190 194
173 185 190
170 182 186
178 190 195
178 190 197
143 159 150
84 109 71
110 130 107
135 150 140
151 165 162
171 184 189
173 186 192
178 191 197
174 186 192
148 163 160
126 143 127
131 148 136
165 177 179
183 196 206
173 185 188
180 193 200
211 224 237
225 238 255
225 238 255
225 238 255
225 238 255
225 238 255
225 238 255
225 238 255
225 238 255
225 238 255
225 238 255
225 238 255
225 238 255
225 238 255
225 238 255
225 238 255
225 238 255
225 238 255
225 238 255
225 238 255
225 238 255
225 238 255
225 238 255
225 238 255
225 238 255
225 238 255
225 238 255
225 238 255
225 238 255
225 238 255
225 238 255
225 238 255
225 238 255
225 238 255
225 238 255
225 238 255
225 238 255
225 238 255
225 238 255
218 231 246
208 221 235
172 186 188
144 159 152
158 172 173
174 186 194
159 174 172
132 148 134
106 128 97
82 107 64
78 103 60
81 106 62
92 115 82
131 147 135
168 181 181
177 190 196
169 182 189
174 187 193
167 180 185
167 181 186
157 171 171
89 113 76
132 149 138
171 184 185
164 177 180
179 190 196
176 187 190
174 186 191
172 185 189
185 197 207
179 192 198
186 197 204
162 175 178
168 181 184
160 173 171
122 141 123
98 120 90
81 107 63
82 107 63
84 110 66
90 116 69
136 153 144
185 196 202
172 184 190
174 186 191
183 195 199
178 190 196
180 191 199
163 176 178
182 193 198
168 182 186
157 170 169
122 141 126
93 116 80
85 111 67
86 112 66
82 108 63
78 103 61
80 106 62
91 118 71
81 107 64
83 109 65
82 108 63
102 124 98
188 199 206
191 202 210
186 198 205
172 184 188
181 193 201
182 194 200
165 179 180
185 197 202
178 191 198
176 189 193
163 178 179
148 161 156
125 144 126
121 139 119
130 147 135
130 145 133
117 135 114
129 147 130
148 163 156
145 159 151
147 162 154
153 167 165
155 170 165
110 130 105
115 136 113
111 132 108
115 134 110
106 128 100
93 117 82
88 112 72
85 112 66
87 114 68
87 113 67
83 109 66
84 110 65
85 111 65
87 113 68
83 108 63
87 113 67
82 108 63
83 109 65
106 125 98
131 148 138
142 158 150
157 171 165
181 192 196
130 147 132
88 115 68
87 113 67
82 108 63
85 111 66
88 115 68
84 110 65
87 114 68
82 108 65
83 109 65
86 113 67
89 115 68
88 115 69
85 110 65
85 111 65
86 112 66
87 113 67
84 110 65
85 111 65
86 111 66
82 106 62
85 112 67
86 112 67
85 111 66
165 179 177
182 195 202
189 199 204
170 183 186
179 191 197
180 192 199
191 202 212
190 201 207
185 197 204
178 189 194
195 207 215
179 191 196
180 191 197
185 197 206
188 200 208
186 196 201
179 190 197
177 189 192
181 193 199
184 196 203
185 196 203
165 178 181
163 176 175
157 171 168
131 148 132
152 166 161
162 176 175
171 184 184
177 189 192
182 193 200
181 193 199
194 204 213
183 195 201
180 192 198
175 187 192
175 187 193
176 188 194
176 187 191
175 186 189
189 200 207
179 191 196
174 187 192
180 191 194
188 200 208
182 194 202
185 196 202
178 189 194
125 143 126
87 113 66
82 108 64
82 107 63
84 110 66
83 109 64
87 114 68
85 111 66
85 111 66
82 107 63
87 113 67
85 112 67
85 110 65
88 114 67
85 111 66
81 107 63
87 113 67
86 112 66
88 115 69
86 112 67
81 106 62
83 109 64
90 115 74
174 187 192
178 190 195
179 190 195
190 201 209
173 186 189
187 198 205
180 191 195
176 189 193
177 188 194
181 193 202
188 199 206
192 203 213
175 187 193
177 190 194
190 201 209
178 191 198
178 190 195
188 199 206
178 189 193
182 195 204
186 198 207
183 195 201
119 138 119
89 116 69
84 110 65
83 108 64
88 114 68
83 109 65
85 110 65
87 114 68
85 111 67
84 109 64
82 108 64
85 111 66
90 117 70
89 115 69
86 113 67
87 113 68
86 112 67
86 112 66
81 107 62
82 107 63
86 111 66
164 178 178
178 191 196
178 192 197
177 190 193
181 193 198
183 194 199
187 197 204
185 197 204
180 191 195
179 191 198
168 181 182
183 196 205
183 194 200
187 198 205
183 194 200
179 191 195
184 194 200
181 192 197
176 187 191
180 193 200
151 166 160
111 132 106
105 127 97
99 121 92
118 138 116
124 142 123
119 138 122
119 137 121
135 151 141
135 153 141
133 150 138
145 160 153
154 169 165
148 163 158
156 170 166
175 188 189
163 177 174
161 174 175
164 177 178
115 135 114
91 116 77
89 113 73
86 111 66
87 112 66
87 111 71
96 118 87
103 125 95
129 146 131
129 147 135
147 162 157
165 178 177
163 177 177
181 192 197
186 197 204
178 190 194
179 191 199
136 151 142
85 111 66
83 109 64
83 108 64
83 109 64
81 107 63
83 109 64
89 116 69
84 110 65
84 109 65
89 115 68
85 111 66
85 111 65
76 101 60
83 110 65
107 127 100
171 185 186
175 188 194
175 188 194
183 194 201
177 188 193
172 184 187
170 183 186
180 192 196
165 179 177
130 149 135
125 143 128
99 121 89
89 113 73
139 154 146
167 179 183
172 185 190
175 188 194
184 197 206
170 184 190
179 191 196
183 194 201
174 187 192
181 193 202
187 198 205
169 182 186
160 174 173
154 168 167
184 196 201
166 179 182
183 195 205
176 188 193
170 183 187
176 188 191
164 177 179
156 170 169
160 174 175
174 186 193
168 180 183
181 194 201
204 216 229
222 235 251
225 238 255
225 238 255
225 238 255
225 238 255
225 238 255
225 238 255
225 238 255
225 238 255
225 238 255
225 238 255
225 238 255
225 238 255
225 238 255
225 238 255
225 238 255
225 238 255
225 238 255
225 238 255
225 238 255
225 238 255
225 238 255
225 238 255
225 238 255
225 238 255
225 238 255
225 238 255
225 238 255
225 238 255
225 238 255
225 238 255
225 238 255
225 238 255
225 238 255
225 238 255
225 238 255
225 238 255
225 238 255
225 238 255
225 238 255
225 238 255
225 238 255
225 238 255
225 238 255
219 232 248
184 198 206
153 169 168
127 144 131
156 168 165
176 188 194
161 174 174
136 152 145
96 116 88
83 110 66
83 109 65
81 107 63
104 125 96
123 141 124
169 182 184
174 186 189
170 182 186
178 190 196
78 103 60
83 109 64
77 102 59
101 124 92
129 146 132
157 170 169
181 191 196
170 183 187
174 188 194
180 192 198
174 187 192
183 194 201
182 193 200
175 188 192
165 179 182
172 183 185
173 185 190
139 154 147
115 134 115
83 109 68
119 137 119
177 189 195
189 200 207
177 189 193
179 191 197
171 183 187
171 183 187
172 185 189
175 187 192
175 187 192
181 192 198
179 190 194
180 192 198
161 176 179
145 162 154
114 133 113
99 123 88
79 104 60
85 111 67
81 107 62
81 106 63
82 107 63
126 145 128
182 194 199
181 191 197
172 185 190
181 193 198
172 185 188
171 183 187
168 180 182
189 200 208
175 187 193
169 182 184
174 187 193
181 192 198
172 184 187
172 185 189
158 172 170
141 157 145
117 136 118
92 116 81
86 112 66
84 110 64
80 105 62
87 113 66
126 144 129
176 189 193
180 192 199
163 175 178
178 191 197
187 199 205
170 182 188
171 184 189
174 186 191
178 191 198
174 186 191
174 187 193
168 182 186
168 181 182
170 183 183
159 175 176
165 178 177
159 172 170
145 161 151
144 159 151
159 174 172
145 159 154
147 163 155
143 158 148
131 149 133
113 134 109
95 117 86
101 125 90
107 127 102
116 135 116
120 140 119
121 141 122
115 134 114
114 133 113
110 132 104
113 132 106
113 135 112
110 132 102
117 137 112
102 124 96
107 128 104
101 124 92
99 123 86
98 120 86
89 113 75
91 117 73
88 114 71
105 127 102
175 187 191
180 191 196
180 193 199
176 188 194
182 193 198
180 193 200
173 185 189
171 184 187
180 191 197
183 194 198
183 194 200
179 190 193
181 192 197
186 197 203
177 189 193
182 194 201
194 204 212
180 192 199
179 191 197
175 188 192
181 193 201
179 191 196
181 193 200
140 156 147
87 113 67
84 110 65
86 112 66
83 109 65
87 113 67
86 112 68
105 127 97
113 134 110
119 138 117
151 167 161
129 145 133
147 163 154
167 180 181
161 175 173
171 183 185
176 188 192
181 193 200
183 196 205
190 201 210
184 197 202
185 196 204
184 196 205
160 173 170
89 115 69
85 111 66
83 109 65
88 113 67
81 106 63
83 109 64
81 107 63
88 115 69
84 110 65
84 110 66
88 115 69
80 104 60
83 108 64
86 113 68
84 110 66
88 115 69
87 112 67
84 110 65
89 116 69
87 114 69
84 110 65
84 110 65
150 165 158
180 193 202
186 198 204
191 202 210
173 186 191
179 192 199
185 196 203
178 189 194
184 194 199
177 190 194
188 199 205
175 186 190
181 193 199
165 178 178
180 191 197
182 193 199
180 192 200
176 188 193
181 193 197
182 193 202
189 200 206
184 196 202
146 160 152
84 110 65
91 116 75
89 114 74
93 117 77
91 115 81
100 123 88
101 123 94
105 127 96
102 126 92
93 116 82
105 125 97
116 136 110
118 139 116
113 134 108
114 135 114
114 133 114
121 139 121
126 144 128
128 146 132
132 149 139
116 136 113
140 157 147
128 147 132
140 157 149
134 151 137
138 154 145
140 154 145
122 141 122
126 145 130
118 135 118
108 128 100
116 136 114
117 137 116
105 125 97
94 117 84
98 121 88
96 120 86
99 122 91
85 112 67
87 112 70
143 158 151
174 187 193
177 189 195
184 196 203
171 184 188
171 184 189
185 196 204
183 195 203
177 190 197
179 191 197
174 187 191
183 194 201
183 194 200
184 195 202
181 193 200
186 198 204
177 190 194
177 190 192
168 182 183
139 156 147
144 159 154
148 162 156
149 164 157
169 181 185
172 185 188
183 195 202
181 192 198
178 190 196
175 187 193
176 187 194
177 189 195
171 184 188
170 183 186
186 198 207
177 189 193
177 189 194
118 137 120
84 109 65
84 111 66
82 107 63
80 105 62
80 106 62
81 106 63
86 113 68
83 108 63
84 110 66
82 108 64
83 109 65
86 112 66
86 113 67
82 106 65
138 154 143
176 187 192
176 188 192
171 183 188
175 187 190
152 166 161
143 160 150
126 142 131
94 118 84
86 112 69
84 110 65
79 104 61
85 111 65
111 131 109
161 175 175
167 179 184
169 181 184
179 190 196
176 189 196
169 181 185
176 189 195
188 200 210
171 184 187
129 145 132
113 131 114
151 165 161
162 176 179
167 180 184
169 181 186
181 193 200
168 180 183
154 168 169
150 164 160
155 169 168
169 181 187
167 180 185
155 169 170
179 193 199
195 208 218
221 234 251
225 238 255
225 238 255
225 238 255
225 238 255
225 238 255
225 238 255
225 238 255
225 238 255
225 238 255
225 238 255
225 238 255
225 238 255
225 238 255
225 238 255
225 238 255
225 238 255
225 238 255
225 238 255
225 238 255
225 238 255
225 238 255
225 238 255
225 238 255
225 238 255
225 238 255
225 238 255
225 238 255
225 238 255
225 238 255
225 238 255
225 238 255
225 238 255
225 238 255
225 238 255
225 238 255
225 238 255
225 238 255
225 238 255
225 238 255
225 238 255
225 238 255
225 238 255
225 238 255
225 238 255
225 238 255
225 238 255
225 238 255
225 238 255
225 238 255
219 231 248
193 208 216
157 173 170
129 146 136
141 156 152
162 176 179
153 167 167
137 152 139
111 130 111
80 105 62
87 113 68
72 96 55
94 116 83
129 146 131
145 161 153
91 114 80
84 109 65
85 111 66
81 106 63
80 106 62
78 104 61
84 107 69
109 128 106
140 156 148
166 180 181
179 191 197
181 193 200
176 188 192
177 189 194
178 190 196
168 181 185
181 193 199
168 181 184
172 184 187
163 175 177
146 160 154
143 159 153
163 175 175
169 181 187
175 187 193
175 187 192
178 189 195
158 172 173
172 186 190
172 185 191
176 188 195
170 182 186
184 195 201
166 179 181
174 186 189
176 188 193
181 193 197
165 178 177
130 146 135
119 138 116
92 116 79
85 110 65
149 164 156
180 191 197
177 188 195
185 196 202
175 188 194
185 195 202
180 191 196
184 196 205
177 190 193
174 187 194
177 189 194
188 200 208
181 193 199
175 187 192
175 187 193
174 185 188
183 194 201
184 196 203
180 191 197
158 172 172
149 165 156
125 142 128
113 132 109
150 165 161
174 187 189
171 184 189
174 186 189
173 185 191
178 190 194
177 190 195
179 192 199
173 185 188
178 191 198
190 201 207
186 197 203
178 191 197
170 183 188
180 191 197
181 193 198
182 193 200
178 190 195
185 197 203
182 194 201
179 191 196
182 193 200
178 190 198
156 169 169
80 105 62
83 109 64
86 113 67
81 106 62
87 113 68
81 107 63
98 121 89
117 135 115
147 164 156
139 155 147
176 189 192
175 186 190
188 199 205
178 190 193
175 187 190
177 190 195
193 204 212
185 197 205
178 191 198
176 189 196
178 190 197
189 200 207
185 197 204
125 143 125
90 114 78
94 118 79
92 117 78
93 117 80
94 119 81
94 117 82
108 130 103
109 129 105
102 125 97
107 129 103
103 125 97
108 129 106
103 125 93
116 135 114
125 143 130
112 132 110
122 140 118
116 134 113
132 150 138
123 141 123
122 140 120
110 130 108
146 161 155
158 172 169
149 164 156
141 157 148
161 174 171
159 173 169
161 174 172
151 166 160
151 166 163
155 170 168
150 165 157
154 168 166
141 157 153
145 161 154
154 168 168
149 163 157
147 162 156
160 173 169
148 162 156
153 167 166
169 182 183
166 180 183
183 194 203
173 185 190
121 139 118
106 126 103
130 148 132
128 148 131
146 161 153
156 170 164
145 159 155
138 155 145
157 172 168
160 173 170
158 170 168
157 172 168
142 156 149
139 156 146
148 162 153
150 164 157
160 174 172
151 166 160
145 160 153
156 170 169
162 176 175
160 174 174
138 155 145
119 138 118
128 145 132
130 149 130
120 139 120
119 138 119
128 146 128
112 131 111
116 135 116
115 135 113
116 136 113
116 134 115
114 133 111
108 129 103
100 121 94
113 133 108
97 119 90
94 118 84
103 126 95
88 112 77
90 115 79
82 107 62
136 153 144
168 180 182
183 195 201
168 181 187
175 186 190
177 190 195
185 197 205
186 198 204
180 192 198
181 193 201
178 190 195
173 185 189
177 189 195
179 191 197
178 189 193
168 181 184
179 190 195
180 192 198
181 193 199
177 190 198
181 193 199
154 168 163
86 113 68
82 108 63
88 114 68
73 98 57
84 109 65
88 115 68
87 113 68
79 104 61
82 108 63
83 108 64
88 114 68
80 106 63
84 110 65
87 114 68
81 106 63
79 105 62
85 111 66
80 106 63
87 113 72
137 152 143
190 202 211
180 192 198
180 192 198
184 195 202
172 184 189
172 184 188
162 175 175
150 164 159
156 171 169
140 155 149
137 153 140
121 139 123
124 143 126
103 124 96
90 113 80
93 117 78
81 107 63
117 137 117
163 175 175
174 187 191
179 191 198
189 200 208
182 194 201
184 196 203
187 198 206
173 186 192
186 198 204
173 185 188
180 192 200
166 179 180
176 189 193
171 183 188
179 191 198
172 185 189
160 175 176
99 120 92
81 107 63
86 112 67
86 112 66
84 110 65
85 111 66
80 104 60
83 109 65
82 107 63
79 104 61
79 104 62
90 117 70
86 112 67
82 108 64
101 122 97
125 142 129
152 167 165
147 162 154
123 142 121
93 117 82
89 114 71
82 107 63
86 111 66
82 107 63
85 111 66
84 111 66
84 109 65
89 113 73
126 142 129
170 183 186
177 189 193
169 181 185
166 178 182
181 193 202
161 175 174
137 154 142
118 137 115
92 115 81
95 119 83
148 164 159
177 189 195
160 172 175
166 179 183
169 182 188
154 168 168
119 136 118
108 129 107
149 164 161
165 177 180
139 155 147
161 176 176
185 199 206
220 233 249
225 238 255
225 238 255
225 238 255
225 238 255
225 238 255
225 238 255
225 238 255
225 238 255
225 238 255
225 238 255
225 238 255
225 238 255
225 238 255
225 238 255
225 238 255
225 238 255
225 238 255
225 238 255
225 238 255
225 238 255
225 238 255
225 238 255
225 238 255
225 238 255
225 238 255
225 238 255
225 238 255
225 238 255
225 238 255
225 238 255
225 238 255
225 238 255
225 238 255
225 238 255
225 238 255
225 238 255
225 238 255
225 238 255
225 238 255
225 238 255
225 238 255
225 238 255
225 238 255
225 238 255
225 238 255
225 238 255
225 238 255
225 238 255
225 238 255
225 238 255
225 238 255
225 238 255
225 238 255
225 238 255
225 238 255
222 234 251
192 206 214
150 165 162
144 158 155
153 166 165
173 187 191
158 172 171
144 159 154
102 122 97
81 105 65
80 105 62
77 101 59
134 149 142
146 162 156
135 150 142
103 124 95
73 97 57
79 104 61
85 111 66
85 111 67
84 110 65
86 112 66
98 119 92
132 148 139
154 167 164
169 181 187
179 190 196
169 180 182
173 185 188
169 181 182
170 183 187
161 175 178
140 155 146
78 103 61
79 104 61
102 122 97
129 147 134
151 165 164
176 189 192
174 187 191
179 190 195
178 190 198
180 193 198
175 186 190
173 185 190
170 183 188
163 177 178
171 183 187
168 181 183
177 189 193
183 194 200
176 190 196
168 180 183
157 171 169
142 156 150
150 165 160
169 181 185
185 196 204
179 191 199
181 192 199
178 188 194
178 190 196
176 188 194
179 192 196
176 188 192
182 193 197
181 192 199
174 187 193
176 189 196
179 190 194
176 188 192
175 186 190
173 186 190
173 186 191
177 190 199
187 199 208
170 183 187
103 126 93
132 149 134
147 163 154
143 158 153
175 188 190
180 193 200
181 193 198
178 189 194
183 195 201
164 177 181
174 186 190
181 193 197
185 196 202
183 195 202
175 188 192
162 175 177
182 194 200
171 183 185
179 190 192
181 192 198
175 187 190
179 191 197
173 186 192
129 147 137
84 110 65
85 111 66
82 108 64
86 113 67
81 105 62
80 106 61
79 105 62
84 110 66
80 106 63
83 109 64
81 107 63
83 108 67
99 122 87
120 139 121
151 165 160
148 163 157
168 181 183
179 192 199
173 186 190
178 190 196
173 186 192
175 187 193
167 180 185
81 106 62
83 109 64
82 107 64
86 112 66
84 110 65
82 108 63
84 110 66
85 110 65
80 105 62
85 111 66
78 103 60
88 114 68
83 109 64
82 108 63
86 112 66
82 107 63
80 105 62
83 108 64
80 106 62
87 113 67
86 112 67
81 106 63
84 110 65
165 178 178
180 192 197
178 190 195
188 199 207
180 192 199
187 198 205
175 187 192
170 182 185
175 187 194
178 190 193
181 193 197
169 181 184
176 188 194
173 187 194
179 192 197
168 181 184
179 190 193
186 198 207
174 186 188
181 192 197
165 177 179
176 187 191
177 189 195
125 143 127
87 113 67
85 111 65
84 110 64
76 101 59
88 114 68
87 113 67
95 117 84
100 120 93
109 129 105
107 127 101
131 149 135
134 151 140
138 155 148
157 172 166
147 162 155
152 166 161
157 170 170
149 164 159
163 176 175
180 192 197
175 188 195
162 176 179
108 129 102
85 112 66
88 114 68
84 110 65
84 110 66
92 118 71
88 114 68
87 113 67
85 110 65
86 113 67
84 109 65
88 114 67
85 111 66
86 112 67
88 115 69
84 110 65
88 114 68
81 107 63
83 109 65
83 109 64
79 105 62
106 125 103
167 180 183
185 195 202
178 190 197
186 197 205
177 189 193
171 183 189
180 192 198
180 192 195
180 191 197
181 193 198
188 199 206
170 183 187
173 185 191
178 191 196
172 185 192
177 189 196
174 186 188
169 182 185
177 190 195
175 187 192
141 158 153
86 111 66
83 109 64
85 111 66
85 112 66
86 112 67
78 103 61
85 111 66
90 117 70
85 111 66
91 115 79
89 112 77
103 126 94
118 139 120
122 140 121
121 139 121
132 149 136
137 154 145
148 163 155
136 153 142
117 135 117
122 139 122
118 137 119
107 128 98
108 131 97
95 119 81
85 111 66
88 115 69
82 108 64
83 109 64
87 113 67
83 109 65
88 114 68
85 111 67
81 106 63
86 112 67
84 109 65
82 108 64
124 142 123
174 187 194
176 188 193
169 181 185
179 192 199
186 198 206
182 195 203
178 191 197
173 185 187
184 195 201
169 181 184
175 188 196
174 187 190
173 185 191
180 192 198
188 200 210
185 196 204
148 162 158
82 105 67
82 108 65
82 107 63
82 107 64
79 104 60
83 109 64
87 113 67
79 104 61
82 107 63
85 111 65
103 125 92
119 139 118
130 147 137
156 171 167
127 145 132
87 112 70
81 106 62
86 113 68
84 110 65
84 109 65
78 103 60
89 116 69
81 107 64
82 108 63
88 114 67
80 105 62
79 105 61
127 145 128
154 168 169
172 184 188
177 188 193
148 164 160
130 148 134
103 123 98
83 107 66
79 104 61
77 101 59
92 114 80
141 156 145
181 193 199
174 186 192
151 165 164
132 148 138
114 133 112
87 110 74
124 140 129
129 146 133
149 164 158
163 177 178
202 215 226
220 232 248
225 238 255
225 238 255
225 238 255
225 238 255
225 238 255
225 238 255
225 238 255
225 238 255
225 238 255
225 238 255
225 238 255
225 238 255
225 238 255
225 238 255
225 238 255
225 238 255
225 238 255
225 238 255
225 238 255
225 238 255
225 238 255
225 238 255
225 238 255
225 238 255
225 238 255
225 238 255
225 238 255
225 238 255
225 238 255
225 238 255
225 238 255
225 238 255
225 238 255
225 238 255
225 238 255
225 238 255
225 238 255
225 238 255
225 238 255
225 238 255
225 238 255
225 238 255
225 238 255
225 238 255
225 238 255
225 238 255
225 238 255
225 238 255
225 238 255
225 238 255
225 238 255
225 238 255
225 238 255
225 238 255
225 238 255
225 238 255
225 238 255
225 238 255
225 238 255
225 238 255
225 238 255
224 237 254
200 213 224
166 181 182
136 151 145
141 155 149
160 174 178
157 171 171
142 158 150
117 135 119
123 140 126
175 187 192
162 175 178
174 186 190
164 177 178
131 146 136
108 129 107
79 103 63
76 100 58
84 110 65
80 104 61
78 104 60
81 106 63
89 115 76
112 132 110
150 164 163
165 179 181
169 182 186
171 183 185
176 187 192
140 157 146
83 109 64
81 107 63
86 112 66
83 109 64
83 108 64
82 107 66
111 130 111
132 150 138
168 180 181
175 188 193
178 191 198
183 194 199
176 188 195
167 181 185
177 190 196
166 179 183
170 182 185
174 186 190
184 196 204
163 176 177
175 187 191
102 123 93
81 106 63
80 105 61
107 128 104
131 148 136
154 168 165
165 176 177
170 183 187
181 192 201
176 189 197
181 192 199
171 183 188
177 190 195
169 181 183
175 187 192
181 192 199
176 188 193
165 178 180
169 181 186
185 195 201
175 188 193
185 197 207
155 169 166
83 109 64
81 107 63
81 106 63
83 109 64
87 113 67
102 124 95
132 149 134
143 159 148
156 171 167
177 189 192
166 179 184
182 193 199
186 197 203
172 185 191
180 192 199
172 184 187
171 184 186
185 197 204
181 193 198
182 195 203
179 191 197
186 198 204
170 181 185
86 110 68
86 112 66
85 111 66
83 109 64
84 109 65
85 111 66
87 113 68
83 108 64
84 110 65
82 108 64
85 111 65
83 109 65
82 109 64
85 111 65
85 110 65
82 107 64
81 106 63
83 109 64
91 116 76
105 126 99
128 147 132
132 150 137
149 163 158
151 166 161
95 119 83
82 108 64
82 108 64
78 103 61
84 109 64
80 105 62
82 107 63
81 107 63
78 103 60
83 108 64
84 110 65
78 103 59
83 108 64
85 111 65
84 110 65
85 111 66
81 106 62
84 110 65
83 109 64
84 109 65
79 104 60
85 112 67
124 143 121
182 192 198
171 185 189
184 197 204
184 196 203
163 176 178
172 184 189
173 186 193
173 186 193
171 184 188
180 192 197
183 195 202
178 190 196
177 189 194
185 197 203
175 188 193
186 198 207
183 193 199
175 188 192
178 190 196
185 196 202
166 178 179
172 185 191
162 176 175
79 104 61
85 111 66
86 113 68
84 110 66
86 112 66
86 112 66
81 106 63
83 109 64
90 117 71
87 114 69
87 114 68
78 103 60
89 116 69
82 106 63
85 111 66
84 110 66
82 108 64
86 112 66
85 111 67
84 110 65
82 108 64
88 113 73
158 172 172
184 195 201
178 190 196
171 183 189
174 186 191
163 175 175
158 172 173
154 169 168
146 162 156
148 164 161
152 166 160
146 162 159
142 157 149
141 156 146
148 163 157
134 150 139
139 155 145
145 161 153
145 160 152
135 152 140
143 159 152
120 140 122
142 158 154
147 162 153
138 153 143
158 171 168
146 163 150
140 157 151
137 154 144
147 162 156
148 163 157
150 165 159
137 153 146
142 158 149
144 158 152
137 153 142
140 155 149
145 162 153
125 144 127
140 157 149
129 147 132
131 149 132
147 162 158
147 163 157
145 158 151
152 166 164
149 165 159
151 164 164
156 170 170
170 181 183
172 183 188
171 184 187
176 188 195
165 178 178
179 191 194
180 192 197
172 184 188
184 195 198
166 179 182
189 200 208
178 189 195
172 185 188
122 140 121
81 107 63
82 108 64
83 109 65
87 113 68
84 110 65
78 103 60
84 110 65
79 104 61
79 105 61
84 110 65
79 104 60
84 109 65
85 112 66
77 102 60
84 110 65
85 111 66
82 108 63
129 146 136
171 183 188
179 190 196
177 190 197
176 188 195
182 193 200
167 180 182
177 190 197
185 197 206
180 192 196
177 190 197
175 188 191
185 196 202
177 188 194
176 189 194
171 184 187
167 179 182
132 148 141
86 112 67
84 110 65
81 107 63
83 109 63
83 107 67
90 111 81
117 138 114
133 150 136
147 163 158
151 166 163
174 187 190
178 191 195
187 198 206
161 175 177
120 137 123
83 109 64
81 107 64
84 110 65
79 104 61
83 109 64
81 107 62
76 101 59
82 107 63
80 105 61
85 111 66
85 111 65
111 132 107
149 164 157
142 157 150
129 146 130
109 130 103
83 108 64
80 105 63
78 103 60
77 101 59
80 105 62
87 112 73
127 145 131
155 169 168
125 140 131
121 140 122
91 112 81
80 105 62
86 112 67
99 120 91
125 143 128
162 177 177
197 211 221
222 234 251
225 238 255
225 238 255
225 238 255
225 238 255
225 238 255
225 238 255
225 238 255
225 238 255
225 238 255
225 238 255
225 238 255
225 238 255
225 238 255
225 238 255
225 238 255
225 238 255
225 238 255
225 238 255
225 238 255
225 238 255
225 238 255
225 238 255
225 238 255
225 238 255
225 238 255
225 238 255
225 238 255
225 238 255
225 238 255
225 238 255
225 238 255
225 238 255
225 238 255
225 238 255
225 238 255
225 238 255
225 238 255
225 238 255
225 238 255
225 238 255
225 238 255
225 238 255
225 238 255
225 238 255
225 238 255
225 238 255
225 238 255
225 238 255
225 238 255
225 238 255
225 238 255
225 238 255
225 238 255
225 238 255
225 238 255
225 238 255
225 238 255
225 238 255
225 238 255
225 238 255
225 238 255
225 238 255
225 238 255
225 238 255
225 238 255
225 238 255
225 238 255
225 238 255
199 212 224
173 187 191
145 160 155
154 167 164
161 174 175
144 158 153
107 126 103
136 152 142
162 175 176
174 186 193
176 188 194
155 169 171
165 177 180
140 156 152
116 134 116
85 108 72
78 103 61
81 107 63
76 101 59
79 105 62
82 108 64
78 103 60
107 127 103
130 147 137
153 166 162
120 138 121
81 107 63
77 102 60
80 106 62
83 108 64
78 103 61
77 102 60
77 102 61
79 105 62
80 105 61
82 107 67
118 136 121
150 165 160
161 175 177
179 189 194
165 178 181
177 189 195
161 174 176
174 187 191
183 194 200
170 183 185
169 183 187
87 111 74
84 110 66
80 105 62
87 113 68
81 106 62
83 109 64
83 109 64
92 116 82
122 140 121
140 155 146
164 178 180
171 184 188
175 187 193
185 196 202
187 198 205
189 199 204
163 176 177
179 190 196
181 191 196
185 196 203
173 186 191
188 199 206
141 157 147
83 109 65
85 111 65
81 106 63
79 104 61
81 108 64
86 112 67
82 108 64
83 108 64
85 111 66
80 105 64
119 139 118
126 145 124
144 158 155
156 170 168
172 186 191
177 188 192
177 190 197
180 191 197
187 198 206
179 192 198
179 191 197
179 192 198
155 169 167
77 101 58
81 107 64
80 105 61
83 109 64
85 111 66
85 111 66
83 109 65
83 108 64
79 104 60
82 107 62
84 110 65
85 111 66
80 105 61
88 114 68
87 113 67
86 112 66
82 108 64
80 106 63
85 111 65
79 104 60
87 113 67
82 109 65
97 122 83
178 190 194
177 189 194
184 197 204
164 177 180
145 160 155
132 148 135
132 150 140
120 139 118
101 125 89
83 109 65
84 110 66
83 109 64
84 110 64
82 108 63
83 108 64
84 109 65
85 111 66
86 113 68
84 110 65
86 111 66
86 112 67
86 112 67
90 113 78
168 180 183
191 201 207
176 188 192
191 203 212
183 195 202
183 194 203
179 189 193
180 192 199
178 191 197
190 201 208
181 192 199
158 171 172
181 193 200
178 189 195
171 184 189
165 179 180
178 190 196
180 192 199
190 201 208
180 192 198
169 181 188
176 187 191
172 185 189
101 124 91
88 114 68
83 109 65
84 111 65
88 115 69
78 103 61
84 110 64
83 109 65
81 106 62
86 112 66
90 116 70
86 112 67
86 111 66
80 106 62
81 106 63
85 111 66
82 108 64
86 113 67
85 112 67
79 104 61
84 110 66
84 109 65
142 158 148
174 187 192
179 190 197
182 194 201
173 186 192
178 190 195
185 196 202
183 195 204
183 195 201
171 183 187
172 185 189
173 185 192
175 187 193
173 185 188
176 188 194
174 186 193
178 190 197
188 199 206
176 188 192
190 203 214
182 194 199
173 184 188
105 126 99
84 109 65
79 104 61
84 110 66
80 105 62
85 112 67
80 105 61
85 110 66
80 105 62
76 102 59
84 110 66
86 112 67
82 107 64
86 112 66
85 111 67
85 111 66
88 114 67
84 110 65
85 111 65
87 114 69
117 137 116
174 186 189
188 199 206
179 191 197
186 198 205
173 185 191
169 181 183
184 196 205
175 188 194
178 190 198
177 189 194
173 184 187
175 186 191
179 189 195
178 190 195
181 192 197
170 183 187
181 192 197
169 182 186
171 183 187
119 136 119
83 109 65
88 114 68
84 109 65
87 114 68
84 110 65
79 104 60
79 105 61
79 104 60
86 112 66
80 106 62
84 110 66
84 110 66
88 114 68
79 105 61
82 108 64
80 106 62
86 111 68
144 158 154
177 188 190
177 189 195
176 188 194
183 194 201
175 187 193
192 203 211
181 194 199
173 186 191
173 185 190
174 187 191
174 185 193
181 193 199
185 196 204
175 188 196
177 188 190
156 171 169
106 127 104
111 131 109
121 140 119
146 161 157
155 169 167
165 179 180
167 180 185
176 188 194
174 186 190
169 182 187
172 184 189
162 175 179
162 176 178
173 184 189
153 167 166
93 117 81
83 109 64
79 105 62
81 106 63
78 103 61
79 104 61
78 102 59
79 104 61
81 107 64
96 119 87
131 146 134
126 144 131
114 133 115
78 102 61
82 107 64
78 104 61
82 108 64
79 105 63
80 106 63
79 104 61
83 108 64
90 112 79
94 116 87
112 131 111
100 121 95
81 107 64
85 110 67
107 126 108
107 127 106
143 159 150
159 174 174
200 214 225
223 236 253
225 238 255
225 238 255
225 238 255
225 238 255
225 238 255
225 238 255
225 238 255
225 238 255
225 238 255
225 238 255
225 238 255
225 238 255
225 238 255
225 238 255
225 238 255
225 238 255
225 238 255
225 238 255
225 238 255
225 238 255
225 238 255
225 238 255
225 238 255
225 238 255
225 238 255
225 238 255
225 238 255
225 238 255
225 238 255
225 238 255
225 238 255
225 238 255
225 238 255
225 238 255
225 238 255
225 238 255
225 238 255
225 238 255
225 238 255
225 238 255
225 238 255
225 238 255
225 238 255
225 238 255
225 238 255
225 238 255
225 238 255
225 238 255
225 238 255
225 238 255
225 238 255
225 238 255
225 238 255
225 238 255
225 238 255
225 238 255
225 238 255
225 238 255
225 238 255
225 238 255
225 238 255
225 238 255
225 238 255
225 238 255
225 238 255
225 238 255
225 238 255
225 238 255
225 238 255
225 238 255
225 238 255
225 238 255
225 238 255
225 238 255
213 226 240
178 192 196
156 170 168
114 133 114
102 123 99
77 102 59
95 116 86
135 150 144
140 154 153
166 179 180
169 181 185
170 182 187
168 180 182
142 157 153
128 145 132
104 125 99
81 106 62
76 102 59
70 94 55
74 99 58
75 100 58
76 101 59
136 153 143
158 171 168
127 145 130
94 114 86
84 109 67
80 105 62
80 105 62
79 104 61
76 101 59
78 103 60
83 109 65
84 109 65
81 107 63
86 112 67
86 110 73
121 138 123
141 158 149
167 180 183
168 180 185
177 188 192
170 182 186
162 175 175
73 98 57
80 106 63
83 108 64
81 107 63
80 106 63
83 109 65
85 111 66
86 111 66
81 107 63
82 107 63
81 106 62
94 116 84
117 135 118
143 159 149
162 175 174
177 190 195
169 182 187
184 195 203
187 198 204
166 178 180
171 185 190
176 188 194
109 129 104
81 107 64
85 111 66
84 110 65
81 106 63
84 110 66
79 104 61
84 110 65
84 110 65
83 109 64
84 110 65
79 105 62
82 108 64
83 109 65
88 115 68
86 112 70
102 124 98
119 137 118
141 157 147
151 166 164
163 177 177
174 187 192
166 179 181
102 124 95
82 107 64
84 110 65
88 114 68
83 109 64
84 109 65
79 104 60
81 106 62
87 114 68
83 109 64
83 109 65
84 110 65
83 109 64
84 109 66
76 101 59
80 106 62
80 105 62
87 113 67
86 112 67
84 110 65
81 106 62
84 110 65
84 110 65
139 154 146
159 172 174
178 191 198
182 194 202
186 198 206
180 192 197
175 188 193
178 190 195
180 192 196
186 198 204
176 188 192
173 186 192
151 166 161
148 162 155
138 155 144
117 136 118
104 125 100
95 119 81
86 112 67
78 103 60
84 110 64
83 109 64
84 110 65
139 155 142
178 190 195
168 181 184
177 189 195
171 184 188
171 184 187
173 185 188
184 195 202
182 194 200
166 180 185
176 188 192
178 190 197
183 194 203
180 192 197
173 186 189
179 191 197
180 192 200
167 180 184
173 186 191
182 193 198
179 192 200
176 189 195
172 184 188
122 139 124
84 110 65
83 109 64
83 109 64
86 112 66
82 107 64
84 110 65
80 105 62
80 105 62
83 109 64
83 109 65
84 109 64
85 111 65
85 111 67
88 114 68
86 112 67
81 107 64
84 110 65
83 109 63
79 105 61
80 105 62
84 110 66
122 139 122
183 195 202
177 189 194
169 182 186
179 190 198
180 192 197
180 192 198
174 186 191
183 195 202
166 178 180
181 192 199
175 188 194
170 183 186
169 182 185
176 188 193
174 187 193
173 186 192
167 179 182
179 191 195
182 194 200
179 189 193
177 189 193
121 140 119
82 108 64
81 107 62
86 112 67
86 112 65
81 106 62
84 109 65
84 110 66
85 110 66
85 111 66
79 105 62
82 108 64
82 108 64
85 111 66
84 111 65
87 113 68
80 106 63
84 109 64
84 110 66
87 113 68
118 136 117
176 187 191
178 190 195
181 193 200
166 180 185
180 193 199
180 192 197
183 195 204
171 183 187
176 188 194
173 186 192
165 178 182
173 185 190
187 198 205
172 185 190
173 186 191
179 191 197
175 187 192
177 190 197
162 176 177
108 128 107
82 107 62
75 101 59
79 104 60
84 109 65
84 110 66
83 109 65
84 109 65
82 108 64
88 114 68
85 111 66
77 103 60
83 108 64
83 108 65
86 112 67
80 105 62
81 107 63
99 122 89
159 172 172
174 186 190
186 198 207
167 181 185
163 176 178
172 184 187
174 186 190
175 187 192
167 180 183
183 194 199
169 181 184
166 179 182
161 174 172
141 157 151
120 139 121
115 134 117
149 164 161
164 177 181
179 191 197
173 185 189
176 188 193
173 186 192
176 189 195
173 185 188
173 186 193
172 185 188
170 182 187
176 188 193
171 183 186
157 171 173
162 174 175
111 129 110
76 100 58
76 100 59
79 104 62
83 109 64
76 100 58
92 115 84
105 125 102
135 152 143
155 169 167
167 180 182
170 182 188
143 158 151
89 111 78
77 102 59
83 109 65
79 104 61
77 102 59
78 104 61
96 117 91
129 145 137
137 154 150
121 138 123
88 113 76
78 103 60
87 110 76
122 139 127
132 147 138
161 175 178
194 208 216
206 219 232
225 238 255
225 238 255
225 238 255
225 238 255
225 238 255
225 238 255
225 238 255
225 238 255
225 238 255
225 238 255
225 238 255
225 238 255
225 238 255
225 238 255
225 238 255
225 238 255
225 238 255
225 238 255
225 238 255
225 238 255
225 238 255
225 238 255
225 238 255
225 238 255
225 238 255
225 238 255
225 238 255
225 238 255
225 238 255
225 238 255
225 238 255
225 238 255
225 238 255
225 238 255
225 238 255
225 238 255
225 238 255
225 238 255
225 238 255
225 238 255
225 238 255
225 238 255
225 238 255
225 238 255
225 238 255
225 238 255
225 238 255
225 238 255
225 238 255
225 238 255
225 238 255
225 238 255
225 238 255
225 238 255
225 238 255
225 238 255
225 238 255
225 238 255
225 238 255
225 238 255
225 238 255
226 238 255
225 238 255
226 238 255
226 238 255
226 238 255
226 238 255
226 238 255
226 238 255
226 238 255
226 238 255
226 238 255
226 238 255
226 238 255
226 238 255
226 238 255
226 238 255
226 238 255
226 238 255
226 238 255
226 238 255
214 227 242
191 204 213
157 172 171
96 118 91
86 109 77
90 112 82
90 113 80
120 139 124
142 158 153
156 169 169
166 178 180
153 167 168
168 180 184
160 173 175
129 145 132
108 127 106
92 115 83
74 98 57
76 100 59
137 152 146
170 182 186
164 178 181
174 187 192
154 168 164
149 163 161
131 147 136
89 112 79
77 102 60
81 106 63
84 110 65
84 110 65
78 103 61
82 108 65
81 106 63
82 107 63
80 106 62
83 108 63
97 121 87
127 144 129
126 142 134
135 151 142
87 112 70
81 107 63
81 106 62
80 106 62
81 106 62
85 110 65
84 110 65
78 103 60
79 104 61
83 109 64
81 107 63
82 108 63
81 107 64
78 103 60
81 107 63
81 105 65
99 120 93
123 141 126
147 161 155
168 181 183
175 187 190
179 191 195
86 111 71
82 107 64
77 102 59
78 103 60
82 108 64
85 111 66
84 110 65
83 110 65
83 108 64
84 110 66
76 100 59
86 112 66
79 105 62
83 109 64
83 109 64
80 105 62
82 108 65
85 111 66
83 109 65
87 113 67
80 106 63
88 113 73
134 151 140
128 145 136
132 149 137
113 132 109
93 116 82
90 116 69
83 109 65
85 111 66
81 107 64
85 111 66
83 110 64
81 107 63
83 108 64
83 109 64
85 110 65
84 110 65
84 110 66
84 110 65
79 104 61
91 118 71
86 112 67
84 110 65
84 110 65
114 134 115
180 191 197
173 186 192
176 189 197
176 188 193
187 199 207
179 191 197
167 180 181
185 198 204
177 189 194
164 177 182
174 187 193
177 189 195
168 181 185
185 197 204
172 185 190
181 193 200
176 188 193
181 193 197
169 182 185
175 188 191
143 158 151
147 162 154
141 157 147
150 165 163
161 176 173
176 188 194
166 178 180
173 186 190
183 195 203
174 187 192
176 187 192
175 187 191
180 192 199
180 191 197
184 196 203
179 191 197
171 184 187
182 194 200
177 188 193
184 196 204
172 184 189
181 192 197
170 183 187
179 190 197
176 189 195
158 171 171
82 108 63
84 110 65
83 109 65
81 107 63
85 111 67
78 104 61
86 113 67
86 113 67
84 110 66
83 110 65
83 109 65
79 104 61
87 113 67
82 108 63
81 107 63
83 109 65
82 108 64
79 104 61
83 108 63
79 104 61
82 108 63
110 129 105
179 191 197
180 192 199
179 190 196
183 194 203
173 185 190
178 190 194
178 190 194
179 191 196
169 182 187
177 190 195
174 186 189
174 186 191
172 184 189
184 196 204
187 199 206
171 184 189
182 195 203
171 184 189
174 186 189
185 196 204
172 186 189
112 132 108
85 111 66
82 108 64
81 106 62
81 107 64
85 111 67
85 112 67
87 114 68
79 105 62
81 107 63
83 109 64
84 110 65
83 108 64
82 107 63
80 105 61
82 108 64
81 107 64
85 112 67
78 103 60
85 111 66
116 133 115
169 181 184
176 188 195
173 185 191
185 196 203
175 188 192
167 180 184
158 173 175
177 190 196
167 179 181
171 184 188
175 187 193
177 190 198
168 182 187
171 183 189
178 190 196
175 187 193
173 185 191
174 186 190
164 178 181
96 118 87
76 101 60
83 109 65
84 109 65
86 112 67
84 111 66
84 109 65
85 110 66
88 115 69
85 111 66
85 110 65
83 109 64
80 105 62
79 104 61
82 107 64
83 109 65
80 105 62
114 132 114
170 182 183
173 185 188
170 182 186
159 173 175
162 176 177
148 163 158
145 161 157
143 158 150
110 129 108
115 134 112
101 123 92
82 107 66
83 109 64
85 112 67
79 104 62
91 115 81
147 162 158
169 180 185
167 181 185
181 193 199
175 186 192
168 181 184
167 179 183
167 181 185
174 186 192
175 187 191
170 183 191
175 187 193
176 189 196
175 187 190
139 155 146
88 113 73
83 108 68
102 123 96
119 137 122
137 153 145
152 166 167
167 179 182
174 186 192
168 181 185
171 184 190
164 177 178
141 157 151
90 111 81
75 99 57
82 107 63
84 108 69
106 126 103
125 142 130
145 160 157
155 169 171
162 175 175
122 139 126
85 109 72
91 115 80
97 117 93
118 136 122
170 185 188
185 198 206
221 234 250
226 238 255
226 238 255
226 238 255
226 238 255
226 238 255
226 238 255
226 238 255
226 238 255
226 238 255
226 238 255
226 238 255
226 238 255
226 238 255
226 238 255
226 238 255
226 238 255
226 238 255
226 238 255
225 238 255
226 238 255
225 238 255
225 238 255
225 238 255
225 238 255
225 238 255
225 238 255
225 238 255
225 238 255
225 238 255
225 238 255
225 238 255
225 238 255
225 238 255
225 238 255
225 238 255
225 238 255
225 238 255
225 238 255
225 238 255
225 238 255
225 238 255
225 238 255
226 238 255
226 238 255
226 238 255
226 238 255
226 238 255
226 238 255
226 238 255
226 238 255
226 238 255
226 238 255
226 238 255
226 238 255
226 238 255
226 238 255
226 238 255
226 238 255
226 238 255
226 238 255
226 238 255
226 238 255
226 238 255
226 238 255
226 238 255
226 238 255
226 238 255
226 238 255
226 238 255
226 238 255
226 238 255
226 238 255
226 238 255
226 238 255
226 238 255
226 238 255
226 238 255
226 238 255
226 238 255
226 238 255
226 238 255
226 238 255
226 238 255
226 238 255
226 238 255
226 238 255
226 238 255
226 238 255
194 208 217
163 177 179
137 154 145
114 132 116
109 127 113
122 139 126
134 148 140
135 152 145
145 160 158
169 182 189
162 177 179
172 184 188
167 179 182
141 155 152
129 146 138
152 165 161
168 181 186
164 177 181
165 177 181
177 190 197
159 171 173
163 175 179
166 179 182
163 175 177
139 154 149
119 138 120
98 120 92
76 101 59
75 99 58
78 103 61
75 100 58
78 103 60
82 108 64
78 103 61
81 106 63
77 101 59
146 162 156
165 177 181
145 159 156
135 151 139
110 130 108
75 99 59
84 110 65
85 111 67
78 104 61
77 102 60
79 104 61
78 103 61
78 103 61
80 105 62
81 107 63
82 108 64
79 105 62
84 110 66
82 107 62
83 109 64
84 110 66
81 106 66
134 149 137
143 159 150
106 126 103
91 113 82
81 107 63
83 110 65
84 110 65
83 108 64
82 107 63
82 107 64
81 106 63
80 106 63
78 103 61
87 114 68
82 108 63
86 112 67
86 113 67
82 107 63
80 105 62
82 107 63
82 107 64
82 107 63
84 110 65
164 177 175
182 194 200
179 192 198
181 193 199
176 187 192
167 181 183
152 167 165
131 147 137
127 144 128
106 125 101
89 114 76
82 108 65
87 113 67
85 112 67
83 109 64
84 110 65
82 107 63
88 115 69
85 110 65
83 109 64
79 105 62
82 107 63
78 102 60
158 171 170
171 182 186
179 191 197
173 186 190
173 185 189
171 183 188
173 185 191
170 183 186
178 190 197
171 184 189
176 187 190
180 191 195
170 183 187
181 194 201
177 189 195
177 190 193
171 182 184
169 183 188
177 188 192
170 183 188
181 192 198
181 192 197
177 190 196
114 131 112
82 108 65
87 113 68
79 105 62
86 112 66
94 117 84
107 129 103
127 145 125
127 145 132
127 144 131
145 160 155
143 156 151
156 171 172
164 176 178
166 180 183
173 186 191
166 179 182
188 199 207
174 186 192
176 187 192
182 195 203
184 196 204
167 181 183
86 110 73
83 109 64
82 108 65
83 109 64
82 108 65
81 106 62
86 112 67
79 104 62
79 104 62
79 104 61
81 106 63
82 107 64
85 110 65
86 112 66
79 104 61
80 105 62
85 111 66
84 110 65
83 108 64
81 107 63
79 105 61
106 126 100
176 188 192
180 192 199
168 180 184
180 191 195
169 182 189
175 187 192
177 189 196
176 187 193
179 191 196
169 182 183
171 184 187
181 193 197
173 185 188
164 176 179
172 184 188
180 192 198
178 190 197
165 178 182
175 188 194
171 184 187
163 177 178
127 145 132
83 109 65
83 109 64
81 106 62
86 112 66
81 106 63
85 111 66
83 109 65
85 110 66
81 107 63
79 104 61
83 108 64
81 107 63
85 111 66
83 109 64
82 108 65
80 105 62
82 107 63
81 106 62
84 110 65
117 137 115
176 188 192
176 189 193
183 194 201
163 176 175
174 185 190
175 189 195
181 192 196
175 187 190
170 183 186
169 181 184
170 182 188
179 192 199
168 181 184
181 194 200
172 184 189
163 177 180
168 180 184
172 184 188
158 171 166
89 112 78
80 105 61
78 103 61
86 112 67
84 110 65
83 109 65
77 102 59
79 104 61
83 109 64
85 111 67
83 110 65
77 102 60
87 111 73
103 123 102
107 128 104
116 134 116
130 146 134
94 117 82
112 133 111
125 143 127
103 124 98
85 110 68
81 106 63
84 111 66
76 100 57
78 103 60
84 110 65
83 109 65
81 106 63
81 107 63
75 100 58
83 108 63
79 103 60
112 131 111
166 180 183
176 188 191
173 186 193
172 184 190
160 174 179
163 175 178
171 183 188
175 188 193
165 177 180
159 173 173
176 188 195
168 180 186
154 168 171
154 168 170
143 158 156
135 152 142
152 166 166
171 184 188
173 186 190
168 181 184
166 178 179
171 185 191
172 185 190
163 177 179
166 179 184
138 154 145
98 119 94
91 114 85
113 131 114
130 145 138
159 172 173
160 175 181
159 172 173
165 177 181
148 163 162
114 131 118
92 113 82
95 117 84
122 140 128
169 183 186
199 212 224
225 237 254
226 238 255
226 238 255
226 238 255
226 238 255
226 238 255
226 238 255
226 238 255
226 238 255
226 238 255
226 238 255
226 238 255
226 238 255
226 238 255
226 238 255
226 238 255
226 238 255
226 238 255
226 238 255
226 238 255
226 238 255
226 238 255
226 238 255
226 238 255
226 238 255
226 238 255
226 238 255
226 238 255
226 238 255
226 238 255
226 238 255
226 238 255
226 238 255
226 238 255
226 238 255
226 238 255
226 238 255
226 238 255
226 238 255
226 238 255
226 238 255
226 238 255
226 238 255
226 238 255
226 238 255
226 238 255
226 238 255
226 238 255
226 238 255
226 238 255
226 238 255
226 238 255
226 238 255
226 238 255
226 238 255
226 238 255
226 238 255
226 238 255
226 238 255
226 238 255
226 238 255
226 238 255
226 238 255
226 238 255
226 238 255
226 238 255
226 238 255
226 238 255
226 238 255
226 238 255
226 238 255
226 238 255
226 238 255
226 238 255
226 238 255
226 238 255
226 238 255
226 238 255
226 238 255
226 238 255
226 238 255
226 238 255
226 238 255
226 238 255
226 238 255
226 238 255
226 238 255
226 238 255
226 238 255
226 238 255
226 238 255
226 238 255
226 238 255
226 238 255
226 238 255
218 230 246
181 195 202
158 173 172
126 143 132
132 148 141
158 170 172
142 155 152
161 174 176
154 167 165
156 168 170
156 168 169
168 181 185
99 121 96
77 101 59
119 136 121
126 142 131
155 168 168
165 178 184
176 188 193
166 178 180
169 181 184
162 175 179
169 181 184
169 182 186
147 160 157
134 152 142
118 135 118
101 122 93
78 102 60
78 103 61
77 101 60
76 101 59
78 102 60
153 165 165
166 181 187
161 174 175
161 174 176
177 189 194
175 188 192
149 162 158
127 144 135
112 131 111
87 112 75
81 106 63
78 103 60
76 101 59
77 102 59
76 101 59
79 104 61
79 103 59
74 99 58
73 97 55
76 101 60
78 104 62
77 101 59
157 170 169
171 184 189
170 182 187
168 181 186
166 178 180
158 172 168
136 152 143
114 133 112
90 113 78
84 110 65
80 105 62
81 106 62
81 106 63
79 104 61
82 108 65
81 107 64
81 107 63
87 113 67
86 113 68
82 107 63
76 101 58
82 107 64
91 115 79
171 184 187
171 183 189
173 185 190
177 189 194
170 183 188
176 187 191
164 177 178
179 190 195
175 187 191
168 182 188
172 184 187
167 180 183
159 172 172
148 162 157
133 149 139
113 132 110
87 111 76
82 108 63
79 104 62
79 104 61
82 107 63
79 105 61
99 121 92
175 187 192
168 181 182
171 183 187
179 190 197
167 179 182
166 179 184
174 186 189
176 188 195
173 186 193
165 178 181
170 182 185
190 200 209
181 193 199
176 188 192
182 194 199
177 189 194
179 192 199
185 196 202
177 188 193
183 195 203
169 182 185
173 185 189
145 159 154
79 104 61
81 107 63
79 105 62
81 106 62
82 108 64
83 109 65
78 103 61
80 105 61
80 106 62
80 105 62
83 108 64
82 107 63
82 108 64
79 104 61
81 107 63
92 116 79
90 113 79
98 120 91
111 131 109
127 144 131
147 162 154
142 157 152
136 151 146
114 133 113
113 133 109
107 127 102
85 109 71
82 106 69
79 104 60
80 105 62
85 112 67
86 111 66
86 112 67
80 105 62
84 110 65
78 103 60
78 103 60
79 104 61
80 105 62
80 105 61
83 109 65
81 107 64
80 105 62
85 111 69
160 173 174
165 176 181
176 189 194
164 176 178
179 191 198
161 175 178
172 184 189
180 192 199
168 182 185
175 186 191
180 193 200
172 184 187
175 188 197
164 177 181
180 191 197
169 182 185
170 182 185
176 187 194
181 193 201
182 194 201
178 190 195
128 145 134
81 106 63
81 106 62
80 105 62
85 111 66
83 109 64
79 105 61
82 108 64
80 106 63
82 107 63
82 108 64
79 104 60
80 105 63
83 109 65
79 103 61
87 114 68
82 108 63
85 111 65
82 108 65
82 108 64
116 134 118
170 182 187
179 191 196
174 186 189
179 191 195
177 190 197
176 189 193
175 188 196
173 185 189
170 183 188
168 181 185
163 177 180
168 180 183
173 185 189
172 185 190
169 181 184
182 193 200
171 183 187
170 183 187
143 158 152
79 105 61
95 119 83
99 121 93
101 124 93
112 131 114
117 135 118
123 141 128
129 145 134
138 154 143
139 155 147
158 172 172
166 178 181
174 186 192
172 184 188
179 191 195
167 180 184
152 166 168
126 144 131
78 104 61
82 107 62
80 105 61
86 112 67
80 104 61
82 108 64
86 112 66
73 98 56
84 110 65
80 105 62
83 108 66
84 109 65
76 100 59
83 109 65
100 123 88
134 149 142
169 181 184
165 178 181
168 180 183
159 172 176
163 176 179
166 180 183
167 179 181
165 177 183
155 169 167
136 151 145
120 138 122
112 132 111
104 125 101
135 151 145
173 185 195
173 186 191
168 180 187
174 185 191
167 180 187
168 181 183
163 176 178
173 186 192
167 179 183
166 178 180
163 176 179
142 157 150
135 151 143
156 170 169
140 154 150
135 150 145
136 149 143
121 138 123
113 130 113
101 122 97
87 108 76
95 113 94
144 160 154
186 200 207
216 229 244
226 238 255
226 238 255
226 238 255
226 238 255
226 238 255
226 238 255
226 238 255
226 238 255
226 238 255
226 238 255
226 238 255
226 238 255
226 238 255
226 238 255
226 238 255
226 238 255
226 238 255
226 238 255
226 238 255
226 238 255
226 238 255
226 238 255
226 238 255
226 238 255
226 238 255
226 238 255
226 238 255
226 238 255
226 238 255
226 238 255
226 238 255
226 238 255
226 238 255
226 238 255
226 238 255
226 238 255
226 238 255
226 238 255
226 238 255
226 238 255
226 238 255
226 238 255
226 238 255
226 238 255
226 238 255
226 238 255
226 238 255
226 238 255
226 238 255
226 238 255
226 238 255
226 238 255
226 238 255
226 238 255
226 238 255
226 238 255
226 238 255
226 238 255
226 238 255
226 238 255
226 238 255
226 238 255
226 238 255
226 238 255
226 238 255
226 238 255
226 238 255
226 238 255
226 238 255
226 238 255
226 238 255
226 238 255
226 238 255
226 238 255
226 238 255
226 238 255
226 238 255
226 238 255
226 238 255
226 238 255
226 238 255
226 238 255
226 238 255
226 238 255
226 238 255
226 238 255
226 238 255
226 238 255
226 238 255
226 238 255
226 238 255
226 238 255
226 238 255
226 238 255
226 238 255
226 238 255
226 238 255
226 238 255
226 238 255
226 238 255
226 238 255
226 238 255
201 214 226
176 189 196
145 160 156
135 150 145
147 162 158
171 183 189
155 168 171
135 151 143
139 154 148
132 147 140
137 152 147
134 150 141
129 145 132
107 126 108
128 144 131
120 136 126
154 167 166
174 186 192
167 180 184
175 187 195
169 183 187
178 190 195
167 179 182
171 184 187
147 161 160
128 142 137
123 141 123
88 110 77
86 109 76
180 191 199
157 171 173
162 174 177
176 187 191
175 187 191
167 180 181
167 179 184
156 169 170
167 178 182
150 163 164
155 168 166
140 155 148
108 127 107
99 119 96
81 106 66
83 108 64
82 108 64
81 106 62
80 105 62
84 110 66
82 108 63
100 121 95
168 180 184
166 179 183
173 186 192
162 174 176
168 180 185
159 171 172
170 183 188
161 174 176
172 184 190
153 167 167
154 168 164
126 143 131
115 133 118
97 119 88
77 102 61
79 104 61
83 108 63
82 108 64
79 105 62
88 115 69
76 101 59
81 107 63
136 152 141
186 197 202
166 179 183
169 182 187
168 181 184
156 170 171
170 182 187
165 177 179
171 184 185
169 181 184
172 183 187
160 174 177
160 173 175
181 192 195
172 185 189
172 184 187
168 180 184
174 186 189
173 185 189
167 179 180
141 156 152
129 145 133
124 142 124
132 148 138
174 187 191
165 178 182
170 181 186
165 176 178
166 179 182
178 190 194
175 187 190
169 181 185
173 186 190
170 181 185
168 181 183
159 172 173
166 179 182
173 186 190
172 184 188
176 187 194
171 184 189
168 181 186
171 184 187
166 179 183
170 183 186
171 183 187
96 117 86
79 104 62
84 110 66
84 110 65
78 103 60
80 105 62
82 108 64
76 101 59
80 106 62
81 106 63
83 108 64
85 111 66
85 111 66
81 107 63
78 103 60
80 105 62
78 103 61
84 110 66
77 102 59
85 110 66
83 109 65
86 112 66
132 148 139
170 183 189
179 191 197
173 186 192
172 185 190
177 191 198
173 185 190
164 177 178
170 184 186
160 172 172
164 176 178
143 158 153
149 164 158
136 153 143
142 158 149
144 160 155
114 132 115
128 145 131
132 149 135
106 127 104
110 130 105
113 134 112
146 160 154
166 179 181
173 186 190
164 177 179
174 186 189
179 191 198
172 184 188
174 186 189
178 191 197
175 187 194
166 179 182
175 188 194
180 192 197
164 177 180
172 184 187
175 186 195
174 185 189
166 180 184
173 185 189
179 190 195
175 188 192
129 146 134
79 104 61
78 104 61
86 112 67
83 108 64
82 107 63
77 103 60
78 103 61
83 108 64
80 105 62
84 109 64
84 110 65
82 107 63
83 109 64
80 105 62
82 108 65
79 104 61
81 107 64
76 101 59
75 100 58
131 147 135
173 185 191
178 191 200
170 182 186
173 185 190
172 184 188
168 181 185
156 169 171
169 182 184
147 162 159
163 175 178
146 160 155
126 142 130
133 148 140
124 142 129
134 150 139
121 138 124
117 135 120
109 128 107
146 160 156
168 181 184
167 180 185
176 188 192
167 180 184
174 187 193
163 177 179
171 184 191
176 189 193
166 180 183
168 180 184
166 180 184
172 185 190
164 176 181
173 186 193
170 182 185
178 190 195
162 176 178
97 118 90
78 103 61
82 107 64
76 101 59
78 103 60
77 102 60
79 104 61
78 102 61
74 99 58
76 101 58
78 102 60
74 98 57
76 101 60
78 104 60
78 103 60
122 139 126
154 168 168
176 188 193
158 171 170
161 175 177
156 169 167
140 155 149
116 134 118
103 121 100
101 123 95
83 109 65
75 99 59
79 104 61
92 114 83
137 152 142
162 175 178
172 184 188
159 172 173
165 178 181
172 184 191
172 184 190
159 172 175
162 176 181
145 160 155
139 155 147
103 123 100
111 128 113
116 133 118
115 132 115
82 104 69
82 107 67
116 133 117
130 145 137
119 136 121
117 133 122
139 156 150
163 177 180
207 219 233
223 236 253
226 238 255
226 238 255
226 238 255
226 238 255
226 238 255
226 238 255
226 238 255
226 238 255
226 238 255
226 238 255
226 238 255
226 238 255
226 238 255
226 238 255
226 238 255
226 238 255
226 238 255
226 238 255
226 238 255
226 238 255
226 238 255
226 238 255
226 238 255
226 238 255
226 238 255
226 238 255
226 238 255
226 238 255
226 238 255
226 238 255
226 238 255
226 238 255
226 238 255
226 238 255
226 238 255
226 238 255
226 238 255
226 238 255
226 238 255
226 238 255
226 238 255
226 238 255
226 238 255
226 238 255
226 238 255
226 238 255
226 238 255
226 238 255
226 238 255
226 238 255
226 238 255
226 238 255
226 238 255
226 238 255
226 238 255
226 238 255
226 238 255
226 238 255
226 238 255
226 238 255
226 238 255
226 238 255
226 238 255
226 238 255
226 238 255
226 238 255
226 238 255
226 238 255
226 238 255
226 238 255
226 238 255
226 238 255
226 238 255
226 238 255
226 238 255
226 238 255
226 238 255
226 238 255
226 238 255
226 238 255
226 238 255
226 238 255
226 238 255
226 238 255
226 238 255
226 238 255
226 238 255
226 238 255
226 238 255
226 238 255
226 238 255
226 238 255
226 238 255
226 238 255
226 238 255
226 238 255
226 238 255
226 238 255
226 238 255
226 238 255
226 238 255
226 238 255
226 238 255
226 238 255
226 238 255
226 238 255
226 238 255
226 238 255
222 234 250
187 200 208
166 180 183
139 155 149
122 137 127
94 114 89
82 104 68
108 126 106
129 144 137
141 156 149
155 168 171
164 177 179
157 170 173
157 169 172
158 172 174
158 172 173
162 176 178
149 163 159
143 156 150
151 165 166
163 176 179
175 187 192
166 180 185
170 182 187
157 169 172
140 154 148
117 135 117
131 147 138
149 164 162
158 171 177
163 175 178
161 174 177
166 180 184
164 177 180
161 174 176
172 184 190
160 173 175
162 175 179
177 189 195
170 182 185
167 179 184
140 157 152
127 143 131
130 146 134
103 124 95
81 106 62
78 104 61
142 157 150
159 173 176
175 187 192
167 180 182
173 185 189
162 176 179
158 173 176
176 188 195
176 188 193
163 176 180
169 181 186
158 172 174
168 180 184
166 179 183
174 186 191
173 185 189
152 166 164
119 137 122
123 141 129
101 123 96
87 113 73
80 105 61
91 114 78
160 174 175
164 177 182
165 178 182
167 180 184
169 181 187
165 179 183
174 186 192
166 180 181
166 179 184
184 196 203
167 182 188
177 190 195
171 182 186
173 186 193
170 183 186
162 175 176
168 180 185
173 184 190
168 181 186
166 180 184
170 183 188
171 184 185
149 163 159
85 112 67
78 103 60
92 115 78
107 126 105
121 140 123
128 145 134
145 160 155
149 163 160
152 165 163
177 189 196
174 186 193
166 180 182
172 185 192
179 191 196
168 180 184
153 167 168
172 185 190
184 195 204
174 187 194
175 188 193
174 187 194
169 182 185
115 135 115
76 101 59
82 107 64
82 107 62
83 109 66
84 110 65
85 111 66
83 109 65
84 109 64
82 108 64
73 98 57
83 109 65
83 108 64
77 102 59
77 102 60
80 105 62
79 105 62
86 112 67
76 101 58
82 108 64
82 108 63
82 107 64
124 142 126
174 186 192
166 179 185
174 186 189
170 183 187
162 175 177
177 189 196
168 180 185
171 183 188
184 195 201
164 176 179
168 181 185
166 180 183
167 180 183
168 181 185
178 190 198
171 184 190
172 185 192
166 177 179
175 187 190
178 190 196
184 196 204
134 150 138
82 107 64
78 103 61
83 110 65
83 108 64
80 105 62
90 113 78
85 110 71
97 119 89
94 116 86
95 116 86
92 114 87
103 124 101
104 125 99
106 127 102
105 126 101
120 140 118
113 132 113
115 131 116
121 139 120
123 141 125
158 172 173
137 153 142
139 156 151
133 149 140
155 169 166
146 162 158
149 165 163
156 170 168
143 158 151
154 169 167
147 161 159
159 172 174
154 167 167
148 162 162
153 166 163
143 157 154
166 179 181
154 167 168
169 181 182
149 162 159
127 144 131
85 109 70
84 110 66
75 100 58
86 112 67
79 104 61
81 106 62
82 107 63
77 102 60
78 103 61
78 104 61
85 111 66
77 101 59
77 102 60
83 109 65
84 110 65
84 109 65
79 104 61
80 105 62
148 163 160
168 181 187
160 174 178
169 182 188
165 177 180
171 184 186
181 193 200
167 180 185
177 189 195
167 179 181
179 191 200
166 180 183
170 182 187
169 181 185
179 190 197
170 183 186
158 172 175
148 162 158
79 103 61
73 97 57
78 103 61
81 106 63
77 101 59
77 102 60
83 109 66
80 106 62
80 106 63
81 106 63
81 106 64
83 109 65
80 106 62
91 113 82
111 129 110
98 117 93
128 144 136
125 140 126
92 113 85
78 103 60
78 103 61
78 104 61
79 104 61
82 108 64
77 102 59
81 106 63
70 93 53
78 104 61
121 137 124
157 170 171
161 173 175
139 153 148
154 167 167
152 165 162
156 169 170
160 174 175
160 174 175
157 169 171
159 173 175
135 150 145
92 113 86
75 99 57
81 102 72
107 125 110
130 147 140
143 158 154
145 159 157
156 170 169
167 181 184
199 212 224
222 235 251
226 238 255
226 238 255
226 238 255
226 238 255
226 238 255
226 238 255
226 238 255
226 238 255
226 238 255
226 238 255
226 238 255
226 238 255
226 238 255
226 238 255
226 238 255
226 238 255
226 238 255
226 238 255
226 238 255
226 238 255
226 238 255
226 238 255
226 238 255
226 238 255
226 238 255
226 238 255
226 238 255
226 238 255
226 238 255
226 238 255
226 238 255
226 238 255
226 238 255
226 238 255
226 238 255
226 238 255
226 238 255
226 238 255
226 238 255
226 238 255
226 238 255
226 238 255
226 238 255
226 238 255
226 238 255
226 238 255
226 238 255
226 238 255
226 238 255
226 238 255
226 238 255
226 238 255
226 238 255
226 238 255
226 238 255
226 238 255
226 238 255
226 238 255
226 238 255
226 238 255
226 238 255
226 238 255
226 238 255
226 238 255
226 238 255
226 238 255
226 238 255
226 238 255
226 238 255
226 238 255
226 238 255
226 238 255
226 238 255
226 238 255
226 238 255
226 238 255
226 238 255
226 238 255
226 238 255
226 238 255
226 238 255
226 238 255
226 238 255
226 238 255
226 238 255
226 238 255
226 238 255
226 238 255
226 238 255
226 238 255
226 238 255
226 238 255
226 238 255
226 238 255
226 238 255
226 238 255
226 238 255
226 238 255
226 238 255
226 238 255
226 238 255
226 238 255
226 238 255
226 238 255
226 238 255
226 238 255
226 238 255
226 238 255
226 238 255
226 238 255
226 238 255
226 238 255
226 238 255
226 238 255
226 238 255
226 238 255
217 230 245
198 210 222
176 189 195
142 157 153
120 135 125
91 112 84
79 103 64
96 113 94
137 152 143
139 154 149
170 183 191
162 175 177
148 161 161
168 180 184
138 154 150
142 157 153
119 136 125
99 119 93
93 114 89
102 122 103
105 124 104
131 147 136
126 141 130
125 143 133
109 127 109
108 127 107
123 141 127
122 138 128
160 173 173
164 176 179
158 172 174
162 174 175
173 185 192
167 180 185
170 182 186
163 176 179
171 184 188
165 177 181
165 177 178
156 170 171
162 176 180
157 170 171
137 151 145
120 135 127
146 161 156
168 181 185
162 175 175
162 173 176
159 172 177
168 180 184
163 176 179
171 184 188
168 181 183
164 175 180
167 179 182
169 181 183
164 177 180
161 175 178
176 189 195
167 179 182
160 173 174
168 181 184
163 177 179
164 178 182
161 173 175
132 147 140
129 143 134
140 155 150
173 186 189
170 183 188
186 198 202
170 183 189
159 172 174
168 181 184
174 186 192
169 182 187
173 185 189
162 176 178
173 186 191
170 182 185
181 193 202
169 181 185
170 183 186
169 182 186
161 175 178
163 176 179
179 191 198
165 177 182
97 118 90
80 104 62
78 102 60
76 101 59
79 104 62
77 102 59
81 106 63
80 105 63
83 109 64
84 110 66
80 104 68
99 120 93
120 138 123
120 138 120
121 140 126
147 162 159
164 177 179
162 175 177
180 190 197
174 187 193
171 184 188
177 189 193
163 176 176
80 105 62
82 108 64
79 105 62
83 110 65
77 101 59
80 106 62
84 110 65
83 109 65
81 107 63
85 111 66
76 101 60
80 106 63
85 111 66
81 106 64
83 108 64
75 99 58
82 108 64
82 107 64
83 109 65
81 106 63
80 105 62
93 115 83
163 176 179
171 184 189
166 179 183
176 188 192
160 175 179
172 185 189
167 180 181
176 188 195
173 186 190
178 190 197
166 179 181
176 188 194
162 177 179
176 187 191
178 190 197
160 173 176
169 182 186
170 182 188
173 186 192
173 186 192
172 184 190
140 156 153
79 104 61
80 106 62
80 105 62
80 105 62
80 105 62
82 107 64
84 110 65
81 107 64
81 107 63
85 111 66
81 106 63
84 110 65
76 100 59
78 102 60
77 102 59
80 105 62
79 104 62
82 107 63
79 104 61
80 105 62
132 149 140
170 184 190
158 171 172
168 180 185
170 183 191
170 183 188
174 185 189
166 178 181
170 183 190
162 175 177
169 180 185
171 183 188
163 175 178
170 182 186
170 183 187
160 174 176
175 186 191
175 188 195
175 187 195
172 184 190
119 138 120
78 103 60
77 102 60
80 106 63
77 102 60
80 105 62
80 104 61
77 101 59
80 105 61
78 103 60
77 102 61
72 96 56
76 101 59
77 102 59
81 106 63
78 103 61
79 104 61
80 105 62
100 121 91
152 166 165
168 181 186
168 178 183
170 182 185
160 172 173
171 183 189
176 188 193
166 178 179
178 191 200
171 185 191
179 192 198
163 176 178
171 184 189
167 180 183
168 181 185
155 169 171
165 177 180
111 130 111
83 109 65
82 108 64
78 103 60
77 102 60
79 104 62
76 100 59
92 115 84
99 119 91
121 137 127
133 149 140
139 154 146
157 171 171
159 171 171
165 177 181
134 149 139
82 105 71
77 102 59
78 103 60
81 106 63
76 100 58
75 100 58
86 106 81
104 123 102
111 129 112
109 128 110
124 141 125
128 143 135
119 136 124
97 117 91
108 125 110
132 147 139
123 140 129
149 163 164
168 181 185
161 174 176
160 173 175
174 185 191
152 166 167
122 138 128
107 126 109
122 139 125
136 151 144
146 160 160
157 170 172
172 185 192
190 202 213
201 214 226
222 234 251
226 238 255
226 238 255
226 238 255
226 238 255
226 238 255
226 238 255
226 238 255
226 238 255
226 238 255
226 238 255
226 238 255
226 238 255
226 238 255
226 238 255
226 238 255
226 238 255
226 238 255
226 238 255
226 238 255
226 238 255
226 238 255
226 238 255
226 238 255
226 238 255
226 238 255
226 238 255
226 238 255
226 238 255
226 238 255
226 238 255
226 238 255
226 238 255
226 238 255
226 238 255
226 238 255
226 238 255
226 238 255
226 238 255
226 238 255
226 238 255
226 238 255
226 238 255
226 238 255
226 238 255
226 238 255
226 238 255
226 238 255
226 238 255
226 238 255
226 238 255
226 238 255
226 238 255
226 238 255
226 238 255
226 238 255
226 238 255
226 238 255
226 238 255
226 238 255
226 238 255
226 238 255
226 238 255
226 238 255
226 238 255
226 238 255
226 238 255
226 238 255
226 238 255
226 238 255
226 238 255
226 238 255
226 238 255
226 238 255
226 238 255
226 238 255
226 238 255
226 238 255
226 238 255
226 238 255
226 238 255
226 238 255
226 238 255
226 238 255
226 238 255
226 238 255
226 238 255
226 238 255
226 238 255
226 238 255
226 238 255
226 238 255
226 238 255
226 238 255
226 238 255
226 238 255
226 238 255
226 238 255
226 238 255
226 238 255
226 238 255
226 238 255
226 238 255
226 238 255
226 238 255
226 238 255
226 238 255
226 238 255
226 238 255
226 238 255
226 238 255
226 238 255
226 238 255
226 238 255
226 238 255
226 238 255
226 238 255
226 238 255
226 238 255
226 238 255
226 238 255
226 238 255
226 238 255
226 238 255
226 238 255
214 226 242
199 211 223
166 178 182
131 146 141
115 133 116
84 106 73
81 105 68
88 106 83
123 138 129
140 154 152
160 172 178
153 166 168
166 179 184
161 173 176
149 162 162
133 148 145
114 132 118
146 160 156
165 177 182
148 163 160
160 173 177
156 170 170
159 172 177
164 176 181
143 156 154
167 179 182
175 187 192
166 178 182
149 163 165
140 155 151
131 147 142
144 159 155
151 164 163
154 166 166
148 162 160
172 184 189
165 178 181
167 179 184
147 162 160
73 97 56
73 98 56
79 104 61
96 119 88
104 125 102
135 150 143
136 152 148
161 173 178
170 181 187
168 180 183
168 180 183
172 184 188
151 164 163
170 182 186
157 170 173
173 184 188
163 176 178
161 175 179
169 181 184
167 180 184
171 183 185
154 167 170
88 111 74
81 107 63
75 99 58
79 104 61
75 99 61
94 116 88
119 136 121
152 166 162
142 156 151
151 166 166
165 178 183
179 191 199
171 183 188
179 192 198
159 173 177
170 182 187
166 179 182
163 176 181
174 187 193
167 180 184
168 180 185
158 172 173
136 151 144
83 109 64
82 108 64
79 104 62
85 111 66
83 108 65
79 104 62
77 102 60
78 103 60
81 107 63
82 108 64
84 110 65
82 107 64
83 109 65
83 109 64
80 105 62
80 105 62
80 106 63
82 108 63
85 110 71
82 106 71
94 115 86
127 143 133
150 164 161
131 147 141
121 138 122
104 123 102
93 114 85
87 113 70
83 109 64
82 108 64
78 103 59
81 106 63
83 108 64
78 104 61
79 104 61
79 104 61
73 97 57
78 103 61
80 105 62
79 104 61
78 103 60
81 106 63
76 101 59
88 114 71
160 174 175
171 185 190
171 182 187
167 180 185
168 181 185
174 186 192
168 180 184
174 186 192
165 178 181
169 180 184
164 178 182
175 187 191
160 172 174
161 174 177
173 185 191
172 183 187
167 179 182
172 185 190
175 187 192
174 188 193
173 185 191
147 162 158
82 108 64
81 107 63
76 101 58
83 109 65
81 107 63
81 106 62
85 111 67
79 105 63
79 104 61
79 104 61
78 103 60
81 106 63
77 103 60
75 100 59
79 104 61
84 109 65
78 103 60
87 113 67
79 105 62
78 103 61
133 149 144
173 185 189
177 189 195
164 177 180
167 180 183
170 183 188
173 186 190
171 184 189
180 191 197
174 186 192
167 179 184
158 171 172
171 183 188
171 183 188
160 172 174
174 186 190
174 186 192
171 185 192
170 182 185
161 174 178
106 126 103
74 99 57
75 99 58
80 105 62
73 98 57
80 105 62
82 108 65
76 101 60
77 102 60
75 101 59
83 108 64
79 104 61
79 105 62
78 103 60
77 102 60
74 98 57
77 101 60
82 108 64
112 131 114
182 195 203
168 181 185
171 183 185
167 180 182
161 172 174
161 174 176
176 189 194
172 184 190
163 177 179
169 181 186
172 184 189
164 177 180
172 184 189
160 173 177
177 190 198
172 184 191
149 164 163
109 128 105
111 128 113
115 133 118
141 156 149
138 153 145
144 159 156
159 172 174
162 174 176
165 178 181
167 178 181
162 174 179
166 178 183
154 168 169
142 156 156
155 169 171
138 152 147
125 142 127
133 149 142
137 154 148
138 153 149
156 170 168
157 169 174
157 170 173
156 170 170
167 180 185
144 158 156
134 149 143
154 168 167
158 171 172
155 169 170
165 178 183
158 171 173
156 169 171
152 165 167
168 181 188
164 176 180
154 166 167
150 163 165
164 177 181
141 155 153
167 180 185
154 167 166
149 162 164
174 186 192
186 199 207
202 214 227
226 238 255
226 238 255
226 238 255
226 238 255
226 238 255
226 238 255
226 238 255
226 238 255
226 238 255
226 238 255
226 238 255
226 238 255
226 238 255
226 238 255
226 238 255
226 238 255
226 238 255
226 238 255
226 238 255
226 238 255
226 238 255
226 238 255
226 238 255
226 238 255
226 238 255
226 238 255
226 238 255
226 238 255
226 238 255
226 238 255
226 238 255
226 238 255
226 238 255
226 238 255
226 238 255
226 238 255
226 238 255
226 238 255
226 238 255
226 238 255
226 238 255
226 238 255
226 238 255
226 238 255
226 238 255
226 238 255
226 238 255
226 238 255
226 238 255
226 238 255
226 238 255
226 238 255
226 238 255
226 238 255
226 238 255
226 238 255
226 238 255
226 238 255
226 238 255
226 238 255
226 238 255
226 238 255
226 238 255
226 238 255
226 238 255
226 238 255
226 238 255
226 238 255
226 238 255
226 238 255
226 238 255
226 238 255
226 238 255
226 238 255
226 238 255
226 238 255
226 238 255
226 238 255
226 238 255
226 238 255
226 238 255
226 238 255
226 238 255
226 238 255
226 238 255
226 238 255
226 238 255
226 238 255
226 238 255
226 238 255
226 238 255
226 238 255
226 238 255
226 238 255
226 238 255
226 238 255
226 238 255
226 238 255
226 238 255
226 238 255
226 238 255
226 238 255
226 238 255
226 238 255
226 238 255
226 238 255
226 238 255
226 238 255
226 238 255
226 238 255
226 238 255
226 238 255
226 238 255
226 238 255
226 238 255
226 238 255
226 238 255
226 238 255
226 238 255
226 238 255
226 238 255
226 238 255
226 238 255
226 238 255
226 238 255
226 238 255
226 238 255
226 238 255
226 238 255
226 238 255
226 238 255
226 238 255
217 229 245
201 213 227
176 188 195
142 157 155
112 129 116
85 106 78
75 100 58
103 121 102
135 149 145
141 156 153
156 169 171
158 171 174
124 139 132
70 94 54
80 104 64
97 118 93
132 147 139
152 166 169
151 164 167
165 177 182
169 180 185
151 164 165
154 168 170
155 169 170
152 165 166
159 173 175
160 173 176
131 147 137
126 142 134
97 118 92
87 109 74
77 102 59
88 111 76
82 105 70
141 155 152
147 162 161
144 159 154
148 162 157
127 143 132
123 138 128
116 133 118
109 127 113
99 117 97
111 130 114
125 143 128
130 145 135
149 163 161
164 176 180
154 167 167
162 175 177
171 183 190
156 169 170
167 179 183
167 179 184
167 180 185
176 187 194
125 140 129
78 103 60
77 101 59
78 104 61
70 93 54
79 104 62
72 97 55
75 99 58
75 99 58
77 102 60
77 102 60
85 111 69
93 113 87
104 122 103
129 147 132
146 159 155
147 162 160
158 170 170
159 171 172
166 178 182
169 182 186
170 182 186
156 170 170
83 107 69
74 99 58
80 105 63
82 107 63
81 106 63
73 98 57
78 103 61
78 102 59
77 103 61
82 107 63
78 103 60
80 105 62
80 105 63
81 106 62
83 109 65
82 108 64
76 102 60
77 101 59
78 103 61
82 107 64
79 105 62
79 104 61
153 166 165
168 181 185
161 173 177
174 186 190
171 183 186
174 187 191
168 180 185
170 183 187
155 169 168
150 163 164
144 159 154
142 156 148
128 144 130
135 151 143
107 127 104
92 114 85
89 112 81
77 102 60
76 100 58
80 105 62
77 102 60
79 104 61
151 164 160
175 186 192
168 181 182
165 179 182
177 189 195
171 184 189
170 183 188
166 178 183
177 189 197
158 172 172
158 171 175
170 182 188
177 189 196
162 176 179
167 180 183
166 179 184
156 170 173
166 178 182
168 180 185
174 186 190
156 169 173
152 166 163
81 105 67
72 97 55
84 109 65
80 104 62
84 110 65
84 110 66
73 97 56
75 99 58
79 104 61
80 105 62
83 109 65
78 103 61
82 108 65
76 100 59
81 106 64
78 103 60
74 98 57
82 108 64
79 104 61
83 108 67
128 145 136
168 181 185
177 189 196
167 179 184
162 175 179
174 186 189
168 181 185
175 187 192
160 173 176
173 186 191
153 167 168
170 182 185
163 176 179
164 177 180
172 185 190
177 187 195
172 186 191
158 171 173
175 187 193
159 173 176
102 122 97
77 103 61
79 103 61
77 101 59
77 101 59
78 104 61
79 103 60
81 106 62
83 109 66
81 106 63
76 100 59
78 103 60
76 101 59
75 99 58
79 104 61
79 104 62
79 105 62
76 100 62
150 164 160
162 175 180
170 182 185
164 176 178
171 183 187
160 173 175
164 177 180
156 170 171
150 163 164
149 165 162
147 163 158
127 144 132
134 151 141
131 148 135
120 138 127
99 119 95
105 126 98
139 156 150
145 159 155
135 150 142
147 162 158
128 143 135
121 136 125
126 143 131
107 126 105
110 129 113
99 120 94
82 104 72
84 108 70
79 104 61
83 108 64
84 106 76
137 151 148
163 175 178
164 177 185
151 164 164
156 169 171
158 171 171
143 157 153
124 139 127
124 142 130
108 126 109
88 109 80
76 101 60
120 136 120
150 164 161
159 172 172
148 161 163
161 174 178
165 176 180
146 161 159
129 145 138
117 135 124
108 125 114
123 141 128
136 151 147
140 155 154
150 163 166
173 186 193
179 192 200
206 218 231
226 238 255
226 238 255
226 238 255
226 238 255
226 238 255
226 238 255
226 238 255
226 238 255
226 238 255
226 238 255
226 238 255
226 238 255
226 238 255
226 238 255
226 238 255
226 238 255
226 238 255
226 238 255
226 238 255
226 238 255
226 238 255
226 238 255
226 238 255
226 238 255
226 238 255
226 238 255
226 238 255
226 238 255
226 238 255
226 238 255
226 238 255
226 238 255
226 238 255
226 238 255
226 238 255
226 238 255
226 238 255
226 238 255
226 238 255
226 238 255
226 238 255
226 238 255
226 238 255
226 238 255
226 238 255
226 238 255
226 238 255
226 238 255
226 238 255
226 238 255
226 238 255
226 238 255
226 238 255
226 238 255
226 238 255
226 238 255
226 238 255
226 238 255
226 238 255
226 238 255
226 238 255
226 238 255
226 238 255
226 238 255
226 238 255
226 238 255
226 238 255
226 238 255
226 238 255
226 238 255
226 238 255
226 238 255
226 238 255
226 238 255
226 238 255
226 238 255
226 238 255
226 238 255
226 238 255
226 238 255
226 238 255
226 238 255
226 238 255
226 238 255
226 238 255
226 238 255
226 238 255
226 238 255
226 238 255
226 238 255
226 238 255
226 238 255
226 238 255
226 238 255
226 238 255
226 238 255
226 238 255
226 238 255
226 238 255
226 238 255
226 238 255
226 238 255
226 238 255
226 238 255
226 238 255
226 238 255
226 238 255
226 238 255
226 238 255
226 238 255
226 238 255
226 238 255
226 238 255
226 238 255
226 238 255
226 238 255
226 238 255
226 238 255
226 238 255
226 238 255
226 238 255
226 238 255
226 238 255
226 238 255
226 238 255
226 238 255
226 238 255
226 238 255
226 238 255
226 238 255
226 238 255
226 238 255
226 238 255
226 238 255
226 238 255
226 238 255
226 238 255
226 238 255
226 238 255
226 238 255
215 228 242
193 205 216
177 190 198
137 151 146
117 134 123
104 122 103
70 93 54
103 122 105
126 141 134
108 126 110
84 104 77
78 103 61
73 98 57
70 93 54
74 98 57
84 104 77
115 131 120
138 152 148
146 159 157
160 173 176
166 178 183
161 173 177
155 168 170
174 185 190
160 171 174
160 173 174
165 179 185
160 174 173
135 151 142
103 121 105
148 162 158
162 175 176
145 158 158
156 170 172
151 164 163
158 171 173
163 177 180
156 170 171
162 174 176
161 174 176
173 185 190
167 179 182
166 179 183
165 179 183
158 170 170
161 174 176
146 159 158
142 157 153
131 147 140
122 138 125
117 135 117
129 143 135
108 127 110
122 139 128
104 123 101
112 130 110
118 137 121
101 123 100
99 121 93
93 115 84
85 107 72
90 113 80
79 104 61
76 101 59
72 96 55
79 104 61
78 103 60
78 102 60
84 109 65
75 99 59
85 109 73
103 123 101
116 133 116
126 141 131
144 159 155
115 133 115
86 111 72
76 100 59
79 104 62
76 100 59
84 109 66
83 110 65
78 103 60
79 105 63
79 105 62
79 104 62
81 106 63
75 99 58
77 102 59
79 104 61
76 101 59
83 109 65
77 102 60
82 108 64
80 105 62
77 102 61
127 144 136
162 176 179
161 176 181
166 179 185
165 177 182
171 183 189
169 182 186
164 176 183
152 165 168
175 186 191
162 175 176
162 175 179
176 188 193
161 174 179
162 176 181
163 175 180
161 174 177
166 178 182
166 180 186
176 187 194
166 179 182
158 171 174
113 132 111
106 126 105
121 138 125
126 142 131
143 158 155
134 151 143
142 157 156
156 170 168
158 171 173
162 175 176
166 179 184
152 166 166
162 174 177
172 184 189
164 177 178
156 169 170
165 177 178
158 172 177
165 178 182
175 188 194
160 173 176
131 146 138
93 115 85
81 107 64
77 102 60
74 98 56
76 102 60
79 105 61
85 110 66
78 103 60
80 106 63
77 102 60
76 101 59
76 101 59
79 104 61
78 103 60
74 97 57
77 102 59
78 103 60
74 99 58
76 100 58
85 109 71
154 168 168
159 172 173
170 183 190
164 177 181
155 167 169
167 179 184
159 172 175
169 181 185
170 182 184
169 181 184
168 181 184
167 179 184
169 181 183
164 176 179
167 179 181
155 168 172
173 185 193
163 176 180
168 180 186
152 165 161
96 117 88
79 104 61
81 106 64
81 107 63
83 108 64
78 103 61
78 104 60
84 111 66
78 104 61
73 97 57
77 101 59
81 106 63
86 108 75
87 110 73
91 114 83
101 122 93
96 116 90
116 136 113
119 136 123
133 148 140
127 143 136
151 166 164
148 162 159
136 151 144
144 160 156
143 157 154
140 154 147
146 160 160
144 160 158
144 159 158
149 163 162
152 166 168
160 173 176
168 181 185
136 152 145
86 109 70
76 101 60
78 103 61
75 99 58
75 99 59
79 104 62
74 98 58
75 99 58
72 97 56
76 101 59
75 99 58
72 96 56
77 102 60
79 102 66
118 137 121
156 169 171
148 161 160
122 139 126
111 130 113
98 118 96
84 107 72
69 93 54
74 98 57
78 102 60
77 102 61
82 105 69
97 114 93
140 153 152
161 173 177
148 160 161
120 135 123
126 141 133
91 111 87
82 103 72
77 100 62
89 110 85
108 124 109
132 148 142
151 166 164
193 206 215
213 226 240
226 238 255
226 238 255
226 238 255
226 238 255
226 238 255
226 238 255
226 238 255
226 238 255
226 238 255
226 238 255
226 238 255
226 238 255
226 238 255
226 238 255
226 238 255
226 238 255
226 238 255
226 238 255
226 238 255
226 238 255
226 238 255
226 238 255
226 238 255
226 238 255
226 238 255
226 238 255
226 238 255
226 238 255
226 238 255
226 238 255
226 238 255
226 238 255
226 238 255
226 238 255
226 238 255
226 238 255
226 238 255
226 238 255
226 238 255
226 238 255
226 238 255
226 238 255
226 238 255
226 238 255
226 238 255
226 238 255
226 238 255
226 238 255
226 238 255
226 238 255
226 238 255
226 238 255
226 238 255
226 238 255
226 238 255
226 238 255
226 238 255
226 238 255
226 238 255
226 238 255
226 238 255
226 238 255
226 238 255
226 238 255
226 238 255
226 238 255
226 238 255
226 238 255
226 238 255
226 238 255
226 238 255
226 238 255
226 238 255
226 238 255
226 238 255
226 238 255
226 238 255
226 238 255
226 238 255
226 238 255
226 238 255
226 238 255
226 238 255
226 238 255
226 238 255
226 238 255
226 238 255
226 238 255
226 238 255
226 238 255
226 238 255
226 238 255
226 238 255
226 238 255
226 238 255
226 238 255
226 238 255
226 238 255
226 238 255
226 238 255
226 238 255
226 238 255
226 238 255
226 238 255
226 238 255
226 238 255
226 238 255
226 238 255
226 238 255
226 238 255
226 238 255
226 238 255
226 238 255
226 238 255
226 238 255
226 238 255
226 238 255
226 238 255
226 238 255
226 238 255
226 238 255
226 238 255
226 238 255
226 238 255
226 238 255
226 238 255
226 238 255
226 238 255
226 238 255
226 238 255
226 238 255
226 238 255
226 238 255
226 238 255
226 238 255
226 238 255
226 238 255
226 238 255
226 238 255
226 238 255
226 238 255
226 238 255
226 238 255
226 238 255
226 238 255
226 238 255
226 238 255
226 238 255
225 237 254
203 215 227
183 195 203
146 161 160
112 128 118
135 149 146
150 164 164
144 157 158
127 140 137
117 133 124
102 119 102
85 108 75
65 88 50
74 98 58
76 101 59
88 109 81
105 124 106
120 136 125
127 143 135
155 169 172
163 176 180
172 184 188
151 165 166
156 170 174
139 154 153
101 119 99
74 99 58
77 102 60
86 108 77
112 129 111
123 140 132
146 160 158
158 171 174
173 185 190
166 178 183
165 178 182
161 173 176
151 165 165
155 169 171
168 180 183
154 167 167
156 169 171
169 181 186
167 179 185
167 179 183
165 178 184
154 167 168
108 126 108
123 139 124
125 141 131
141 156 151
154 166 168
160 173 177
159 173 177
158 171 172
169 181 184
170 183 190
168 180 186
174 186 192
159 172 175
161 173 176
163 175 177
152 167 164
159 171 174
150 164 163
159 172 173
148 163 160
135 150 144
142 156 152
119 136 122
114 132 117
126 143 133
126 143 130
139 153 150
122 138 125
108 126 108
97 115 92
92 111 87
81 106 62
87 110 73
98 118 94
100 119 97
92 115 81
104 124 99
98 119 93
96 119 90
97 119 90
79 102 65
81 107 64
75 100 59
75 99 57
103 120 100
166 179 183
166 179 185
171 183 189
155 170 172
160 173 177
155 168 171
174 186 191
170 183 187
162 176 179
175 187 191
155 169 171
168 180 185
151 165 166
169 181 183
167 180 183
160 173 176
174 186 192
169 182 187
168 180 185
173 185 190
165 177 181
135 150 143
82 108 65
73 98 57
79 104 61
78 103 60
81 106 62
77 101 60
76 100 59
81 106 63
81 106 63
75 100 58
75 99 58
81 105 66
84 106 74
94 115 88
97 118 90
98 118 94
105 125 100
109 128 108
109 128 108
124 141 132
136 150 148
131 148 141
128 144 134
121 138 125
118 134 122
135 150 141
108 128 109
122 139 123
97 119 92
108 126 107
108 126 110
109 128 110
116 135 114
106 124 108
108 127 105
106 127 101
91 112 84
93 113 85
94 115 88
104 123 99
98 119 92
137 152 147
160 174 176
151 165 164
162 174 178
162 174 177
169 181 186
159 172 174
163 177 176
164 176 177
155 168 168
156 170 169
166 180 183
157 170 172
162 176 178
165 178 180
164 177 181
159 172 176
169 181 186
171 183 186
141 156 153
84 108 67
75 100 58
79 104 61
82 107 66
79 104 61
73 97 59
81 104 67
78 102 63
71 95 55
81 105 66
81 104 68
81 105 65
93 115 84
78 102 65
70 93 53
72 96 56
72 95 56
129 146 139
171 183 189
166 178 183
156 169 172
155 170 172
155 168 170
164 177 181
163 176 181
163 176 179
168 179 184
166 178 179
147 161 163
160 172 175
149 163 162
153 167 170
172 185 193
149 164 167
105 124 102
75 100 58
75 99 58
77 101 59
74 99 57
77 102 60
77 102 60
76 100 58
69 93 53
87 107 82
99 118 94
102 122 101
122 138 128
128 144 134
102 121 101
85 108 76
71 94 54
79 105 62
73 98 58
73 96 56
72 96 55
76 100 59
72 95 56
73 97 57
75 99 58
71 95 58
96 115 91
126 143 138
98 117 96
100 119 96
72 96 56
71 95 55
76 97 65
90 108 86
94 114 89
131 147 138
165 178 181
187 200 210
216 228 243
226 238 255
226 238 255
226 238 255
226 238 255
226 238 255
226 238 255
226 238 255
226 238 255
226 238 255
226 238 255
226 238 255
226 238 255
226 238 255
226 238 255
226 238 255
226 238 255
226 238 255
226 238 255
226 238 255
226 238 255
226 238 255
226 238 255
226 238 255
226 238 255
226 238 255
226 238 255
226 238 255
226 238 255
226 238 255
226 238 255
226 238 255
226 238 255
226 238 255
226 238 255
226 238 255
226 238 255
226 238 255
226 238 255
226 238 255
226 238 255
226 238 255
226 238 255
226 238 255
226 238 255
226 238 255
226 238 255
226 238 255
226 238 255
226 238 255
226 238 255
226 238 255
226 238 255
226 238 255
226 238 255
226 238 255
226 238 255
226 238 255
226 238 255
226 238 255
226 238 255
226 238 255
226 238 255
226 238 255
226 238 255
226 238 255
226 238 255
226 238 255
226 238 255
226 238 255
226 238 255
226 238 255
226 238 255
226 238 255
226 238 255
226 238 255
226 238 255
226 238 255
226 238 255
226 238 255
226 238 255
226 238 255
226 238 255
226 238 255
226 238 255
226 238 255
226 238 255
226 238 255
226 238 255
226 238 255
226 238 255
226 238 255
226 238 255
226 238 255
226 238 255
226 238 255
226 238 255
226 238 255
226 238 255
226 238 255
226 238 255
226 238 255
226 238 255
226 238 255
226 238 255
226 238 255
226 238 255
226 238 255
226 238 255
226 238 255
226 238 255
226 238 255
226 238 255
226 238 255
226 238 255
226 238 255
226 238 255
226 238 255
226 238 255
226 238 255
226 238 255
226 238 255
226 238 255
226 238 255
226 238 255
226 238 255
226 238 255
226 238 255
226 238 255
226 238 255
226 238 255
226 238 255
226 238 255
226 238 255
226 238 255
226 238 255
226 238 255
226 238 255
226 238 255
226 238 255
226 238 255
226 238 255
226 238 255
226 238 255
226 238 255
226 238 255
226 238 255
226 238 255
226 238 255
226 238 255
226 238 255
226 238 255
226 238 255
226 238 255
226 238 255
226 238 255
226 238 255
225 237 254
208 221 234
181 194 202
147 162 160
118 133 124
134 148 143
141 155 154
147 160 163
142 156 154
122 139 129
118 134 121
90 109 85
69 93 53
66 89 51
70 94 55
72 96 56
91 112 83
108 127 112
121 138 124
132 146 144
132 147 142
73 97 57
72 95 55
72 96 56
70 93 54
69 92 53
72 96 56
75 99 59
77 101 60
94 114 91
92 111 90
123 139 128
127 143 137
152 167 167
163 175 179
173 186 193
152 164 166
165 179 184
146 160 160
152 165 165
150 163 161
166 178 183
137 152 148
75 99 58
77 102 60
77 102 60
81 106 63
68 92 53
91 113 83
100 120 100
120 137 123
130 146 136
150 164 162
153 167 167
161 174 176
165 178 182
161 174 177
163 175 179
161 175 179
153 166 167
153 166 166
156 170 173
159 171 173
162 175 177
154 167 165
87 112 72
79 104 61
73 98 57
75 100 58
78 103 61
77 102 60
79 104 61
75 100 59
75 99 58
78 103 61
75 99 57
63 85 48
76 101 62
105 125 103
107 124 106
116 134 119
121 138 127
140 155 150
146 161 156
149 163 164
162 175 179
156 169 168
96 116 89
87 111 75
82 105 68
83 105 71
84 104 80
95 116 86
96 117 86
115 132 117
103 123 102
96 118 88
107 126 105
93 114 90
88 108 86
103 121 101
106 126 103
96 118 89
104 123 104
108 128 105
117 136 118
105 124 104
116 134 117
136 151 140
146 161 160
149 162 161
142 157 151
138 152 147
138 153 147
137 152 145
141 155 150
144 159 155
131 147 140
146 160 161
138 152 146
140 157 149
144 158 155
138 154 146
132 149 142
145 159 158
144 159 155
146 161 158
131 146 139
134 149 145
121 138 127
108 127 106
105 124 101
111 129 108
112 129 114
114 132 115
105 124 104
102 123 95
110 130 108
100 120 97
98 118 96
110 131 106
100 121 94
110 129 108
105 123 103
93 115 84
97 118 91
99 119 91
85 106 79
90 112 78
101 120 100
154 167 170
154 167 169
163 176 181
163 175 179
158 170 176
167 180 185
165 179 182
161 175 177
158 171 174
168 180 185
156 169 171
164 176 179
156 169 170
164 177 180
162 175 180
149 164 163
168 180 183
160 173 177
163 176 178
115 134 116
78 103 60
77 102 60
77 102 59
74 98 57
77 102 61
75 99 58
79 104 61
74 98 57
79 104 61
76 101 60
72 96 56
78 103 61
72 97 56
75 100 59
73 97 56
71 95 56
93 116 84
146 161 161
162 174 177
164 177 181
168 180 185
165 177 180
167 179 181
164 176 180
151 164 166
155 167 169
159 172 175
140 155 152
154 167 167
152 166 167
169 181 186
161 174 179
156 170 172
112 130 112
78 101 64
77 100 62
90 112 82
116 134 115
111 130 111
128 144 135
137 152 145
139 154 149
144 158 156
161 174 178
167 179 182
170 183 189
155 168 172
116 133 121
81 102 73
74 98 57
71 94 55
78 102 60
79 104 61
83 108 65
92 115 80
95 114 92
109 128 113
137 152 146
123 138 127
96 114 95
76 98 64
75 99 58
80 102 66
111 128 114
114 130 118
138 151 149
158 171 174
188 201 208
202 215 227
222 235 251
226 238 255
226 238 255
226 238 255
226 238 255
226 238 255
226 238 255
226 238 255
226 238 255
226 238 255
226 238 255
226 238 255
226 238 255
226 238 255
226 238 255
226 238 255
226 238 255
226 238 255
226 238 255
226 238 255
226 238 255
226 238 255
226 238 255
226 238 255
226 238 255
226 238 255
226 238 255
226 238 255
226 238 255
226 238 255
226 238 255
226 238 255
226 238 255
226 238 255
226 238 255
226 238 255
226 238 255
226 238 255
226 238 255
226 238 255
226 238 255
226 238 255
226 238 255
226 238 255
226 238 255
226 238 255
226 238 255
226 238 255
226 238 255
226 238 255
226 238 255
226 238 255
226 238 255
226 238 255
226 238 255
226 238 255
226 238 255
226 238 255
226 238 255
226 238 255
226 238 255
226 238 255
226 238 255
226 238 255
226 238 255
226 238 255
226 238 255
226 238 255
226 238 255
226 238 255
226 238 255
226 238 255
226 238 255
226 238 255
226 238 255
226 238 255
226 238 255
226 238 255
226 238 255
226 238 255
226 238 255
226 238 255
226 238 255
226 238 255
226 238 255
226 238 255
226 238 255
226 238 255
226 238 255
226 238 255
226 238 255
226 238 255
226 238 255
226 238 255
226 238 255
226 238 255
226 238 255
226 238 255
226 238 255
226 238 255
226 238 255
226 238 255
226 238 255
226 238 255
226 238 255
226 238 255
226 238 255
226 238 255
226 238 255
226 238 255
226 238 255
226 238 255
226 238 255
226 238 255
226 238 255
226 238 255
226 238 255
226 238 255
226 238 255
226 238 255
226 238 255
226 238 255
226 238 255
226 238 255
226 238 255
226 238 255
226 238 255
226 238 255
226 238 255
226 238 255
226 238 255
226 238 255
226 238 255
226 238 255
226 238 255
226 238 255
226 238 255
226 238 255
226 238 255
226 238 255
226 238 255
226 238 255
226 238 255
226 238 255
226 238 255
226 238 255
226 238 255
226 238 255
226 238 255
226 238 255
226 238 255
226 238 255
226 238 255
226 238 255
226 238 255
226 238 255
226 238 255
226 238 255
226 238 255
226 238 255
226 238 255
226 238 255
226 238 255
226 238 255
226 238 255
226 238 255
215 227 242
190 203 214
174 187 192
147 161 162
133 146 145
133 147 141
145 159 159
139 154 153
118 132 127
110 127 110
112 129 115
86 107 80
72 96 56
71 95 56
84 105 80
157 170 172
161 175 176
112 129 119
121 137 128
105 125 104
90 111 82
77 102 60
73 97 57
73 96 55
72 96 55
74 99 58
73 98 58
71 95 55
70 94 54
86 108 75
87 108 80
115 132 117
114 131 120
133 148 148
152 165 167
159 173 176
161 174 176
84 106 74
75 100 58
76 100 59
76 101 59
74 98 57
76 101 60
74 99 58
75 99 58
71 94 55
79 104 62
73 96 56
76 100 59
88 108 84
103 122 99
125 141 129
129 144 136
152 165 163
158 171 171
163 176 179
165 178 183
165 177 182
149 164 163
105 125 104
70 93 55
75 100 59
76 100 59
76 100 59
77 101 59
73 97 56
78 102 60
78 102 60
81 105 63
77 102 60
76 100 59
77 101 60
73 96 56
75 99 58
73 97 56
79 104 62
73 98 58
74 99 57
82 108 64
77 102 60
88 110 78
152 165 167
145 159 157
133 148 141
130 146 139
116 134 122
124 140 129
107 125 107
100 121 99
86 108 80
81 106 63
71 94 55
81 106 63
80 106 64
77 101 60
77 102 61
72 96 56
74 98 58
79 103 61
78 103 61
77 102 60
73 97 57
111 130 109
154 167 168
164 176 180
161 175 177
165 179 181
167 179 184
169 181 185
155 168 169
163 175 179
168 181 187
155 168 170
166 178 183
162 175 178
176 189 196
159 171 173
149 164 165
159 173 177
164 176 180
175 186 192
160 173 176
159 173 177
138 153 149
83 106 70
77 102 60
79 104 62
71 96 55
78 103 61
77 101 60
72 95 56
76 101 60
75 100 59
81 106 63
73 98 58
74 98 58
79 104 61
76 101 60
80 105 62
80 106 64
79 104 61
77 101 60
82 108 64
107 127 105
144 158 160
158 171 173
155 168 170
163 175 179
161 174 179
179 191 200
156 169 171
167 179 183
172 184 187
163 176 181
155 168 170
170 182 188
174 185 192
168 180 186
165 178 183
167 179 184
165 179 182
168 181 186
153 166 166
99 120 95
75 99 58
72 95 55
79 104 61
75 100 58
74 99 58
75 100 58
69 93 54
75 100 58
77 102 59
76 101 59
76 101 58
76 101 59
76 101 58
70 93 55
74 99 57
73 96 59
125 142 133
156 170 171
167 178 184
159 172 176
168 180 184
154 165 168
153 166 169
163 176 182
148 162 163
168 180 187
158 171 173
157 170 172
136 150 145
140 155 150
132 148 141
128 144 132
146 161 161
154 167 167
151 166 165
153 166 168
162 175 181
156 169 172
158 172 178
158 171 175
152 166 169
151 164 166
160 173 176
154 167 169
147 160 159
127 143 138
129 146 138
85 106 74
75 98 61
91 112 85
103 119 101
112 129 119
130 146 137
143 156 155
139 154 153
156 169 172
147 159 161
123 138 129
108 123 109
102 120 102
104 121 108
136 149 148
157 170 175
183 196 205
201 213 226
215 227 242
226 238 255
226 238 255
226 238 255
226 238 255
226 238 255
226 238 255
226 238 255
226 238 255
226 238 255
226 238 255
226 238 255
226 238 255
226 238 255
226 238 255
226 238 255
226 238 255
226 238 255
226 238 255
226 238 255
226 238 255
226 238 255
226 238 255
226 238 255
226 238 255
226 238 255
226 238 255
226 238 255
226 238 255
226 238 255
226 238 255
226 238 255
226 238 255
226 238 255
226 238 255
226 238 255
226 238 255
226 238 255
226 238 255
226 238 255
226 238 255
226 238 255
226 238 255
226 238 255
226 238 255
226 238 255
226 238 255
226 238 255
226 238 255
226 238 255
226 238 255
226 238 255
226 238 255
226 238 255
226 238 255
226 238 255
226 238 255
226 238 255
226 238 255
226 238 255
226 238 255
226 238 255
226 238 255
226 238 255
226 238 255
226 238 255
226 238 255
226 238 255
226 238 255
226 238 255
226 238 255
226 238 255
226 238 255
226 238 255
226 238 255
226 238 255
226 238 255
226 238 255
226 238 255
226 238 255
226 238 255
226 238 255
226 238 255
226 238 255
226 238 255
226 238 255
226 238 255
226 238 255
226 238 255
226 238 255
226 238 255
226 238 255
226 238 255
226 238 255
226 238 255
226 238 255
226 238 255
226 238 255
226 238 255
226 238 255
226 238 255
226 238 255
226 238 255
226 238 255
226 238 255
226 238 255
226 238 255
226 238 255
226 238 255
226 238 255
226 238 255
226 238 255
226 238 255
226 238 255
226 238 255
226 238 255
226 238 255
226 238 255
226 238 255
226 238 255
226 238 255
226 238 255
226 238 255
226 238 255
226 238 255
226 238 255
226 238 255
226 238 255
226 238 255
226 238 255
226 238 255
226 238 255
226 238 255
226 238 255
226 238 255
226 238 255
226 238 255
226 238 255
226 238 255
226 238 255
226 238 255
226 238 255
226 238 255
226 238 255
226 238 255
226 238 255
226 238 255
226 238 255
226 238 255
226 238 255
226 238 255
226 238 255
226 238 255
226 238 255
226 238 255
226 238 255
226 238 255
226 238 255
226 238 255
226 238 255
226 238 255
226 238 255
226 238 255
226 238 255
226 238 255
226 238 255
226 238 255
226 238 255
226 238 255
226 238 255
226 238 255
226 238 255
226 238 255
226 238 255
226 238 255
226 238 255
208 220 235
174 187 192
171 185 188
136 150 147
124 139 132
132 147 146
146 160 163
146 159 158
127 142 136
111 127 115
137 151 148
145 159 158
156 168 170
144 157 157
153 166 168
149 163 163
152 164 167
126 140 135
116 131 125
105 123 103
91 111 84
75 97 60
76 100 58
72 96 56
73 96 56
74 98 57
71 95 55
74 98 57
73 98 57
77 102 60
85 105 77
149 163 160
128 144 135
111 130 112
97 116 93
94 115 88
72 96 55
68 91 52
68 92 52
75 99 58
73 98 57
72 95 55
73 98 56
72 96 55
72 96 56
77 101 60
75 99 59
68 91 52
78 103 61
71 95 55
75 99 59
91 112 82
109 127 110
143 159 154
123 138 131
118 134 123
111 129 110
90 111 82
75 99 58
77 102 59
73 97 57
72 96 56
73 96 56
78 103 61
71 94 54
80 105 63
73 97 56
78 103 61
79 104 61
75 100 58
72 96 56
72 96 56
81 107 64
76 101 59
80 105 65
145 159 157
167 179 185
160 172 175
167 179 185
158 170 174
169 181 187
160 173 176
159 172 174
166 179 184
169 181 186
155 169 170
162 174 178
152 166 169
149 162 159
131 147 141
138 152 147
133 146 139
132 146 143
114 131 113
105 124 106
106 125 101
99 119 100
165 177 181
154 169 170
161 173 177
153 166 167
168 182 187
159 172 177
165 178 180
162 175 180
156 168 171
164 177 179
165 178 181
162 175 178
159 171 174
151 164 166
157 169 172
150 164 165
165 177 180
166 178 185
163 175 181
163 175 178
128 143 135
74 97 60
77 101 60
79 104 61
74 99 58
76 100 59
78 103 61
78 102 60
74 97 56
75 100 59
73 97 57
76 101 58
73 97 56
74 98 57
79 105 62
73 97 57
70 93 53
72 97 56
77 102 59
77 103 61
114 130 116
160 174 179
164 176 177
162 175 181
156 170 171
168 180 183
165 178 180
154 167 170
166 178 182
156 169 170
155 168 172
155 167 168
162 175 176
165 178 181
160 173 177
160 173 175
161 173 178
159 172 175
154 166 168
140 155 149
82 107 66
79 104 62
76 101 59
70 94 54
74 98 57
73 97 56
75 100 59
67 90 51
78 103 61
71 95 56
75 99 57
78 103 60
71 95 55
76 101 59
78 102 60
78 103 61
96 118 91
131 146 139
147 159 160
145 159 155
129 144 139
138 153 148
140 155 149
119 136 120
94 113 93
99 118 100
98 118 93
82 106 73
72 96 56
75 100 58
77 102 60
73 97 56
103 121 101
142 157 156
144 156 156
152 165 166
150 163 167
154 166 170
165 177 182
168 180 185
161 175 178
155 167 169
153 167 168
150 163 165
135 149 147
145 160 158
139 153 151
122 137 129
117 133 126
154 167 169
159 171 172
152 166 169
151 163 166
139 153 154
141 155 157
144 156 156
137 151 150
134 148 146
129 143 142
159 171 177
185 197 206
190 202 213
211 223 237
224 236 253
226 238 255
226 238 255
226 238 255
226 238 255
226 238 255
226 238 255
226 238 255
226 238 255
226 238 255
226 238 255
226 238 255
226 238 255
226 238 255
226 238 255
226 238 255
226 238 255
226 238 255
226 238 255
226 238 255
226 238 255
226 238 255
226 238 255
226 238 255
226 238 255
226 238 255
226 238 255
226 238 255
226 238 255
226 238 255
226 238 255
226 238 255
226 238 255
226 238 255
226 238 255
226 238 255
226 238 255
226 238 255
226 238 255
226 238 255
226 238 255
226 238 255
226 238 255
226 238 255
226 238 255
226 238 255
226 238 255
226 238 255
226 238 255
226 238 255
226 238 255
226 238 255
226 238 255
226 238 255
226 238 255
226 238 255
226 238 255
226 238 255
226 238 255
226 238 255
226 238 255
226 238 255
226 238 255
226 238 255
226 238 255
226 238 255
226 238 255
226 238 255
226 238 255
226 238 255
226 238 255
226 238 255
226 238 255
226 238 255
226 238 255
226 238 255
226 238 255
226 238 255
226 238 255
226 238 255
226 238 255
226 238 255
226 238 255
226 238 255
226 238 255
226 238 255
226 238 255
226 238 255
226 238 255
226 238 255
226 238 255
226 238 255
226 238 255
226 238 255
226 238 255
226 238 255
226 238 255
226 238 255
226 238 255
226 238 255
226 238 255
226 238 255
226 238 255
226 238 255
226 238 255
226 238 255
226 238 255
226 238 255
226 238 255
226 238 255
226 238 255
226 238 255
226 238 255
226 238 255
226 238 255
226 238 255
226 238 255
226 238 255
226 238 255
226 238 255
226 238 255
226 238 255
226 238 255
226 238 255
226 238 255
226 238 255
226 238 255
226 238 255
226 238 255
226 238 255
226 238 255
226 238 255
226 238 255
226 238 255
226 238 255
226 238 255
226 238 255
226 238 255
226 238 255
226 238 255
226 238 255
226 238 255
226 238 255
226 238 255
226 238 255
226 238 255
226 238 255
226 238 255
226 238 255
226 238 255
226 238 255
226 238 255
226 238 255
226 238 255
226 238 255
226 238 255
226 238 255
226 238 255
226 238 255
226 238 255
226 238 255
226 238 255
226 238 255
226 238 255
226 238 255
226 238 255
226 238 255
226 238 255
226 238 255
226 238 255
226 238 255
226 238 255
226 238 255
226 238 255
226 238 255
226 238 255
226 238 255
226 238 255
226 238 255
226 238 255
226 238 255
226 238 255
226 238 255
226 238 255
226 238 255
214 226 240
182 196 202
173 186 193
158 171 173
113 128 121
101 118 103
83 102 76
72 93 63
85 105 80
107 124 112
116 131 122
135 151 149
158 171 174
142 154 154
147 161 162
150 162 165
142 155 153
148 162 164
117 134 121
121 137 126
105 124 105
81 103 72
74 98 58
71 95 56
64 86 50
124 139 133
158 172 175
145 158 158
150 163 164
151 165 166
146 160 159
145 159 157
133 147 142
127 140 136
102 120 102
103 123 101
82 104 76
75 98 61
77 101 59
73 97 57
69 92 53
74 98 57
77 102 60
72 96 56
76 100 59
76 101 59
73 97 56
137 150 144
156 169 169
149 164 166
149 163 163
146 160 160
150 163 164
156 170 171
144 157 156
143 158 155
132 146 140
124 138 130
113 131 115
92 113 87
79 101 66
74 97 62
78 103 62
71 95 55
71 94 55
78 103 60
72 96 56
80 105 62
77 102 61
143 158 155
156 169 173
164 176 183
155 168 171
168 181 187
158 171 173
154 168 172
161 174 178
158 172 175
163 176 182
161 174 178
148 161 163
160 172 177
166 179 184
160 173 175
165 177 182
152 166 170
165 178 183
157 170 173
160 173 177
184 196 204
143 157 154
71 96 56
72 95 54
73 97 57
91 113 82
92 112 82
86 108 76
97 115 96
114 131 116
103 121 101
120 137 126
114 131 120
114 130 119
131 147 138
118 133 127
140 154 149
144 158 153
152 166 162
147 161 158
145 159 158
145 159 159
121 136 128
83 106 70
84 108 68
75 99 62
74 98 58
77 103 61
77 103 61
72 96 56
73 97 57
75 100 58
75 99 57
76 101 60
73 97 56
73 97 57
80 106 62
77 101 59
81 106 63
74 98 57
77 101 59
77 100 62
133 149 144
159 173 176
158 170 176
162 175 177
162 175 178
160 172 175
168 181 187
151 163 164
152 166 169
157 170 175
164 176 180
151 164 163
164 176 184
161 174 178
161 174 175
149 163 164
164 176 180
149 162 163
147 160 158
116 133 120
80 101 73
91 111 87
95 114 94
109 127 113
109 128 107
118 134 122
118 133 121
115 131 118
122 139 129
121 136 127
123 139 130
130 145 138
134 149 148
135 149 143
151 163 165
142 156 156
112 128 118
77 101 59
77 101 61
74 99 58
72 96 56
67 90 51
72 95 55
72 96 56
77 102 61
74 98 57
67 90 52
74 98 57
72 96 56
75 99 59
80 105 62
106 121 109
158 171 174
157 169 173
159 172 174
152 164 166
147 160 159
143 156 156
142 156 154
115 130 123
118 134 125
90 109 89
104 123 102
82 101 77
105 123 106
138 150 148
152 165 167
141 155 153
150 163 165
140 154 152
133 148 142
128 143 137
101 117 107
114 131 119
118 133 125
152 165 168
186 199 209
199 212 225
210 222 237
223 235 252
226 238 255
226 238 255
226 238 255
226 238 255
226 238 255
226 238 255
226 238 255
226 238 255
226 238 255
226 238 255
226 238 255
226 238 255
226 238 255
226 238 255
226 238 255
226 238 255
226 238 255
226 238 255
226 238 255
226 238 255
226 238 255
226 238 255
226 238 255
226 238 255
226 238 255
226 238 255
226 238 255
226 238 255
226 238 255
226 238 255
226 238 255
226 238 255
226 238 255
226 238 255
226 238 255
226 238 255
226 238 255
226 238 255
226 238 255
226 238 255
226 238 255
226 238 255
226 238 255
226 238 255
226 238 255
226 238 255
226 238 255
226 238 255
226 238 255
226 238 255
226 238 255
226 238 255
226 238 255
226 238 255
226 238 255
226 238 255
226 238 255
226 238 255
226 238 255
226 238 255
226 238 255
226 238 255
226 238 255
226 238 255
226 238 255
226 238 255
226 238 255
226 238 255
226 238 255
226 238 255
226 238 255
226 238 255
226 238 255
226 238 255
226 238 255
226 238 255
226 238 255
226 238 255
226 238 255
226 238 255
226 238 255
226 238 255
226 238 255
226 238 255
226 238 255
226 238 255
226 238 255
226 238 255
226 238 255
226 238 255
226 238 255
226 238 255
226 238 255
226 238 255
226 238 255
226 238 255
226 238 255
226 238 255
226 238 255
226 238 255
226 238 255
226 238 255
226 238 255
226 238 255
226 238 255
226 238 255
226 238 255
226 238 255
226 238 255
226 238 255
226 238 255
226 238 255
226 238 255
226 238 255
226 238 255
226 238 255
226 238 255
226 238 255
226 238 255
226 238 255
226 238 255
226 238 255
226 238 255
226 238 255
226 238 255
226 238 255
226 238 255
226 238 255
226 238 255
226 238 255
226 238 255
226 238 255
226 238 255
226 238 255
226 238 255
226 238 255
226 238 255
226 238 255
226 238 255
226 238 255
226 238 255
226 238 255
226 238 255
226 238 255
226 238 255
226 238 255
226 238 255
226 238 255
226 238 255
226 238 255
226 238 255
226 238 255
226 238 255
226 238 255
226 238 255
226 238 255
226 238 255
226 238 255
226 238 255
226 238 255
226 238 255
226 238 255
226 238 255
226 238 255
226 238 255
226 238 255
226 238 255
226 238 255
226 238 255
226 238 255
226 238 255
226 238 255
226 238 255
226 238 255
226 238 255
226 238 255
226 238 255
226 238 255
226 238 255
226 238 255
226 238 255
226 238 255
226 238 255
226 238 255
226 238 255
226 238 255
226 238 255
226 238 255
226 238 255
226 238 255
226 238 255
226 238 255
226 238 255
226 238 255
216 228 244
207 219 233
184 197 206
155 169 170
117 133 124
94 112 95
86 103 81
73 95 61
82 101 79
91 111 90
121 136 129
114 131 121
147 161 161
143 157 157
153 165 168
138 151 151
156 169 172
151 163 166
135 149 147
91 109 91
125 141 133
138 152 149
144 158 155
152 164 167
150 162 165
156 169 172
155 168 169
155 169 171
157 169 173
150 163 164
153 166 167
158 171 175
159 171 173
130 144 140
115 131 121
134 150 143
119 136 123
92 112 90
84 106 76
75 99 58
64 86 49
120 136 127
151 165 167
143 157 155
152 164 169
156 170 174
132 147 144
157 169 171
160 173 178
155 168 170
138 152 153
158 171 175
146 158 161
156 169 172
155 167 172
158 170 175
148 161 163
150 162 163
128 143 137
136 151 145
125 140 132
116 134 121
114 131 115
132 146 139
142 156 155
148 161 162
156 169 174
143 157 154
154 167 168
159 172 173
154 167 169
169 182 187
160 173 178
145 159 159
157 169 174
154 166 167
154 167 168
159 171 174
148 160 160
156 169 173
153 165 169
160 172 174
145 158 158
152 166 167
136 150 146
71 93 57
73 96 57
75 100 59
71 95 55
76 100 59
76 100 59
73 96 56
69 92 53
70 93 54
71 95 56
75 99 58
76 101 60
73 97 57
69 92 53
78 102 60
73 98 58
75 100 59
70 93 54
73 97 58
80 103 66
133 149 142
165 178 182
158 170 172
160 174 178
154 166 167
165 177 184
143 157 157
156 169 169
140 154 154
149 163 164
150 164 164
151 164 165
145 159 158
150 163 160
148 161 162
139 152 150
143 157 152
155 169 170
146 159 156
118 132 124
92 112 89
98 118 96
75 97 63
109 126 109
93 112 88
95 114 91
102 119 102
91 109 87
104 124 104
87 108 80
95 116 89
96 117 90
94 115 90
94 115 88
77 98 67
72 96 56
83 106 70
77 101 64
121 138 127
158 171 175
158 170 175
160 172 176
156 168 170
169 182 191
153 166 168
144 158 159
158 171 173
155 168 170
149 164 165
150 164 166
144 158 160
161 173 175
151 164 165
149 162 163
153 167 168
126 141 134
84 106 75
72 96 56
72 96 56
69 92 53
64 87 50
73 98 57
67 89 52
71 95 55
69 92 54
67 90 52
70 94 55
73 97 58
73 95 59
85 105 81
89 109 85
126 141 136
115 131 122
116 133 120
99 118 102
88 108 82
68 91 52
68 91 53
71 94 55
70 94 55
70 94 54
70 92 53
84 103 80
114 130 121
121 138 128
122 138 128
112 128 119
99 115 101
101 120 98
75 95 67
113 128 119
145 159 158
172 184 190
198 210 223
211 223 237
226 238 255
226 238 255
226 238 255
226 238 255
226 238 255
226 238 255
226 238 255
226 238 255
226 238 255
226 238 255
226 238 255
226 238 255
226 238 255
226 238 255
226 238 255
226 238 255
226 238 255
226 238 255
226 238 255
226 238 255
226 238 255
226 238 255
226 238 255
226 238 255
226 238 255
226 238 255
226 238 255
226 238 255
226 238 255
226 238 255
226 238 255
226 238 255
226 238 255
226 238 255
226 238 255
226 238 255
226 238 255
226 238 255
226 238 255
226 238 255
226 238 255
226 238 255
226 238 255
226 238 255
226 238 255
226 238 255
226 238 255
226 238 255
226 238 255
226 238 255
226 238 255
226 238 255
226 238 255
226 238 255
226 238 255
226 238 255
226 238 255
226 238 255
226 238 255
226 238 255
226 238 255
226 238 255
226 238 255
226 238 255
226 238 255
226 238 255
226 238 255
226 238 255
226 238 255
226 238 255
226 238 255
226 238 255
226 238 255
226 238 255
226 238 255
226 238 255
226 238 255
226 238 255
226 238 255
226 238 255
226 238 255
226 238 255
226 238 255
226 238 255
226 238 255
226 238 255
226 238 255
226 238 255
226 238 255
226 238 255
226 238 255
226 238 255
226 238 255
226 238 255
226 238 255
226 238 255
226 238 255
226 238 255
226 238 255
226 238 255
226 238 255
226 238 255
226 238 255
226 238 255
226 238 255
226 238 255
226 238 255
226 238 255
226 238 255
226 238 255
226 238 255
226 238 255
226 238 255
226 238 255
226 238 255
226 238 255
226 238 255
226 238 255
226 238 255
226 238 255
226 238 255
226 238 255
226 238 255
226 238 255
226 238 255
226 238 255
226 238 255
226 238 255
226 238 255
226 238 255
226 238 255
226 238 255
226 238 255
226 238 255
226 238 255
226 238 255
226 238 255
226 238 255
226 238 255
226 238 255
226 238 255
226 238 255
226 238 255
226 238 255
226 238 255
226 238 255
226 238 255
226 238 255
226 238 255
226 238 255
226 238 255
226 238 255
226 238 255
226 238 255
226 238 255
226 238 255
226 238 255
226 238 255
226 238 255
226 238 255
226 238 255
226 238 255
226 238 255
226 238 255
226 238 255
226 238 255
226 238 255
226 238 255
226 238 255
226 238 255
226 238 255
226 238 255
226 238 255
226 238 255
226 238 255
226 238 255
226 238 255
226 238 255
226 238 255
226 238 255
226 238 255
226 238 255
226 238 255
226 238 255
226 238 255
226 238 255
226 238 255
226 238 255
226 238 255
226 238 255
226 238 255
226 238 255
226 238 255
226 238 255
226 238 255
226 238 255
226 238 255
226 238 255
226 238 255
226 238 255
226 238 255
226 238 255
226 238 255
226 238 255
226 238 255
221 233 249
207 219 233
187 199 210
172 185 192
137 150 149
98 115 100
84 102 77
70 91 59
75 97 64
99 113 99
104 121 109
116 130 125
137 151 147
120 135 126
66 90 51
69 91 52
70 93 54
70 94 55
75 99 64
80 99 75
110 127 112
115 131 124
120 135 132
139 152 150
134 147 144
148 160 163
154 166 170
151 165 165
152 165 167
140 154 155
140 155 156
145 157 159
156 168 170
146 158 157
149 162 164
106 123 108
100 118 99
112 127 115
127 141 139
136 150 150
134 148 145
149 163 163
154 167 170
144 157 161
154 167 170
154 167 167
136 150 148
137 151 150
143 157 157
154 167 169
142 155 156
154 167 170
157 171 175
151 163 165
148 161 162
149 162 163
154 167 170
98 116 96
77 102 61
72 95 57
68 91 52
71 95 55
80 101 69
92 111 92
110 128 112
111 128 113
117 132 124
121 136 127
140 155 152
137 152 147
153 166 166
148 162 163
156 169 172
158 172 177
157 170 173
161 174 177
153 166 170
161 174 179
107 124 109
67 90 52
73 97 57
71 94 55
69 93 53
74 97 58
69 93 54
77 101 60
70 93 55
72 96 56
71 95 55
75 100 59
73 97 57
70 94 54
70 93 55
79 103 61
66 88 52
71 95 55
71 94 54
75 99 58
97 116 95
131 144 141
155 167 166
165 178 182
157 169 173
158 171 173
160 173 177
144 157 159
158 171 174
155 168 170
156 169 172
149 162 163
149 163 165
155 168 173
163 174 178
161 173 176
140 155 155
144 159 160
159 171 176
142 156 156
128 144 139
74 97 62
79 104 61
79 103 61
75 100 60
74 99 58
72 96 56
72 95 55
71 94 55
66 89 51
72 97 56
69 93 53
69 92 53
72 97 57
73 96 56
75 100 59
69 92 54
73 98 57
99 116 97
135 149 147
144 159 159
148 160 162
154 168 171
154 167 171
158 171 175
154 167 170
141 154 153
150 163 168
140 154 152
151 165 168
157 171 173
142 156 155
165 177 185
160 172 177
154 167 170
127 142 137
84 104 77
66 88 51
73 97 57
77 100 65
73 95 61
87 107 82
106 123 107
105 122 108
108 126 108
125 141 134
126 141 135
139 153 150
140 153 150
138 151 149
124 139 132
82 101 76
70 93 55
71 94 55
68 90 52
67 90 53
69 92 53
63 85 48
77 98 69
91 109 88
98 115 100
108 125 108
72 93 63
75 98 61
91 110 87
73 94 60
76 95 70
135 149 147
156 169 172
189 201 211
206 219 232
223 235 252
226 238 255
226 238 255
226 238 255
226 238 255
226 238 255
226 238 255
226 238 255
226 238 255
226 238 255
226 238 255
226 238 255
226 238 255
226 238 255
226 238 255
226 238 255
226 238 255
226 238 255
226 238 255
226 238 255
226 238 255
226 238 255
226 238 255
226 238 255
226 238 255
226 238 255
226 238 255
226 238 255
226 238 255
226 238 255
226 238 255
226 238 255
226 238 255
226 238 255
226 238 255
226 238 255
226 238 255
226 238 255
226 238 255
226 238 255
226 238 255
226 238 255
226 238 255
226 238 255
226 238 255
226 238 255
226 238 255
226 238 255
226 238 255
226 238 255
226 238 255
226 238 255
226 238 255
226 238 255
226 238 255
226 238 255
226 238 255
226 238 255
226 238 255
226 238 255
226 238 255
226 238 255
226 238 255
226 238 255
226 238 255
226 238 255
226 238 255
226 238 255
226 238 255
226 238 255
226 238 255
226 238 255
226 238 255
226 238 255
226 238 255
226 238 255
226 238 255
226 238 255
226 238 255
226 238 255
226 238 255
226 238 255
226 238 255
226 238 255
226 238 255
226 238 255
226 238 255
226 238 255
226 238 255
226 238 255
226 238 255
226 238 255
226 238 255
226 238 255
226 238 255
226 238 255
226 238 255
226 238 255
226 238 255
226 238 255
226 238 255
226 238 255
226 238 255
226 238 255
226 238 255
226 238 255
226 238 255
226 238 255
226 238 255
226 238 255
226 238 255
226 238 255
226 238 255
226 238 255
226 238 255
226 238 255
226 238 255
226 238 255
226 238 255
226 238 255
226 238 255
226 238 255
226 238 255
226 238 255
226 238 255
226 238 255
226 238 255
226 238 255
226 238 255
226 238 255
226 238 255
226 238 255
226 238 255
226 238 255
226 238 255
226 238 255
226 238 255
226 238 255
226 238 255
226 238 255
226 238 255
226 238 255
226 238 255
226 238 255
226 238 255
226 238 255
226 238 255
226 238 255
226 238 255
226 238 255
226 238 255
226 238 255
226 238 255
226 238 255
226 238 255
226 238 255
226 238 255
226 238 255
226 238 255
226 238 255
226 238 255
226 238 255
226 238 255
226 238 255
226 238 255
226 238 255
226 238 255
226 238 255
226 238 255
226 238 255
226 238 255
226 238 255
226 238 255
226 238 255
226 238 255
226 238 255
226 238 255
226 238 255
226 238 255
226 238 255
226 238 255
226 238 255
226 239 255
226 239 255
226 239 255
226 239 255
226 239 255
226 239 255
226 239 255
226 239 255
226 239 255
226 239 255
226 239 255
226 239 255
226 239 255
226 239 255
226 239 255
226 239 255
226 239 255
226 239 255
226 239 255
226 239 255
226 239 255
226 239 255
226 239 255
226 239 255
226 239 255
226 239 255
226 239 255
226 239 255
227 239 255
227 239 255
227 239 255
227 239 255
227 239 255
227 239 255
227 239 255
219 231 247
198 210 221
184 197 205
165 178 183
129 143 141
137 151 150
133 149 147
128 143 139
128 143 138
121 136 129
118 134 125
110 127 116
92 110 92
82 100 80
72 94 58
67 89 52
67 90 52
65 87 50
60 81 46
73 94 61
97 116 92
113 129 120
114 131 121
128 143 135
148 161 162
142 156 156
145 157 158
136 151 146
116 133 119
71 95 55
69 92 53
77 101 59
74 98 57
62 84 47
74 99 58
65 88 51
72 95 62
98 117 97
93 113 91
113 128 116
115 131 123
125 139 134
130 144 141
135 149 148
154 167 172
148 161 164
157 169 172
153 166 167
149 162 163
137 152 148
93 113 89
72 97 56
68 91 53
67 89 51
73 97 56
74 98 58
64 87 49
71 95 56
72 96 56
65 88 50
66 88 51
64 87 49
70 93 54
69 92 53
63 85 48
71 95 56
64 87 50
77 98 66
95 115 91
90 108 88
109 128 110
135 148 145
125 141 134
106 123 108
114 131 116
105 124 105
113 131 113
89 107 85
97 115 96
95 113 91
80 102 71
83 102 74
73 96 56
73 97 56
67 90 52
67 90 52
66 89 51
68 91 52
73 96 56
72 96 56
72 95 56
118 135 122
142 156 155
152 165 170
146 158 159
147 160 162
146 160 160
150 164 165
156 168 172
156 169 171
147 159 161
139 154 152
143 156 159
162 175 181
141 155 155
155 167 170
143 156 158
162 173 177
152 164 166
164 177 182
141 155 154
94 113 89
69 92 54
73 97 56
70 94 55
72 96 56
70 93 54
73 96 56
67 91 53
71 95 55
73 96 56
70 94 55
67 90 52
71 95 55
68 91 52
70 93 55
71 95 55
77 101 60
89 108 84
124 141 131
158 171 176
157 169 171
146 160 161
141 154 155
154 167 170
157 169 173
147 160 162
153 166 169
136 149 145
115 131 122
130 145 138
141 153 152
129 144 140
123 138 129
112 127 121
131 145 141
142 153 154
124 139 133
121 136 127
143 158 159
147 160 161
145 157 159
146 159 162
134 148 146
144 158 160
141 154 155
131 145 145
150 163 165
146 159 160
131 145 142
87 105 87
73 94 62
90 110 87
97 114 96
101 118 102
95 109 100
121 134 131
121 134 133
135 149 146
124 138 134
128 141 142
105 120 113
114 131 120
140 155 151
169 183 187
191 203 214
197 210 221
217 229 245
227 239 255
227 239 255
227 239 255
227 239 255
227 239 255
227 239 255
227 239 255
227 239 255
226 239 255
226 239 255
226 239 255
226 239 255
226 239 255
226 239 255
226 239 255
226 239 255
226 239 255
226 239 255
226 239 255
226 239 255
226 239 255
226 239 255
226 239 255
226 239 255
226 239 255
226 239 255
226 239 255
226 239 255
226 239 255
226 239 255
226 239 255
226 239 255
226 239 255
226 239 255
226 239 255
226 239 255
226 238 255
226 238 255
226 238 255
226 238 255
226 238 255
226 238 255
226 238 255
226 238 255
226 238 255
226 238 255
226 238 255
226 238 255
226 238 255
226 238 255
226 238 255
226 238 255
226 238 255
226 238 255
226 238 255
226 238 255
226 238 255
226 238 255
226 238 255
226 238 255
226 238 255
226 238 255
226 238 255
226 238 255
226 238 255
226 238 255
226 238 255
226 238 255
226 238 255
226 238 255
226 238 255
226 238 255
226 238 255
226 238 255
226 238 255
226 238 255
226 238 255
226 238 255
226 238 255
226 238 255
226 238 255
226 238 255
226 238 255
226 238 255
226 238 255
226 238 255
226 238 255
226 238 255
226 238 255
226 238 255
226 238 255
226 238 255
226 238 255
226 238 255
226 238 255
226 238 255
226 238 255
226 238 255
226 238 255
226 238 255
226 238 255
226 238 255
226 238 255
226 238 255
226 238 255
226 238 255
226 238 255
226 238 255
226 238 255
226 238 255
226 238 255
226 238 255
226 238 255
226 238 255
226 238 255
226 238 255
226 238 255
226 238 255
226 238 255
226 238 255
226 238 255
226 238 255
226 238 255
226 238 255
226 238 255
226 238 255
226 238 255
226 238 255
226 238 255
226 238 255
226 238 255
226 238 255
226 238 255
226 238 255
226 238 255
226 238 255
226 238 255
226 238 255
226 238 255
226 238 255
226 238 255
226 238 255
226 238 255
226 238 255
226 238 255
226 238 255
226 238 255
226 238 255
226 238 255
226 238 255
226 238 255
226 238 255
226 238 255
226 239 255
226 239 255
226 239 255
226 239 255
226 239 255
226 239 255
226 239 255
226 239 255
226 239 255
226 239 255
226 239 255
226 239 255
226 239 255
226 239 255
226 239 255
226 239 255
226 239 255
226 239 255
226 239 255
226 239 255
226 239 255
226 239 255
226 239 255
226 239 255
227 239 255
227 239 255
227 239 255
227 239 255
227 239 255
227 239 255
227 239 255
227 239 255
227 239 255
227 239 255
227 239 255
227 239 255
227 239 255
227 239 255
227 239 255
227 239 255
227 239 255
227 239 255
227 239 255
227 239 255
227 239 255
227 239 255
227 239 255
227 239 255
227 239 255
227 239 255
227 239 255
227 239 255
227 239 255
227 239 255
227 239 255
227 239 255
227 239 255
227 239 255
227 239 255
227 239 255
227 239 255
227 239 255
227 239 255
227 239 255
227 239 255
227 239 255
227 239 255
227 239 255
227 239 255
227 239 255
227 239 255
227 239 255
227 239 255
227 239 255
227 239 255
224 236 252
207 219 233
197 209 221
184 196 206
159 171 175
152 164 168
132 144 144
114 128 121
115 131 120
107 123 115
97 116 98
97 113 98
84 102 83
87 105 83
75 94 70
66 88 53
67 90 53
68 90 53
67 90 52
69 91 56
90 107 88
133 148 148
111 127 119
107 122 112
106 123 110
96 112 95
79 100 70
73 95 61
66 88 50
62 84 48
68 91 53
69 92 53
63 85 48
68 90 53
67 90 51
68 91 53
66 89 51
71 94 55
70 93 54
77 98 69
93 113 91
109 127 113
116 131 125
117 132 124
111 126 116
84 103 77
100 117 99
76 96 68
76 99 65
68 92 53
71 95 55
72 96 56
73 96 56
71 94 55
71 93 54
67 91 53
70 93 54
73 96 56
72 96 57
71 94 56
68 91 53
72 95 55
74 98 58
91 109 90
135 148 145
158 170 172
140 154 153
147 160 162
147 161 163
146 159 162
153 165 168
143 157 157
148 160 163
138 152 152
145 158 160
141 155 155
151 164 166
146 161 160
149 162 161
142 154 155
128 143 139
140 154 151
133 147 144
127 141 135
91 111 84
108 126 109
101 119 101
113 128 119
115 132 119
113 130 119
128 143 138
118 134 122
121 136 127
131 146 141
117 132 128
123 139 132
113 129 120
119 136 128
110 128 113
127 141 137
112 128 119
126 140 134
119 134 126
132 146 142
109 127 113
106 122 111
106 124 108
96 113 97
98 114 100
101 119 99
121 136 127
114 130 120
109 125 112
106 123 110
108 125 112
118 134 126
124 140 129
123 137 130
122 137 128
126 141 133
113 128 116
90 109 89
79 97 74
87 106 82
94 115 89
84 104 79
85 106 77
75 97 64
80 99 71
75 99 58
72 95 56
64 87 49
70 93 54
64 87 49
63 86 49
66 89 51
75 97 62
105 119 110
145 158 160
137 150 151
141 154 156
141 154 155
144 157 160
148 162 165
140 153 154
148 160 161
134 148 149
121 134 132
128 142 139
129 144 140
128 143 138
127 142 138
138 152 152
129 144 142
137 150 147
116 130 123
111 124 119
118 132 128
116 130 123
120 135 131
143 156 155
167 179 186
162 174 179
180 192 201
200 212 225
222 235 251
227 239 255
227 239 255
227 239 255
227 239 255
227 239 255
227 239 255
227 239 255
227 239 255
227 239 255
227 239 255
227 239 255
227 239 255
227 239 255
227 239 255
227 239 255
227 239 255
227 239 255
227 239 255
227 239 255
227 239 255
227 239 255
227 239 255
227 239 255
227 239 255
227 239 255
227 239 255
227 239 255
227 239 255
227 239 255
227 239 255
227 239 255
227 239 255
227 239 255
227 239 255
227 239 255
227 239 255
227 239 255
227 239 255
227 239 255
227 239 255
227 239 255
227 239 255
227 239 255
227 239 255
227 239 255
227 239 255
227 239 255
227 239 255
227 239 255
227 239 255
227 239 255
226 239 255
226 239 255
226 239 255
226 239 255
226 239 255
226 239 255
226 239 255
226 239 255
226 239 255
226 239 255
226 239 255
226 239 255
226 239 255
226 239 255
226 239 255
226 239 255
226 239 255
226 239 255
226 239 255
226 239 255
226 239 255
226 239 255
226 239 255
226 238 255
226 238 255
226 238 255
226 238 255
226 238 255
226 238 255
226 238 255
226 238 255
226 238 255
226 238 255
226 238 255
226 238 255
226 238 255
226 238 255
226 238 255
226 238 255
226 238 255
226 238 255
226 238 255
226 238 255
226 238 255
226 238 255
226 238 255
226 238 255
226 238 255
226 238 255
226 238 255
226 238 255
226 238 255
226 238 255
226 238 255
226 238 255
226 238 255
226 238 255
226 238 255
226 238 255
226 238 255
226 238 255
226 238 255
226 238 255
226 238 255
226 238 255
226 238 255
226 238 255
226 238 255
226 238 255
226 238 255
226 238 255
226 238 255
226 238 255
226 238 255
226 238 255
226 238 255
226 238 255
226 238 255
226 238 255
226 238 255
226 238 255
226 238 255
226 238 255
226 239 255
226 238 255
226 239 255
226 239 255
226 239 255
226 239 255
226 239 255
226 239 255
226 239 255
226 239 255
226 239 255
226 239 255
226 239 255
226 239 255
226 239 255
226 239 255
226 239 255
226 239 255
226 239 255
226 239 255
227 239 255
227 239 255
227 239 255
227 239 255
227 239 255
227 239 255
227 239 255
227 239 255
227 239 255
227 239 255
227 239 255
227 239 255
227 239 255
227 239 255
227 239 255
227 239 255
227 239 255
227 239 255
227 239 255
227 239 255
227 239 255
227 239 255
227 239 255
227 239 255
227 239 255
227 239 255
227 239 255
227 239 255
227 239 255
227 239 255
227 239 255
227 239 255
227 239 255
227 239 255
227 239 255
227 239 255
227 239 255
227 239 255
227 239 255
227 239 255
227 239 255
227 239 255
227 239 255
227 239 255
227 239 255
227 239 255
227 239 255
227 239 255
227 239 255
227 239 255
227 239 255
227 239 255
227 239 255
227 239 255
227 239 255
227 239 255
227 239 255
227 239 255
227 239 255
227 239 255
227 239 255
227 239 255
227 239 255
227 239 255
227 239 255
227 239 255
227 239 255
227 239 255
227 239 255
227 239 255
227 239 255
227 239 255
227 239 255
227 239 255
227 239 255
227 239 255
227 239 255
227 239 255
227 239 255
227 239 255
227 239 255
227 239 255
227 239 255
227 239 255
227 239 255
227 239 255
227 239 255
220 232 248
201 213 226
196 209 220
166 179 184
123 135 134
97 113 99
90 107 93
89 106 90
88 105 85
63 83 51
70 90 61
89 105 88
115 129 124
119 132 129
127 141 140
130 144 140
128 141 138
132 145 145
141 154 153
133 147 146
139 151 153
129 143 142
121 135 129
124 139 136
127 141 135
113 130 118
95 112 97
86 104 85
88 108 86
62 84 48
56 77 44
63 85 48
69 92 54
86 103 82
122 137 131
135 148 149
136 149 149
123 137 133
163 175 183
149 163 166
138 152 150
136 150 147
152 165 171
132 146 142
121 136 128
115 130 121
104 120 107
116 132 126
101 119 103
113 128 120
100 117 103
98 114 98
77 97 70
80 101 71
74 93 67
115 131 124
139 152 155
145 158 159
138 151 149
142 155 157
133 147 144
150 163 164
146 159 159
151 164 168
156 168 172
150 163 166
146 159 161
149 162 162
133 147 147
142 155 155
153 166 168
144 156 154
140 153 154
136 149 150
146 159 157
108 124 115
76 99 64
74 98 57
70 94 55
64 88 49
62 84 48
66 89 52
66 88 51
71 95 54
67 90 52
70 94 54
68 92 53
67 89 52
72 95 56
65 88 50
69 93 54
68 91 53
68 91 54
71 94 55
114 131 117
149 162 165
139 152 151
150 163 167
142 155 156
136 148 147
142 155 157
148 160 162
148 159 160
147 160 163
147 160 161
153 165 170
136 150 148
155 168 173
135 148 148
141 154 156
135 148 148
136 149 149
98 116 95
78 99 72
63 85 49
65 88 50
61 83 46
61 82 47
60 81 46
70 92 54
62 84 48
61 83 48
64 86 50
75 99 59
65 87 51
64 86 49
65 85 53
76 94 70
118 132 124
123 137 131
124 137 136
117 132 125
106 120 110
104 121 108
105 122 111
106 123 109
92 108 93
89 105 89
101 115 107
109 123 116
91 109 89
89 106 91
104 119 106
100 115 105
110 126 117
107 122 114
95 111 97
125 138 136
166 178 185
200 212 225
207 218 233
222 234 250
227 239 255
227 239 255
227 239 255
227 239 255
227 239 255
227 239 255
227 239 255
227 239 255
227 239 255
227 239 255
227 239 255
227 239 255
227 239 255
227 239 255
227 239 255
227 239 255
227 239 255
227 239 255
227 239 255
227 239 255
227 239 255
227 239 255
227 239 255
227 239 255
227 239 255
227 239 255
227 239 255
227 239 255
227 239 255
227 239 255
227 239 255
227 239 255
227 239 255
227 239 255
227 239 255
227 239 255
227 239 255
227 239 255
227 239 255
227 239 255
227 239 255
227 239 255
227 239 255
227 239 255
227 239 255
227 239 255
227 239 255
227 239 255
227 239 255
227 239 255
227 239 255
227 239 255
227 239 255
227 239 255
227 239 255
227 239 255
227 239 255
227 239 255
227 239 255
227 239 255
227 239 255
227 239 255
227 239 255
227 239 255
227 239 255
227 239 255
227 239 255
227 239 255
227 239 255
227 239 255
227 239 255
227 239 255
227 239 255
227 239 255
227 239 255
227 239 255
227 239 255
227 239 255
227 239 255
227 239 255
227 239 255
227 239 255
227 239 255
227 239 255
227 239 255
227 239 255
227 239 255
227 239 255
226 239 255
226 239 255
226 239 255
226 239 255
226 239 255
226 239 255
226 239 255
226 239 255
226 239 255
226 239 255
226 239 255
226 239 255
226 239 255
226 239 255
226 239 255
226 239 255
226 239 255
226 239 255
226 239 255
226 238 255
226 238 255
226 238 255
226 238 255
226 238 255
226 238 255
226 238 255
226 238 255
226 238 255
226 238 255
226 238 255
226 238 255
226 238 255
226 238 255
226 238 255
226 238 255
226 238 255
226 239 255
226 239 255
226 239 255
226 239 255
226 239 255
226 239 255
226 239 255
226 239 255
226 239 255
226 239 255
227 239 255
226 239 255
227 239 255
227 239 255
227 239 255
227 239 255
227 239 255
227 239 255
227 239 255
227 239 255
227 239 255
227 239 255
227 239 255
227 239 255
227 239 255
227 239 255
227 239 255
227 239 255
227 239 255
227 239 255
227 239 255
227 239 255
227 239 255
227 239 255
227 239 255
227 239 255
227 239 255
227 239 255
227 239 255
227 239 255
227 239 255
227 239 255
227 239 255
227 239 255
227 239 255
227 239 255
227 239 255
227 239 255
227 239 255
227 239 255
227 239 255
227 239 255
227 239 255
227 239 255
227 239 255
227 239 255
227 239 255
227 239 255
227 239 255
227 239 255
227 239 255
227 239 255
227 239 255
227 239 255
227 239 255
227 239 255
227 239 255
227 239 255
227 239 255
227 239 255
227 239 255
227 239 255
227 239 255
227 239 255
227 239 255
227 239 255
227 239 255
227 239 255
227 239 255
227 239 255
227 239 255
227 239 255
227 239 255
227 239 255
227 239 255
227 239 255
227 239 255
227 239 255
227 239 255
227 239 255
227 239 255
227 239 255
227 239 255
227 239 255
227 239 255
227 239 255
227 239 255
227 239 255
227 239 255
227 239 255
227 239 255
227 239 255
227 239 255
227 239 255
227 239 255
227 239 255
227 239 255
227 239 255
227 239 255
227 239 255
227 239 255
227 239 255
227 239 255
227 239 255
227 239 255
227 239 255
227 239 255
227 239 255
227 239 255
227 239 255
227 239 255
226 237 254
211 223 237
175 186 195
165 177 185
149 161 165
134 146 152
96 108 107
95 108 103
80 92 86
76 92 78
74 89 75
65 78 65
43 59 33
65 80 62
84 97 86
98 111 103
103 117 108
120 131 129
111 125 120
104 118 110
119 131 129
102 117 108
115 129 122
101 116 106
102 116 111
102 120 106
96 112 98
79 98 76
105 121 107
91 107 93
108 123 113
99 115 100
101 116 106
112 127 119
103 119 106
108 123 115
112 128 120
126 139 133
120 134 129
122 137 131
133 146 143
135 150 149
141 154 157
123 137 134
145 159 160
141 154 157
134 148 148
151 165 170
132 145 142
146 159 161
137 151 153
136 149 147
140 152 155
131 146 146
133 147 149
138 151 152
116 131 124
85 104 82
67 89 52
72 91 63
80 99 74
87 107 82
100 118 100
102 119 102
107 122 109
116 131 123
104 120 109
101 118 104
121 134 131
128 141 138
118 132 125
130 144 142
119 133 129
116 131 128
125 138 134
136 148 148
118 133 126
88 109 83
76 97 66
70 91 57
65 88 50
70 92 54
68 92 54
64 86 50
66 89 51
65 87 51
61 83 47
65 87 50
65 87 50
68 91 54
65 87 51
63 86 49
69 92 54
67 90 51
68 89 55
91 111 86
136 150 147
142 155 155
131 145 146
136 151 150
144 157 156
149 161 164
133 145 145
121 134 132
140 152 154
132 144 146
138 152 151
133 147 148
130 145 143
147 159 162
128 141 139
142 155 157
128 141 138
123 138 133
95 112 97
79 97 76
89 106 86
89 107 85
100 118 99
82 99 78
96 112 97
90 108 91
97 114 97
95 113 94
87 104 89
93 110 96
98 114 99
92 109 93
134 147 147
130 142 144
110 125 116
109 123 116
126 139 137
128 143 141
131 145 144
126 140 137
125 138 136
117 131 124
110 124 116
102 115 107
106 119 116
106 120 115
121 133 134
100 113 111
108 121 120
97 110 106
115 128 130
85 97 92
86 100 92
72 85 77
80 95 85
93 107 101
115 128 127
158 170 176
176 189 198
186 198 209
217 229 244
225 237 254
227 239 255
227 239 255
227 239 255
227 239 255
227 239 255
227 239 255
227 239 255
227 239 255
227 239 255
227 239 255
227 239 255
227 239 255
227 239 255
227 239 255
227 239 255
227 239 255
227 239 255
227 239 255
227 239 255
227 239 255
227 239 255
227 239 255
227 239 255
227 239 255
227 239 255
227 239 255
227 239 255
227 239 255
227 239 255
227 239 255
227 239 255
227 239 255
227 239 255
227 239 255
227 239 255
227 239 255
227 239 255
227 239 255
227 239 255
227 239 255
227 239 255
227 239 255
227 239 255
227 239 255
227 239 255
227 239 255
227 239 255
227 239 255
227 239 255
227 239 255
227 239 255
227 239 255
227 239 255
227 239 255
227 239 255
227 239 255
227 239 255
227 239 255
227 239 255
227 239 255
227 239 255
227 239 255
227 239 255
227 239 255
227 239 255
227 239 255
227 239 255
227 239 255
227 239 255
227 239 255
227 239 255
227 239 255
227 239 255
227 239 255
227 239 255
227 239 255
227 239 255
227 239 255
227 239 255
227 239 255
227 239 255
227 239 255
227 239 255
227 239 255
227 239 255
227 239 255
227 239 255
227 239 255
227 239 255
227 239 255
227 239 255
227 239 255
227 239 255
227 239 255
227 239 255
227 239 255
227 239 255
227 239 255
227 239 255
227 239 255
227 239 255
227 239 255
227 239 255
227 239 255
227 239 255
227 239 255
227 239 255
227 239 255
227 239 255
227 239 255
227 239 255
226 239 255
226 239 255
226 239 255
226 239 255
226 239 255
226 239 255
226 239 255
226 239 255
226 239 255
226 239 255
227 239 255
227 239 255
227 239 255
227 239 255
227 239 255
227 239 255
227 239 255
227 239 255
227 239 255
227 239 255
227 239 255
227 239 255
227 239 255
227 239 255
227 239 255
227 239 255
227 239 255
227 239 255
227 239 255
227 239 255
227 239 255
227 239 255
227 239 255
227 239 255
227 239 255
227 239 255
227 239 255
227 239 255
227 239 255
227 239 255
227 239 255
227 239 255
227 239 255
227 239 255
227 239 255
227 239 255
227 239 255
227 239 255
227 239 255
227 239 255
227 239 255
227 239 255
227 239 255
227 239 255
227 239 255
227 239 255
227 239 255
227 239 255
227 239 255
227 239 255
227 239 255
227 239 255
227 239 255
227 239 255
227 239 255
227 239 255
227 239 255
227 239 255
227 239 255
227 239 255
227 239 255
227 239 255
227 239 255
227 239 255
227 239 255
227 239 255
227 239 255
227 239 255
227 239 255
227 239 255
227 239 255
227 239 255
227 239 255
227 239 255
227 239 255
227 239 255
227 239 255
227 239 255
227 239 255
227 239 255
227 239 255
227 239 255
227 239 255
227 239 255
227 239 255
227 239 255
227 239 255
227 239 255
227 239 255
227 239 255
227 239 255
227 239 255
227 239 255
227 239 255
227 239 255
227 239 255
227 239 255
227 239 255
227 239 255
227 239 255
227 239 255
227 239 255
227 239 255
227 239 255
227 239 255
227 239 255
227 239 255
227 239 255
227 239 255
227 239 255
227 239 255
227 239 255
227 239 255
227 239 255
227 239 255
227 239 255
224 236 253
196 208 220
179 191 200
155 166 172
142 156 160
109 122 120
94 110 102
100 114 108
93 106 103
82 98 84
54 69 50
47 63 40
43 60 34
45 61 35
69 84 68
54 68 52
67 80 70
68 80 75
93 106 99
79 91 86
65 75 68
55 68 55
36 51 27
35 49 27
44 59 38
59 73 55
54 69 51
81 92 86
101 115 111
97 109 103
102 114 113
124 136 137
108 120 119
104 118 111
108 121 116
111 124 118
106 122 111
89 107 89
72 88 70
108 122 115
110 125 116
124 137 134
125 139 136
125 137 135
121 134 133
118 131 130
143 156 157
146 159 163
124 137 134
128 142 140
113 127 122
130 141 143
131 143 143
130 142 141
117 132 125
117 132 127
122 139 132
119 134 128
112 125 118
121 135 131
119 133 132
108 123 112
98 114 100
97 114 99
110 126 117
91 107 91
110 125 116
105 120 109
90 107 88
97 113 100
91 108 91
92 108 94
88 104 86
90 107 90
104 119 106
69 88 64
107 122 110
98 115 101
75 92 71
75 96 66
110 127 116
130 143 139
122 136 132
114 128 122
127 140 136
115 131 125
112 126 117
115 130 123
125 139 133
107 122 114
116 132 123
125 139 136
115 127 127
122 138 129
107 122 112
106 122 111
100 116 109
117 132 123
105 120 111
107 122 111
120 135 128
102 118 107
106 121 111
113 129 120
115 129 122
99 114 105
123 136 134
111 126 116
127 141 139
110 123 116
109 127 119
106 123 110
124 137 132
107 121 112
119 133 128
91 108 88
76 94 67
78 98 72
65 87 51
65 85 57
62 83 50
62 83 48
53 72 40
63 85 49
60 81 46
76 96 69
75 94 69
75 93 73
77 93 76
65 88 50
72 89 66
102 117 110
71 87 69
103 117 110
96 108 103
80 96 81
58 75 54
61 76 58
76 90 77
74 89 76
75 88 78
68 81 70
69 80 74
71 82 77
58 69 62
35 50 27
33 46 25
37 51 29
41 55 35
45 59 39
61 74 61
71 85 74
78 90 83
79 93 83
74 87 77
56 71 53
50 69 39
45 63 35
48 65 37
67 81 67
69 84 71
79 93 83
105 119 114
110 123 120
147 159 162
181 193 203
208 220 233
222 234 250
227 239 255
227 239 255
227 239 255
227 239 255
227 239 255
227 239 255
227 239 255
227 239 255
227 239 255
227 239 255
227 239 255
227 239 255
227 239 255
227 239 255
227 239 255
227 239 255
227 239 255
227 239 255
227 239 255
227 239 255
227 239 255
227 239 255
227 239 255
227 239 255
227 239 255
227 239 255
227 239 255
227 239 255
227 239 255
227 239 255
227 239 255
227 239 255
227 239 255
227 239 255
227 239 255
227 239 255
227 239 255
227 239 255
227 239 255
227 239 255
227 239 255
227 239 255
227 239 255
227 239 255
227 239 255
227 239 255
227 239 255
227 239 255
227 239 255
227 239 255
227 239 255
227 239 255
227 239 255
227 239 255
227 239 255
227 239 255
227 239 255
227 239 255
227 239 255
227 239 255
227 239 255
227 239 255
227 239 255
227 239 255
227 239 255
227 239 255
227 239 255
227 239 255
227 239 255
227 239 255
227 239 255
227 239 255
227 239 255
227 239 255
227 239 255
227 239 255
227 239 255
227 239 255
227 239 255
227 239 255
227 239 255
227 239 255
227 239 255
227 239 255
227 239 255
227 239 255
227 239 255
227 239 255
227 239 255
227 239 255
227 239 255
227 239 255
227 239 255
227 239 255
227 239 255
227 239 255
227 239 255
227 239 255
227 239 255
227 239 255
227 239 255
227 239 255
227 239 255
227 239 255
227 239 255
227 239 255
227 239 255
227 239 255
227 239 255
227 239 255
227 239 255
227 239 255
227 239 255
227 239 255
227 239 255
227 239 255
227 239 255
227 239 255
227 239 255
227 239 255
227 239 255
227 239 255
227 239 255
227 239 255
227 239 255
227 239 255
227 239 255
227 239 255
227 239 255
227 239 255
227 239 255
227 239 255
227 239 255
227 239 255
227 239 255
227 239 255
227 239 255
227 239 255
227 239 255
227 239 255
227 239 255
227 239 255
227 239 255
227 239 255
227 239 255
227 239 255
227 239 255
227 239 255
227 239 255
227 239 255
227 239 255
227 239 255
227 239 255
227 239 255
227 239 255
227 239 255
227 239 255
227 239 255
227 239 255
227 239 255
227 239 255
227 239 255
227 239 255
227 239 255
227 239 255
227 239 255
227 239 255
227 239 255
227 239 255
227 239 255
227 239 255
227 239 255
227 239 255
227 239 255
227 239 255
227 239 255
227 239 255
227 239 255
227 239 255
227 239 255
227 239 255
227 239 255
227 239 255
227 239 255
227 239 255
227 239 255
227 239 255
227 239 255
227 239 255
227 239 255
227 239 255
227 239 255
227 239 255
227 239 255
227 239 255
227 239 255
227 239 255
227 239 255
227 239 255
227 239 255
227 239 255
227 239 255
227 239 255
227 239 255
227 239 255
227 239 255
227 239 255
227 239 255
227 239 255
227 239 255
227 239 255
227 239 255
227 239 255
227 239 255
227 239 255
227 239 255
227 239 255
227 239 255
227 239 255
227 239 255
227 239 255
227 239 255
227 239 255
227 239 255
227 239 255
227 239 255
227 239 255
226 238 254
207 219 234
166 178 185
140 154 154
111 125 119
73 89 75
60 76 58
73 89 73
101 114 114
78 93 82
61 76 59
48 67 39
44 62 33
57 74 50
70 86 70
72 88 70
75 87 84
86 98 95
84 95 92
89 101 99
92 106 102
79 89 89
90 102 99
83 94 93
71 81 76
70 82 74
59 71 61
49 61 48
83 95 90
67 77 73
74 83 81
67 77 72
74 82 84
70 80 77
62 71 69
63 72 69
62 73 68
61 71 67
59 68 64
51 62 53
52 62 54
61 71 63
71 82 73
59 73 57
54 66 52
73 86 75
71 86 72
64 82 58
68 84 63
74 92 68
73 90 71
81 97 80
82 98 82
81 97 80
99 115 104
104 119 110
116 131 125
114 127 125
108 123 117
107 120 114
120 132 130
107 119 116
90 106 92
68 86 61
64 86 50
60 81 46
53 72 41
66 88 55
69 90 56
71 90 62
72 91 68
80 96 80
84 102 83
75 93 71
93 110 96
104 119 107
96 112 99
89 105 90
109 123 114
101 117 104
119 132 128
118 132 126
130 144 143
102 117 108
67 84 64
85 100 85
94 109 97
80 97 77
58 78 47
76 96 66
78 98 71
65 83 55
76 95 68
76 93 69
58 80 44
60 82 47
71 88 67
68 86 63
58 78 47
64 85 53
77 96 71
98 113 103
127 140 141
121 134 132
124 138 137
110 124 117
118 132 128
119 132 132
117 130 126
129 143 141
123 136 132
108 121 117
126 141 136
101 115 107
116 131 126
115 128 126
116 130 125
137 149 151
116 130 126
90 107 90
104 120 109
96 110 101
97 111 102
94 108 102
107 122 116
109 123 117
116 129 126
108 121 116
106 120 114
115 126 129
106 117 118
95 106 103
90 102 96
78 91 81
55 71 49
52 63 52
66 75 70
62 72 65
53 65 53
34 48 26
33 46 26
33 46 25
32 44 24
40 52 36
45 58 43
44 56 42
34 47 26
55 66 58
39 52 34
63 73 68
65 79 68
56 68 57
60 73 61
48 64 40
46 62 36
42 58 33
44 60 35
44 60 35
42 58 34
47 64 37
37 53 28
57 71 56
91 104 100
91 104 101
85 98 93
72 87 75
67 85 64
56 72 53
48 67 38
43 59 33
55 73 46
80 97 81
79 95 81
121 134 133
168 181 188
181 193 202
208 220 234
226 238 254
227 239 255
227 239 255
227 239 255
227 239 255
227 239 255
227 239 255
227 239 255
227 239 255
227 239 255
227 239 255
227 239 255
227 239 255
227 239 255
227 239 255
227 239 255
227 239 255
227 239 255
227 239 255
227 239 255
227 239 255
227 239 255
227 239 255
227 239 255
227 239 255
227 239 255
227 239 255
227 239 255
227 239 255
227 239 255
227 239 255
227 239 255
227 239 255
227 239 255
227 239 255
227 239 255
227 239 255
227 239 255
227 239 255
227 239 255
227 239 255
227 239 255
227 239 255
227 239 255
227 239 255
227 239 255
227 239 255
227 239 255
227 239 255
227 239 255
227 239 255
227 239 255
227 239 255
227 239 255
227 239 255
227 239 255
227 239 255
227 239 255
227 239 255
227 239 255
227 239 255
227 239 255
227 239 255
227 239 255
227 239 255
227 239 255
227 239 255
227 239 255
227 239 255
227 239 255
227 239 255
227 239 255
227 239 255
227 239 255
227 239 255
227 239 255
227 239 255
227 239 255
227 239 255
227 239 255
227 239 255
227 239 255
227 239 255
227 239 255
227 239 255
227 239 255
227 239 255
227 239 255
227 239 255
227 239 255
227 239 255
227 239 255
227 239 255
227 239 255
227 239 255
227 239 255
227 239 255
227 239 255
227 239 255
227 239 255
227 239 255
227 239 255
227 239 255
227 239 255
227 239 255
227 239 255
227 239 255
227 239 255
227 239 255
227 239 255
227 239 255
227 239 255
227 239 255
227 239 255
227 239 255
227 239 255
227 239 255
227 239 255
227 239 255
227 239 255
227 239 255
227 239 255
227 239 255
227 239 255
227 239 255
227 239 255
227 239 255
227 239 255
227 239 255
227 239 255
227 239 255
227 239 255
227 239 255
227 239 255
227 239 255
227 239 255
227 239 255
227 239 255
227 239 255
227 239 255
227 239 255
227 239 255
227 239 255
227 239 255
227 239 255
227 239 255
227 239 255
227 239 255
227 239 255
227 239 255
227 239 255
227 239 255
227 239 255
227 239 255
227 239 255
227 239 255
227 239 255
227 239 255
227 239 255
227 239 255
227 239 255
227 239 255
227 239 255
227 239 255
227 239 255
227 239 255
227 239 255
227 239 255
227 239 255
227 239 255
227 239 255
227 239 255
227 239 255
227 239 255
227 239 255
227 239 255
227 239 255
227 239 255
227 239 255
227 239 255
227 239 255
227 239 255
227 239 255
227 239 255
227 239 255
227 239 255
227 239 255
227 239 255
227 239 255
227 239 255
227 239 255
227 239 255
227 239 255
227 239 255
227 239 255
227 239 255
227 239 255
227 239 255
227 239 255
227 239 255
227 239 255
227 239 255
227 239 255
227 239 255
227 239 255
227 239 255
227 239 255
227 239 255
227 239 255
227 239 255
227 239 255
227 239 255
227 239 255
227 239 255
227 239 255
227 239 255
227 239 255
227 239 255
227 239 255
218 229 245
194 206 216
167 180 187
123 137 135
96 112 101
78 94 79
74 92 71
78 94 80
98 112 106
101 115 111
100 113 113
102 116 113
84 96 93
89 103 96
73 86 77
80 95 85
81 93 88
95 108 105
90 102 100
108 120 120
79 92 85
84 96 95
67 79 70
83 95 92
64 75 69
55 68 56
55 68 52
42 57 33
40 55 30
33 47 25
40 55 32
54 67 50
66 76 71
81 92 91
92 102 103
81 92 88
60 69 67
55 67 56
52 62 53
58 69 59
42 53 39
41 52 41
31 44 24
33 45 26
30 42 23
26 37 19
30 41 24
30 41 24
30 41 23
28 36 28
69 78 76
49 56 54
41 49 44
46 54 51
40 51 36
56 64 62
76 83 83
63 73 67
63 74 64
41 51 40
62 72 66
44 58 38
53 66 47
72 81 79
97 108 105
76 88 80
83 94 89
103 115 110
94 106 101
101 113 109
83 95 87
97 112 103
96 111 101
88 104 91
99 113 106
86 100 88
96 111 100
83 99 83
88 104 89
79 93 80
78 94 78
71 88 69
67 85 63
74 89 73
89 104 90
117 129 127
108 120 116
114 128 125
115 128 126
107 120 119
116 128 125
114 125 123
126 139 136
112 127 124
120 133 132
126 139 140
117 130 126
126 138 141
121 132 132
111 123 120
110 124 120
111 125 118
96 111 99
68 84 64
62 79 56
71 87 67
61 80 53
69 87 62
56 73 51
79 97 78
74 93 66
76 93 73
69 85 66
64 81 57
51 68 43
58 75 48
57 76 48
71 87 69
70 85 72
88 101 93
83 95 88
82 92 89
83 93 90
73 84 76
74 84 79
46 57 42
48 56 51
52 62 53
43 52 41
34 45 31
45 55 45
59 67 65
61 70 66
49 57 52
68 76 76
50 59 53
53 61 57
53 62 56
52 61 56
62 72 66
57 67 61
56 66 58
53 62 57
58 68 62
33 43 31
34 47 27
34 48 26
36 49 28
31 43 24
34 48 27
39 53 31
40 54 31
40 54 31
37 51 29
38 54 30
34 48 26
53 64 54
81 91 89
83 93 94
86 96 95
88 99 97
69 80 74
54 67 52
68 82 70
54 70 49
50 65 46
49 66 43
68 80 70
79 93 86
111 123 125
93 106 102
96 109 107
92 106 102
90 102 99
100 113 113
87 101 92
81 95 85
99 111 109
114 129 125
108 122 120
99 115 105
83 99 85
124 138 136
157 170 175
192 204 215
207 219 233
227 239 255
227 239 255
227 239 255
227 239 255
227 239 255
227 239 255
227 239 255
227 239 255
227 239 255
227 239 255
227 239 255
227 239 255
227 239 255
227 239 255
227 239 255
227 239 255
227 239 255
227 239 255
227 239 255
227 239 255
227 239 255
227 239 255
227 239 255
227 239 255
227 239 255
227 239 255
227 239 255
227 239 255
227 239 255
227 239 255
227 239 255
227 239 255
227 239 255
227 239 255
227 239 255
227 239 255
227 239 255
227 239 255
227 239 255
227 239 255
227 239 255
227 239 255
227 239 255
227 239 255
227 239 255
227 239 255
227 239 255
227 239 255
227 239 255
227 239 255
227 239 255
227 239 255
227 239 255
227 239 255
227 239 255
227 239 255
227 239 255
227 239 255
227 239 255
227 239 255
227 239 255
227 239 255
227 239 255
227 239 255
227 239 255
227 239 255
227 239 255
227 239 255
227 239 255
227 239 255
227 239 255
227 239 255
227 239 255
227 239 255
227 239 255
227 239 255
227 239 255
227 239 255
227 239 255
227 239 255
227 239 255
227 239 255
227 239 255
227 239 255
227 239 255
227 239 255
227 239 255
227 239 255
227 239 255
227 239 255
227 239 255
227 239 255
227 239 255
227 239 255
227 239 255
227 239 255
227 239 255
227 239 255
227 239 255
227 239 255
227 239 255
227 239 255
227 239 255
227 239 255
227 239 255
227 239 255
227 239 255
227 239 255
227 239 255
227 239 255
227 239 255
227 239 255
227 239 255
227 239 255
227 239 255
227 239 255
227 239 255
227 239 255
227 239 255
227 239 255
227 239 255
227 239 255
227 239 255
227 239 255
227 239 255
227 239 255
227 239 255
227 239 255
227 239 255
227 239 255
227 239 255
227 239 255
227 239 255
227 239 255
227 239 255
227 239 255
227 239 255
227 239 255
227 239 255
227 239 255
227 239 255
227 239 255
227 239 255
227 239 255
227 239 255
227 239 255
227 239 255
227 239 255
227 239 255
227 239 255
227 239 255
227 239 255
227 239 255
227 239 255
227 239 255
227 239 255
227 239 255
227 239 255
227 239 255
227 239 255
227 239 255
227 239 255
227 239 255
227 239 255
227 239 255
227 239 255
227 239 255
227 239 255
227 239 255
227 239 255
227 239 255
227 239 255
227 239 255
227 239 255
227 239 255
227 239 255
227 239 255
227 239 255
227 239 255
227 239 255
227 239 255
227 239 255
227 239 255
227 239 255
227 239 255
227 239 255
227 239 255
227 239 255
227 239 255
227 239 255
227 239 255
227 239 255
227 239 255
227 239 255
227 239 255
227 239 255
227 239 255
227 239 255
227 239 255
227 239 255
227 239 255
227 239 255
227 239 255
227 239 255
227 239 255
227 239 255
227 239 255
227 239 255
227 239 255
225 237 253
201 213 226
176 189 198
134 147 148
91 108 98
80 98 81
73 90 74
74 90 74
104 119 118
100 115 109
101 115 114
96 109 107
103 116 114
91 103 98
82 96 89
77 89 82
53 72 44
48 67 38
44 61 35
47 64 41
89 102 98
84 98 91
75 88 79
80 94 87
54 67 53
58 72 56
53 67 51
36 51 27
36 50 27
41 57 32
44 60 35
40 56 32
43 59 34
37 51 29
38 52 29
40 56 31
53 64 57
82 94 90
67 79 70
51 60 56
37 52 29
34 47 26
33 46 26
29 42 21
25 37 19
31 44 24
35 49 27
36 50 29
30 41 24
32 44 25
35 49 28
33 46 26
28 39 21
27 38 21
29 40 23
60 68 65
58 66 63
46 53 50
51 60 53
43 52 45
30 42 23
20 29 15
27 37 21
35 48 28
26 37 20
25 36 19
25 35 20
34 47 27
21 30 16
32 43 25
20 28 15
10 16 7
40 49 39
46 53 49
52 58 59
45 52 50
53 61 57
45 52 49
34 44 32
44 51 46
39 47 39
45 54 47
47 54 51
48 57 52
44 52 46
61 71 64
50 59 52
34 45 31
41 51 39
38 49 35
33 45 25
40 52 35
37 50 29
43 56 38
39 50 35
45 59 39
58 70 58
39 52 34
46 59 40
52 67 45
43 54 41
65 75 68
40 49 39
55 64 59
66 76 71
58 68 59
39 47 38
54 62 57
62 70 67
55 64 57
45 53 46
51 60 52
38 47 38
46 54 46
40 48 40
51 58 54
22 30 17
31 39 30
24 34 18
24 34 18
25 34 20
29 37 29
39 47 38
46 52 50
36 43 38
33 41 31
49 58 52
58 65 66
43 51 46
47 56 50
40 50 40
34 43 35
40 47 42
47 54 50
46 56 48
44 52 46
38 50 33
30 41 23
28 35 27
35 48 28
45 55 46
44 53 47
39 53 31
37 45 37
39 51 35
42 55 37
49 59 52
48 57 50
55 66 57
55 66 59
48 61 45
48 60 49
46 57 43
44 56 42
40 52 36
40 56 32
28 39 20
36 51 27
40 55 31
24 34 18
38 52 30
38 54 29
34 49 25
64 76 66
61 74 63
81 90 89
75 87 79
67 78 71
83 96 90
88 101 94
82 93 92
92 102 103
84 96 91
95 108 105
81 94 87
81 93 89
76 91 80
82 98 86
93 107 103
112 124 124
100 114 110
108 121 121
105 119 117
93 106 102
111 125 125
98 112 108
91 106 101
104 117 115
106 119 117
121 136 135
123 138 141
121 134 135
148 162 165
183 195 205
196 208 221
218 230 245
227 239 255
227 239 255
227 239 255
227 239 255
227 239 255
227 239 255
227 239 255
227 239 255
227 239 255
227 239 255
227 239 255
227 239 255
227 239 255
227 239 255
227 239 255
227 239 255
227 239 255
227 239 255
227 239 255
227 239 255
227 239 255
227 239 255
227 239 255
227 239 255
227 239 255
227 239 255
227 239 255
227 239 255
227 239 255
227 239 255
227 239 255
227 239 255
227 239 255
227 239 255
227 239 255
227 239 255
227 239 255
227 239 255
227 239 255
227 239 255
227 239 255
227 239 255
227 239 255
227 239 255
227 239 255
227 239 255
227 239 255
227 239 255
227 239 255
227 239 255
227 239 255
227 239 255
227 239 255
227 239 255
227 239 255
227 239 255
227 239 255
227 239 255
227 239 255
227 239 255
227 239 255
227 239 255
227 239 255
227 239 255
227 239 255
227 239 255
227 239 255
227 239 255
227 239 255
227 239 255
227 239 255
227 239 255
227 239 255
227 239 255
227 239 255
227 239 255
227 239 255
227 239 255
227 239 255
227 239 255
227 239 255
227 239 255
227 239 255
227 239 255
227 239 255
227 239 255
227 239 255
227 239 255
227 239 255
227 239 255
227 239 255
227 239 255
227 239 255
227 239 255
227 239 255
227 239 255
227 239 255
227 239 255
227 239 255
227 239 255
227 239 255
227 239 255
227 239 255
227 239 255
227 239 255
227 239 255
227 239 255
227 239 255
227 239 255
227 239 255
227 239 255
227 239 255
227 239 255
227 239 255
227 239 255
227 239 255
227 239 255
227 239 255
227 239 255
227 239 255
227 239 255
227 239 255
227 239 255
227 239 255
227 239 255
227 239 255
227 239 255
227 239 255
227 239 255
227 239 255
227 239 255
227 239 255
227 239 255
227 239 255
227 239 255
227 239 255
227 239 255
227 239 255
227 239 255
227 239 255
227 239 255
227 239 255
227 239 255
227 239 255
227 239 255
227 239 255
227 239 255
227 239 255
227 239 255
227 239 255
227 239 255
227 239 255
227 239 255
227 239 255
227 239 255
227 239 255
227 239 255
227 239 255
227 239 255
227 239 255
227 239 255
227 239 255
227 239 255
227 239 255
227 239 255
227 239 255
227 239 255
227 239 255
227 239 255
227 239 255
227 239 255
227 239 255
227 239 255
227 239 255
227 239 255
227 239 255
227 239 255
227 239 255
227 239 255
227 239 255
227 239 255
227 239 255
227 239 255
227 239 255
227 239 255
227 239 255
227 239 255
227 239 255
227 239 255
227 239 255
227 239 255
227 239 255
227 239 255
227 239 255
227 239 255
227 239 255
227 239 255
227 239 255
227 239 255
227 239 255
221 233 249
192 203 215
147 160 162
131 145 146
116 131 129
102 117 114
75 93 76
82 99 82
104 118 114
123 137 139
110 124 122
98 113 109
97 111 104
83 95 88
67 85 62
55 73 47
48 67 38
46 63 36
43 62 33
48 66 38
58 77 49
54 67 55
82 97 87
83 95 91
87 99 96
61 76 60
48 64 38
46 63 35
45 62 36
41 57 31
46 63 36
41 57 31
44 60 34
48 65 40
52 63 53
76 89 80
73 85 80
68 80 74
80 92 87
71 82 75
98 109 109
72 83 78
66 77 70
39 54 30
38 53 29
31 44 23
41 57 32
35 49 26
40 55 31
34 47 26
35 48 27
40 55 32
31 44 23
55 65 57
51 61 52
59 68 63
61 72 63
46 55 48
66 76 71
55 65 57
41 52 37
29 41 23
25 35 19
25 35 19
30 42 23
29 41 22
24 34 18
30 42 24
29 41 22
28 40 22
22 34 16
26 36 20
32 45 25
31 42 24
18 27 14
21 30 16
25 35 20
39 47 40
50 56 55
70 78 78
37 42 40
39 48 39
55 63 60
19 28 13
30 37 29
40 47 44
37 46 36
28 34 28
19 28 14
26 31 26
37 45 38
33 41 31
19 27 14
17 25 12
55 62 61
36 44 37
23 32 18
12 17 9
40 47 43
43 51 45
44 55 43
30 38 28
27 34 27
46 53 49
21 30 16
45 51 49
46 52 50
35 45 33
43 50 46
39 45 43
41 47 44
28 38 23
19 28 14
18 25 14
28 38 21
29 39 22
20 28 16
19 27 14
29 41 23
28 39 22
16 23 12
24 34 18
27 37 21
28 38 22
20 30 15
29 40 23
44 52 46
58 66 64
43 51 44
39 48 39
36 44 37
57 65 62
37 46 37
34 44 32
56 64 62
29 38 28
51 61 53
51 60 56
47 55 50
46 54 49
59 67 66
56 67 59
28 40 22
27 40 20
29 41 21
30 41 23
31 42 24
28 40 22
27 39 21
37 51 29
36 50 28
32 44 25
34 46 27
29 41 23
37 51 29
51 61 52
89 99 98
92 103 103
74 85 80
86 95 96
81 92 89
66 77 70
63 74 68
73 85 79
60 72 63
48 61 45
73 83 81
60 72 62
70 82 74
88 100 98
82 94 91
81 94 87
77 89 83
70 83 74
88 99 97
92 104 102
70 82 75
101 113 113
78 90 86
88 101 95
75 89 79
49 65 41
49 67 38
58 76 53
64 79 64
83 97 87
91 105 97
99 112 108
89 104 97
96 109 108
86 101 92
67 81 69
52 72 41
53 69 47
69 87 65
85 99 89
95 112 102
109 124 119
100 115 109
100 118 106
119 133 130
172 184 192
188 200 212
220 232 247
227 239 255
227 239 255
227 239 255
227 239 255
227 239 255
227 239 255
227 239 255
227 239 255
227 239 255
227 239 255
227 239 255
227 239 255
227 239 255
227 239 255
227 239 255
227 239 255
227 239 255
227 239 255
227 239 255
227 239 255
227 239 255
227 239 255
227 239 255
227 239 255
227 239 255
227 239 255
227 239 255
227 239 255
227 239 255
227 239 255
227 239 255
227 239 255
227 239 255
227 239 255
227 239 255
227 239 255
227 239 255
227 239 255
227 239 255
227 239 255
227 239 255
227 239 255
227 239 255
227 239 255
227 239 255
227 239 255
227 239 255
227 239 255
227 239 255
227 239 255
227 239 255
227 239 255
227 239 255
227 239 255
227 239 255
227 239 255
227 239 255
227 239 255
227 239 255
227 239 255
227 239 255
227 239 255
227 239 255
227 239 255
227 239 255
227 239 255
227 239 255
227 239 255
227 239 255
227 239 255
227 239 255
227 239 255
227 239 255
227 239 255
227 239 255
227 239 255
227 239 255
227 239 255
227 239 255
227 239 255
227 239 255
227 239 255
227 239 255
227 239 255
227 239 255
227 239 255
227 239 255
227 239 255
227 239 255
227 239 255
227 239 255
227 239 255
227 239 255
227 239 255
227 239 255
227 239 255
227 239 255
227 239 255
227 239 255
227 239 255
227 239 255
227 239 255
227 239 255
227 239 255
227 239 255
227 239 255
227 239 255
227 239 255
227 239 255
227 239 255
227 239 255
227 239 255
227 239 255
227 239 255
227 239 255
227 239 255
227 239 255
227 239 255
227 239 255
227 239 255
227 239 255
227 239 255
227 239 255
227 239 255
227 239 255
227 239 255
227 239 255
227 239 255
227 239 255
227 239 255
227 239 255
227 239 255
227 239 255
227 239 255
227 239 255
227 239 255
227 239 255
227 239 255
227 239 255
227 239 255
227 239 255
227 239 255
227 239 255
227 239 255
227 239 255
227 239 255
227 239 255
227 239 255
227 239 255
227 239 255
227 239 255
227 239 255
227 239 255
227 239 255
227 239 255
227 239 255
227 239 255
227 239 255
227 239 255
227 239 255
227 239 255
227 239 255
227 239 255
227 239 255
227 239 255
227 239 255
227 239 255
227 239 255
227 239 255
227 239 255
227 239 255
227 239 255
227 239 255
227 239 255
227 239 255
227 239 255
227 239 255
227 239 255
227 239 255
227 239 255
227 239 255
227 239 255
227 239 255
227 239 255
227 239 255
227 239 255
227 239 255
227 239 255
227 239 255
227 239 255
227 239 255
227 239 255
220 232 248
190 203 212
167 180 185
128 142 141
100 116 106
117 133 131
99 116 109
86 101 90
79 97 78
58 77 49
56 76 45
66 82 62
93 108 101
93 107 101
49 66 41
56 76 45
51 70 40
52 71 40
52 71 41
53 72 42
62 80 58
80 94 86
76 90 80
103 115 115
102 114 114
97 110 109
112 125 127
107 118 121
96 109 106
77 90 84
56 71 53
51 68 43
53 66 52
69 84 71
70 84 75
74 88 80
76 88 83
76 87 84
76 88 83
78 91 84
85 96 94
71 83 79
85 97 92
68 79 73
100 111 113
81 91 90
82 93 90
58 69 63
35 49 27
45 59 39
43 57 38
51 62 52
65 73 70
77 87 86
70 81 76
71 83 76
59 69 64
65 76 70
56 66 59
61 72 66
70 79 77
60 70 63
81 91 92
67 75 74
50 58 55
41 54 37
29 42 22
24 35 17
31 43 24
33 46 25
29 42 22
24 35 17
29 40 22
33 45 26
23 32 18
27 37 22
43 51 45
30 39 30
30 41 23
46 54 50
39 48 39
62 70 67
45 55 45
24 34 18
23 33 18
28 40 22
33 45 25
25 36 18
25 34 19
28 38 22
26 36 21
24 35 18
20 30 15
26 37 20
21 29 15
28 39 22
27 38 21
26 35 20
36 44 36
39 46 42
40 47 43
55 63 61
47 54 50
43 49 49
39 46 42
40 49 42
48 56 51
58 66 63
50 59 53
47 56 48
48 55 52
35 42 36
31 39 31
58 66 66
42 50 45
46 56 47
22 32 16
21 29 16
26 36 20
27 37 22
26 37 20
23 33 17
21 30 16
33 45 26
20 29 14
29 41 23
31 42 24
21 30 16
31 43 24
24 34 18
30 41 23
41 49 42
46 53 49
53 62 56
52 58 58
42 48 44
52 62 56
47 55 49
39 49 39
47 56 51
57 67 62
72 82 80
45 54 46
56 63 62
65 75 72
71 81 78
60 69 64
28 41 21
27 38 20
36 49 28
29 42 22
33 46 25
35 49 27
30 42 23
38 52 30
32 46 24
36 51 27
37 51 29
38 52 30
30 44 23
56 69 58
61 72 63
65 75 71
81 90 90
71 81 78
66 79 70
68 78 76
90 100 101
63 76 68
79 91 86
69 81 73
76 88 83
96 106 109
75 86 82
78 90 83
41 55 35
62 78 60
56 70 56
84 98 88
95 109 102
78 93 80
100 113 112
99 112 113
88 102 97
84 98 92
82 94 92
60 77 58
49 68 39
48 66 37
49 67 38
48 67 37
47 65 36
51 71 40
52 71 40
62 78 62
74 91 74
69 87 69
68 85 66
73 87 74
56 76 44
59 80 46
60 82 48
51 71 39
81 99 83
77 96 77
64 85 56
76 94 75
69 91 59
112 127 121
146 158 160
178 190 198
212 224 238
227 239 255
227 239 255
227 239 255
227 239 255
227 239 255
227 239 255
227 239 255
227 239 255
227 239 255
227 239 255
227 239 255
227 239 255
227 239 255
227 239 255
227 239 255
227 239 255
227 239 255
227 239 255
227 239 255
227 239 255
227 239 255
227 239 255
227 239 255
227 239 255
227 239 255
227 239 255
227 239 255
227 239 255
227 239 255
227 239 255
227 239 255
227 239 255
227 239 255
227 239 255
227 239 255
227 239 255
227 239 255
227 239 255
227 239 255
227 239 255
227 239 255
227 239 255
227 239 255
227 239 255
227 239 255
227 239 255
227 239 255
227 239 255
227 239 255
227 239 255
227 239 255
227 239 255
227 239 255
227 239 255
227 239 255
227 239 255
227 239 255
227 239 255
227 239 255
227 239 255
227 239 255
227 239 255
227 239 255
227 239 255
227 239 255
227 239 255
227 239 255
227 239 255
227 239 255
227 239 255
227 239 255
227 239 255
227 239 255
227 239 255
227 239 255
227 239 255
227 239 255
227 239 255
227 239 255
227 239 255
227 239 255
227 239 255
227 239 255
227 239 255
227 239 255
227 239 255
227 239 255
227 239 255
227 239 255
227 239 255
227 239 255
227 239 255
227 239 255
227 239 255
227 239 255
227 239 255
227 239 255
227 239 255
227 239 255
227 239 255
227 239 255
227 239 255
227 239 255
227 239 255
227 239 255
227 239 255
227 239 255
227 239 255
227 239 255
227 239 255
227 239 255
227 239 255
227 239 255
227 239 255
227 239 255
227 239 255
227 239 255
227 239 255
227 239 255
227 239 255
227 239 255
227 239 255
227 239 255
227 239 255
227 239 255
227 239 255
227 239 255
227 239 255
227 239 255
227 239 255
227 239 255
227 239 255
227 239 255
227 239 255
227 239 255
227 239 255
227 239 255
227 239 255
227 239 255
227 239 255
227 239 255
227 239 255
227 239 255
227 239 255
227 239 255
227 239 255
227 239 255
227 239 255
227 239 255
227 239 255
227 239 255
227 239 255
227 239 255
227 239 255
227 239 255
227 239 255
227 239 255
227 239 255
227 239 255
227 239 255
227 239 255
227 239 255
227 239 255
227 239 255
227 239 255
227 239 255
227 239 255
227 239 255
227 239 255
227 239 255
227 239 255
227 239 255
227 239 255
227 239 255
227 239 255
227 239 255
227 239 255
227 239 255
227 239 255
227 239 255
227 239 255
227 239 255
227 239 255
227 239 255
218 230 245
194 206 218
162 174 182
140 155 160
133 149 150
102 116 113
95 111 103
92 109 97
74 91 72
57 77 45
62 83 53
60 77 58
101 118 110
98 113 105
116 129 130
118 131 133
93 107 102
64 84 56
53 74 42
67 85 62
69 85 70
85 98 92
85 99 94
88 100 95
104 117 115
95 109 106
99 111 109
114 126 127
88 103 94
107 120 119
107 118 121
83 98 87
94 107 102
68 82 73
80 96 85
92 106 101
103 116 114
101 112 114
84 94 94
80 91 88
79 93 85
74 86 80
86 99 96
80 92 86
83 94 92
73 84 80
87 100 95
80 89 90
59 71 60
60 71 62
36 49 33
48 60 46
72 83 77
74 86 79
78 88 86
76 87 85
73 85 80
75 85 82
66 78 68
78 89 83
72 84 77
59 71 60
67 77 73
60 70 63
73 85 78
79 89 89
66 75 72
67 75 73
78 88 86
56 65 60
35 46 31
30 43 23
39 51 35
62 71 66
46 54 49
49 60 49
51 60 53
34 44 31
49 58 53
56 65 61
60 68 66
60 68 66
64 74 69
44 56 43
52 60 57
61 71 67
54 63 57
41 52 40
22 32 16
35 48 27
25 36 19
32 44 25
31 42 24
34 46 26
33 44 26
29 40 22
35 47 28
32 44 24
30 42 23
28 39 22
29 41 22
27 37 21
24 35 18
35 45 32
45 53 46
59 66 65
55 62 61
51 57 55
61 69 66
54 63 58
52 58 58
46 54 50
56 63 63
61 70 66
61 70 68
57 64 63
64 74 68
56 65 61
37 44 38
47 54 50
52 62 57
37 45 36
30 38 29
41 53 37
33 42 31
42 50 44
34 44 31
51 61 52
43 53 42
27 37 21
33 43 31
37 46 38
48 56 51
50 59 52
41 52 41
51 61 53
32 42 30
59 69 62
63 71 70
49 60 48
49 62 45
52 63 54
52 60 55
50 61 49
49 59 52
39 50 38
53 63 56
52 63 55
58 69 62
55 66 59
61 73 63
41 51 39
23 35 16
57 65 62
46 57 46
53 65 54
57 68 58
46 59 44
35 48 28
35 48 28
44 60 35
37 51 29
37 51 29
32 46 25
43 59 34
42 55 41
57 68 59
80 90 89
73 84 82
67 78 71
69 80 74
90 102 99
83 94 92
91 102 100
88 99 98
90 100 101
85 96 94
78 89 86
78 90 86
79 92 85
47 63 40
39 54 31
44 61 34
44 61 34
48 67 38
40 56 31
41 58 32
48 67 38
43 60 34
73 85 79
63 78 64
80 96 84
65 77 69
67 83 66
51 66 46
56 73 50
48 66 38
51 69 40
53 72 41
48 66 37
54 74 42
56 76 45
78 94 81
103 117 115
115 129 128
95 110 104
88 103 92
76 92 78
63 82 55
56 77 44
74 94 68
92 109 94
115 131 127
96 114 100
88 106 90
80 97 80
123 138 135
168 181 188
196 208 220
218 230 244
227 239 255
227 239 255
227 239 255
227 239 255
227 239 255
227 239 255
227 239 255
227 239 255
227 239 255
227 239 255
227 239 255
227 239 255
227 239 255
227 239 255
227 239 255
227 239 255
227 239 255
227 239 255
227 239 255
227 239 255
227 239 255
227 239 255
227 239 255
227 239 255
227 239 255
227 239 255
227 239 255
227 239 255
227 239 255
227 239 255
227 239 255
227 239 255
227 239 255
227 239 255
227 239 255
227 239 255
227 239 255
227 239 255
227 239 255
227 239 255
227 239 255
227 239 255
227 239 255
227 239 255
227 239 255
227 239 255
227 239 255
227 239 255
227 239 255
227 239 255
227 239 255
227 239 255
227 239 255
227 239 255
227 239 255
227 239 255
227 239 255
227 239 255
227 239 255
227 239 255
227 239 255
227 239 255
227 239 255
227 239 255
227 239 255
227 239 255
227 239 255
227 239 255
227 239 255
227 239 255
227 239 255
227 239 255
227 239 255
227 239 255
227 239 255
227 239 255
227 239 255
227 239 255
227 239 255
227 239 255
227 239 255
227 239 255
227 239 255
227 239 255
227 239 255
227 239 255
227 239 255
227 239 255
227 239 255
227 239 255
227 239 255
227 239 255
227 239 255
227 239 255
227 239 255
227 239 255
227 239 255
227 239 255
227 239 255
227 239 255
227 239 255
227 239 255
227 239 255
227 239 255
227 239 255
227 239 255
227 239 255
227 239 255
227 239 255
227 239 255
227 239 255
227 239 255
227 239 255
227 239 255
227 239 255
227 239 255
227 239 255
227 239 255
227 239 255
227 239 255
227 239 255
227 239 255
227 239 255
227 239 255
227 239 255
227 239 255
227 239 255
227 239 255
227 239 255
227 239 255
227 239 255
227 239 255
227 239 255
227 239 255
227 239 255
227 239 255
227 239 255
227 239 255
227 239 255
227 239 255
227 239 255
227 239 255
227 239 255
227 239 255
227 239 255
227 239 255
227 239 255
227 239 255
227 239 255
227 239 255
227 239 255
227 239 255
227 239 255
227 239 255
227 239 255
227 239 255
227 239 255
227 239 255
227 239 255
227 239 255
227 239 255
227 239 255
227 239 255
227 239 255
227 239 255
227 239 255
227 239 255
227 239 255
227 239 255
227 239 255
227 239 255
227 239 255
227 239 255
227 239 255
227 239 255
227 239 255
222 234 249
193 205 215
148 162 164
145 160 164
110 126 122
107 123 116
114 130 126
97 114 106
66 87 56
58 79 47
51 71 40
72 90 72
94 109 102
102 117 111
113 125 127
113 127 129
111 124 127
118 133 130
102 116 112
102 116 113
106 121 117
82 98 87
103 116 114
99 111 108
101 114 113
101 114 111
116 130 128
101 113 111
117 131 132
106 119 120
89 102 98
87 100 95
73 87 78
47 63 40
53 69 48
45 62 35
49 68 39
45 63 35
44 61 35
95 107 107
92 104 101
88 100 95
101 112 115
86 97 94
101 113 111
76 88 81
94 107 104
74 87 80
66 80 63
59 72 59
55 69 52
33 48 24
44 59 35
43 59 34
41 56 32
34 48 26
50 64 46
94 105 107
75 86 83
80 90 88
70 82 75
93 105 102
62 73 66
72 83 80
70 81 78
62 70 69
67 78 72
64 76 65
80 91 89
52 61 55
59 69 62
59 70 62
47 58 47
34 48 27
56 68 59
61 71 66
75 84 84
43 51 44
58 68 62
59 68 64
64 74 67
71 81 77
68 77 74
58 68 63
70 81 75
68 77 76
60 70 64
53 64 55
61 70 67
49 58 53
64 73 70
58 67 62
27 37 21
32 44 25
31 43 24
33 45 26
31 43 25
32 45 24
26 38 19
28 39 22
37 51 30
24 34 18
31 43 24
27 38 20
31 43 24
24 36 17
43 53 42
34 45 32
33 44 31
37 45 38
54 65 54
41 50 40
46 55 49
33 43 31
37 47 38
48 57 49
46 55 50
22 32 17
26 36 20
37 47 34
28 39 21
28 39 21
26 37 20
30 41 23
28 40 21
51 60 53
53 61 55
47 58 50
59 68 63
63 72 67
53 63 56
59 68 66
60 68 66
52 60 56
80 88 91
52 62 54
54 63 57
50 59 51
57 67 62
72 81 81
61 70 66
40 50 40
29 41 22
44 59 35
32 44 26
27 39 21
33 46 26
31 44 24
40 54 31
39 53 31
32 45 25
35 48 26
28 40 22
37 51 30
38 52 29
34 48 27
38 50 33
73 85 77
76 86 83
72 82 79
69 79 76
64 75 70
69 81 73
76 87 83
65 75 69
64 75 68
81 94 88
61 72 65
60 73 62
77 88 85
66 77 70
95 106 107
68 79 73
64 77 66
58 72 58
67 78 71
83 94 94
89 100 99
91 104 99
78 90 85
72 83 77
93 106 101
90 101 100
87 97 95
88 100 96
68 82 69
49 68 39
34 49 25
44 61 34
49 68 39
48 66 38
46 64 36
53 73 42
48 66 38
40 56 30
43 60 34
55 75 44
74 88 78
113 126 124
100 112 113
97 109 106
103 116 114
74 89 78
81 95 86
69 84 71
71 89 68
57 76 49
59 78 52
87 103 92
118 131 132
113 127 125
122 137 138
117 129 132
116 131 129
110 125 123
100 115 111
98 115 105
99 116 106
119 134 134
124 139 140
126 141 144
104 119 114
110 127 122
99 116 106
131 145 146
164 177 181
206 218 232
226 237 254
227 239 255
227 239 255
227 239 255
227 239 255
227 239 255
227 239 255
227 239 255
227 239 255
227 239 255
227 239 255
227 239 255
227 239 255
227 239 255
227 239 255
227 239 255
227 239 255
227 239 255
227 239 255
227 239 255
227 239 255
227 239 255
227 239 255
227 239 255
227 239 255
227 239 255
227 239 255
227 239 255
227 239 255
227 239 255
227 239 255
227 239 255
227 239 255
227 239 255
227 239 255
227 239 255
227 239 255
227 239 255
227 239 255
227 239 255
227 239 255
227 239 255
227 239 255
227 239 255
227 239 255
227 239 255
227 239 255
227 239 255
227 239 255
227 239 255
227 239 255
227 239 255
227 239 255
227 239 255
227 239 255
227 239 255
227 239 255
227 239 255
227 239 255
227 239 255
227 239 255
227 239 255
227 239 255
227 239 255
227 239 255
227 239 255
227 239 255
227 239 255
227 239 255
227 239 255
227 239 255
227 239 255
227 239 255
227 239 255
227 239 255
227 239 255
227 239 255
227 239 255
227 239 255
227 239 255
227 239 255
227 239 255
227 239 255
227 239 255
227 239 255
227 239 255
227 239 255
227 239 255
227 239 255
227 239 255
227 239 255
227 239 255
227 239 255
227 239 255
227 239 255
227 239 255
227 239 255
227 239 255
227 239 255
227 239 255
227 239 255
227 239 255
227 239 255
227 239 255
227 239 255
227 239 255
227 239 255
227 239 255
227 239 255
227 239 255
227 239 255
227 239 255
227 239 255
227 239 255
227 239 255
227 239 255
227 239 255
227 239 255
227 239 255
227 239 255
227 239 255
227 239 255
227 239 255
227 239 255
227 239 255
227 239 255
227 239 255
227 239 255
227 239 255
227 239 255
227 239 255
227 239 255
227 239 255
227 239 255
227 239 255
227 239 255
227 239 255
227 239 255
227 239 255
227 239 255
227 239 255
227 239 255
227 239 255
227 239 255
227 239 255
227 239 255
227 239 255
227 239 255
227 239 255
227 239 255
227 239 255
227 239 255
227 239 255
227 239 255
227 239 255
227 239 255
227 239 255
227 239 255
227 239 255
227 239 255
227 239 255
227 239 255
227 239 255
227 239 255
227 239 255
227 239 255
227 239 255
227 239 255
227 239 255
227 239 255
206 219 231
185 198 206
137 151 152
116 133 128
114 130 125
120 136 134
100 117 108
103 120 111
60 80 51
57 78 45
72 90 71
95 112 100
101 116 109
129 143 143
122 136 137
120 134 134
113 127 127
121 136 136
101 116 109
92 106 98
70 89 68
66 86 60
51 71 40
48 67 37
46 64 35
93 108 101
104 119 113
106 120 118
110 122 124
96 110 104
95 109 104
65 84 61
60 78 53
52 71 41
50 69 39
46 62 36
49 67 39
45 62 35
52 71 42
53 72 42
45 63 36
47 64 37
52 67 49
82 95 87
79 91 85
78 91 84
61 76 59
50 66 46
43 60 34
45 63 35
55 74 44
45 61 35
39 55 31
42 59 33
40 56 31
47 66 38
36 51 26
36 51 28
39 54 30
39 54 30
65 76 67
77 86 86
71 83 75
78 88 86
69 80 75
65 74 70
64 76 66
58 69 59
52 65 52
42 55 37
40 57 31
37 52 29
42 58 34
35 50 27
36 51 28
41 56 32
30 43 24
33 47 25
71 83 76
75 84 84
77 87 85
66 75 74
54 65 57
66 76 71
65 77 69
58 68 63
55 67 58
71 82 78
70 80 77
56 67 59
54 63 57
65 76 69
65 74 72
64 73 70
66 76 70
55 66 55
23 35 17
28 40 21
25 36 19
40 50 40
47 57 49
44 54 45
47 59 46
45 55 47
58 67 63
71 80 79
61 69 66
63 73 68
61 69 67
55 65 58
65 74 71
64 73 69
58 66 65
22 33 14
40 53 32
33 45 26
25 36 19
32 44 25
27 38 21
40 54 31
34 47 26
29 41 21
29 41 22
36 49 28
29 40 23
35 48 28
33 45 26
33 46 25
27 38 21
48 59 49
80 90 88
59 71 63
56 63 61
68 78 75
63 71 70
71 79 80
71 79 80
59 68 65
50 60 53
71 81 79
79 88 88
69 78 78
55 65 59
65 75 70
70 80 78
65 73 72
39 54 30
36 51 28
26 37 19
39 53 31
39 54 31
38 53 30
37 53 29
42 58 33
34 47 26
37 50 29
30 43 22
34 47 26
29 42 22
31 44 24
45 60 40
81 94 88
74 84 81
66 78 70
71 82 76
82 93 89
72 83 77
68 80 75
71 81 78
74 86 81
84 93 93
76 87 85
80 91 88
76 87 84
102 114 117
70 84 74
39 52 36
44 60 34
39 54 29
41 57 32
48 66 38
44 60 34
49 68 39
46 63 36
46 60 43
58 74 57
51 65 50
83 95 90
69 83 72
53 69 47
70 84 70
60 75 59
50 67 43
52 72 42
48 66 38
48 65 38
49 67 39
44 62 34
47 66 37
49 67 39
46 63 35
78 93 83
94 107 104
113 125 126
100 113 109
92 106 100
115 129 130
105 119 118
111 125 123
106 120 119
98 111 108
96 110 105
77 92 83
112 125 126
90 105 97
114 127 128
115 130 131
114 129 127
124 138 139
100 115 108
125 139 141
123 137 140
110 124 122
98 115 105
97 115 103
118 133 132
124 139 140
135 150 151
101 118 108
92 109 98
93 111 92
133 147 144
178 191 198
210 222 237
227 239 255
227 239 255
227 239 255
227 239 255
227 239 255
227 239 255
227 239 255
227 239 255
227 239 255
227 239 255
227 239 255
227 239 255
227 239 255
227 239 255
227 239 255
227 239 255
227 239 255
227 239 255
227 239 255
227 239 255
227 239 255
227 239 255
227 239 255
227 239 255
227 239 255
227 239 255
227 239 255
227 239 255
227 239 255
227 239 255
227 239 255
227 239 255
227 239 255
227 239 255
227 239 255
227 239 255
227 239 255
227 239 255
227 239 255
227 239 255
227 239 255
227 239 255
227 239 255
227 239 255
227 239 255
227 239 255
227 239 255
227 239 255
227 239 255
227 239 255
227 239 255
227 239 255
227 239 255
227 239 255
227 239 255
227 239 255
227 239 255
227 239 255
227 239 255
227 239 255
227 239 255
227 239 255
227 239 255
227 239 255
227 239 255
227 239 255
227 239 255
227 239 255
227 239 255
227 239 255
227 239 255
227 239 255
227 239 255
227 239 255
227 239 255
227 239 255
227 239 255
227 239 255
227 239 255
227 239 255
227 239 255
227 239 255
227 239 255
227 239 255
227 239 255
227 239 255
227 239 255
227 239 255
227 239 255
227 239 255
227 239 255
227 239 255
227 239 255
227 239 255
227 239 255
227 239 255
227 239 255
227 239 255
227 239 255
227 239 255
227 239 255
227 239 255
227 239 255
227 239 255
227 239 255
227 239 255
227 239 255
227 239 255
227 239 255
227 239 255
227 239 255
227 239 255
227 239 255
227 239 255
227 239 255
227 239 255
227 239 255
227 239 255
227 239 255
227 239 255
227 239 255
227 239 255
227 239 255
227 239 255
227 239 255
227 239 255
227 239 255
227 239 255
227 239 255
227 239 255
227 239 255
227 239 255
227 239 255
227 239 255
227 239 255
227 239 255
227 239 255
227 239 255
227 239 255
227 239 255
227 239 255
227 239 255
227 239 255
227 239 255
227 239 255
227 239 255
227 239 255
227 239 255
227 239 255
227 239 255
227 239 255
227 239 255
227 239 255
227 239 255
227 239 255
227 239 255
227 239 255
227 239 255
227 239 255
227 239 255
227 239 255
227 239 255
219 231 246
182 194 204
159 171 177
119 135 131
132 147 150
127 142 143
127 142 143
120 134 133
103 118 113
128 143 143
129 144 146
95 111 99
94 109 101
113 127 127
120 135 136
115 129 130
125 138 144
124 137 141
108 124 118
94 107 102
73 91 74
53 74 42
58 79 48
60 80 48
56 77 45
55 75 44
53 72 42
49 68 39
62 80 60
92 108 101
66 83 67
78 93 82
51 70 40
51 69 40
53 72 42
47 66 37
51 71 41
49 67 39
53 72 42
48 66 37
50 69 39
49 68 38
55 71 51
61 76 58
87 101 95
80 93 88
77 91 83
78 90 83
45 63 35
42 58 33
43 59 33
43 58 34
48 65 38
47 65 37
44 60 35
43 59 34
40 55 31
37 53 29
41 57 32
38 54 29
35 50 26
36 51 28
42 58 32
48 61 47
59 72 62
65 78 67
59 72 59
44 57 42
42 58 32
38 53 30
39 55 31
41 56 32
44 60 35
38 53 30
39 54 31
33 46 25
40 54 31
42 58 33
37 52 29
41 57 33
38 53 30
34 47 27
52 64 51
71 82 76
78 89 86
58 68 62
69 81 73
69 78 76
60 72 60
76 85 86
83 93 93
73 82 80
74 84 81
62 72 66
56 66 58
45 56 46
52 66 51
37 47 36
45 55 46
34 45 31
64 76 68
62 72 67
74 83 84
69 79 77
69 79 74
64 74 71
77 86 85
71 82 77
69 80 75
71 81 78
60 70 63
57 68 58
65 74 70
58 67 64
65 75 72
64 74 68
66 77 72
58 68 64
32 44 25
34 47 26
31 44 23
36 49 28
38 53 30
36 50 28
35 48 27
36 51 28
29 42 22
23 34 15
31 44 24
34 47 27
38 52 29
33 45 25
36 50 28
25 37 19
46 54 47
60 71 64
65 75 70
65 76 72
75 86 80
67 78 72
49 59 51
60 68 66
64 76 68
57 65 65
74 85 80
60 68 66
75 87 80
64 76 69
73 83 82
52 65 50
58 70 60
30 43 23
44 60 35
43 59 34
31 44 24
37 51 29
36 49 28
42 58 33
49 67 39
41 56 32
35 50 26
35 48 27
38 53 30
29 42 23
39 54 31
40 54 35
62 74 65
97 107 109
72 83 78
68 79 73
66 79 71
74 85 83
84 96 92
85 96 94
92 102 101
77 89 83
84 95 92
76 88 83
86 99 94
89 100 99
79 91 85
47 64 37
38 53 29
45 62 35
45 62 35
42 58 32
41 56 33
39 54 30
44 60 34
45 62 35
55 74 44
52 70 41
44 61 34
41 58 32
72 87 75
75 87 82
100 112 113
108 121 119
87 99 94
92 104 101
88 102 95
85 100 89
90 104 96
72 89 74
69 85 68
78 95 76
55 72 46
82 96 86
99 112 107
111 126 125
101 114 112
114 125 125
123 137 138
100 114 111
117 130 131
119 133 133
118 132 132
106 120 118
96 111 102
65 82 63
65 84 60
78 95 80
95 110 104
117 131 130
117 132 130
122 136 137
123 136 139
119 133 134
99 117 108
63 83 55
63 87 52
94 110 100
103 119 112
112 129 123
115 133 126
100 117 102
103 121 112
111 129 123
113 129 122
143 157 157
187 200 208
222 233 249
227 239 255
227 239 255
227 239 255
227 239 255
227 239 255
227 239 255
227 239 255
227 239 255
227 239 255
227 239 255
227 239 255
227 239 255
227 239 255
227 239 255
227 239 255
227 239 255
227 239 255
227 239 255
227 239 255
227 239 255
227 239 255
227 239 255
227 239 255
227 239 255
227 239 255
227 239 255
227 239 255
227 239 255
227 239 255
227 239 255
227 239 255
227 239 255
227 239 255
227 239 255
227 239 255
227 239 255
227 239 255
227 239 255
227 239 255
227 239 255
227 239 255
227 239 255
227 239 255
227 239 255
227 239 255
227 239 255
227 239 255
227 239 255
227 239 255
227 239 255
227 239 255
227 239 255
227 239 255
227 239 255
227 239 255
227 239 255
227 239 255
227 239 255
227 239 255
227 239 255
227 239 255
227 239 255
227 239 255
227 239 255
227 239 255
227 239 255
227 239 255
227 239 255
227 239 255
227 239 255
227 239 255
227 239 255
227 239 255
227 239 255
227 239 255
227 239 255
227 239 255
227 239 255
227 239 255
227 239 255
227 239 255
227 239 255
227 239 255
227 239 255
227 239 255
227 239 255
227 239 255
227 239 255
227 239 255
227 239 255
227 239 255
227 239 255
227 239 255
227 239 255
227 239 255
227 239 255
227 239 255
227 239 255
227 239 255
227 239 255
227 239 255
227 239 255
227 239 255
227 239 255
227 239 255
227 239 255
227 239 255
227 239 255
227 239 255
227 239 255
227 239 255
227 239 255
227 239 255
227 239 255
227 239 255
227 239 255
227 239 255
227 239 255
227 239 255
227 239 255
227 239 255
227 239 255
227 239 255
227 239 255
227 239 255
227 239 255
227 239 255
227 239 255
227 239 255
227 239 255
227 239 255
227 239 255
227 239 255
227 239 255
227 239 255
227 239 255
227 239 255
227 239 255
227 239 255
227 239 255
227 239 255
227 239 255
227 239 255
227 239 255
227 239 255
227 239 255
227 239 255
227 239 255
227 239 255
227 239 255
227 239 255
227 239 255
227 239 255
227 239 255
227 239 255
213 225 239
164 178 182
153 167 172
123 140 138
125 139 140
106 123 112
87 106 87
73 95 63
101 117 108
103 119 113
111 127 122
97 116 101
79 97 80
54 74 42
59 81 47
73 92 70
111 125 121
123 138 139
83 100 86
87 103 90
61 81 54
60 82 48
55 75 44
59 80 48
53 73 42
52 72 41
53 73 42
71 90 69
90 106 96
104 118 113
118 132 131
89 103 98
103 118 113
72 87 73
49 68 39
55 75 43
55 75 43
52 72 40
56 76 45
55 74 44
46 64 36
59 77 53
83 95 90
83 97 85
85 98 94
98 110 107
96 109 109
93 104 101
97 110 106
96 108 109
89 101 98
54 69 50
41 56 31
43 60 33
42 60 32
43 60 34
45 63 35
46 64 36
43 59 33
56 74 48
49 64 44
74 87 79
64 77 65
86 98 95
95 106 104
80 92 89
72 84 77
85 96 96
69 81 74
48 65 39
40 55 31
33 47 25
35 50 26
38 54 29
41 57 33
38 52 29
38 53 30
47 64 37
42 58 33
41 57 32
40 55 31
42 59 33
40 56 31
41 57 32
31 44 23
35 50 27
58 72 60
82 94 92
57 68 59
78 88 85
57 68 62
53 65 54
45 57 43
49 62 49
37 52 29
40 55 31
32 46 25
32 45 25
39 54 31
32 45 24
33 47 25
40 55 32
36 50 28
35 45 32
68 80 73
66 76 71
82 92 93
72 83 78
74 85 82
82 92 91
75 84 83
51 61 52
72 82 80
72 82 80
64 75 67
71 83 76
73 83 80
78 88 87
65 75 70
85 95 94
61 73 63
62 72 66
36 50 27
38 52 29
31 45 23
44 60 34
41 57 33
44 59 35
36 49 28
38 53 30
39 54 31
41 56 33
30 44 23
41 56 33
34 48 27
30 42 23
36 50 28
30 42 23
72 83 78
85 95 95
62 71 67
77 87 87
85 95 96
65 76 68
83 94 90
78 88 86
57 68 60
69 78 74
80 90 88
82 94 92
92 103 103
77 89 83
71 81 75
78 88 84
58 70 59
32 46 24
35 49 27
38 53 30
39 54 31
37 52 29
36 50 28
35 49 27
37 51 28
45 63 36
30 42 22
41 58 33
46 62 37
39 53 30
37 51 29
46 63 36
67 78 72
91 103 102
85 96 92
88 99 99
86 98 95
81 92 90
86 97 95
90 101 101
84 97 90
95 106 105
85 97 93
94 106 104
87 97 97
91 102 100
87 99 91
51 67 47
37 52 29
50 68 40
43 60 33
41 57 31
47 64 37
46 63 36
44 62 34
44 61 34
47 65 36
47 65 37
49 67 38
49 68 39
50 64 49
98 110 112
103 116 115
97 109 108
104 117 118
100 113 111
100 112 111
124 137 140
100 113 111
111 124 126
100 114 110
98 110 109
102 116 113
93 106 101
89 103 96
82 96 89
90 103 100
106 119 117
101 115 112
107 121 119
103 117 113
119 133 135
117 130 132
119 134 135
129 144 149
82 98 84
53 73 42
57 78 46
56 77 45
59 81 48
64 83 57
84 101 89
89 106 92
107 123 117
106 122 117
76 93 77
62 83 52
57 78 45
60 82 48
63 86 51
76 95 73
71 92 64
99 118 102
117 133 127
135 150 153
126 142 141
119 134 131
134 149 148
183 196 205
208 221 234
227 239 255
227 239 255
227 239 255
227 239 255
227 239 255
227 239 255
227 239 255
227 239 255
227 239 255
227 239 255
227 239 255
227 239 255
227 239 255
227 239 255
227 239 255
227 239 255
227 239 255
227 239 255
227 239 255
227 239 255
227 239 255
227 239 255
227 239 255
227 239 255
227 239 255
227 239 255
227 239 255
227 239 255
227 239 255
227 239 255
227 239 255
227 239 255
227 239 255
227 239 255
227 239 255
227 239 255
227 239 255
227 239 255
227 239 255
227 239 255
227 239 255
227 239 255
227 239 255
227 239 255
227 239 255
227 239 255
227 239 255
227 239 255
227 239 255
227 239 255
227 239 255
227 239 255
227 239 255
227 239 255
227 239 255
227 239 255
227 239 255
227 239 255
227 239 255
227 239 255
227 239 255
227 239 255
227 239 255
227 239 255
227 239 255
227 239 255
227 239 255
227 239 255
227 239 255
227 239 255
227 239 255
227 239 255
227 239 255
227 239 255
227 239 255
227 239 255
227 239 255
227 239 255
227 239 255
227 239 255
227 239 255
227 239 255
227 239 255
227 239 255
227 239 255
227 239 255
227 239 255
227 239 255
227 239 255
227 239 255
227 239 255
227 239 255
227 239 255
227 239 255
227 239 255
227 239 255
227 239 255
227 239 255
227 239 255
227 239 255
227 239 255
227 239 255
227 239 255
227 239 255
227 239 255
227 239 255
227 239 255
227 239 255
227 239 255
227 239 255
227 239 255
227 239 255
227 239 255
227 239 255
227 239 255
227 239 255
227 239 255
227 239 255
227 239 255
227 239 255
227 239 255
227 239 255
227 239 255
227 239 255
227 239 255
227 239 255
227 239 255
227 239 255
227 239 255
227 239 255
227 239 255
227 239 255
227 239 255
227 239 255
227 239 255
227 239 255
227 239 255
227 239 255
227 239 255
227 239 255
227 239 255
227 239 255
227 239 255
227 239 255
227 239 255
227 239 255
227 239 255
227 239 255
226 237 254
199 211 223
163 176 181
134 149 149
125 140 139
121 136 136
99 115 107
84 105 83
69 92 58
67 89 56
64 85 57
90 108 91
76 95 71
57 78 45
62 84 49
63 85 50
55 77 43
65 84 59
87 103 91
90 105 95
79 96 80
60 82 48
61 83 49
63 85 50
53 73 43
56 77 46
55 76 45
74 93 67
75 91 77
93 107 101
110 124 123
116 130 129
117 131 133
119 133 134
116 130 132
108 121 120
122 135 139
98 112 107
49 68 37
55 75 44
51 70 43
78 94 83
81 96 85
94 109 104
97 111 108
97 110 108
104 117 116
102 114 113
98 111 109
101 114 111
105 118 118
111 123 123
92 104 100
102 115 115
93 105 103
85 99 90
47 64 36
43 60 33
41 59 31
62 77 62
77 89 82
84 98 90
83 96 90
98 109 112
91 103 102
91 104 103
94 107 103
90 102 97
87 99 96
98 111 109
82 96 87
78 90 85
79 91 86
60 72 62
35 50 27
42 58 33
42 57 33
43 59 34
43 60 34
43 60 33
40 56 31
38 54 30
41 56 32
46 63 36
34 49 26
51 65 48
64 78 65
73 86 78
65 76 68
60 72 63
65 75 72
47 61 45
41 57 32
34 47 25
46 63 36
46 62 36
49 66 39
29 42 22
46 63 36
39 53 30
41 57 31
38 53 30
38 53 30
32 45 24
32 44 25
42 57 33
36 51 28
36 51 27
48 63 42
77 87 85
66 77 71
71 84 77
68 79 74
75 86 85
89 99 98
74 86 81
84 95 93
73 83 81
83 94 92
68 78 74
72 83 78
75 86 79
82 93 90
76 88 82
82 93 91
71 83 76
53 64 56
36 50 27
28 40 21
32 45 24
44 61 35
41 56 32
39 54 30
54 64 57
56 67 58
53 65 55
53 64 56
46 56 46
55 66 55
54 66 55
67 79 70
60 72 64
75 87 81
52 65 50
40 56 31
59 70 63
57 70 57
34 48 26
54 62 59
57 69 57
44 58 38
34 48 26
43 56 40
42 56 37
40 55 32
38 53 30
43 59 35
33 47 25
31 44 24
64 75 66
77 88 86
82 93 92
65 76 70
72 82 81
73 83 83
75 87 81
83 95 91
90 101 101
86 98 95
81 92 89
95 107 106
89 100 97
78 90 85
78 91 85
88 99 96
61 74 62
64 78 65
52 65 51
56 70 56
59 72 57
54 68 51
74 86 79
70 83 74
75 88 78
70 83 75
75 86 81
67 80 70
71 85 76
82 95 91
87 100 94
49 64 44
42 56 36
46 63 35
45 62 35
49 67 38
52 71 41
46 64 36
51 70 41
52 71 41
44 61 34
41 57 32
52 71 42
48 66 38
44 62 35
72 87 75
94 107 101
97 110 106
100 113 109
101 113 109
111 123 125
105 119 118
113 128 125
96 109 106
113 126 128
107 120 119
122 136 137
101 115 110
72 89 72
50 69 39
52 71 40
57 76 49
60 78 56
78 94 80
78 94 80
96 111 104
92 107 98
120 134 135
112 127 125
91 107 99
64 81 61
52 72 41
57 79 46
53 73 41
58 79 46
57 78 44
56 76 45
55 76 44
66 84 63
72 92 70
85 101 88
90 109 94
76 95 76
58 79 46
57 78 46
71 92 64
118 134 133
124 139 138
119 135 133
107 124 116
129 144 144
128 143 142
128 144 142
144 160 163
172 186 193
202 215 228
224 236 252
227 239 255
227 239 255
227 239 255
227 239 255
227 239 255
227 239 255
227 239 255
227 239 255
227 239 255
227 239 255
227 239 255
227 239 255
227 239 255
227 239 255
227 239 255
227 239 255
227 239 255
227 239 255
227 239 255
227 239 255
227 239 255
227 239 255
227 239 255
227 239 255
227 239 255
227 239 255
227 239 255
227 239 255
227 239 255
227 239 255
227 239 255
227 239 255
227 239 255
227 239 255
227 239 255
227 239 255
227 239 255
227 239 255
227 239 255
227 239 255
227 239 255
227 239 255
227 239 255
227 239 255
227 239 255
227 239 255
227 239 255
227 239 255
227 239 255
227 239 255
227 239 255
227 239 255
227 239 255
227 239 255
227 239 255
227 239 255
227 239 255
227 239 255
227 239 255
227 239 255
227 239 255
227 239 255
227 239 255
227 239 255
227 239 255
227 239 255
227 239 255
227 239 255
227 239 255
227 239 255
227 239 255
227 239 255
227 239 255
227 239 255
227 239 255
227 239 255
227 239 255
227 239 255
227 239 255
227 239 255
227 239 255
227 239 255
227 239 255
227 239 255
227 239 255
227 239 255
227 239 255
227 239 255
227 239 255
227 239 255
227 239 255
227 239 255
227 239 255
227 239 255
227 239 255
227 239 255
227 239 255
227 239 255
227 239 255
227 239 255
227 239 255
227 239 255
227 239 255
227 239 255
227 239 255
227 239 255
227 239 255
227 239 255
227 239 255
227 239 255
227 239 255
227 239 255
227 239 255
227 239 255
227 239 255
227 239 255
227 239 255
227 239 255
227 239 255
227 239 255
227 239 255
227 239 255
227 239 255
227 239 255
227 239 255
227 239 255
227 239 255
227 239 255
227 239 255
227 239 255
227 239 255
227 239 255
227 239 255
227 239 255
227 239 255
227 239 255
227 239 255
227 239 255
227 239 255
227 239 255
227 239 255
223 235 251
199 211 225
151 165 170
98 117 102
84 105 82
98 116 103
117 132 132
67 88 58
61 84 48
62 84 52
86 105 86
115 132 128
105 123 116
63 85 51
57 79 46
62 84 49
74 94 67
92 108 98
103 117 116
117 131 132
115 129 129
115 128 131
130 144 146
126 140 141
58 78 46
61 83 48
74 92 75
92 109 96
105 120 114
119 132 133
115 130 130
117 132 131
113 126 126
118 131 134
122 136 137
108 122 123
126 139 144
123 138 140
114 128 129
98 113 105
77 91 81
76 92 76
93 106 102
105 116 118
113 126 127
95 108 104
105 118 116
88 103 94
108 121 121
99 112 110
94 107 105
107 120 120
89 104 95
100 113 112
93 106 103
98 112 107
97 111 105
80 95 85
82 95 90
80 93 84
80 95 83
96 108 106
102 113 116
104 118 119
91 104 100
101 115 113
101 113 114
98 111 109
89 101 98
97 109 111
105 117 119
97 111 107
96 108 107
102 113 113
85 98 92
91 103 101
88 100 95
42 59 33
44 62 34
45 62 35
39 54 30
58 71 60
57 71 56
67 79 72
76 88 80
72 84 76
77 89 85
91 102 101
95 105 107
83 94 91
89 99 99
75 86 83
91 103 100
69 79 73
69 81 73
44 61 35
38 53 30
34 49 25
46 62 36
38 55 29
41 57 32
39 55 30
32 46 25
39 54 31
42 58 34
42 58 33
44 60 35
38 53 30
39 55 30
33 47 26
43 59 33
38 53 30
62 74 64
83 94 92
83 94 90
74 85 83
74 86 80
70 82 74
90 101 100
72 82 81
82 94 89
85 95 97
83 95 89
67 78 71
69 81 75
61 76 60
65 76 70
63 75 64
60 73 61
44 57 40
72 83 78
82 92 91
62 73 66
91 102 101
84 94 92
73 85 79
69 81 73
78 89 83
91 101 103
75 87 81
76 87 83
68 80 72
73 86 76
81 93 90
87 99 96
83 94 92
84 95 92
43 57 38
39 54 30
43 59 34
41 57 32
39 53 31
42 58 33
47 63 37
46 62 36
44 60 35
44 59 35
42 58 33
38 52 29
39 54 30
41 57 32
36 51 28
42 58 33
69 81 74
80 93 87
98 111 109
85 96 96
81 93 90
68 80 72
73 84 78
84 96 93
96 107 107
77 90 84
98 109 109
95 107 106
88 99 98
93 105 104
90 103 98
95 106 105
65 75 68
43 59 34
42 58 32
51 70 40
39 55 31
40 56 31
46 63 36
43 59 34
42 60 33
38 54 29
41 58 31
46 63 37
47 65 37
51 70 41
47 66 37
97 111 106
111 122 125
90 101 99
102 114 115
95 107 104
88 100 98
97 111 107
88 100 95
79 92 83
64 80 61
70 87 70
69 84 67
70 86 69
62 79 57
81 95 86
98 111 110
96 109 105
113 125 129
117 130 132
106 118 119
119 132 134
116 128 130
105 117 118
114 128 128
103 116 116
122 136 141
111 125 125
87 101 93
49 68 38
49 68 39
49 68 38
55 74 43
50 70 40
54 74 43
48 66 37
60 82 48
57 77 45
60 80 54
71 88 69
65 83 62
97 113 104
72 88 72
60 79 55
60 82 47
54 74 43
58 79 46
57 78 45
56 77 44
56 76 44
85 100 90
130 144 146
118 133 131
117 132 129
85 103 88
83 102 82
107 122 118
134 149 154
123 137 137
97 115 103
70 91 67
112 131 122
123 140 140
128 145 146
133 148 152
129 145 145
164 178 182
198 211 225
221 233 248
227 239 255
227 239 255
227 239 255
227 239 255
227 239 255
227 239 255
227 239 255
227 239 255
227 239 255
227 239 255
227 239 255
227 239 255
227 239 255
227 239 255
227 239 255
227 239 255
227 239 255
227 239 255
227 239 255
227 239 255
227 239 255
227 239 255
227 239 255
227 239 255
227 239 255
227 239 255
227 239 255
227 239 255
227 239 255
227 239 255
227 239 255
227 239 255
227 239 255
227 239 255
227 239 255
227 239 255
227 239 255
227 239 255
227 239 255
227 239 255
227 239 255
227 239 255
227 239 255
227 239 255
227 239 255
227 239 255
227 239 255
227 239 255
227 239 255
227 239 255
227 239 255
227 239 255
227 239 255
227 239 255
227 239 255
227 239 255
227 239 255
227 239 255
227 239 255
227 239 255
227 239 255
227 239 255
227 239 255
227 239 255
227 239 255
227 239 255
227 239 255
227 239 255
227 239 255
227 239 255
227 239 255
227 239 255
227 239 255
227 239 255
227 239 255
227 239 255
227 239 255
227 239 255
227 239 255
227 239 255
227 239 255
227 239 255
227 239 255
227 239 255
227 239 255
227 239 255
227 239 255
227 239 255
227 239 255
227 239 255
227 239 255
227 239 255
227 239 255
227 239 255
227 239 255
227 239 255
227 239 255
227 239 255
227 239 255
227 239 255
227 239 255
227 239 255
227 239 255
227 239 255
227 239 255
227 239 255
227 239 255
227 239 255
227 239 255
227 239 255
227 239 255
227 239 255
227 239 255
227 239 255
227 239 255
227 239 255
227 239 255
227 239 255
227 239 255
227 239 255
227 239 255
227 239 255
227 239 255
227 239 255
227 239 255
227 239 255
227 239 255
227 239 255
227 239 255
227 239 255
227 239 255
227 239 255
227 239 255
227 239 255
227 239 255
224 236 252
198 210 222
136 150 149
95 114 99
84 105 80
93 111 97
124 139 138
126 141 139
152 167 173
126 142 141
105 122 110
122 139 136
135 151 154
136 151 156
100 117 106
67 87 58
81 100 82
99 116 105
120 135 136
126 139 143
123 138 140
121 135 135
129 144 147
126 141 143
115 128 128
119 132 130
105 122 116
111 127 122
122 136 134
123 135 138
108 122 121
122 136 138
121 135 132
121 136 137
102 116 113
112 127 126
126 140 144
111 126 124
107 120 117
76 91 76
78 96 77
59 79 50
46 64 36
50 70 40
73 89 76
116 129 132
112 126 126
110 123 124
106 120 119
124 138 138
95 108 106
104 118 115
110 123 124
115 128 131
119 133 134
108 121 122
77 92 80
77 93 77
64 81 59
48 66 38
47 65 36
53 72 42
77 91 83
98 110 110
95 107 107
105 117 117
95 108 106
93 106 102
85 97 92
95 108 105
91 104 102
101 115 113
100 112 111
94 105 105
94 106 106
98 111 108
98 111 110
91 103 100
93 106 101
81 94 87
70 85 71
77 89 85
106 119 118
95 106 106
90 102 99
96 107 108
79 92 85
85 97 93
91 104 103
79 92 84
87 100 96
107 120 122
89 101 98
85 97 90
97 108 109
87 98 96
90 103 99
74 87 81
73 89 74
40 55 32
42 58 33
50 68 39
46 63 37
39 54 29
42 58 32
39 54 30
40 55 32
46 62 36
47 64 36
42 59 32
36 51 28
39 54 30
35 50 28
40 56 32
52 65 50
53 68 49
69 79 76
72 85 78
58 71 58
58 73 57
59 73 57
50 64 47
43 59 32
34 48 26
39 54 30
44 61 35
40 55 31
47 65 38
39 53 30
42 57 33
38 52 29
43 60 35
38 54 30
65 80 65
75 86 84
85 96 96
81 92 89
82 93 89
76 86 82
61 73 64
86 97 96
68 79 75
83 94 93
90 102 99
84 95 92
68 80 73
85 96 93
87 98 96
85 97 93
76 86 85
67 79 72
41 57 33
37 52 29
47 64 38
36 51 27
40 56 31
46 63 37
38 52 30
39 54 31
42 57 33
41 58 33
34 48 26
45 61 35
39 53 30
38 54 30
42 58 33
39 54 31
68 82 71
96 108 106
87 100 97
84 96 93
83 94 93
97 109 108
89 101 99
89 102 99
101 113 112
67 78 72
91 103 101
83 95 92
83 95 90
93 106 104
98 110 110
88 101 96
60 75 57
52 70 42
45 62 35
43 60 34
42 57 33
44 61 34
46 64 37
46 63 36
43 59 34
42 60 32
42 58 33
42 59 33
52 72 41
48 66 37
49 67 38
80 94 87
96 109 107
100 113 111
105 118 118
100 112 110
108 120 120
77 89 85
112 125 125
107 121 118
100 113 112
108 121 124
98 112 112
98 111 108
114 128 129
73 87 75
70 86 73
84 99 88
87 101 96
84 96 90
92 107 98
90 105 97
85 100 91
115 127 128
95 111 102
106 119 121
118 132 132
111 123 124
103 118 115
57 78 45
57 77 45
51 70 41
52 72 41
50 69 39
53 73 42
49 69 39
49 68 38
53 73 41
61 83 49
58 78 46
91 106 99
120 134 135
127 142 145
111 126 124
102 116 112
83 101 87
82 100 83
72 91 72
57 78 45
63 86 51
63 83 56
115 130 128
127 143 143
147 162 168
134 150 155
117 131 131
101 117 108
105 122 113
117 133 131
114 130 126
90 109 94
58 81 46
65 88 53
80 102 74
91 111 98
124 140 139
110 127 122
99 118 105
135 151 149
182 195 202
222 234 250
227 239 255
227 239 255
227 239 255
227 239 255
227 239 255
227 239 255
227 239 255
227 239 255
227 239 255
227 239 255
227 239 255
227 239 255
227 239 255
227 239 255
227 239 255
227 239 255
227 239 255
227 239 255
227 239 255
227 239 255
227 239 255
227 239 255
227 239 255
227 239 255
227 239 255
227 239 255
227 239 255
227 239 255
227 239 255
227 239 255
227 239 255
227 239 255
227 239 255
227 239 255
227 239 255
227 239 255
227 239 255
227 239 255
227 239 255
227 239 255
227 239 255
227 239 255
227 239 255
227 239 255
227 239 255
227 239 255
227 239 255
227 239 255
227 239 255
227 239 255
227 239 255
227 239 255
227 239 255
227 239 255
227 239 255
227 239 255
227 239 255
227 239 255
227 239 255
227 239 255
227 239 255
227 239 255
227 239 255
227 239 255
227 239 255
227 239 255
227 239 255
227 239 255
227 239 255
227 239 255
227 239 255
227 239 255
227 239 255
227 239 255
227 239 255
227 239 255
227 239 255
227 239 255
227 239 255
227 239 255
227 239 255
227 239 255
227 239 255
227 239 255
227 239 255
227 239 255
227 239 255
227 239 255
227 239 255
227 239 255
227 239 255
227 239 255
227 239 255
227 239 255
227 239 255
227 239 255
227 239 255
227 239 255
227 239 255
227 239 255
227 239 255
227 239 255
227 239 255
227 239 255
227 239 255
227 239 255
227 239 255
227 239 255
227 239 255
227 239 255
227 239 255
227 239 255
227 239 255
227 239 255
227 239 255
227 239 255
227 239 255
227 239 255
227 239 255
227 239 255
227 239 255
227 239 255
227 239 255
227 239 255
227 239 255
227 239 255
227 239 255
227 239 255
227 239 255
215 228 243
178 190 199
145 160 160
91 113 90
69 92 60
108 125 117
125 141 141
136 152 155
143 158 160
108 125 118
98 116 102
72 93 67
63 86 50
107 122 113
134 149 152
135 150 153
106 122 116
129 143 147
125 142 141
133 147 153
127 141 141
132 147 152
124 138 141
111 125 123
119 133 132
107 122 120
98 114 107
74 94 69
57 77 46
56 78 44
87 103 95
122 136 139
129 143 146
121 135 137
111 125 121
121 134 136
126 140 143
107 121 120
95 111 102
75 91 77
67 87 61
46 66 36
57 78 45
49 68 38
51 71 41
60 81 48
53 73 42
55 76 43
119 133 135
101 114 112
112 125 125
111 124 123
111 125 123
104 118 113
83 97 88
82 96 87
73 90 74
56 76 45
54 74 43
49 68 39
51 70 40
48 66 37
46 64 35
49 67 38
49 67 38
46 64 36
103 117 114
103 116 116
111 124 124
105 118 117
114 128 126
104 118 115
95 109 105
99 112 111
92 105 101
85 96 93
96 111 104
85 99 92
70 85 70
58 75 54
47 62 40
45 62 36
45 63 35
48 65 41
101 113 112
110 122 126
102 114 112
95 108 106
86 99 92
89 102 98
93 107 103
95 107 104
103 115 116
84 95 93
92 103 102
99 112 108
86 98 93
70 82 75
86 97 96
103 116 115
99 112 108
86 97 96
52 68 47
45 62 35
44 61 34
46 63 37
43 59 33
49 67 39
38 53 29
48 64 41
55 68 56
59 74 56
55 68 52
67 78 71
80 92 89
73 85 76
83 94 91
80 93 88
91 102 100
86 100 93
47 62 40
38 54 30
44 60 35
40 57 30
40 57 31
40 56 31
41 55 32
39 55 31
43 59 33
48 66 38
44 61 35
45 62 35
45 62 36
39 54 31
43 59 34
38 53 30
46 64 36
90 102 101
70 82 76
66 78 71
83 96 91
82 94 91
90 100 100
77 89 83
96 108 106
77 90 84
85 97 96
79 89 86
77 89 81
93 104 104
89 101 97
76 89 81
95 107 106
83 97 89
62 76 63
44 61 34
42 59 33
46 63 37
40 56 30
45 62 35
44 60 34
39 55 30
45 63 35
40 56 31
40 55 31
41 57 32
38 54 29
39 56 30
32 46 24
45 62 36
40 56 32
84 97 89
87 99 95
85 96 93
91 104 100
85 97 94
85 96 94
96 108 107
89 101 97
85 96 93
104 116 118
91 104 102
102 114 113
81 94 88
93 104 104
90 104 96
93 106 100
56 72 54
41 57 31
45 63 35
50 68 40
40 55 30
46 63 36
43 60 33
48 66 38
50 68 40
52 72 41
48 65 38
46 63 35
53 73 42
50 70 39
48 66 39
79 93 86
101 116 108
94 106 107
93 107 100
99 112 113
107 119 117
95 108 104
108 122 120
102 115 115
92 104 103
100 113 112
97 111 106
115 127 129
113 127 127
92 108 97
60 78 54
45 62 34
54 74 43
54 74 42
52 72 41
57 78 45
56 75 44
57 76 47
72 88 72
63 82 55
84 99 88
90 104 96
83 99 87
64 84 57
58 76 52
57 78 46
57 77 45
56 77 45
54 75 44
49 68 39
57 77 46
58 79 47
58 80 45
60 82 48
67 85 64
117 132 132
122 136 138
114 129 126
116 131 131
123 137 138
107 122 117
116 131 130
102 118 112
109 126 119
89 107 92
82 99 85
127 141 141
132 146 149
128 143 147
120 134 136
63 87 50
62 84 50
59 82 47
71 94 62
72 91 65
86 105 85
82 102 79
63 86 51
63 85 51
70 94 56
85 106 79
72 95 62
73 96 67
88 109 88
129 145 139
188 201 211
214 226 240
227 239 255
227 239 255
227 239 255
227 239 255
227 239 255
227 239 255
227 239 255
227 239 255
227 239 255
227 239 255
227 239 255
227 239 255
227 239 255
227 239 255
227 239 255
227 239 255
227 239 255
227 239 255
227 239 255
227 239 255
227 239 255
227 239 255
227 239 255
227 239 255
227 239 255
227 239 255
227 239 255
227 239 255
227 239 255
227 239 255
227 239 255
227 239 255
227 239 255
227 239 255
227 239 255
227 239 255
227 239 255
227 239 255
227 239 255
227 239 255
227 239 255
227 239 255
227 239 255
227 239 255
227 239 255
227 239 255
227 239 255
227 239 255
227 239 255
227 239 255
227 239 255
227 239 255
227 239 255
227 239 255
227 239 255
227 239 255
227 239 255
227 239 255
227 239 255
227 239 255
227 239 255
227 239 255
227 239 255
227 239 255
227 239 255
227 239 255
227 239 255
227 239 255
227 239 255
227 239 255
227 239 255
227 239 255
227 239 255
227 239 255
227 239 255
227 239 255
227 239 255
227 239 255
227 239 255
227 239 255
227 239 255
227 239 255
227 239 255
227 239 255
227 239 255
227 239 255
227 239 255
227 239 255
227 239 255
227 239 255
227 239 255
227 239 255
227 239 255
227 239 255
227 239 255
227 239 255
227 239 255
227 239 255
227 239 255
227 239 255
227 239 255
227 239 255
227 239 255
227 239 255
227 239 255
227 239 255
227 239 255
227 239 255
227 239 255
227 239 255
227 239 255
227 239 255
227 239 255
227 239 255
227 239 255
227 239 255
227 239 255
227 239 255
227 239 255
227 239 255
227 239 255
227 239 255
227 239 255
215 227 242
191 205 216
150 164 166
90 108 94
96 116 99
114 131 126
140 156 159
149 164 172
137 152 157
119 137 133
87 105 89
69 91 60
65 88 52
57 79 44
62 86 49
86 106 84
104 120 113
74 91 74
64 88 52
80 96 81
129 144 147
125 138 137
132 148 149
114 129 125
117 132 132
100 117 106
85 103 87
60 82 47
61 83 49
58 79 46
60 82 47
55 75 43
60 83 48
78 98 75
112 127 125
112 125 125
118 134 133
114 129 126
74 92 74
58 76 48
48 66 38
55 76 44
49 69 39
58 79 46
55 76 44
49 68 38
55 75 44
51 71 40
55 75 44
48 67 37
52 71 41
77 94 80
102 116 113
92 106 104
88 104 94
68 86 65
50 69 39
52 72 40
53 72 42
47 66 36
47 66 36
52 72 41
50 69 39
54 75 43
49 68 38
56 76 45
53 73 41
45 62 35
52 71 42
92 106 98
118 132 131
103 115 115
119 133 133
105 117 117
98 111 106
72 88 74
75 89 80
58 75 55
51 70 40
48 66 38
53 73 42
40 57 31
45 62 34
52 71 41
44 61 34
48 66 37
46 65 37
76 90 81
104 117 114
90 103 99
108 120 120
101 114 113
98 110 109
90 103 100
88 99 99
96 108 107
93 103 102
99 112 108
94 107 103
89 101 101
86 99 93
86 99 96
91 103 102
105 117 118
94 106 106
82 96 89
61 74 61
86 101 93
80 92 88
84 98 90
81 93 88
106 118 123
100 112 111
93 106 100
106 119 120
74 86 79
90 102 100
90 101 101
98 111 109
84 96 95
102 113 117
72 84 78
96 108 106
61 76 59
44 61 36
51 69 40
49 67 38
49 67 38
40 56 31
40 55 31
48 66 39
48 65 38
40 56 31
41 58 33
48 66 38
38 55 29
48 65 38
41 56 32
43 59 33
41 58 32
44 59 37
77 90 83
94 104 107
73 84 81
91 104 101
83 97 89
99 110 109
103 114 118
97 110 107
100 111 110
88 100 96
91 105 101
89 101 99
89 101 99
93 104 101
68 80 73
78 91 84
80 92 87
52 66 47
39 55 30
44 61 34
37 52 28
47 64 37
42 59 32
45 62 35
47 65 37
48 65 38
41 58 32
44 61 35
46 64 37
43 60 34
49 68 38
45 63 36
44 61 35
47 64 37
97 110 106
98 110 109
94 106 105
91 104 100
100 113 110
97 109 107
106 117 119
97 110 107
89 102 99
102 114 115
96 108 108
98 110 107
100 112 110
99 112 109
97 110 105
92 103 103
65 79 67
50 69 40
49 67 38
49 69 38
51 69 40
45 63 35
39 55 30
43 61 34
48 67 38
50 68 39
43 60 33
48 67 38
53 73 42
49 68 39
54 72 46
75 89 77
102 114 113
109 123 124
84 96 92
85 97 95
109 123 121
98 112 109
106 119 119
96 110 105
105 118 116
102 115 113
117 130 131
101 114 114
111 123 127
89 103 99
54 73 42
49 68 37
46 65 36
56 77 45
57 77 44
58 79 47
52 71 41
58 79 47
53 73 41
54 75 43
51 71 40
56 76 45
51 70 41
103 117 115
115 129 130
119 134 136
107 122 115
91 107 98
84 100 89
82 101 81
66 83 64
54 74 42
57 78 46
62 85 50
58 80 46
82 98 88
130 144 146
122 137 136
116 130 129
125 139 142
130 145 147
114 127 128
144 160 165
116 133 128
122 137 140
117 132 132
89 107 93
112 127 125
119 134 131
78 99 76
59 81 47
59 81 46
62 84 49
61 84 49
64 87 51
100 115 108
135 150 151
116 132 128
98 116 106
88 108 86
67 91 54
67 92 55
94 115 98
108 125 118
105 123 111
87 109 85
117 136 122
168 181 186
209 221 233
227 239 255
227 239 255
227 239 255
227 239 255
227 239 255
227 239 255
227 239 255
227 239 255
227 239 255
227 239 255
227 239 255
227 239 255
227 239 255
227 239 255
227 239 255
227 239 255
227 239 255
227 239 255
227 239 255
227 239 255
227 239 255
227 239 255
227 239 255
227 239 255
227 239 255
227 239 255
227 239 255
227 239 255
227 239 255
227 239 255
227 239 255
227 239 255
227 239 255
227 239 255
227 239 255
227 239 255
227 239 255
227 239 255
227 239 255
227 239 255
227 239 255
227 239 255
227 239 255
227 239 255
227 239 255
227 239 255
227 239 255
227 239 255
227 239 255
227 239 255
227 239 255
227 239 255
227 239 255
227 239 255
227 239 255
227 239 255
227 239 255
227 239 255
227 239 255
227 239 255
227 239 255
227 239 255
227 239 255
227 239 255
227 239 255
227 239 255
227 239 255
227 239 255
227 239 255
227 239 255
227 239 255
227 239 255
227 239 255
227 239 255
227 239 255
227 239 255
227 239 255
227 239 255
227 239 255
227 239 255
227 239 255
227 239 255
227 239 255
227 239 255
227 239 255
227 239 255
227 239 255
227 239 255
227 239 255
227 239 255
227 239 255
227 239 255
227 239 255
227 239 255
227 239 255
227 239 255
227 239 255
227 239 255
227 239 255
227 239 255
227 239 255
227 239 255
227 239 255
227 239 255
227 239 255
227 239 255
227 239 255
227 239 255
227 239 255
227 239 255
228 239 255
228 239 255
228 239 255
228 239 255
228 239 255
228 239 255
228 239 255
212 224 238
163 176 181
147 164 161
112 131 121
87 109 89
125 143 135
145 161 165
139 155 160
131 147 150
100 119 106
81 100 82
59 82 46
63 87 51
64 86 50
64 88 52
85 104 85
111 127 125
128 143 144
136 152 156
129 143 144
67 89 59
61 83 48
81 100 82
131 147 150
100 116 105
75 96 71
66 87 58
61 83 49
55 76 43
61 83 49
62 84 50
60 82 49
56 77 45
53 74 42
61 83 48
66 86 59
87 103 92
95 111 100
67 87 58
58 79 46
56 76 44
53 73 42
58 80 45
56 77 45
53 73 41
57 78 46
55 76 44
57 77 45
54 75 43
48 67 38
65 84 60
75 91 77
92 106 100
107 122 120
112 127 125
60 80 50
53 74 42
51 71 41
57 78 46
58 78 46
49 69 39
54 74 43
49 67 38
47 66 36
56 76 44
51 70 39
50 70 39
55 76 43
53 74 42
57 77 45
49 67 38
55 71 52
78 92 83
85 100 92
64 78 65
57 73 50
49 67 39
44 62 35
45 62 35
52 71 41
42 60 32
47 66 37
48 68 38
56 76 44
55 75 45
48 67 38
53 73 42
49 68 39
53 73 42
46 64 35
47 65 35
98 111 109
88 102 94
96 110 106
111 124 128
110 123 125
103 113 113
93 107 102
101 114 111
100 113 108
104 116 116
82 95 88
95 108 103
85 99 90
67 82 69
55 70 53
50 67 43
48 66 37
45 63 35
89 101 99
92 105 101
85 97 94
101 113 113
109 122 122
94 107 101
99 112 110
99 113 109
97 110 110
99 110 111
100 111 111
92 104 99
82 95 88
95 107 106
96 109 105
92 103 102
88 101 97
93 105 103
60 74 61
44 61 35
44 61 34
46 63 36
48 65 38
41 58 32
40 56 31
48 67 39
42 58 32
51 70 40
39 56 31
48 65 38
43 59 33
40 55 31
44 60 35
44 61 35
42 59 32
54 68 54
93 104 103
97 108 110
89 101 100
96 107 108
84 96 91
92 106 101
85 97 93
89 102 99
98 108 111
105 117 120
100 113 112
90 103 97
72 85 76
90 103 99
77 90 83
73 88 78
76 89 79
56 69 56
61 73 64
76 89 83
82 94 88
85 100 93
75 89 77
73 85 77
84 97 89
87 100 96
88 100 96
80 92 86
76 90 81
91 102 101
81 93 89
68 82 72
96 109 106
92 104 102
50 66 46
59 74 58
64 80 60
69 84 68
62 79 60
63 80 62
68 83 68
68 85 66
51 65 49
56 72 50
65 80 65
66 81 66
70 84 72
71 85 74
62 78 62
75 92 76
93 106 102
62 77 62
70 85 72
91 106 98
79 93 86
83 97 88
74 90 75
74 90 74
70 85 72
81 96 86
62 76 62
61 75 61
54 70 49
53 69 48
46 61 39
72 86 75
102 114 114
112 125 124
116 129 133
102 115 111
108 121 121
96 109 105
111 124 126
92 105 99
107 121 120
109 122 121
110 125 123
99 112 110
110 123 124
108 122 120
57 76 49
48 67 37
48 67 38
51 71 41
58 78 46
56 76 44
52 73 42
52 72 42
57 78 46
50 70 39
60 81 48
49 69 39
58 78 48
108 123 120
121 136 136
117 132 132
130 146 145
119 134 134
124 140 142
119 133 131
106 122 118
111 124 124
106 122 117
90 107 95
80 98 83
102 116 113
121 136 137
120 134 135
114 127 126
121 135 135
115 130 125
122 137 136
118 132 131
133 148 156
129 145 147
122 138 140
95 113 100
65 86 58
108 123 117
127 144 145
104 122 113
114 130 126
87 107 87
63 85 50
57 79 45
75 96 69
121 136 133
139 154 160
137 153 157
129 144 143
122 139 135
93 111 97
80 102 76
101 118 106
134 151 151
118 133 130
102 121 106
90 114 90
123 141 131
183 196 204
219 231 246
228 239 255
228 239 255
228 239 255
228 239 255
228 239 255
228 239 255
228 239 255
228 239 255
228 239 255
227 239 255
227 239 255
227 239 255
227 239 255
227 239 255
227 239 255
227 239 255
227 239 255
227 239 255
227 239 255
227 239 255
227 239 255
227 239 255
227 239 255
227 239 255
227 239 255
227 239 255
227 239 255
227 239 255
227 239 255
227 239 255
227 239 255
227 239 255
227 239 255
227 239 255
227 239 255
227 239 255
227 239 255
227 239 255
227 239 255
227 239 255
227 239 255
227 239 255
227 239 255
227 239 255
227 239 255
227 239 255
227 239 255
227 239 255
227 239 255
227 239 255
227 239 255
227 239 255
227 239 255
227 239 255
227 239 255
227 239 255
227 239 255
227 239 255
227 239 255
227 239 255
227 239 255
227 239 255
227 239 255
227 239 255
227 239 255
227 239 255
227 239 255
227 239 255
227 239 255
227 239 255
227 239 255
227 239 255
227 239 255
227 239 255
227 239 255
227 239 255
227 239 255
227 239 255
227 239 255
227 239 255
227 239 255
228 239 255
227 239 255
228 239 255
228 239 255
228 239 255
228 239 255
228 239 255
228 239 255
228 239 255
228 239 255
228 239 255
228 239 255
228 239 255
228 239 255
228 239 255
228 239 255
228 239 255
228 239 255
228 239 255
228 239 255
228 239 255
228 239 255
228 239 255
228 239 255
228 239 255
228 239 255
228 239 255
228 239 255
228 239 255
228 239 255
218 230 245
171 185 189
151 164 168
124 142 136
128 145 141
95 114 98
103 120 112
141 157 162
129 145 146
112 130 122
94 113 100
64 87 55
67 91 54
65 89 52
71 95 59
96 112 99
124 142 136
136 152 158
145 160 168
133 149 149
139 153 158
120 135 135
137 152 155
89 106 92
87 105 91
115 130 128
62 85 50
62 85 50
59 81 47
60 83 48
58 79 46
64 87 52
61 83 48
58 79 46
54 76 43
76 92 74
113 129 126
122 137 138
127 141 141
120 135 133
101 117 109
63 85 50
48 67 37
61 83 49
58 80 46
51 71 40
56 77 45
60 82 48
66 88 53
61 83 49
84 100 88
96 112 105
110 125 120
118 131 135
115 129 130
98 113 109
119 133 134
127 141 145
64 81 61
58 79 46
47 65 36
57 78 45
58 78 46
53 73 41
54 75 43
54 75 43
53 73 41
49 68 39
59 80 47
56 75 48
71 87 73
86 100 92
110 124 124
117 131 131
103 117 112
113 125 126
86 100 94
50 69 39
53 73 43
53 73 43
46 64 36
48 67 38
52 72 41
53 73 42
48 67 38
48 66 38
48 67 38
54 75 43
57 78 44
50 68 39
46 65 36
54 73 43
41 58 32
42 59 32
74 90 74
87 100 97
109 123 124
108 121 120
104 117 117
90 103 97
81 95 86
66 80 66
58 76 48
42 59 32
52 71 41
47 65 38
49 66 39
45 63 36
39 55 30
52 71 42
54 73 43
39 53 30
57 72 53
96 108 104
87 100 95
106 119 119
95 107 105
105 117 117
100 112 112
90 103 99
83 95 90
96 107 106
99 112 108
97 109 107
97 110 109
94 107 103
103 117 115
91 103 100
97 110 107
97 110 107
85 97 95
43 61 34
46 63 36
46 63 37
42 59 33
44 61 34
47 66 36
46 63 36
43 59 34
42 59 33
41 57 32
49 67 39
44 60 34
48 65 42
51 67 47
68 81 69
78 92 85
62 78 60
87 100 96
58 70 59
68 82 70
63 78 63
59 74 57
59 73 58
54 69 51
51 68 43
49 67 38
41 58 31
48 66 38
44 61 33
53 72 42
42 59 33
48 66 38
40 56 31
39 54 30
63 78 60
97 111 107
92 105 102
89 101 99
105 117 116
98 110 109
108 121 118
108 120 120
110 122 124
100 112 112
92 105 101
88 100 98
102 114 116
100 112 109
83 96 92
110 122 123
105 118 118
97 109 105
46 64 36
43 60 33
50 68 40
51 69 40
47 66 37
47 65 37
40 55 31
48 66 37
44 60 34
47 65 37
49 68 38
41 58 32
48 66 38
47 65 37
47 65 37
73 89 74
104 117 116
109 122 124
93 106 101
101 114 113
115 127 128
87 101 96
112 126 127
115 128 131
114 127 129
91 104 100
101 115 111
111 123 127
89 100 99
99 112 109
116 128 128
75 90 78
61 78 57
62 78 59
74 89 75
85 100 93
80 96 81
80 95 81
98 112 109
107 121 119
101 116 110
102 117 112
76 90 78
109 123 122
116 130 130
102 117 114
59 80 50
51 71 41
55 76 44
52 71 41
52 73 41
50 69 39
52 72 40
43 63 32
58 79 46
56 76 44
55 75 44
55 76 44
51 71 40
89 104 92
125 139 138
102 116 111
112 127 128
113 127 126
132 147 151
116 130 132
120 134 135
111 128 123
123 137 137
131 144 148
127 140 143
116 132 128
83 101 86
83 101 85
94 111 99
123 137 138
109 124 121
125 140 143
135 151 154
134 148 151
120 135 135
137 152 154
120 134 134
110 127 123
141 157 160
128 144 144
133 147 149
137 153 158
129 144 145
124 138 139
115 131 126
87 106 90
103 120 110
123 140 137
126 142 142
141 157 162
138 155 159
143 158 160
131 147 148
134 150 149
129 145 148
143 159 163
152 169 176
140 157 162
117 136 124
121 138 132
150 166 165
197 210 223
217 229 243
228 239 255
228 239 255
228 239 255
228 239 255
228 239 255
228 239 255
228 239 255
228 239 255
228 239 255
228 239 255
228 239 255
228 239 255
228 239 255
228 239 255
228 239 255
228 239 255
228 239 255
228 239 255
228 239 255
228 239 255
228 239 255
228 239 255
228 239 255
228 239 255
228 239 255
228 239 255
228 239 255
228 239 255
228 239 255
227 239 255
227 239 255
227 239 255
227 239 255
227 239 255
227 239 255
227 239 255
227 239 255
227 239 255
227 239 255
227 239 255
227 239 255
227 239 255
227 239 255
227 239 255
227 239 255
227 239 255
227 239 255
227 239 255
227 239 255
227 239 255
227 239 255
227 239 255
227 239 255
227 239 255
227 239 255
227 239 255
227 239 255
227 239 255
227 239 255
228 239 255
228 239 255
228 239 255
228 239 255
228 239 255
228 239 255
228 239 255
228 239 255
228 239 255
228 239 255
228 239 255
228 239 255
228 239 255
228 239 255
228 239 255
228 239 255
228 239 255
228 239 255
228 239 255
228 239 255
228 239 255
228 239 255
228 239 255
228 239 255
228 239 255
228 239 255
228 239 255
228 239 255
228 239 255
228 239 255
228 239 255
228 239 255
228 239 255
228 239 255
228 239 255
228 239 255
228 239 255
228 239 255
228 239 255
228 239 255
228 239 255
228 239 255
228 239 255
228 239 255
228 239 255
228 239 255
223 234 250
180 194 200
163 177 181
141 158 162
144 160 164
115 133 126
78 101 71
69 94 56
79 102 75
109 127 118
96 118 96
69 94 57
63 86 50
63 87 50
76 99 69
90 110 93
124 141 137
135 151 152
130 146 147
128 143 143
141 156 161
140 156 157
129 144 145
111 128 121
105 122 112
67 88 62
108 126 117
133 148 152
134 149 153
97 114 102
59 80 47
56 78 43
56 78 44
58 80 46
84 103 85
108 123 117
122 137 137
132 147 149
134 149 155
124 138 139
115 128 128
124 138 140
120 137 134
126 140 143
56 78 45
61 83 49
56 78 45
58 79 45
62 81 56
80 98 82
107 123 116
108 123 124
116 129 131
122 136 140
116 129 131
126 140 143
115 130 129
121 134 135
116 131 134
123 136 139
107 122 120
105 119 117
54 74 42
57 78 45
49 69 38
57 78 46
59 80 48
55 76 44
70 86 72
96 111 104
97 112 105
97 110 106
99 112 112
101 115 112
115 129 130
102 116 112
120 134 134
103 117 113
108 122 121
100 115 107
50 69 39
49 67 38
54 73 43
58 79 47
49 68 38
51 71 41
53 73 41
54 74 43
48 66 38
50 69 39
46 63 36
55 75 44
57 78 46
52 71 41
60 77 57
66 81 68
89 103 95
77 90 83
58 75 55
51 68 43
46 64 36
46 63 36
43 60 34
48 64 37
44 61 35
47 65 36
49 68 39
47 65 38
49 68 39
42 59 32
50 69 39
47 66 36
49 67 38
43 61 34
52 71 41
43 60 33
80 94 84
86 99 96
108 120 120
102 115 115
91 105 100
97 111 108
106 117 120
92 105 100
109 122 124
107 118 120
95 107 106
105 117 118
87 98 96
101 113 114
95 108 105
101 114 112
97 109 107
82 94 90
77 92 81
51 68 44
47 64 41
60 75 59
68 81 73
82 94 89
85 99 92
84 97 92
90 103 100
78 93 83
94 107 103
95 107 104
92 104 103
105 118 117
98 110 109
119 131 135
109 122 118
95 110 104
55 71 52
45 62 35
50 69 40
45 63 35
51 70 39
45 62 36
51 70 41
43 59 34
42 59 33
47 65 37
47 65 37
47 64 37
49 67 38
41 57 32
47 65 37
53 72 42
45 64 36
83 97 90
103 115 115
105 119 117
101 113 113
96 109 106
92 105 102
92 105 101
96 108 105
98 111 108
84 98 90
96 108 106
102 116 113
100 114 110
112 124 125
107 120 119
107 121 119
97 111 106
72 88 73
46 64 35
41 59 32
50 68 39
42 58 33
42 60 33
45 63 35
52 71 41
53 72 42
45 61 35
48 67 38
47 66 37
54 73 43
49 68 38
53 72 43
48 67 38
80 96 83
95 106 105
105 118 118
112 125 124
100 114 110
112 127 124
109 122 123
101 116 113
101 115 111
92 103 100
105 118 117
109 124 120
113 126 125
112 124 121
121 135 136
104 117 117
70 87 73
50 70 39
51 70 40
52 72 40
50 70 39
47 66 36
57 78 46
53 74 42
55 75 44
55 75 43
52 71 41
52 72 41
52 72 41
64 82 59
63 82 57
96 111 102
95 110 102
99 115 106
88 102 92
84 101 86
63 82 56
66 84 59
56 76 44
54 75 42
51 71 41
52 72 41
59 80 47
58 79 46
81 97 85
117 131 131
123 137 139
122 135 136
126 139 143
118 132 133
117 131 134
126 140 143
143 157 163
130 144 149
120 133 134
125 140 142
124 139 138
87 104 92
57 79 45
65 88 53
60 82 47
69 89 63
78 98 75
91 108 98
110 125 124
113 127 123
98 116 106
61 83 48
96 113 105
135 150 154
145 160 165
137 153 158
135 150 152
135 150 151
114 130 127
134 149 154
123 139 137
145 161 167
127 144 143
123 141 139
132 148 151
136 151 152
145 160 166
142 157 161
140 154 162
147 163 170
119 137 134
123 140 137
132 148 147
137 153 157
141 158 160
143 159 164
149 165 170
158 173 177
197 210 223
221 233 248
228 239 255
228 239 255
228 239 255
228 239 255
228 239 255
228 239 255
228 239 255
228 239 255
228 239 255
228 239 255
228 239 255
228 239 255
228 239 255
228 239 255
228 239 255
228 239 255
228 239 255
228 239 255
228 239 255
228 239 255
228 239 255
228 239 255
228 239 255
228 239 255
228 239 255
228 239 255
228 239 255
228 239 255
228 239 255
228 239 255
228 239 255
228 239 255
228 239 255
228 239 255
228 239 255
228 239 255
228 239 255
228 239 255
228 239 255
228 239 255
228 239 255
228 239 255
228 239 255
228 239 255
228 239 255
227 239 255
227 239 255
227 239 255
227 239 255
227 239 255
227 239 255
228 239 255
228 239 255
228 239 255
228 239 255
228 239 255
228 239 255
228 239 255
228 239 255
228 239 255
228 239 255
228 239 255
228 239 255
228 239 255
228 239 255
228 239 255
228 239 255
228 239 255
228 239 255
228 239 255
228 239 255
228 239 255
228 239 255
228 239 255
228 239 255
228 239 255
228 239 255
228 239 255
228 239 255
228 239 255
228 239 255
228 239 255
228 239 255
228 239 255
228 239 255
228 239 255
228 239 255
228 239 255
228 239 255
228 239 255
228 239 255
228 239 255
228 239 255
228 239 255
228 239 255
228 239 255
228 239 255
228 239 255
228 239 255
226 237 253
197 209 220
158 174 175
132 149 149
148 165 169
103 121 112
88 110 87
69 94 56
84 107 83
108 126 117
129 146 146
142 159 163
143 159 164
68 91 53
80 102 76
114 133 127
118 136 131
134 151 151
136 152 154
134 149 152
135 151 155
137 152 157
145 159 165
120 137 135
99 117 105
68 89 61
60 82 47
63 86 51
64 87 51
90 109 97
119 135 131
119 134 135
133 148 155
85 103 87
92 109 97
118 134 129
108 123 117
132 149 150
127 142 144
132 147 149
119 135 135
111 126 123
138 153 158
125 140 143
132 147 150
128 141 144
125 139 139
60 79 52
79 98 75
100 116 108
101 116 111
127 142 143
114 130 128
117 131 128
127 140 143
116 130 129
115 129 129
121 135 135
127 142 143
113 127 128
115 128 128
118 132 133
126 140 143
119 131 135
113 128 129
51 71 40
66 83 64
64 81 62
103 120 111
94 110 99
122 136 140
113 127 126
120 132 135
111 126 124
128 142 145
106 120 118
120 134 139
107 121 120
113 126 126
116 130 129
110 124 123
121 135 137
109 124 122
68 86 64
56 75 44
42 59 32
54 74 43
53 73 43
51 70 40
51 71 40
50 69 40
56 76 44
69 84 68
88 101 95
97 111 105
111 125 124
111 124 124
105 117 116
109 121 121
115 129 130
99 112 110
90 104 98
48 66 38
53 73 41
44 61 34
48 66 37
45 62 35
49 69 38
43 60 33
50 69 39
48 66 38
50 69 40
44 62 34
53 73 42
49 68 39
51 71 41
51 69 40
48 67 38
45 64 35
59 73 56
100 114 110
116 129 132
103 116 116
99 112 110
100 114 111
108 122 120
91 104 98
92 106 100
110 123 123
96 109 105
102 115 114
90 106 96
82 95 88
66 80 69
92 107 100
63 80 60
68 84 69
56 73 51
101 114 113
111 122 123
99 112 108
93 107 100
100 115 109
93 106 100
100 111 111
110 123 125
100 114 111
91 104 101
102 115 115
105 116 115
103 116 115
95 108 106
97 110 107
97 108 108
93 106 103
101 113 113
54 73 46
44 61 35
51 70 39
50 68 40
55 75 45
45 62 36
44 62 34
43 60 34
47 65 37
50 68 39
50 69 40
49 68 39
42 60 33
49 68 38
47 64 37
54 73 44
49 68 39
94 108 102
103 116 115
94 106 105
104 118 117
87 101 95
87 99 93
117 129 130
96 109 106
101 113 114
110 123 126
101 113 110
103 117 117
107 121 120
109 122 123
99 111 110
108 121 124
120 132 134
65 81 64
48 67 37
47 65 37
52 71 40
49 68 38
52 71 41
53 73 42
46 63 35
54 73 42
44 62 33
49 67 38
50 70 39
49 67 38
55 75 43
50 69 39
53 73 42
80 94 85
107 122 119
100 113 112
109 122 119
111 124 124
103 117 113
100 114 110
99 112 110
103 117 117
112 127 124
109 123 120
95 107 104
113 128 128
110 123 122
109 122 122
109 123 121
59 75 57
57 77 45
52 72 40
49 68 39
57 78 46
53 73 42
55 75 42
48 67 37
49 69 39
55 75 43
53 72 40
49 69 38
51 71 40
59 80 46
73 90 72
110 125 123
121 134 136
115 130 133
122 137 139
131 143 149
113 128 128
128 142 145
110 124 122
112 128 122
106 120 117
90 106 96
80 98 82
78 95 82
96 112 104
117 132 131
113 127 125
124 138 142
131 146 148
112 126 123
131 145 147
132 145 148
109 124 122
123 137 138
130 145 147
129 143 148
134 149 153
91 107 96
59 81 46
64 87 52
58 80 47
60 83 48
63 86 51
60 82 48
74 95 71
128 144 146
125 139 140
112 129 123
122 139 137
125 140 143
124 140 138
142 156 163
135 151 152
137 151 153
135 150 152
142 157 161
139 155 159
129 145 144
137 153 157
85 105 81
74 95 68
105 124 113
116 134 128
134 151 152
135 151 156
142 157 161
136 153 153
92 112 96
86 110 81
112 131 123
129 145 146
149 165 173
151 167 173
131 149 148
123 140 138
187 201 212
199 212 224
224 236 252
228 239 255
228 239 255
228 239 255
228 239 255
228 239 255
228 239 255
228 239 255
228 239 255
228 239 255
228 239 255
228 239 255
228 239 255
228 239 255
228 239 255
228 239 255
228 239 255
228 239 255
228 239 255
228 239 255
228 239 255
228 239 255
228 239 255
228 239 255
228 239 255
228 239 255
228 239 255
228 239 255
228 239 255
228 239 255
228 239 255
228 239 255
228 239 255
228 239 255
228 239 255
228 239 255
228 239 255
228 239 255
228 239 255
228 239 255
228 239 255
228 239 255
228 239 255
228 239 255
228 239 255
228 239 255
228 239 255
228 239 255
228 239 255
228 239 255
228 239 255
228 239 255
228 239 255
228 239 255
228 239 255
228 239 255
228 239 255
228 239 255
228 239 255
228 239 255
228 239 255
228 239 255
228 239 255
228 239 255
228 239 255
228 239 255
228 239 255
228 239 255
228 239 255
228 239 255
228 239 255
228 239 255
228 239 255
228 239 255
228 239 255
228 239 255
228 239 255
228 239 255
228 239 255
228 239 255
228 239 255
228 239 255
228 239 255
228 239 255
228 239 255
228 239 255
228 239 255
228 239 255
228 239 255
228 239 255
228 239 255
228 239 255
228 239 255
228 239 255
228 239 255
207 220 231
178 192 200
136 153 150
152 167 173
119 137 132
98 117 99
74 100 60
72 97 61
106 126 112
136 151 153
148 164 171
139 156 158
124 140 138
132 148 151
104 121 113
131 147 145
140 155 160
141 157 160
148 163 167
143 159 168
139 155 162
131 147 147
114 132 125
87 107 88
63 85 53
65 88 51
66 89 54
62 85 50
68 92 55
63 86 50
60 83 49
76 95 72
130 145 145
108 124 120
76 97 72
65 87 56
112 128 127
129 143 148
132 148 150
125 139 140
136 151 155
119 133 133
133 149 151
110 125 122
122 138 140
128 143 146
104 120 114
99 115 108
77 97 75
86 102 93
122 136 138
119 134 132
113 128 124
124 140 140
106 121 118
123 137 141
118 132 132
119 133 134
134 149 152
125 138 141
125 140 141
126 140 143
131 145 146
109 122 121
114 128 128
92 107 98
84 101 86
95 110 104
110 125 120
111 126 126
124 138 141
109 122 121
121 134 138
115 129 128
116 129 129
112 126 127
101 115 111
130 145 148
106 120 119
109 122 120
107 122 117
119 132 133
103 117 113
123 137 141
121 136 135
97 112 104
48 67 38
48 68 37
57 77 47
73 90 71
100 115 107
98 113 105
98 111 107
116 128 129
102 115 114
105 119 115
104 118 114
114 128 129
98 112 107
113 126 126
116 129 130
108 122 122
101 115 113
97 110 109
53 71 44
53 73 43
53 73 42
50 70 40
50 69 39
43 60 34
52 71 42
54 75 43
44 62 35
49 68 39
54 74 43
47 66 37
44 62 34
48 66 37
46 65 35
48 67 38
55 75 45
45 63 36
87 101 97
102 115 112
102 114 114
104 119 115
82 96 90
92 106 102
85 99 94
78 93 82
65 81 60
52 71 40
48 66 38
51 70 40
46 64 36
50 69 40
49 68 38
49 67 39
50 68 40
57 77 44
74 91 75
107 120 117
95 109 103
92 106 101
96 110 107
97 110 106
89 102 100
84 96 93
88 102 95
94 107 102
102 115 112
100 113 112
105 116 118
100 113 113
105 119 117
100 113 111
121 134 138
111 124 125
88 100 97
45 64 35
55 74 44
50 69 40
51 70 40
49 67 38
46 64 36
46 63 36
45 62 34
48 66 36
54 73 42
55 74 42
44 62 34
57 77 45
51 71 40
46 64 36
49 68 39
50 68 39
100 112 109
106 119 121
101 114 112
106 120 116
104 118 115
96 109 105
109 121 122
96 108 107
104 118 115
103 117 113
95 108 105
109 122 121
112 125 128
103 117 114
110 123 123
111 123 124
104 115 115
57 74 51
54 74 44
55 76 43
48 67 38
50 70 40
53 72 42
53 72 42
51 71 40
50 69 39
48 67 37
46 63 36
53 73 42
52 70 40
53 74 43
49 68 40
57 77 45
84 99 89
121 135 140
110 124 120
85 99 90
115 128 130
124 137 141
113 127 123
112 125 129
103 117 114
100 113 112
114 128 128
85 98 90
108 121 121
110 125 123
123 136 139
122 135 137
69 88 65
52 72 42
56 77 45
59 80 47
59 80 47
53 74 41
51 70 41
55 76 43
58 80 46
58 79 46
55 75 43
50 69 38
55 75 43
59 80 47
69 85 69
109 122 120
110 124 123
121 135 134
119 133 134
127 139 143
125 138 143
123 138 139
129 144 145
113 128 126
123 137 139
120 133 134
117 131 132
117 130 130
109 124 121
69 89 62
75 96 68
87 105 91
98 113 106
110 126 124
115 130 126
117 132 130
117 130 130
129 144 144
129 142 145
123 138 139
142 157 163
103 120 113
60 83 48
62 84 49
59 82 46
57 78 45
80 99 80
114 129 127
133 148 152
139 154 158
136 150 155
134 148 150
131 146 149
82 101 82
90 110 90
105 123 110
104 121 111
107 124 117
114 131 125
140 155 159
127 142 144
133 150 149
133 149 152
101 119 109
66 88 55
66 90 53
68 93 56
82 101 79
101 121 105
137 154 156
150 165 171
134 153 150
78 98 76
71 96 58
71 95 63
102 121 108
129 146 142
139 156 157
99 117 102
113 133 123
140 157 153
192 206 219
210 222 236
228 239 255
228 239 255
228 239 255
228 239 255
228 239 255
228 239 255
228 239 255
228 239 255
228 239 255
228 239 255
228 239 255
228 239 255
228 239 255
228 239 255
228 239 255
228 239 255
228 239 255
228 239 255
228 239 255
228 239 255
228 239 255
228 239 255
228 239 255
228 239 255
228 239 255
228 239 255
228 239 255
228 239 255
228 239 255
228 239 255
228 239 255
228 239 255
228 239 255
228 239 255
228 239 255
228 239 255
228 239 255
228 239 255
228 239 255
228 239 255
228 239 255
228 239 255
228 239 255
228 239 255
228 239 255
228 239 255
228 239 255
228 239 255
228 239 255
228 239 255
228 239 255
228 239 255
228 239 255
228 239 255
228 239 255
228 239 255
228 239 255
228 239 255
228 239 255
228 239 255
228 239 255
228 239 255
228 239 255
228 239 255
228 239 255
228 239 255
228 239 255
228 239 255
228 239 255
228 239 255
228 239 255
228 239 255
228 239 255
228 239 255
228 239 255
228 239 255
228 239 255
228 239 255
228 239 255
228 239 255
228 239 255
228 239 255
228 239 255
228 239 255
228 239 255
228 239 255
228 239 255
228 239 255
228 239 255
219 231 245
188 200 209
142 159 158
140 157 160
132 150 147
95 115 100
71 96 57
72 96 64
103 121 110
136 152 154
155 170 177
154 169 177
142 158 161
139 155 159
119 136 133
93 113 97
65 88 52
67 91 55
145 160 166
159 175 187
141 156 160
138 154 153
107 123 114
99 119 103
69 93 56
60 83 48
66 90 53
65 88 52
60 83 48
56 77 44
62 85 50
73 95 66
84 104 83
121 136 134
123 138 138
67 88 62
57 79 46
56 78 44
63 86 51
63 86 51
91 110 97
137 151 153
126 140 141
120 134 136
130 145 145
126 140 140
91 108 99
93 108 99
66 87 56
58 79 45
64 87 51
62 85 50
96 112 101
131 146 149
136 150 157
121 136 135
125 138 141
120 135 138
117 132 129
130 144 148
122 136 139
126 141 140
127 141 144
112 126 124
102 117 111
75 93 72
67 88 59
56 76 43
56 77 44
54 75 42
79 98 79
120 134 136
108 121 120
128 142 144
123 137 137
111 125 124
116 130 130
101 114 110
120 134 138
126 140 145
105 118 117
111 125 124
119 132 135
106 120 119
121 135 138
120 135 135
115 130 127
97 113 105
99 115 109
91 106 96
105 118 117
101 115 112
113 127 128
117 131 131
118 132 132
103 116 114
112 125 124
116 130 128
117 131 134
112 126 126
107 122 117
121 135 139
121 134 138
95 111 103
104 118 116
104 118 115
111 125 125
76 89 81
55 75 43
53 73 42
47 66 36
55 75 43
48 67 38
53 73 44
48 67 37
49 67 38
45 63 34
47 65 36
56 77 45
49 68 39
55 75 44
52 69 47
79 94 83
95 110 104
85 99 94
105 118 116
69 85 69
47 64 36
53 73 43
48 68 38
56 76 44
54 74 43
47 64 36
54 74 42
54 73 42
54 74 43
52 72 41
48 66 38
57 78 45
51 71 41
51 71 40
45 63 34
44 61 34
48 65 37
106 121 117
110 122 124
101 115 110
96 109 106
97 110 108
95 110 104
108 122 121
90 104 98
93 108 103
87 100 97
89 102 96
98 111 108
99 113 106
109 122 122
99 112 110
115 127 129
108 121 120
101 115 112
55 71 52
52 71 41
45 62 36
52 72 42
45 63 34
46 64 36
48 66 37
52 72 42
49 67 38
51 70 40
49 67 38
52 72 41
45 63 35
47 66 35
49 68 38
50 69 38
41 57 32
71 87 71
91 104 101
111 124 125
100 113 111
102 116 110
110 123 124
99 113 111
103 116 113
105 119 118
108 121 122
112 125 125
112 125 124
113 126 128
111 124 124
108 122 120
117 129 133
90 105 100
97 110 109
58 78 46
47 66 38
53 73 43
47 65 35
48 67 37
45 62 35
53 73 42
55 75 44
52 71 41
57 77 46
46 65 36
57 77 45
51 71 40
50 70 39
50 68 39
56 76 44
99 112 109
116 131 130
111 124 127
110 124 124
118 131 134
118 131 131
105 119 116
110 123 124
120 133 135
120 134 134
123 137 139
124 138 140
112 127 126
121 135 137
128 142 143
119 134 132
58 77 52
54 74 43
55 76 44
56 77 44
55 76 43
45 63 35
52 72 41
57 78 45
60 83 48
50 70 39
52 72 41
52 71 42
52 72 40
53 73 41
64 84 59
115 130 127
114 127 128
110 125 122
119 133 131
117 130 129
142 156 162
111 125 122
128 143 144
108 121 118
122 137 139
118 133 134
115 131 130
133 147 151
112 127 124
67 86 66
59 81 48
61 82 49
64 87 52
64 87 51
61 82 52
67 86 60
89 107 90
100 116 110
109 127 118
119 133 133
131 146 149
114 130 126
60 82 52
64 86 54
100 116 106
120 134 132
131 145 149
132 147 150
133 149 152
126 142 142
134 149 155
154 169 177
136 151 153
87 104 92
61 84 48
60 83 48
65 88 52
66 87 58
93 112 97
105 123 113
125 141 143
134 150 153
144 160 166
113 131 125
71 92 63
65 90 53
64 88 52
64 88 52
64 87 50
76 102 62
86 106 84
114 134 125
91 111 95
66 89 53
69 93 56
73 99 59
71 97 58
96 117 97
106 124 116
91 113 93
87 110 80
110 131 119
153 168 171
197 209 221
225 237 253
228 239 255
228 239 255
228 239 255
228 239 255
228 239 255
228 239 255
228 239 255
228 239 255
228 239 255
228 239 255
228 239 255
228 239 255
228 239 255
228 239 255
228 239 255
228 239 255
228 239 255
228 239 255
228 239 255
228 239 255
228 239 255
228 239 255
228 239 255
228 239 255
228 239 255
228 239 255
228 239 255
228 239 255
228 239 255
228 239 255
228 239 255
228 239 255
228 239 255
228 239 255
228 239 255
228 239 255
228 239 255
228 239 255
228 239 255
228 239 255
228 239 255
228 239 255
228 239 255
228 239 255
228 239 255
228 239 255
228 239 255
228 239 255
228 239 255
228 239 255
228 239 255
228 239 255
228 239 255
228 239 255
228 239 255
228 239 255
228 239 255
228 239 255
228 239 255
228 239 255
228 239 255
228 239 255
228 239 255
228 239 255
228 239 255
228 239 255
228 239 255
228 239 255
228 239 255
228 239 255
228 239 255
228 239 255
228 239 255
228 239 255
228 239 255
228 239 255
228 239 255
228 239 255
228 239 255
228 239 255
228 239 255
228 239 255
228 239 255
227 238 254
206 219 230
144 160 155
103 125 107
108 128 110
118 138 131
76 100 67
70 95 56
89 109 92
133 151 150
151 167 173
141 157 161
138 153 157
140 155 159
116 133 127
93 113 96
70 93 62
67 91 54
70 95 57
67 91 54
67 92 54
114 131 122
121 138 131
86 106 82
71 96 61
69 95 56
70 95 56
67 91 54
67 92 54
66 90 54
69 93 56
76 97 70
86 103 89
119 135 132
132 146 148
135 151 152
129 144 144
135 149 149
86 106 87
59 82 47
65 88 52
64 87 51
65 88 51
64 87 52
74 95 68
110 126 120
96 113 103
70 91 64
59 81 46
66 90 53
58 80 46
63 86 51
57 78 44
59 82 47
59 80 46
66 87 58
125 139 139
131 145 150
128 143 147
132 148 150
111 127 121
120 135 132
119 135 132
98 113 105
79 96 81
68 88 62
61 84 49
58 79 46
56 77 45
53 72 42
55 75 44
57 78 45
59 81 48
64 85 57
119 133 135
113 127 127
124 137 137
113 128 127
134 146 152
121 135 134
120 134 135
104 118 116
120 135 135
110 125 121
128 141 145
101 116 110
109 124 125
75 92 77
70 90 64
57 77 45
53 73 43
55 75 44
94 109 102
96 109 107
113 127 125
109 123 121
119 133 135
117 130 133
115 129 129
116 130 129
109 124 123
116 130 132
117 130 132
111 124 123
107 120 120
112 126 126
104 119 115
110 125 122
110 124 124
114 127 127
101 115 112
54 75 44
51 70 40
50 69 39
52 72 41
49 67 39
47 66 37
48 67 38
68 85 70
85 100 92
98 113 106
84 99 87
85 100 90
101 114 113
103 117 114
105 118 114
103 117 112
105 119 115
109 121 124
72 88 74
54 75 43
45 63 35
56 76 45
52 71 41
53 73 42
45 63 35
50 69 39
54 75 43
56 77 44
49 67 39
46 65 36
53 72 42
49 68 38
53 74 42
45 63 35
50 69 39
47 66 36
54 73 46
106 120 117
115 127 133
108 122 122
106 119 120
112 125 128
113 126 125
105 118 118
96 111 105
118 132 130
103 115 113
99 112 109
92 105 103
120 132 134
104 118 116
105 118 113
107 121 117
109 122 120
100 113 113
51 69 43
46 64 36
50 68 39
54 75 43
48 67 38
42 60 32
46 65 36
57 77 45
49 68 38
46 64 36
53 72 42
47 65 36
54 73 46
52 70 43
55 73 46
63 79 60
54 69 52
90 105 96
103 115 116
83 99 89
87 99 97
90 103 98
85 100 88
87 102 93
96 110 105
92 107 98
88 102 94
78 95 80
61 79 54
81 98 84
73 88 74
78 94 80
70 86 72
73 90 74
74 89 76
100 113 108
100 113 112
91 105 97
102 116 113
113 127 129
95 108 106
100 114 110
108 121 122
111 126 122
100 115 110
95 111 103
104 118 114
103 117 114
107 120 117
94 109 103
103 115 114
100 115 109
81 97 83
88 104 94
87 102 92
103 118 110
109 123 119
92 107 100
109 124 120
99 112 108
101 118 107
100 116 112
98 114 107
109 123 123
115 130 129
103 118 114
106 120 116
57 78 46
55 75 44
58 79 47
63 86 51
58 79 46
60 83 48
57 78 46
57 77 46
61 83 48
63 85 49
56 77 44
62 85 50
55 77 44
57 78 45
75 94 73
131 145 148
117 132 134
132 147 150
115 130 128
129 144 148
122 136 136
131 146 149
121 135 138
129 142 145
130 145 148
123 137 138
127 142 141
111 126 125
124 139 141
64 85 60
63 85 51
56 78 44
61 83 49
60 82 48
60 83 49
59 81 47
62 85 49
56 77 44
65 88 52
61 84 49
64 86 54
102 121 110
89 107 93
102 118 112
111 127 126
117 133 134
140 155 161
132 146 151
131 145 147
130 145 147
127 142 142
129 146 147
135 149 155
116 132 127
67 91 55
64 87 51
59 82 47
61 84 49
64 88 52
66 90 54
64 87 51
76 97 72
102 120 111
120 137 133
83 104 79
68 92 55
63 85 50
68 93 55
65 89 53
69 93 56
66 89 53
65 90 53
83 102 83
110 129 122
97 115 97
84 104 80
65 89 53
70 95 57
65 90 53
83 105 76
104 125 111
95 117 94
71 96 61
120 139 127
165 179 184
199 212 224
228 239 255
228 239 255
228 239 255
228 239 255
228 239 255
228 239 255
228 239 255
228 239 255
228 239 255
228 239 255
228 239 255
228 239 255
228 239 255
228 239 255
228 239 255
228 239 255
228 239 255
228 239 255
228 239 255
228 239 255
228 239 255
228 239 255
228 239 255
228 239 255
228 239 255
228 239 255
228 239 255
228 239 255
228 239 255
228 239 255
228 239 255
228 239 255
228 239 255
228 239 255
228 239 255
228 239 255
228 239 255
228 239 255
228 239 255
228 239 255
228 239 255
228 239 255
228 239 255
228 239 255
228 239 255
228 239 255
228 239 255
228 239 255
228 239 255
228 239 255
228 239 255
228 239 255
228 239 255
228 239 255
228 239 255
228 239 255
228 239 255
228 239 255
228 239 255
228 239 255
228 239 255
228 239 255
228 239 255
228 239 255
228 239 255
228 239 255
228 239 255
228 239 255
228 239 255
228 239 255
228 239 255
228 239 255
228 239 255
228 239 255
228 239 255
228 239 255
228 239 255
228 239 255
228 239 255
210 222 234
170 185 190
104 124 108
90 111 89
121 138 130
150 166 173
155 171 181
131 147 151
128 146 141
144 160 164
155 171 178
135 151 153
138 154 157
134 150 152
108 127 117
73 98 62
63 87 51
68 92 55
69 93 55
67 91 54
74 96 69
107 125 114
111 130 120
116 134 126
68 93 56
68 92 55
64 87 52
68 93 55
70 94 56
65 88 52
80 102 76
94 112 97
113 129 127
135 150 151
130 144 144
140 155 160
147 162 167
153 169 175
135 149 155
137 153 156
114 130 126
68 92 54
62 85 49
73 92 67
85 102 86
111 126 121
118 133 133
134 151 152
135 150 155
82 100 82
67 90 57
59 81 46
61 83 49
58 80 45
60 82 47
58 80 46
64 87 52
57 79 45
118 134 132
124 140 140
121 135 137
115 131 125
89 107 91
70 92 62
51 72 40
61 83 49
65 88 52
59 80 46
57 78 45
62 84 49
54 75 42
61 83 48
58 80 46
57 78 46
52 72 41
60 81 48
100 115 108
119 134 132
123 138 137
121 136 137
120 135 135
112 126 126
120 133 135
114 128 124
108 124 118
85 102 88
62 83 51
59 80 46
48 66 38
60 82 49
49 68 38
50 69 39
53 73 42
59 80 46
71 91 69
100 113 110
110 125 124
119 134 133
109 123 122
105 120 114
119 134 133
111 126 123
110 124 121
108 122 117
131 145 150
112 126 124
107 120 120
121 136 137
105 120 117
123 137 138
129 142 147
114 127 128
119 133 136
89 103 97
74 90 77
84 100 90
102 116 112
96 110 104
115 130 132
117 131 132
105 119 113
123 137 140
112 126 125
113 128 127
99 113 110
105 118 116
122 136 139
116 128 128
110 123 127
127 141 144
106 118 117
113 126 126
60 80 53
42 59 32
50 69 39
55 76 44
52 71 41
52 72 41
45 64 35
56 77 44
57 78 46
54 74 43
47 67 37
49 69 39
39 56 29
51 71 40
52 71 41
51 71 40
51 71 40
58 79 47
87 100 94
116 130 129
95 110 104
111 124 123
94 108 106
111 125 124
107 120 119
116 130 131
119 132 134
112 126 126
103 117 114
105 118 118
110 124 125
115 127 130
109 124 120
104 117 115
95 109 105
96 111 102
84 99 89
72 88 73
68 84 71
91 104 100
82 99 87
92 104 101
83 99 87
99 113 111
113 127 126
99 113 109
113 126 128
116 129 130
124 137 139
123 136 140
102 117 114
110 123 123
107 121 121
115 129 130
71 88 70
44 63 34
51 70 40
48 67 37
51 71 40
52 72 42
41 58 32
54 73 43
50 69 39
53 72 42
46 66 35
55 75 43
52 71 41
52 72 41
53 72 42
49 68 38
55 76 43
109 123 121
108 122 120
104 119 116
112 127 128
117 130 131
115 129 130
115 129 128
115 130 131
113 127 129
107 121 117
101 115 112
122 137 137
125 139 139
121 135 139
106 121 117
108 122 120
106 121 117
66 85 61
53 73 42
57 78 45
55 75 43
55 75 44
58 80 46
58 79 46
46 64 36
58 79 46
56 76 44
52 71 40
51 70 40
56 77 45
51 71 39
56 76 45
78 95 79
128 143 146
104 118 115
110 125 121
110 124 123
83 98 89
89 104 95
85 104 86
96 113 102
76 95 76
81 100 79
65 84 60
69 90 66
59 80 50
54 75 43
64 82 61
122 135 139
111 126 122
118 132 133
132 147 152
127 142 147
132 147 151
134 148 152
134 148 151
136 151 157
133 148 151
123 139 138
122 136 134
127 143 146
119 134 134
59 77 54
58 79 46
58 80 46
57 80 45
62 85 50
62 85 51
61 84 50
58 80 47
67 90 54
82 100 82
122 138 136
129 144 143
120 137 134
83 102 81
65 89 52
61 83 48
68 91 61
93 111 98
88 106 91
118 134 131
123 139 134
131 148 151
137 151 156
137 151 155
130 147 149
75 97 69
62 85 49
67 90 54
60 84 48
67 92 54
63 86 50
68 92 54
65 89 53
66 90 53
68 93 55
104 123 110
108 125 118
107 125 117
81 104 77
67 91 55
64 87 51
66 90 53
71 97 59
64 87 50
120 138 132
141 156 160
133 150 155
110 129 120
92 113 89
74 99 63
69 93 56
110 130 118
130 148 147
128 146 142
102 121 111
76 100 70
137 154 152
187 201 212
212 224 240
228 239 255
228 239 255
228 239 255
228 239 255
228 239 255
228 239 255
228 239 255
228 239 255
228 239 255
228 239 255
228 239 255
228 239 255
228 239 255
228 239 255
228 239 255
228 239 255
228 239 255
228 239 255
228 239 255
228 239 255
228 239 255
228 239 255
228 239 255
228 239 255
228 239 255
228 239 255
228 239 255
228 239 255
228 239 255
228 239 255
228 239 255
228 239 255
228 239 255
228 239 255
228 239 255
228 239 255
228 239 255
228 239 255
228 239 255
228 239 255
228 239 255
228 239 255
228 239 255
228 239 255
228 239 255
228 239 255
228 239 255
228 239 255
228 239 255
228 239 255
228 239 255
228 239 255
228 239 255
228 239 255
228 239 255
228 239 255
228 239 255
228 239 255
228 239 255
228 239 255
228 239 255
228 239 255
228 239 255
228 239 255
228 239 255
228 239 255
228 239 255
228 239 255
228 239 255
228 239 255
228 239 255
228 239 255
228 239 255
225 237 252
178 192 197
161 176 181
133 151 149
120 138 130
146 164 168
155 172 178
140 157 161
110 131 121
96 117 101
107 127 114
146 163 167
158 174 183
142 159 163
96 116 103
75 99 68
67 91 54
69 95 57
69 94 56
70 94 56
80 103 76
103 121 111
131 147 145
131 149 148
141 156 160
146 161 167
104 122 111
67 91 54
62 85 50
65 88 51
79 100 73
101 120 110
136 152 156
133 148 151
140 154 157
122 139 136
141 156 159
133 149 152
134 149 152
127 142 145
142 158 162
137 152 157
144 158 162
120 134 134
95 112 100
119 136 133
135 148 152
121 136 137
144 158 162
138 152 158
144 158 164
132 147 152
133 147 152
129 144 145
96 113 102
61 82 51
61 83 48
58 80 45
57 79 46
61 82 51
94 112 100
103 118 111
79 99 77
58 80 46
65 88 52
61 84 49
64 88 52
59 80 47
59 80 46
63 86 51
60 83 48
60 82 48
62 85 50
54 74 42
60 82 48
54 74 43
60 82 47
55 76 43
55 76 43
81 97 83
129 143 144
130 144 148
97 113 107
87 103 93
58 77 51
62 84 50
59 81 47
60 82 48
56 77 44
56 77 45
55 76 43
51 71 41
53 73 42
59 82 47
58 79 45
57 79 45
55 76 44
46 64 36
96 109 107
110 124 122
114 129 128
128 142 144
120 135 136
120 133 134
105 118 116
120 134 135
121 134 134
121 135 137
108 123 122
114 128 127
112 127 125
112 126 121
94 111 99
89 104 95
78 96 78
62 82 54
69 88 65
113 127 124
112 126 125
114 129 127
110 125 121
113 127 127
112 127 125
126 140 143
100 114 110
112 126 124
107 122 121
113 128 127
111 125 127
114 128 130
110 123 123
119 133 134
115 128 129
115 129 126
109 123 122
89 103 96
48 66 37
52 71 41
50 70 40
53 72 41
58 79 47
51 71 41
54 74 42
55 74 43
52 72 41
54 74 43
47 66 37
51 70 40
49 68 38
48 66 38
54 74 43
51 70 40
50 70 39
67 87 61
111 124 125
112 126 125
120 134 134
108 122 118
109 124 121
120 133 133
106 121 118
100 114 111
92 107 99
73 90 74
82 99 88
74 90 74
66 81 66
62 82 53
55 76 44
55 75 44
52 71 41
57 77 48
110 123 123
113 126 129
105 117 118
112 126 124
99 114 107
118 133 131
103 118 113
110 122 124
103 117 112
117 132 133
106 120 118
115 129 129
119 132 131
95 109 103
100 115 112
118 131 135
116 129 133
90 103 99
47 65 36
51 71 40
57 77 44
56 77 44
52 71 40
52 71 41
48 67 36
52 72 41
49 69 39
55 75 44
56 76 44
54 75 43
55 75 43
54 74 43
55 74 44
57 78 46
50 69 38
123 136 137
120 135 135
118 133 133
115 129 127
122 136 139
129 142 145
121 135 138
113 126 124
115 130 127
114 128 130
120 134 132
105 121 117
109 124 122
122 138 139
115 129 128
117 131 132
98 113 106
57 77 45
54 75 42
61 83 49
58 79 46
56 77 44
60 82 48
54 74 42
57 79 46
57 78 45
58 79 46
60 82 48
58 79 46
55 75 43
56 77 45
56 78 44
92 110 100
111 125 125
120 134 137
120 132 136
121 136 136
121 135 136
122 138 138
124 138 139
113 129 127
128 141 146
106 122 115
108 124 118
125 141 141
128 142 147
116 130 131
114 129 126
81 98 84
85 103 85
97 112 106
106 122 116
120 136 135
116 131 130
124 138 137
120 135 135
129 144 146
138 153 158
127 143 144
130 144 149
123 138 139
124 140 141
75 95 70
60 82 48
64 88 53
60 83 48
62 84 51
73 95 64
105 122 113
111 127 124
142 156 162
126 141 142
124 139 143
121 137 136
120 136 134
74 94 72
61 83 48
60 83 47
61 83 48
64 88 51
66 90 53
65 88 52
72 97 61
86 107 87
91 111 94
113 132 121
123 140 138
92 112 94
66 91 54
61 84 49
66 90 54
63 87 52
70 95 57
68 92 54
63 86 51
66 90 54
63 87 50
87 107 87
139 155 157
140 155 160
147 163 169
136 151 154
95 114 100
80 101 76
70 96 57
71 96 57
89 111 91
138 154 159
147 162 169
150 166 172
143 158 163
134 151 148
104 125 107
85 108 79
132 150 149
152 168 175
145 162 166
115 135 127
99 121 105
121 140 131
163 178 184
195 208 219
227 238 254
228 239 255
228 239 255
228 239 255
228 239 255
228 239 255
228 239 255
228 239 255
228 239 255
228 239 255
228 239 255
228 239 255
228 239 255
228 239 255
228 239 255
228 239 255
228 239 255
228 239 255
228 239 255
228 239 255
228 239 255
228 239 255
228 239 255
228 239 255
228 239 255
228 239 255
228 239 255
228 239 255
228 239 255
228 239 255
228 239 255
228 239 255
228 239 255
228 239 255
228 239 255
228 239 255
228 239 255
228 239 255
228 239 255
228 239 255
228 239 255
228 239 255
228 239 255
228 239 255
228 239 255
228 239 255
228 239 255
228 239 255
228 239 255
228 239 255
228 239 255
228 239 255
228 239 255
228 239 255
228 239 255
228 239 255
228 239 255
228 239 255
228 239 255
228 239 255
228 239 255
228 239 255
228 239 255
228 239 255
228 239 255
228 239 255
228 239 255
228 239 255
228 239 255
210 222 234
171 185 191
148 164 164
149 167 174
153 170 177
155 170 178
152 169 177
121 137 130
118 138 129
76 100 67
72 97 58
74 101 61
117 136 129
114 132 125
81 103 75
69 94 56
73 98 59
67 91 53
70 96 58
82 105 74
104 123 111
132 150 150
146 161 165
144 159 162
146 161 164
145 161 164
143 159 164
141 157 161
93 113 97
78 100 73
99 117 103
132 148 148
137 153 156
141 157 162
134 149 154
136 151 151
134 151 150
137 152 157
148 163 169
143 158 162
143 159 165
124 139 139
127 142 143
111 126 123
80 101 77
79 99 79
145 160 166
139 154 156
133 148 153
142 157 162
134 150 152
119 134 134
139 152 155
126 142 142
139 155 160
127 144 143
134 149 150
134 149 152
97 114 102
82 101 85
123 139 140
118 134 130
133 148 151
119 133 133
62 84 49
61 84 49
64 87 51
58 80 46
55 77 43
61 83 48
61 83 48
58 80 46
55 76 43
58 80 46
60 82 48
53 75 42
59 80 46
56 77 44
62 83 52
77 94 78
96 112 103
104 120 112
67 89 56
55 75 43
59 81 47
59 80 47
53 74 42
56 78 44
57 78 45
63 85 50
56 77 44
57 78 44
60 81 47
57 78 45
59 80 47
58 79 45
57 78 45
55 76 44
52 72 41
54 74 41
94 110 102
109 123 121
112 126 126
131 145 150
105 121 113
123 137 138
112 127 124
121 134 138
120 135 133
95 109 102
84 101 88
70 89 68
57 78 45
60 81 48
57 78 46
51 71 40
55 77 43
58 78 46
53 73 42
104 120 115
112 125 124
119 132 133
121 135 136
110 124 122
125 139 141
118 132 132
120 135 137
106 120 116
111 125 123
119 134 134
114 128 127
118 132 133
115 129 130
114 127 128
115 128 129
119 133 133
119 133 131
111 125 126
57 78 45
55 75 44
56 76 44
59 81 48
47 65 35
56 76 44
46 65 35
53 73 41
48 67 38
55 75 43
53 73 42
60 82 49
57 79 47
59 80 51
77 93 79
79 93 81
92 107 99
96 110 105
92 107 100
81 97 85
67 85 64
52 71 42
58 78 46
55 75 43
55 75 44
49 67 39
49 69 39
56 77 45
56 76 45
46 65 36
50 70 39
54 74 43
54 75 43
51 69 40
54 74 43
57 77 45
71 89 65
103 117 112
119 133 133
115 130 130
105 120 118
116 130 129
114 127 129
121 134 137
108 123 120
116 129 131
108 123 121
109 124 122
98 111 107
110 124 125
111 124 122
119 135 132
123 137 139
120 134 134
92 107 96
55 75 43
56 76 44
51 70 40
53 73 41
52 72 41
49 68 39
51 70 40
51 71 39
52 73 41
56 77 45
50 71 39
53 73 41
58 79 47
56 77 45
59 80 47
47 65 37
68 88 62
126 140 144
134 147 153
112 126 125
118 131 132
104 117 116
122 136 137
110 123 122
119 133 134
127 142 144
128 142 146
120 133 135
106 119 116
115 129 130
116 130 130
117 132 131
113 127 126
103 120 109
51 70 39
50 70 40
54 75 43
59 80 47
57 78 45
54 75 43
60 82 48
59 80 47
52 73 40
55 75 43
58 79 47
61 83 49
51 71 40
60 83 49
57 79 45
101 115 111
126 142 141
113 128 125
127 141 145
132 146 150
106 121 118
138 153 158
122 136 138
130 145 147
135 150 155
124 137 137
127 143 142
120 135 134
123 137 137
118 132 132
109 125 119
53 73 43
61 84 48
59 81 47
58 81 45
54 75 43
56 77 44
72 92 69
72 94 65
92 110 98
103 120 110
102 119 108
118 135 131
106 124 114
106 121 119
72 94 65
58 77 52
90 107 93
113 130 124
130 146 147
135 150 155
129 145 145
138 152 156
117 133 131
136 151 154
142 157 163
127 142 144
123 139 137
79 97 82
59 82 48
58 79 46
61 83 48
66 90 54
60 83 47
67 91 53
64 88 52
69 93 56
58 81 47
61 82 48
65 87 55
99 117 104
127 144 142
110 128 120
76 96 77
71 92 65
67 92 55
66 90 53
69 94 56
64 88 52
69 93 55
73 96 63
124 140 137
146 161 164
152 168 177
137 154 154
146 162 169
130 148 149
117 134 126
100 119 104
69 92 61
107 126 117
155 170 177
153 169 175
152 168 176
160 175 184
132 149 152
137 154 154
111 130 120
133 151 153
146 163 169
155 172 178
139 155 157
136 154 152
120 140 132
113 133 118
170 184 188
215 227 242
228 239 255
228 239 255
228 239 255
228 239 255
228 239 255
228 239 255
228 239 255
228 239 255
228 239 255
228 239 255
228 239 255
228 239 255
228 239 255
228 239 255
228 239 255
228 239 255
228 239 255
228 239 255
228 239 255
228 239 255
228 239 255
228 239 255
228 239 255
228 239 255
228 239 255
228 239 255
228 239 255
228 239 255
228 239 255
228 239 255
228 239 255
228 239 255
228 239 255
228 239 255
228 239 255
228 239 255
228 239 255
228 239 255
228 239 255
228 239 255
228 239 255
228 239 255
228 239 255
228 239 255
228 239 255
228 239 255
228 239 255
228 239 255
228 239 255
228 239 255
228 239 255
228 239 255
228 239 255
228 239 255
228 239 255
228 239 255
228 239 255
228 239 255
228 239 255
228 239 255
228 239 255
228 239 255
228 239 255
226 238 254
203 216 227
165 180 184
144 162 165
138 155 154
136 155 158
155 172 182
148 165 168
110 129 120
82 108 75
71 96 58
71 96 57
81 106 72
104 124 111
130 147 147
110 130 120
69 95 55
70 95 57
70 95 57
79 103 68
98 117 105
127 144 141
151 166 175
145 161 164
136 152 153
140 156 161
149 165 170
144 159 164
132 148 150
130 146 149
115 133 129
114 131 126
131 146 145
141 156 161
144 159 165
136 152 157
143 159 166
132 147 148
133 149 154
142 159 165
142 157 161
133 149 149
128 145 145
106 123 115
65 87 58
66 90 53
61 84 49
67 91 54
68 90 60
138 154 159
146 160 166
139 154 157
142 157 162
138 153 157
128 144 145
134 149 150
133 148 149
125 141 139
113 128 121
88 105 92
67 88 64
61 83 50
67 91 54
61 83 51
85 104 85
112 128 125
118 132 130
61 83 49
67 91 53
64 87 51
64 87 52
58 79 46
56 77 45
62 84 50
55 76 43
62 85 49
56 78 45
60 81 48
83 100 87
90 108 95
115 131 127
126 140 143
127 140 146
122 136 141
125 139 142
84 101 86
54 75 43
58 80 46
59 80 47
53 74 42
67 91 55
59 80 47
59 80 46
56 77 45
57 78 44
61 83 49
65 88 53
52 73 41
60 81 48
62 86 50
58 79 46
50 69 38
58 80 46
62 81 53
120 135 133
122 136 138
105 120 114
84 100 89
82 99 84
63 84 53
56 76 44
58 79 47
59 81 48
52 72 41
56 76 45
60 81 48
57 78 44
58 79 47
62 85 51
50 70 39
53 73 41
55 75 44
77 92 80
124 139 141
111 126 123
115 130 128
123 138 139
129 142 146
115 129 128
111 126 126
117 132 131
131 143 147
116 130 129
112 125 124
127 140 144
119 133 133
99 113 108
114 129 127
107 121 116
123 137 139
111 125 120
86 102 92
52 73 42
47 65 37
61 83 49
53 73 42
61 83 52
72 88 72
81 97 86
91 109 97
100 115 109
100 115 109
99 114 107
119 132 132
120 135 138
108 120 119
114 128 129
115 129 132
115 129 128
104 118 115
55 76 43
49 68 37
50 70 39
50 70 39
53 74 41
54 75 43
56 77 44
55 75 43
50 70 38
51 71 41
55 75 45
57 77 45
52 71 41
61 83 49
58 79 47
52 73 42
55 75 44
54 74 42
105 119 119
115 129 128
123 137 139
112 125 125
106 120 114
113 127 127
120 134 134
108 121 119
126 140 145
109 122 122
123 139 139
107 121 120
119 133 133
102 117 113
120 134 136
107 120 120
123 137 139
104 117 114
71 88 70
48 68 38
57 77 44
54 74 43
55 76 42
58 80 47
58 79 46
61 82 50
55 75 43
61 83 49
55 76 45
51 71 40
49 69 38
62 84 49
54 74 43
63 85 50
56 78 45
86 103 92
121 136 137
121 134 137
109 124 119
121 135 133
109 123 123
107 120 120
119 134 136
122 135 138
120 135 134
119 133 135
113 128 125
134 148 154
131 144 150
126 140 143
107 120 116
123 137 137
71 89 70
56 77 44
60 82 47
59 80 47
60 82 47
53 73 42
55 75 44
52 72 41
59 81 48
58 80 46
56 76 44
50 70 40
54 75 42
60 83 48
55 76 43
60 82 48
110 125 119
117 132 132
125 142 142
131 145 149
123 138 140
114 128 125
116 130 129
119 133 134
130 144 148
132 147 148
128 145 145
134 148 153
121 138 136
121 136 134
139 154 159
105 123 114
63 85 50
61 83 49
68 93 55
58 80 46
62 84 50
60 82 47
60 82 48
65 88 52
61 84 48
58 79 46
63 85 50
75 96 71
104 123 109
106 122 118
82 103 78
79 96 78
106 122 116
99 117 105
107 123 115
109 125 121
126 142 143
143 157 163
136 150 156
129 144 145
137 153 157
140 156 160
134 150 152
98 116 104
66 90 54
63 86 50
67 90 54
66 90 54
68 92 54
62 85 49
63 86 51
67 90 53
70 95 57
66 90 53
66 90 53
123 139 138
139 154 159
138 155 160
138 153 158
136 150 155
112 130 123
98 118 105
85 106 85
66 89 55
68 93 55
68 93 55
115 133 125
141 156 159
144 160 165
147 163 169
152 168 172
140 156 162
149 166 170
152 168 174
138 155 156
133 150 151
152 168 173
141 158 164
160 176 185
153 169 175
147 163 168
157 173 181
154 170 176
140 157 159
125 142 138
145 162 166
152 168 176
149 166 174
129 146 144
88 113 85
93 116 89
142 159 153
198 211 221
228 239 255
228 239 255
228 239 255
228 239 255
228 239 255
228 239 255
228 239 255
228 239 255
228 239 255
228 239 255
228 239 255
228 239 255
228 239 255
228 239 255
228 239 255
228 239 255
228 239 255
228 239 255
228 239 255
228 239 255
228 239 255
228 239 255
228 239 255
228 239 255
228 239 255
228 239 255
228 239 255
228 239 255
228 239 255
228 239 255
228 239 255
228 239 255
228 239 255
228 239 255
228 239 255
228 239 255
228 239 255
228 239 255
228 239 255
228 239 255
228 239 255
228 239 255
228 239 255
228 239 255
228 239 255
228 239 255
228 239 255
228 239 255
228 239 255
228 239 255
228 239 255
228 239 255
228 239 255
228 239 255
228 239 255
228 239 255
228 239 255
228 239 255
228 239 255
224 236 252
188 202 214
139 156 153
146 164 166
124 145 138
90 113 91
135 151 153
134 151 149
100 120 106
72 97 58
72 98 58
71 96 59
100 120 100
134 151 149
151 167 174
147 162 167
144 160 167
102 122 109
70 95 57
101 121 101
137 155 154
143 159 164
143 159 166
148 163 169
134 152 156
154 169 176
133 149 150
149 164 170
151 166 175
124 142 137
86 107 84
66 90 54
65 89 52
108 126 116
142 158 159
148 164 170
143 160 165
146 161 167
143 159 166
125 142 141
138 154 157
117 133 128
99 119 103
68 90 60
64 87 51
68 92 55
74 100 60
70 95 56
67 90 53
65 88 52
62 84 49
126 142 141
145 161 166
132 148 151
128 144 146
153 166 174
123 140 136
110 127 120
76 98 70
64 87 53
65 89 52
65 89 52
58 79 46
60 83 48
66 90 53
61 84 50
65 88 52
65 89 53
61 84 50
110 128 120
106 123 116
86 105 88
61 84 49
61 83 49
63 86 50
72 95 62
81 99 83
114 131 127
107 123 119
129 145 147
122 137 137
131 145 149
135 150 151
126 142 141
131 145 150
131 145 146
128 142 143
112 126 124
62 84 49
60 82 47
57 78 45
60 82 49
54 76 42
63 86 50
57 78 45
65 88 52
62 84 49
55 76 43
56 77 44
62 84 50
54 75 43
56 78 45
63 85 51
83 101 80
96 114 103
112 126 125
85 99 94
55 75 43
55 75 44
59 81 46
58 78 46
57 78 45
55 76 44
56 77 44
57 78 45
59 81 47
56 77 44
55 77 43
56 77 45
60 82 47
61 81 49
62 84 50
62 84 50
56 77 44
56 77 44
107 120 118
120 135 132
124 138 139
124 138 139
123 136 137
116 131 130
122 135 136
126 141 144
122 135 135
124 137 139
116 130 130
117 132 130
119 132 135
113 127 128
127 140 144
132 147 149
122 136 134
105 120 117
100 115 110
88 105 95
103 116 112
107 124 117
94 108 99
105 119 114
119 133 134
110 124 124
113 128 127
121 135 138
110 124 121
118 131 132
109 124 120
114 128 126
114 128 129
109 123 123
128 143 146
126 141 141
113 127 127
93 107 103
55 74 43
60 83 49
51 71 40
58 79 47
50 70 39
49 68 38
54 74 42
54 74 42
56 77 45
57 78 45
56 76 44
60 81 48
59 81 47
51 71 40
54 73 42
53 74 42
56 77 45
62 82 58
117 131 132
113 127 126
130 144 148
97 111 108
110 125 125
135 149 156
114 128 128
114 128 128
129 144 145
124 138 137
124 138 138
114 128 129
112 126 126
123 137 136
105 118 118
114 129 128
123 137 138
124 138 137
60 81 48
57 78 45
50 69 38
56 76 44
57 78 46
54 74 43
55 75 43
54 76 43
53 74 42
55 77 44
53 74 43
48 68 37
57 78 45
50 70 39
56 77 44
60 82 48
54 76 43
105 122 116
117 132 133
115 129 128
127 141 144
130 145 147
116 130 129
123 137 138
126 140 142
116 129 129
117 131 134
118 132 132
127 142 144
114 129 129
119 133 130
115 130 129
133 147 153
113 128 126
70 90 67
52 72 41
60 82 48
61 83 48
59 80 48
59 81 47
60 82 48
57 78 44
60 82 48
61 83 49
58 80 46
56 76 45
62 85 49
57 78 45
59 81 47
65 87 54
116 130 129
136 149 154
121 136 137
136 150 153
124 138 140
118 133 133
131 145 147
136 151 159
123 138 139
130 144 145
122 137 138
134 149 154
129 145 150
139 155 159
124 140 139
107 123 117
57 78 45
59 81 47
60 83 49
57 78 45
63 86 50
56 78 46
61 84 47
83 102 86
95 113 100
120 136 130
135 150 151
149 164 169
131 146 151
130 145 147
74 94 67
59 81 48
63 86 50
63 85 50
58 81 46
63 87 51
81 101 77
82 101 80
96 114 102
108 124 116
117 136 130
121 137 135
140 156 161
105 124 115
63 86 51
69 93 56
67 91 55
63 86 51
60 83 48
66 89 53
65 89 53
66 91 54
59 81 46
65 89 52
61 83 48
89 109 93
153 168 175
140 155 161
150 167 173
135 152 153
148 163 170
130 146 147
137 154 154
129 146 145
114 133 126
90 110 93
103 120 109
135 151 153
148 164 169
142 156 161
143 158 162
143 158 165
153 168 173
151 166 172
154 170 178
160 175 184
112 132 124
105 124 114
128 146 147
149 166 171
141 157 163
153 169 176
152 168 175
144 160 166
105 124 113
93 116 94
128 145 142
141 160 161
133 152 148
86 110 80
101 123 102
102 123 107
123 141 130
170 185 188
221 233 247
228 239 255
228 239 255
228 239 255
228 239 255
228 239 255
228 239 255
228 239 255
228 239 255
228 239 255
228 239 255
228 239 255
228 239 255
228 239 255
228 239 255
228 239 255
228 239 255
228 239 255
228 239 255
228 239 255
228 239 255
228 239 255
228 239 255
228 239 255
228 239 255
228 239 255
228 239 255
228 239 255
228 239 255
228 239 255
228 239 255
228 239 255
228 239 255
228 239 255
228 239 255
228 239 255
228 239 255
228 239 255
228 239 255
228 239 255
228 239 255
228 239 255
228 239 255
228 239 255
228 239 255
228 239 255
228 239 255
228 239 255
228 239 255
228 239 255
228 239 255
228 239 255
228 239 255
228 239 255
228 239 255
214 226 241
169 185 189
104 125 112
103 124 109
117 137 126
75 101 62
85 109 80
104 126 106
77 102 70
71 97 58
69 94 56
91 113 88
127 145 139
157 173 179
145 161 166
136 153 158
147 163 169
148 164 170
144 161 165
131 147 145
141 158 161
146 162 168
141 158 163
155 171 178
145 160 167
158 173 179
149 166 172
146 162 167
101 120 104
84 106 79
67 92 55
72 97 58
66 90 53
66 90 52
61 84 50
88 109 88
129 144 144
141 156 161
136 153 152
140 155 157
102 121 110
95 114 101
66 88 55
64 87 52
65 88 52
66 89 53
66 89 52
56 78 44
67 91 53
63 87 51
66 90 54
64 88 53
65 88 52
117 134 132
128 143 145
111 127 124
92 111 90
75 97 69
60 83 48
63 85 49
64 87 52
62 86 49
60 83 48
65 89 53
66 89 53
67 91 55
60 81 48
62 85 48
62 85 49
60 82 47
57 78 45
117 133 133
121 136 133
129 146 146
122 137 134
90 108 96
83 102 82
105 120 113
115 130 128
142 155 161
135 150 153
137 153 155
135 150 156
127 141 142
120 135 135
118 134 131
101 115 110
131 147 150
131 145 148
130 146 147
59 81 47
58 79 46
64 87 51
62 84 49
62 84 49
53 74 41
61 84 49
61 83 49
60 83 49
61 83 48
72 91 70
101 116 109
114 129 125
117 134 132
128 142 147
117 131 132
123 137 139
108 124 117
101 117 108
63 86 50
57 78 45
54 75 42
58 80 47
55 75 43
59 81 47
60 82 49
59 80 47
55 76 44
62 84 49
58 79 45
52 72 41
57 79 46
57 78 45
60 82 48
56 78 44
55 75 43
62 85 50
84 102 82
123 138 139
122 136 137
121 135 137
122 136 136
125 140 142
119 132 137
118 132 130
118 133 129
123 137 137
113 128 124
102 118 113
105 122 115
88 104 92
72 92 67
58 78 45
60 82 48
55 75 42
56 77 44
104 120 115
121 135 138
107 122 119
134 148 155
104 119 117
124 137 141
128 143 145
121 136 136
107 121 117
118 131 132
124 139 141
117 130 131
131 145 150
113 128 128
117 132 130
132 146 151
122 135 137
122 136 137
123 137 140
71 89 73
54 74 43
58 79 47
53 74 42
54 74 42
55 76 44
57 78 45
55 76 44
54 75 43
54 75 43
61 82 48
61 83 48
60 81 47
53 73 42
60 82 48
52 72 41
56 77 44
52 73 42
101 116 108
115 130 129
120 134 137
119 134 136
131 145 148
125 138 141
113 127 125
123 137 139
118 132 131
125 139 140
116 129 130
124 137 138
113 127 126
124 139 139
121 136 137
124 138 140
119 134 133
115 129 130
106 121 115
57 78 45
52 71 41
60 82 49
61 82 49
53 73 42
50 70 39
53 73 41
60 82 48
56 77 46
51 70 39
57 78 46
56 76 45
59 80 46
53 73 41
59 81 47
58 80 46
61 80 55
123 137 140
122 137 138
132 147 150
118 134 130
133 147 150
120 135 135
117 132 132
116 131 132
124 138 142
126 141 143
114 128 127
128 142 145
130 145 145
130 144 148
125 140 141
122 137 138
113 129 125
59 80 51
59 81 47
54 75 43
50 71 39
58 79 45
62 83 49
59 81 46
57 79 45
63 86 51
59 80 47
56 77 44
59 81 46
52 72 39
55 77 44
61 83 50
75 94 72
116 132 129
136 151 152
116 129 128
131 146 149
134 149 155
112 127 123
133 146 150
123 138 137
126 143 143
129 144 146
115 131 128
132 147 151
134 150 155
121 135 138
129 145 146
94 111 97
63 86 51
69 90 62
90 111 91
100 117 107
117 133 130
130 146 147
129 144 146
128 142 145
127 142 144
131 147 149
135 152 155
128 143 145
125 140 140
122 137 137
67 87 61
66 90 54
65 88 52
64 88 52
64 87 51
62 85 49
66 90 53
68 92 55
64 87 51
63 86 51
60 82 48
67 89 57
81 102 81
86 104 85
98 115 104
86 106 84
83 102 82
68 90 60
65 89 53
66 90 54
69 94 56
68 92 56
64 89 52
65 89 52
65 89 51
94 115 95
124 139 138
138 154 156
150 165 171
149 164 169
146 163 170
148 165 172
145 160 168
143 158 164
134 152 156
157 172 178
143 158 162
120 137 133
121 138 134
151 168 174
152 167 174
152 168 175
156 172 181
154 169 179
149 165 174
153 170 174
121 138 137
74 98 65
66 91 54
87 107 85
113 131 122
151 167 176
151 169 174
154 169 175
139 156 159
90 112 90
75 102 62
102 123 106
115 135 125
77 103 66
104 126 110
139 156 157
131 150 147
99 122 100
154 170 167
210 222 234
228 239 255
228 239 255
228 239 255
228 239 255
228 239 255
228 239 255
228 239 255
228 239 255
228 239 255
228 239 255
228 239 255
228 239 255
228 239 255
228 239 255
228 239 255
228 239 255
228 239 255
228 239 255
228 239 255
228 239 255
228 239 255
228 239 255
228 239 255
228 239 255
228 239 255
228 239 255
228 239 255
228 239 255
228 239 255
228 239 255
228 239 255
228 239 255
228 239 255
228 239 255
228 239 255
228 239 255
228 239 255
228 239 255
228 239 255
228 239 255
228 239 255
228 239 255
228 239 255
228 239 255
228 239 255
228 239 255
228 239 255
228 239 255
228 239 255
227 238 254
199 212 224
146 162 161
99 122 98
130 148 143
153 171 177
152 170 177
109 129 116
142 161 165
91 113 90
81 108 66
81 106 75
107 125 116
130 148 148
152 168 176
147 162 168
156 173 182
147 163 167
150 167 173
129 148 146
92 114 96
70 94 55
126 143 141
158 174 185
152 169 176
144 160 164
152 167 174
152 167 173
139 156 158
110 128 119
78 102 67
67 90 54
66 90 52
68 92 55
74 101 61
67 92 54
66 89 53
72 97 58
88 109 84
137 153 157
110 130 120
79 98 76
69 94 56
69 94 56
67 91 54
70 96 57
67 91 54
63 86 50
64 88 52
61 83 49
65 88 52
61 84 49
71 96 57
64 87 50
77 98 73
104 122 108
94 113 100
67 90 53
66 89 53
64 88 52
69 93 55
66 89 53
64 87 51
54 76 43
67 91 54
64 86 51
63 86 50
67 90 54
67 92 54
66 90 53
61 84 48
65 88 52
64 88 52
69 90 62
104 122 115
99 117 103
65 86 57
61 84 48
64 87 52
59 82 46
64 87 51
58 78 45
78 99 76
107 124 117
124 140 140
118 134 132
136 151 158
138 152 157
139 154 158
122 138 138
114 130 126
137 152 159
135 149 153
76 95 74
57 79 45
62 84 50
54 76 42
59 80 47
65 87 59
89 106 94
88 105 90
112 127 124
122 136 137
129 143 145
131 145 145
127 143 144
132 147 148
132 146 150
131 146 147
125 140 142
129 143 145
124 140 141
58 78 47
51 71 39
63 86 50
62 85 50
63 86 50
53 74 42
63 86 50
63 85 50
56 77 45
57 78 45
56 77 44
67 89 52
56 76 44
54 74 42
56 77 44
54 75 42
57 79 46
54 75 41
57 78 45
107 121 120
116 130 129
119 133 132
104 120 113
101 117 113
81 97 84
82 100 86
72 92 68
55 74 47
59 81 47
59 80 47
55 77 44
65 87 51
56 77 44
57 78 46
57 79 46
58 78 46
54 75 43
63 82 55
125 139 141
124 139 143
125 139 142
126 141 142
125 140 142
128 142 144
130 144 150
119 134 134
124 137 140
132 147 150
115 129 131
115 130 128
119 133 133
130 144 149
107 120 119
111 126 122
118 134 133
117 131 130
94 109 102
57 78 44
56 76 44
60 82 48
64 86 51
55 76 43
64 87 51
57 77 45
51 70 40
57 77 45
56 76 45
60 82 48
58 81 47
67 90 54
56 78 44
57 78 44
57 78 45
59 80 47
63 84 56
108 124 116
129 143 145
135 149 153
131 145 151
126 140 143
128 143 146
125 140 139
134 148 155
120 134 135
120 135 133
129 144 149
126 139 142
120 134 133
114 129 126
124 138 139
134 148 154
119 132 135
102 117 110
79 98 76
90 108 95
87 104 91
86 103 89
99 115 109
85 99 89
90 106 99
100 115 108
84 101 89
93 109 97
91 108 93
98 113 106
102 115 112
112 128 126
97 114 105
112 128 123
113 128 126
111 125 124
77 94 79
66 86 60
69 87 65
81 98 83
72 93 68
91 108 92
78 96 79
78 98 75
89 107 92
79 96 79
67 87 63
87 103 94
78 97 78
77 96 74
85 103 88
81 99 83
71 90 65
109 125 120
109 125 117
106 122 117
101 116 111
90 106 95
104 120 111
92 109 93
112 130 124
96 113 103
81 97 85
85 102 86
88 105 90
89 107 95
79 97 77
68 89 59
87 105 90
136 151 154
145 159 164
136 151 155
121 136 136
112 127 123
132 148 150
126 141 143
130 144 150
135 150 154
132 145 148
120 135 135
119 134 133
128 143 145
109 125 121
100 115 108
96 112 105
128 144 147
127 144 145
141 156 164
129 145 149
133 148 149
131 146 149
129 146 147
128 142 143
137 150 154
142 157 164
142 157 165
104 119 113
140 154 159
138 153 157
67 88 60
64 87 51
61 84 49
65 89 53
61 84 48
56 78 45
64 87 51
63 87 50
65 88 52
62 85 49
66 89 52
65 89 53
64 89 52
113 131 127
134 150 151
139 154 155
132 147 146
134 150 151
119 135 132
95 112 98
106 122 117
82 105 75
63 87 51
66 91 53
60 83 48
84 106 82
136 151 153
145 161 168
154 169 177
142 160 164
141 156 160
143 158 161
138 154 157
143 158 163
147 162 168
146 161 168
150 165 169
99 118 104
76 103 63
87 108 86
115 134 124
140 156 159
142 158 160
151 167 170
151 166 169
145 161 166
130 148 146
90 112 93
74 100 60
75 101 61
70 95 56
81 104 73
111 130 119
129 148 146
151 169 175
113 133 121
70 96 59
71 96 58
98 119 99
138 157 159
109 131 118
115 134 125
148 166 172
144 163 164
133 151 149
140 158 151
199 212 223
225 237 252
228 239 255
228 239 255
228 239 255
228 239 255
228 239 255
228 239 255
228 239 255
228 239 255
228 239 255
228 239 255
228 239 255
228 239 255
228 239 255
228 239 255
228 239 255
228 239 255
228 239 255
228 239 255
228 239 255
228 239 255
228 239 255
228 239 255
228 239 255
228 239 255
228 239 255
228 239 255
228 239 255
228 239 255
228 239 255
228 239 255
228 239 255
228 239 255
228 239 255
228 239 255
228 239 255
228 239 255
228 239 255
228 239 255
228 239 255
228 239 255
228 239 255
228 239 255
228 239 255
228 239 255
224 236 253
190 204 213
124 142 130
109 129 114
126 146 143
167 183 193
147 164 168
113 133 123
94 118 95
162 179 189
109 129 115
83 104 81
118 135 125
153 169 175
158 174 182
150 166 173
146 162 167
154 170 178
128 146 144
110 128 118
86 108 81
74 99 59
73 99 59
68 94 56
137 154 155
143 158 163
146 164 168
128 145 143
107 127 114
71 96 57
67 91 54
74 100 60
70 95 56
67 91 53
63 86 49
68 92 55
67 92 55
66 90 53
71 94 63
115 133 126
127 144 144
70 93 58
66 90 53
64 87 51
65 89 51
72 97 58
67 90 54
69 92 56
68 93 55
67 92 55
62 84 49
65 88 52
64 88 52
82 104 81
117 134 129
133 149 150
141 156 160
146 162 170
108 124 115
68 91 55
68 92 55
67 91 54
62 85 49
65 88 51
67 91 55
64 87 51
63 86 51
62 86 50
64 87 52
70 94 56
61 83 49
66 89 57
80 100 79
114 130 121
120 135 133
124 141 139
143 158 165
61 84 49
63 86 51
60 82 48
60 81 47
70 94 58
59 82 48
59 81 46
59 82 47
63 86 51
61 85 49
61 83 49
67 89 57
83 103 83
96 112 100
102 118 112
123 138 138
119 133 132
138 153 159
97 114 106
79 97 77
82 100 84
113 129 125
125 141 138
127 142 143
128 143 144
136 152 154
135 150 152
130 145 144
121 137 134
127 142 145
135 149 154
135 151 154
132 147 150
122 137 137
136 152 155
125 140 138
141 155 161
104 122 113
59 82 47
60 83 49
60 82 48
58 80 46
54 76 42
60 81 48
57 78 47
57 78 45
57 79 45
53 72 42
67 91 54
54 76 42
54 74 43
54 74 43
58 79 49
64 83 58
96 113 100
92 108 96
100 116 106
77 96 75
53 73 42
60 82 49
55 77 42
64 87 51
50 70 38
57 78 45
60 82 47
59 81 47
56 77 43
56 77 43
59 80 46
60 82 48
58 80 47
54 75 43
60 81 47
54 74 41
57 79 46
100 116 110
122 137 138
117 130 132
123 138 141
130 144 147
133 148 151
111 127 125
127 140 147
126 140 141
119 134 134
123 137 141
113 128 126
132 146 150
121 136 135
118 133 132
120 136 137
122 137 141
138 152 156
127 143 141
74 92 70
57 79 45
58 80 46
63 85 50
60 82 48
56 77 45
56 77 44
53 73 43
59 80 46
56 78 44
56 76 44
57 78 46
61 83 49
60 81 48
55 76 43
59 80 48
62 83 49
56 76 45
82 99 82
111 127 123
98 113 107
102 117 110
99 114 107
105 121 116
84 101 89
65 83 61
86 102 90
64 83 62
76 94 75
67 86 64
66 87 58
61 83 49
62 84 50
57 78 45
58 79 46
65 88 52
78 96 75
115 129 125
127 142 146
134 147 154
108 124 119
113 128 128
118 131 130
132 147 153
126 139 143
119 134 136
125 140 143
119 134 134
130 144 147
125 141 144
125 139 140
119 133 131
130 145 146
133 149 150
84 101 86
63 84 50
59 81 46
55 76 42
59 80 47
58 80 45
51 70 39
67 91 54
54 75 43
60 82 48
62 84 49
65 88 52
61 83 49
56 77 44
55 77 44
62 84 50
62 85 50
117 131 128
120 135 131
126 140 144
133 147 151
132 147 147
113 128 124
129 144 146
127 143 143
119 134 132
129 145 147
123 139 140
130 144 148
124 139 139
117 132 133
125 139 139
132 146 150
105 121 116
63 84 56
72 94 64
81 103 75
86 107 85
80 100 80
74 93 70
106 121 119
113 129 129
123 138 133
112 128 125
95 114 100
68 88 62
71 93 64
60 83 47
70 92 58
128 144 143
134 149 152
126 141 142
138 154 159
124 139 142
132 149 147
133 150 154
133 150 154
136 151 154
145 160 168
129 144 148
135 150 155
131 146 149
143 159 162
126 142 145
67 89 60
66 89 53
62 86 51
62 86 50
62 86 51
61 84 49
63 86 50
61 83 49
59 82 48
67 91 54
65 89 52
65 89 53
58 80 46
116 134 128
141 156 160
142 157 164
143 159 162
124 138 138
131 146 148
147 162 165
142 157 162
133 149 152
120 136 132
111 128 121
102 121 108
103 120 112
136 152 155
140 156 159
142 159 163
144 159 167
136 151 152
140 157 159
144 161 165
133 149 153
150 165 171
136 152 153
146 164 173
104 123 112
65 89 52
71 96 58
69 94 56
67 92 54
87 108 88
113 133 125
127 145 141
148 165 171
152 168 174
99 120 100
65 90 52
70 96 58
69 94 56
70 96 57
72 98 59
80 106 68
103 123 106
106 126 111
80 105 72
72 98 60
95 116 94
165 182 192
159 175 185
133 152 150
147 165 168
161 178 189
159 175 184
130 149 145
145 160 161
195 209 221
222 234 249
228 239 255
228 239 255
228 239 255
228 239 255
228 239 255
228 239 255
228 239 255
228 239 255
228 239 255
228 239 255
228 239 255
228 239 255
228 239 255
228 239 255
228 239 255
228 239 255
228 239 255
228 239 255
228 239 255
228 239 255
228 239 255
228 239 255
228 239 255
228 239 255
228 239 255
228 239 255
228 239 255
228 239 255
228 239 255
228 239 255
228 239 255
228 239 255
228 239 255
228 239 255
228 239 255
228 240 255
228 240 255
228 240 255
228 240 255
228 240 255
217 229 244
176 190 196
103 125 106
117 137 126
146 164 169
155 172 179
142 160 162
109 132 117
73 100 60
77 104 63
110 130 116
142 158 161
135 152 151
149 166 171
144 160 164
153 169 179
142 159 162
149 166 170
123 139 136
89 113 85
74 100 61
69 94 55
67 91 54
72 97 58
68 92 55
69 94 55
134 150 151
117 135 127
85 106 84
71 96 57
75 102 61
71 97 58
74 100 62
71 96 57
68 92 54
75 101 61
62 86 50
75 98 65
114 132 123
120 136 134
138 154 159
147 162 168
146 162 168
63 85 49
68 92 54
73 99 60
68 92 55
68 93 55
69 95 57
62 85 49
68 91 54
68 90 56
79 101 75
113 131 123
138 154 156
141 156 161
141 157 160
139 155 160
143 159 166
139 155 158
120 137 134
63 86 51
64 88 51
67 91 54
70 94 56
67 92 54
62 85 49
69 93 55
67 91 54
62 85 49
89 109 92
95 114 97
128 143 143
140 154 156
132 146 149
138 154 157
130 145 147
134 150 153
136 151 154
72 94 62
66 89 53
72 98 58
63 87 51
62 85 48
60 81 46
64 88 52
67 91 54
57 79 45
60 83 48
61 83 47
61 84 49
60 82 47
56 78 44
64 87 51
74 94 68
95 113 99
124 138 137
120 136 135
94 112 101
111 125 123
134 149 151
140 154 158
120 135 132
132 147 149
127 140 145
127 143 145
136 152 155
130 145 144
134 149 153
132 147 151
135 151 156
132 148 151
124 138 136
123 139 139
134 148 152
138 152 158
118 134 132
53 73 42
62 84 49
60 82 48
64 87 52
66 89 53
55 77 44
59 81 47
57 79 45
56 77 44
59 79 49
84 102 87
96 113 101
90 106 94
107 123 119
128 142 144
118 133 132
129 145 147
126 140 143
129 144 145
56 77 45
59 80 47
56 77 43
61 84 48
65 88 53
56 78 44
58 79 46
54 74 42
65 88 52
60 82 47
50 71 40
63 85 50
54 75 43
57 78 45
50 71 38
62 84 49
59 81 48
56 78 45
70 87 67
114 130 129
124 139 141
134 148 154
115 129 129
132 147 149
123 138 140
123 136 140
107 122 116
126 140 140
126 140 141
120 135 134
115 130 130
114 128 127
126 140 143
125 139 141
129 143 143
134 149 155
123 140 138
90 105 93
57 79 45
60 82 48
60 82 47
51 71 40
60 82 49
59 79 50
68 86 62
84 102 85
87 102 93
89 106 92
101 118 108
102 117 112
106 121 117
113 129 127
109 125 121
119 133 136
134 149 153
133 148 151
70 89 66
55 76 43
58 79 46
60 82 48
55 76 43
64 86 51
60 81 48
57 78 45
54 75 42
60 82 48
61 83 49
55 76 44
58 79 46
58 79 46
56 77 44
55 76 44
60 81 48
53 74 42
106 123 115
125 140 141
138 152 156
138 152 158
133 148 152
132 146 149
132 147 150
119 134 134
124 139 138
117 131 132
127 142 143
128 144 147
127 142 144
118 131 132
132 147 151
126 141 143
121 135 136
120 135 133
79 98 78
62 85 48
59 81 47
60 82 48
60 81 47
63 85 51
63 86 51
65 88 52
55 77 43
59 81 47
62 84 49
61 83 48
58 80 46
58 80 46
59 82 48
64 87 52
65 86 57
135 149 152
123 139 139
126 142 143
132 146 150
98 114 108
133 148 150
117 132 130
136 149 153
126 141 142
122 137 136
124 138 139
144 158 166
121 135 133
127 141 145
129 145 148
125 141 142
100 116 106
91 109 93
97 113 106
122 139 136
118 134 130
124 140 140
127 141 144
131 146 147
130 146 147
130 146 150
126 142 141
135 150 153
141 156 161
137 152 159
129 144 144
131 148 150
102 121 105
97 116 105
111 127 120
108 124 117
106 125 115
124 140 141
126 142 139
141 155 161
147 161 170
140 155 156
130 146 147
132 147 149
123 138 138
144 159 164
119 135 129
65 87 53
60 83 48
62 86 50
66 90 53
65 88 51
69 93 56
64 87 51
67 90 54
70 95 57
70 95 56
67 92 55
64 87 50
64 88 52
114 130 128
136 152 157
152 166 174
138 153 159
139 155 159
136 152 154
135 151 156
134 150 152
142 158 162
141 157 161
143 158 162
145 160 165
146 161 167
105 121 113
120 138 132
116 134 133
133 149 150
138 153 158
133 149 151
137 152 157
143 159 163
144 161 164
144 161 166
144 160 167
123 143 137
74 100 60
71 96 58
74 100 60
72 97 58
73 99 59
69 93 56
71 97 58
109 127 121
132 150 149
118 139 128
76 100 66
74 100 61
68 92 55
73 99 60
72 98 60
73 98 58
72 97 58
81 105 77
116 135 126
115 134 128
133 152 149
153 171 180
159 178 187
153 170 178
152 168 175
128 146 141
147 165 169
152 170 177
158 175 180
165 182 191
188 201 210
216 228 242
228 240 255
228 240 255
228 240 255
228 240 255
228 240 255
228 239 255
228 239 255
228 239 255
228 239 255
228 239 255
228 239 255
228 239 255
228 239 255
228 239 255
228 239 255
228 239 255
228 239 255
228 239 255
228 239 255
228 240 255
228 240 255
228 240 255
228 240 255
228 240 255
228 240 255
228 240 255
228 240 255
228 240 255
228 240 255
228 240 255
228 240 255
228 240 255
228 240 255
228 240 255
228 240 255
226 238 253
207 219 232
163 179 181
100 124 106
130 148 146
145 162 167
154 171 180
139 155 151
85 109 82
71 97 59
76 103 63
89 111 89
126 142 142
126 146 140
150 167 174
154 170 179
154 171 180
159 176 185
154 170 177
110 129 120
76 100 66
71 96 58
69 94 56
75 101 61
78 104 64
68 93 55
69 94 59
101 121 107
136 153 155
80 102 75
70 95 57
72 97 58
72 97 58
67 91 55
70 95 57
66 91 53
66 90 53
74 98 64
99 117 100
116 133 129
150 167 176
152 168 178
141 157 161
149 166 173
150 166 176
147 164 168
80 103 74
65 89 53
69 93 55
70 95 57
73 98 59
72 96 65
87 106 88
112 130 120
144 161 166
146 162 167
148 164 170
135 152 155
127 143 143
145 160 167
136 152 156
139 154 156
152 167 175
138 154 158
67 90 54
65 89 52
65 89 52
68 92 55
67 92 54
63 85 50
95 112 101
105 121 115
132 147 152
142 157 164
136 150 156
138 153 158
140 156 161
135 150 154
131 147 149
132 147 148
142 156 161
137 153 158
91 111 92
64 88 51
63 87 51
62 85 50
65 88 52
64 88 51
67 91 53
58 79 45
65 88 52
62 84 49
58 80 45
76 94 76
93 111 97
110 126 121
135 149 150
136 153 153
138 154 157
127 143 145
135 151 156
75 96 69
59 82 47
58 80 47
56 78 45
66 89 56
91 110 96
106 122 113
95 112 103
106 120 115
120 136 135
130 146 148
138 153 157
136 150 155
133 147 149
132 148 150
124 140 141
133 147 151
122 136 138
137 152 156
70 92 61
56 78 45
63 86 50
60 82 48
66 87 57
87 105 89
101 118 106
107 122 118
133 148 152
138 152 159
136 149 152
120 135 137
122 136 135
118 132 134
134 149 152
130 145 147
124 138 138
126 141 145
130 144 147
83 101 84
61 84 49
56 77 44
63 86 50
64 87 52
57 78 45
60 82 48
57 79 46
65 88 52
54 75 43
58 79 47
61 83 48
58 80 46
58 79 46
58 80 46
58 80 46
61 83 49
64 87 51
58 80 46
122 138 138
127 142 144
126 139 143
115 129 131
118 133 128
128 142 145
126 140 143
125 140 141
130 144 145
139 153 156
123 136 137
127 143 143
112 127 124
129 142 146
128 142 146
126 140 143
131 145 147
103 118 111
101 118 111
89 106 90
100 117 109
115 129 128
109 124 123
120 136 136
121 135 138
119 134 134
125 140 140
122 137 136
118 132 133
107 122 118
108 122 117
129 143 144
120 135 134
129 144 146
124 138 139
117 131 129
128 142 144
119 134 130
59 80 47
61 83 48
56 77 44
61 84 50
58 80 46
61 84 49
53 73 42
61 83 48
66 89 53
63 85 50
59 80 46
62 85 50
58 79 46
57 78 45
62 85 50
59 80 47
61 83 49
57 77 48
109 124 116
122 137 137
128 144 148
126 142 145
128 142 144
129 143 144
115 129 128
129 143 145
117 132 130
121 136 137
118 132 131
121 136 137
127 142 144
134 149 154
123 138 139
141 155 160
130 144 145
108 124 119
64 86 51
65 88 52
58 80 46
60 81 49
59 82 47
57 79 45
53 73 41
60 82 48
61 82 48
60 83 49
57 79 46
63 86 50
60 83 48
60 82 47
60 82 48
62 84 49
72 91 72
125 139 140
118 133 134
119 134 133
130 145 148
132 147 151
118 133 133
125 140 140
128 143 146
110 126 122
119 133 133
97 115 102
94 112 101
91 108 93
84 102 83
61 84 49
60 83 48
110 127 124
131 146 146
139 155 158
130 145 151
128 143 145
139 154 158
133 150 150
142 157 164
142 157 162
131 145 151
133 148 149
133 147 149
123 139 138
126 141 142
134 150 153
112 127 124
77 100 69
64 88 52
58 80 47
62 86 49
59 81 47
68 92 55
61 83 48
76 98 68
78 99 76
83 102 82
79 98 77
106 123 115
121 137 133
132 149 151
110 126 121
68 91 58
61 84 49
66 90 54
65 89 53
69 94 57
66 90 53
62 85 50
64 86 50
67 91 55
66 90 54
67 92 54
65 89 52
69 93 56
103 121 113
141 156 163
141 157 161
142 157 161
147 162 167
138 152 157
134 149 149
147 163 168
143 159 166
136 152 153
149 164 171
154 169 176
144 159 165
87 108 86
66 90 54
66 91 54
74 96 65
101 120 105
126 144 141
144 160 163
141 158 161
142 159 163
137 153 158
151 168 174
122 141 139
61 85 48
74 100 60
75 100 61
72 97 58
72 98 59
70 94 56
76 102 62
70 95 57
68 92 55
87 109 84
114 135 125
107 128 115
76 100 69
77 104 64
73 98 59
74 100 60
75 101 61
78 104 66
108 129 117
145 162 167
107 127 113
135 153 153
157 175 182
156 173 182
161 178 186
128 146 139
99 121 100
128 147 144
154 171 178
159 176 184
144 162 167
168 184 192
211 223 237
227 238 254
228 240 255
228 240 255
228 240 255
228 240 255
228 240 255
228 240 255
228 240 255
228 240 255
228 240 255
228 240 255
228 240 255
228 240 255
228 240 255
228 240 255
228 240 255
228 240 255
228 240 255
228 240 255
228 240 255
228 240 255
228 240 255
228 240 255
228 240 255
228 240 255
228 240 255
228 240 255
228 240 255
228 240 255
228 240 255
228 240 255
226 237 253
197 210 219
125 144 132
119 140 131
146 164 167
171 188 202
151 170 175
128 149 143
71 97 57
72 99 60
79 104 66
96 120 97
141 159 158
152 168 177
151 167 173
156 173 181
168 183 193
150 166 173
126 145 140
100 122 100
72 98 58
75 100 61
73 99 60
71 96 58
65 90 53
78 104 67
103 123 110
134 152 152
141 158 162
155 173 180
163 178 188
73 96 63
73 99 60
75 101 62
66 89 54
72 97 59
71 97 59
96 116 99
127 143 139
153 170 178
148 164 171
149 165 171
146 162 167
151 166 174
150 166 172
152 168 175
143 158 161
140 155 156
86 108 85
68 92 55
77 100 67
100 118 104
122 139 135
130 144 147
134 150 151
132 149 153
140 157 162
130 145 146
149 165 169
149 165 172
141 157 160
138 154 158
135 150 153
146 161 169
138 153 158
138 153 155
68 90 56
60 83 47
77 99 71
113 129 122
125 140 140
133 148 150
134 150 152
149 165 172
146 161 167
148 164 172
139 154 158
139 155 158
128 144 148
133 149 151
136 152 156
138 153 154
142 158 163
147 162 166
93 110 96
67 90 54
62 85 49
63 87 51
66 90 53
62 85 50
65 89 53
85 104 86
97 113 105
116 133 128
133 149 152
146 161 167
142 156 162
142 155 161
134 149 153
129 143 146
128 143 144
137 153 156
129 145 146
92 111 93
59 81 47
62 84 49
62 86 50
60 82 47
62 85 50
59 81 47
66 90 53
63 86 51
59 81 46
59 80 50
63 82 57
82 102 78
88 107 89
99 117 106
107 125 115
129 145 145
119 133 131
125 140 139
98 114 102
94 110 100
119 134 134
115 131 126
124 139 141
123 137 138
128 144 145
124 138 142
123 138 139
134 150 153
128 142 145
149 163 170
126 140 144
139 154 158
122 137 138
136 151 154
126 141 144
131 146 149
131 146 147
114 130 126
63 86 50
61 84 49
64 87 52
58 80 46
58 80 47
60 83 48
54 76 42
61 83 48
56 77 43
58 80 46
59 80 46
63 85 50
62 84 49
61 84 48
54 74 42
59 81 47
59 80 48
61 84 49
80 98 80
129 144 146
129 145 147
126 141 140
118 134 131
121 136 136
131 146 149
117 134 129
118 133 131
106 123 116
111 125 123
104 120 114
94 110 98
84 99 87
67 87 59
55 76 43
63 86 50
60 82 47
65 89 53
80 97 83
136 150 154
133 149 152
126 141 141
125 140 142
122 138 139
139 153 160
114 130 129
124 138 141
130 144 146
118 132 130
136 150 155
127 141 144
128 141 145
126 140 144
120 135 134
133 149 156
130 145 147
125 140 140
78 95 79
60 82 47
57 78 45
59 82 47
58 80 47
61 82 48
61 84 49
65 89 52
62 84 50
55 76 44
55 77 44
59 80 46
57 79 45
66 89 53
60 81 48
57 78 45
57 79 45
59 81 48
80 99 79
128 140 145
131 145 147
125 141 142
140 155 160
122 136 137
130 145 149
125 139 142
134 149 152
126 141 141
141 155 158
120 135 135
116 130 129
116 130 129
136 149 150
119 134 132
124 139 139
135 148 154
82 101 82
54 76 43
62 84 49
57 79 45
63 86 50
63 86 50
60 82 48
65 88 52
60 82 47
65 89 53
64 87 52
64 88 52
62 85 50
67 92 54
62 84 50
64 88 51
72 93 65
95 113 101
106 122 116
111 127 124
115 132 129
97 115 103
86 103 91
69 92 58
63 84 54
58 81 47
61 84 49
64 86 52
67 90 55
61 83 48
63 87 51
62 84 49
58 80 47
67 90 57
129 144 147
126 142 142
135 150 153
132 148 150
129 144 148
129 144 147
136 152 155
141 156 162
132 148 150
127 144 141
136 152 154
143 158 161
142 156 162
116 132 131
130 146 146
116 132 129
68 90 59
60 83 46
67 91 54
61 84 50
61 85 49
63 86 51
63 86 50
68 92 55
64 88 51
68 92 55
62 84 49
62 84 49
64 87 51
65 89 52
108 125 115
131 147 150
124 141 136
117 133 127
92 110 96
107 126 116
88 107 91
78 99 73
69 94 55
67 91 54
62 86 50
73 98 59
68 92 54
64 88 51
115 133 125
148 163 173
142 158 162
142 158 161
135 152 154
144 159 166
157 171 179
135 152 153
153 169 178
138 154 156
141 157 159
154 171 181
136 153 153
87 109 87
73 98 59
68 92 54
70 95 57
68 93 55
69 93 56
74 99 62
81 103 78
97 117 100
135 153 155
145 161 165
134 150 150
82 104 78
65 90 53
71 97 57
68 92 56
72 99 59
74 100 61
69 94 56
70 95 56
76 102 62
73 97 64
143 159 164
150 166 174
143 161 164
121 139 129
89 112 86
72 98 60
75 101 60
71 96 58
98 120 101
110 130 115
69 93 55
74 100 63
94 114 95
137 156 155
153 170 177
150 168 175
110 131 119
79 105 69
110 131 120
140 158 156
156 172 177
141 159 161
151 168 169
214 227 241
227 238 254
228 240 255
228 240 255
228 240 255
228 240 255
228 240 255
228 240 255
228 240 255
228 240 255
228 240 255
228 240 255
228 240 255
228 240 255
228 240 255
228 240 255
228 240 255
228 240 255
228 240 255
228 240 255
228 240 255
228 240 255
228 240 255
228 240 255
228 240 255
228 240 255
228 240 255
228 240 255
219 230 244
172 187 190
161 179 186
144 163 166
146 164 168
168 185 196
140 157 160
103 126 105
73 99 59
74 101 61
89 112 87
123 141 134
147 164 169
147 163 168
162 177 183
166 182 192
158 174 182
138 155 154
97 118 101
74 99 62
66 91 54
73 100 60
73 99 59
68 92 55
73 99 59
86 107 86
121 139 135
153 168 174
159 174 183
155 172 181
151 167 175
150 166 174
146 160 165
80 103 73
68 92 54
72 97 59
91 111 97
117 136 128
150 166 173
145 161 165
149 165 171
153 169 175
152 167 173
148 164 170
144 160 168
153 169 177
151 166 172
141 157 160
135 153 155
137 154 157
121 139 133
126 143 140
135 151 153
157 172 181
147 163 169
146 162 168
138 154 158
153 169 176
148 164 170
147 163 169
141 157 159
146 161 167
143 160 163
145 162 166
143 159 163
151 165 172
126 142 140
142 158 161
107 126 115
126 142 143
138 154 159
142 157 162
136 151 155
140 155 161
133 149 152
141 157 161
127 142 143
138 152 157
137 154 155
139 154 157
140 156 156
134 148 150
140 156 161
138 154 158
146 162 167
136 152 156
112 128 125
65 88 52
64 87 52
76 98 71
88 105 91
107 125 111
129 145 146
140 155 160
131 146 146
135 151 154
121 137 140
130 145 146
129 143 147
138 153 157
133 148 151
129 144 146
142 158 164
138 154 158
127 142 144
107 126 114
65 89 53
68 93 56
63 87 51
63 86 51
60 83 48
61 84 49
61 83 48
60 82 48
68 92 54
63 86 52
60 83 48
58 79 45
65 89 53
73 93 71
106 123 118
112 127 127
117 132 128
137 151 156
127 142 145
72 92 69
96 114 101
89 107 95
111 128 121
116 132 127
124 140 140
115 131 129
123 139 138
123 138 136
127 142 142
139 154 158
129 145 146
129 144 147
134 149 155
126 141 142
134 149 151
112 128 123
119 135 132
126 142 143
60 82 48
61 83 50
60 82 49
57 79 46
59 80 48
61 83 49
59 81 45
61 83 49
60 82 48
60 82 48
63 85 50
59 81 48
56 78 44
58 80 46
60 82 46
62 84 49
57 79 46
61 84 48
64 85 56
116 132 131
110 125 123
108 124 119
88 105 93
79 98 75
73 93 69
66 88 55
55 77 43
64 86 51
62 84 49
60 83 48
51 70 40
56 77 43
58 80 47
65 88 51
60 82 48
59 80 46
64 87 51
61 84 49
119 136 132
125 140 141
130 144 147
125 139 140
120 135 136
122 136 138
138 153 157
132 147 149
144 160 166
121 137 138
128 143 145
122 136 137
125 140 142
133 148 150
131 146 151
123 138 138
120 135 134
121 135 133
128 143 143
60 81 51
64 87 51
61 84 49
57 79 46
61 84 49
60 82 48
57 79 45
56 78 45
62 84 49
58 80 47
61 84 49
55 76 43
62 85 50
56 78 46
58 80 45
63 85 49
55 76 44
63 86 50
120 136 135
121 136 137
129 145 148
136 149 155
138 153 159
122 137 136
136 152 155
127 142 142
124 139 139
128 143 145
119 134 133
117 133 132
133 148 152
126 139 141
112 128 128
121 136 136
122 138 136
128 142 144
61 81 51
56 78 45
55 76 43
65 87 52
61 83 48
63 84 57
79 99 78
79 98 77
103 121 111
109 127 119
99 115 108
112 127 126
124 138 139
123 139 139
122 138 138
125 141 140
138 153 158
87 107 89
68 91 54
60 82 48
67 90 54
60 83 48
62 84 49
56 77 44
63 86 50
64 86 50
65 88 51
64 88 52
62 86 49
65 88 53
59 81 47
58 80 46
66 89 53
81 100 82
141 155 162
128 143 145
121 136 135
143 158 161
132 148 150
125 141 142
133 149 150
137 152 156
134 149 151
135 150 152
145 159 166
140 155 160
134 151 152
131 147 150
133 149 152
108 126 120
61 83 48
64 87 52
67 91 54
64 87 51
63 86 51
70 95 58
63 86 50
68 92 54
67 91 54
64 87 52
62 85 49
62 85 50
63 87 51
63 87 51
104 122 114
133 149 151
140 156 160
140 155 158
141 156 163
139 154 157
151 166 173
136 151 153
123 139 138
131 148 147
108 125 116
94 113 98
83 103 78
68 91 57
106 125 115
138 154 157
143 157 163
139 154 159
149 163 169
139 154 157
147 163 170
137 153 158
131 147 150
142 158 162
141 158 163
151 167 174
147 164 168
104 125 112
69 93 55
66 90 53
66 91 53
69 93 56
66 91 53
72 97 59
71 96 58
71 96 57
65 89 52
92 114 89
83 105 82
113 132 122
87 108 85
69 95 56
71 96 57
74 100 59
69 94 56
72 98 59
71 96 58
72 97 58
73 98 63
124 143 139
162 178 189
155 171 177
164 181 192
143 159 162
119 137 129
104 125 105
78 104 67
82 105 77
111 131 120
72 98 58
73 100 60
76 102 62
83 110 70
104 126 112
133 152 147
133 151 149
80 107 67
75 101 60
88 112 88
133 152 151
128 149 144
110 132 119
128 147 139
199 213 224
222 234 248
228 240 255
228 240 255
228 240 255
228 240 255
228 240 255
228 240 255
228 240 255
228 240 255
228 240 255
228 240 255
228 240 255
228 240 255
228 240 255
228 240 255
228 240 255
228 240 255
228 240 255
228 240 255
228 240 255
228 240 255
228 240 255
228 240 255
222 234 248
183 197 207
161 178 188
142 161 162
100 124 105
157 175 184
127 147 139
90 115 83
80 107 65
82 109 67
77 103 66
130 149 146
159 176 185
150 165 171
158 175 185
163 180 193
154 172 176
124 142 139
92 115 93
75 101 62
73 99 60
77 103 63
75 101 61
73 99 59
72 98 59
110 131 119
142 160 164
164 180 190
156 171 181
155 171 180
153 170 179
151 167 178
159 175 184
148 164 170
150 166 173
86 108 84
107 127 111
144 160 166
148 164 170
144 160 164
154 170 176
147 161 166
152 169 175
153 170 178
149 166 172
149 165 173
138 153 157
146 162 167
141 157 162
141 157 159
101 120 107
80 102 75
138 155 157
145 161 163
145 161 166
147 163 170
137 154 157
150 165 173
152 167 175
139 155 159
147 163 169
148 163 170
126 141 143
145 162 167
149 164 171
149 164 168
134 150 150
107 126 113
88 107 89
72 97 59
132 147 149
138 153 157
149 165 173
140 155 159
129 146 145
146 161 165
142 157 162
150 165 172
148 164 168
144 159 167
137 153 154
142 157 162
143 158 161
120 135 133
144 160 164
147 163 170
134 149 155
139 153 156
123 139 138
109 128 120
128 145 147
138 153 155
138 152 156
144 159 164
138 154 160
143 158 167
140 155 157
137 152 155
121 136 134
145 160 164
143 159 164
131 146 147
143 159 164
147 162 169
134 149 149
137 152 156
142 157 162
134 150 154
67 91 54
60 83 47
63 87 50
65 89 52
63 86 50
59 82 47
64 87 51
65 88 52
68 89 60
95 115 98
107 124 119
116 132 130
121 138 134
136 152 155
136 151 156
134 149 151
136 151 154
139 155 159
120 136 135
80 101 79
69 94 57
69 93 56
58 80 47
64 87 51
71 95 58
66 90 52
62 85 50
55 77 43
68 89 59
84 104 84
88 106 88
75 94 72
86 104 85
116 132 129
97 113 104
120 134 134
130 145 146
120 136 133
88 105 93
78 97 76
62 82 55
61 83 47
59 81 47
61 84 48
62 84 49
62 85 49
61 83 48
65 88 52
63 85 50
56 77 43
62 83 51
82 103 79
99 114 106
101 118 109
115 131 126
123 139 138
135 150 151
113 129 125
62 85 50
61 83 48
62 86 50
63 86 52
64 87 51
60 82 47
59 82 46
59 81 47
63 85 50
60 82 48
59 82 47
65 88 51
56 78 44
69 93 56
62 85 50
65 88 52
51 70 39
65 88 52
95 112 100
136 150 155
127 142 142
139 155 161
122 136 138
130 145 146
132 147 152
126 140 141
127 142 142
130 145 150
135 149 155
116 132 130
117 133 132
129 144 146
123 138 140
125 139 138
125 140 140
131 146 148
133 147 152
90 108 92
58 80 46
59 81 47
64 88 51
57 78 45
62 85 50
57 79 45
61 83 48
61 83 49
59 80 46
56 77 45
61 83 49
66 88 52
62 84 50
66 89 53
53 74 42
63 85 51
57 78 45
83 103 82
133 147 151
128 142 145
121 138 136
132 147 152
133 148 151
137 151 155
118 134 134
126 141 144
117 133 133
119 133 134
117 131 132
103 118 114
112 128 121
107 122 116
111 127 122
106 123 117
87 105 91
97 116 101
117 132 127
111 128 126
125 141 139
124 140 141
134 150 153
135 149 155
127 141 145
129 143 144
122 138 135
130 145 150
141 156 162
144 158 167
130 144 148
141 157 162
135 150 155
121 137 135
126 141 140
75 95 70
61 84 48
63 86 51
61 82 49
57 79 45
64 88 53
61 83 49
62 86 50
60 83 48
57 79 46
62 85 49
61 83 48
62 86 50
60 82 47
59 81 47
59 81 47
96 114 100
136 151 152
131 146 146
135 150 153
133 149 150
136 151 156
140 157 160
134 149 149
124 140 138
129 143 148
139 155 159
140 155 157
141 157 159
147 163 168
146 161 167
130 147 147
91 108 94
70 94 57
65 89 53
62 85 50
62 85 49
64 87 52
68 93 55
68 93 56
63 87 50
65 89 53
65 89 53
62 84 49
69 93 55
62 85 50
70 93 59
126 143 143
150 165 171
143 159 164
138 155 157
136 152 153
142 158 162
136 152 153
141 157 164
132 150 151
128 142 143
134 151 153
145 160 164
138 155 159
138 156 159
124 141 137
115 134 125
119 136 128
125 142 143
142 159 163
146 162 169
140 157 163
134 151 153
144 161 166
149 163 168
157 172 179
139 155 160
150 163 172
99 118 105
67 92 54
66 91 54
68 93 55
73 99 60
65 90 52
73 98 58
70 95 56
63 87 51
74 99 58
72 97 59
83 105 80
123 141 138
140 158 161
124 142 138
99 119 105
94 114 94
73 99 59
76 103 62
72 98 59
70 95 57
74 100 60
117 135 129
155 171 179
153 169 178
162 178 189
160 175 183
162 178 190
149 165 171
127 146 142
140 157 161
139 155 157
82 109 75
76 104 64
72 98 59
70 96 58
78 106 64
82 108 72
100 124 104
84 108 81
80 108 65
77 105 64
78 105 64
112 134 118
92 116 92
82 108 71
119 139 130
187 201 209
223 235 250
228 240 255
228 240 255
228 240 255
228 240 255
228 240 255
228 240 255
228 240 255
228 240 255
228 240 255
228 240 255
228 240 255
228 240 255
228 240 255
228 240 255
228 240 255
228 240 255
228 240 255
228 240 255
214 226 240
178 193 201
156 173 180
121 141 134
79 104 71
89 114 86
106 128 111
85 112 76
74 100 60
78 105 64
119 140 133
142 160 162
152 169 178
153 170 179
161 177 185
152 168 175
139 157 160
116 134 125
80 105 72
72 98 59
89 112 85
76 102 62
74 101 60
77 103 63
98 120 100
124 141 136
150 165 169
162 179 191
155 171 178
162 178 187
156 173 180
153 170 175
152 168 175
151 167 174
138 155 158
137 154 154
95 115 96
161 177 187
155 172 183
149 163 169
156 171 180
145 162 167
142 156 159
141 157 158
150 166 173
145 161 167
157 173 181
141 157 161
139 156 161
111 130 118
78 103 71
64 87 51
71 95 58
68 92 55
117 135 127
154 171 179
157 172 182
156 172 180
143 160 166
144 160 165
143 159 166
152 167 175
149 165 168
143 158 164
150 166 172
132 148 148
109 130 117
75 98 70
68 93 55
67 91 55
66 90 53
67 92 55
115 131 127
143 159 162
142 158 164
139 154 159
139 155 158
136 153 154
153 169 173
153 167 173
138 153 155
136 153 157
137 154 154
147 163 170
151 166 172
141 156 161
126 142 140
119 136 133
98 117 106
67 88 59
63 87 50
127 143 143
149 164 169
154 167 175
133 146 150
130 145 148
131 147 150
143 158 163
145 160 167
142 157 160
123 139 139
138 154 157
141 156 165
139 154 157
127 143 142
138 154 158
141 156 159
139 155 156
141 156 163
139 153 158
73 95 68
62 86 49
59 83 47
67 91 54
69 88 64
97 116 103
99 116 106
140 156 158
133 149 152
137 153 156
143 157 161
128 143 145
122 136 139
129 145 144
128 146 147
130 146 148
131 146 146
135 151 156
131 146 147
100 117 106
67 91 54
64 86 51
55 76 42
61 84 49
63 86 51
63 86 51
63 85 51
65 88 51
62 85 49
64 86 52
58 80 45
61 83 48
59 81 47
60 83 47
64 86 52
61 85 49
66 90 54
67 91 54
86 105 85
140 155 158
133 147 151
134 149 151
122 137 134
124 141 142
112 128 123
101 118 109
72 91 73
61 82 52
72 92 70
94 109 99
98 114 103
108 125 119
117 133 127
96 113 101
123 140 137
104 121 115
123 139 137
118 133 129
87 107 85
64 87 55
70 90 67
65 86 54
68 90 60
65 87 58
61 84 48
64 87 51
58 79 45
65 88 52
55 75 43
61 83 49
62 84 49
63 87 51
63 85 50
57 79 46
60 82 47
66 90 54
56 77 44
111 127 125
125 140 137
133 148 152
136 150 154
128 143 148
138 152 156
122 138 139
123 139 142
123 137 137
121 135 134
127 142 142
124 141 141
128 142 146
123 136 139
126 140 141
129 143 148
121 135 135
132 146 151
129 144 150
68 88 63
55 76 43
62 83 49
58 80 46
64 85 57
70 91 63
67 86 62
72 93 68
75 94 73
82 99 84
75 97 71
89 109 89
80 96 81
84 104 87
90 108 93
89 107 92
96 114 103
106 122 119
109 126 122
91 108 96
105 123 110
90 108 88
87 105 88
88 108 86
73 93 70
78 98 76
61 84 49
54 75 42
62 85 50
59 82 47
68 91 54
64 87 51
53 73 41
61 84 49
62 85 50
58 80 46
116 132 127
131 147 148
130 146 146
136 150 153
133 149 152
123 137 137
137 153 156
129 144 146
134 149 154
132 148 149
142 158 161
133 148 152
127 142 144
141 156 159
131 145 148
127 142 144
134 149 150
110 126 120
63 86 50
69 93 56
63 86 50
64 88 52
65 88 52
65 88 51
62 85 49
58 80 46
59 82 47
66 89 52
64 87 51
60 83 48
64 87 51
64 88 52
62 85 50
65 88 52
116 133 127
143 159 163
139 155 159
134 150 155
141 157 162
141 157 160
137 153 156
134 151 153
147 160 166
130 145 145
139 155 157
148 163 170
132 147 149
115 132 129
142 158 163
131 147 146
84 105 86
64 87 51
66 90 53
68 93 56
67 90 54
65 89 53
67 92 55
66 90 52
61 83 48
65 89 52
70 95 57
66 91 53
69 92 55
66 89 52
71 94 63
132 148 151
143 159 165
135 151 152
146 162 166
137 153 158
142 158 165
139 155 158
140 155 159
134 149 151
144 159 163
137 153 155
138 154 159
148 164 171
140 156 157
95 113 100
69 94 57
66 91 54
64 87 51
70 93 62
93 110 97
112 131 121
130 148 146
128 146 144
157 173 182
155 171 181
144 161 165
145 161 167
94 112 97
74 99 61
67 92 54
73 98 59
68 93 55
71 96 57
68 94 56
69 94 56
64 89 53
65 89 53
69 94 56
80 105 75
130 147 146
145 161 169
154 170 172
162 179 189
145 162 168
127 145 144
114 132 123
84 107 76
70 96 58
71 96 58
95 116 96
152 168 174
155 172 177
157 172 179
158 175 184
154 170 178
156 172 180
70 96 57
79 104 66
79 104 69
82 104 79
81 107 75
72 98 59
74 100 61
74 101 61
74 101 61
76 103 62
112 132 120
124 144 137
90 113 86
74 101 61
79 107 65
80 106 70
116 138 127
97 121 94
100 124 99
163 179 178
212 224 236
228 240 255
228 240 255
228 240 255
228 240 255
228 240 255
228 240 255
228 240 255
228 240 255
228 240 255
228 240 255
228 240 255
228 240 255
228 240 255
229 240 255
213 225 238
185 200 210
166 184 195
120 142 130
78 106 65
107 129 113
133 153 151
163 179 191
99 123 99
85 110 75
118 139 131
147 164 169
167 184 197
164 181 193
169 186 198
146 163 167
131 149 145
90 115 88
72 98 58
72 98 59
75 101 62
75 101 61
106 127 114
91 113 89
112 132 123
146 164 167
160 176 187
152 168 176
158 175 185
149 166 172
163 178 189
140 157 161
148 162 168
161 177 187
142 159 161
101 120 105
84 108 79
69 94 56
67 91 54
144 160 163
146 161 167
152 169 176
147 165 171
146 163 169
170 185 197
161 178 187
153 169 177
134 151 150
118 137 130
79 102 75
70 95 57
74 100 60
70 96 56
65 90 53
74 100 59
68 92 55
123 142 137
143 159 163
146 161 168
150 166 170
140 156 161
148 163 168
147 163 169
154 170 177
125 142 141
105 125 111
76 99 68
64 88 52
67 91 54
68 93 55
69 94 56
70 95 58
68 92 55
64 88 52
97 117 99
153 168 175
144 159 162
141 156 159
150 164 171
140 155 160
144 160 164
138 153 156
138 154 157
141 157 161
139 154 157
125 141 141
106 123 114
80 101 77
68 92 55
66 90 53
63 87 51
60 82 47
68 92 55
118 136 130
141 156 162
136 151 153
146 162 167
144 160 165
144 158 165
141 156 162
144 158 165
138 153 157
145 161 166
148 162 169
136 152 152
137 152 151
130 145 147
136 152 157
133 149 152
137 154 159
132 148 148
136 152 157
109 127 115
111 129 121
114 130 126
121 137 137
140 155 160
140 156 160
135 149 153
136 151 155
145 160 165
138 154 161
125 142 141
139 154 162
118 133 134
141 157 161
142 157 160
141 155 160
125 141 139
129 144 147
143 159 166
123 138 135
60 82 47
65 88 51
59 82 47
60 82 47
66 89 53
59 82 48
64 87 52
60 82 48
62 84 49
66 89 52
59 81 47
59 81 46
68 92 54
60 83 49
63 86 51
72 96 59
54 76 43
68 92 55
65 86 57
117 132 131
111 127 122
87 104 94
79 100 77
70 92 61
65 87 52
66 91 54
58 80 46
63 85 49
56 78 44
66 89 53
61 83 48
57 78 45
59 81 48
60 82 48
64 88 51
58 81 47
63 87 51
70 95 56
97 113 101
130 146 146
125 140 140
130 147 147
121 136 135
127 142 145
131 146 148
127 142 146
132 148 152
124 140 140
133 149 151
136 151 155
115 132 130
111 127 123
120 136 137
125 140 139
113 128 124
134 150 153
119 134 132
109 124 121
81 100 84
74 92 73
82 101 81
85 104 83
89 107 95
78 97 78
81 100 79
93 111 99
79 97 83
72 91 70
66 86 61
78 97 76
69 90 66
75 94 73
77 97 75
64 84 59
71 91 68
65 88 55
94 114 97
121 137 137
125 141 138
141 156 157
123 138 139
132 148 150
134 150 151
125 141 141
129 145 146
141 156 160
127 142 141
123 138 138
122 136 137
147 161 169
136 153 158
130 145 144
132 147 150
135 149 153
115 131 128
83 103 84
87 105 92
91 109 94
93 113 95
92 110 95
102 121 108
98 116 104
98 116 105
110 126 121
98 116 107
124 140 137
104 122 113
109 124 118
119 138 131
108 123 116
117 134 132
125 141 141
129 146 145
98 115 107
88 106 89
82 102 81
89 109 91
75 94 73
80 100 79
76 96 70
77 97 72
73 91 73
78 96 77
82 103 80
93 114 91
73 92 73
71 91 69
79 98 76
82 99 84
89 107 93
102 118 112
120 135 134
121 137 132
113 129 125
120 137 133
112 130 122
115 131 128
108 126 122
99 118 104
97 114 104
101 119 108
108 125 117
98 116 105
102 122 110
87 105 89
80 99 80
94 112 96
127 144 147
131 146 149
138 154 155
138 154 159
141 156 160
137 153 158
133 149 152
132 147 149
140 156 160
125 141 143
133 149 149
141 155 159
148 162 167
126 143 142
140 156 162
125 141 141
82 101 85
68 93 55
63 85 50
67 91 54
66 91 54
64 87 51
62 86 50
62 85 50
68 93 55
68 92 54
68 92 55
64 87 52
64 88 52
64 87 51
79 100 74
122 138 134
155 170 179
140 156 162
151 167 174
142 158 160
147 161 170
141 157 161
143 159 162
147 162 169
148 165 169
149 165 172
154 169 175
148 164 171
138 155 158
102 122 107
73 98 60
70 95 57
72 98 58
72 97 58
67 91 54
67 92 53
64 88 52
81 104 73
89 109 85
98 119 103
119 136 132
129 145 146
108 128 116
69 93 55
70 95 56
69 94 56
70 94 56
73 99 60
69 94 55
67 92 54
65 90 52
71 96 57
69 95 56
75 99 65
120 139 133
152 169 178
149 167 173
146 162 170
153 168 174
152 168 176
145 160 166
151 166 171
120 139 130
95 118 97
109 130 117
131 148 147
162 178 188
153 170 176
155 172 180
144 162 163
74 100 60
74 100 60
75 102 62
84 109 77
135 154 155
138 155 156
114 133 122
92 115 90
80 108 66
79 107 66
77 104 63
102 123 107
157 174 183
146 165 166
111 133 117
91 116 86
76 104 64
105 127 111
132 151 148
96 120 99
98 122 95
142 159 151
215 227 240
228 240 255
228 240 255
228 240 255
228 240 255
228 240 255
228 240 255
229 240 255
229 240 255
229 240 255
229 240 255
210 222 236
187 201 213
157 174 180
107 128 117
74 101 62
105 127 110
150 169 175
161 178 190
152 168 174
148 166 172
127 147 139
157 174 183
151 167 173
165 182 193
153 170 178
160 176 184
119 138 130
95 119 95
80 107 66
74 101 62
73 98 59
73 99 60
73 99 59
86 110 80
103 125 109
129 147 144
164 180 188
159 175 183
157 172 179
160 174 185
147 162 167
149 165 172
148 164 168
156 173 183
112 133 125
88 108 89
69 95 56
72 98 59
73 98 58
69 95 55
76 100 66
148 164 170
158 174 181
164 181 193
150 167 172
150 165 173
143 158 163
126 144 138
97 119 99
67 91 54
73 99 60
68 93 56
65 89 52
69 94 56
76 102 61
73 98 58
72 97 59
68 93 54
113 131 122
159 175 184
145 161 167
146 163 166
151 167 174
134 152 151
98 117 104
82 106 73
71 96 58
67 92 54
68 93 56
67 91 53
68 93 55
67 91 53
67 91 54
65 89 53
61 83 49
67 90 54
90 110 94
148 164 170
152 167 177
153 168 176
143 158 162
138 154 161
145 161 165
121 138 134
130 146 143
90 109 95
68 90 63
70 94 57
65 89 52
71 97 59
63 87 51
70 94 57
66 90 52
71 96 58
65 89 51
105 123 112
130 146 146
145 161 166
144 158 163
146 162 166
151 165 174
136 152 154
125 142 142
135 150 155
141 156 162
142 157 164
138 152 156
137 152 154
144 159 166
139 154 163
130 146 149
105 123 113
103 121 113
75 96 69
99 117 106
141 157 162
135 150 151
130 146 147
139 154 158
147 162 165
132 148 149
142 158 160
136 154 155
147 162 170
136 152 155
135 149 156
128 144 144
138 154 156
145 161 167
135 150 153
137 152 158
138 153 158
134 149 151
140 155 161
69 90 62
64 88 52
67 91 54
60 83 48
66 89 53
64 87 50
69 94 55
68 92 56
60 84 49
69 94 56
64 88 52
59 80 46
60 82 48
81 100 81
95 114 100
104 121 112
119 136 134
123 138 137
117 133 132
108 125 117
62 85 50
64 88 52
66 89 52
64 87 52
65 88 53
64 87 51
61 84 49
63 86 51
62 85 49
57 79 45
61 84 49
60 82 47
65 88 53
67 91 54
59 82 48
58 80 46
64 88 52
62 85 50
70 91 62
134 149 153
135 150 153
129 143 144
135 149 154
126 142 142
136 150 155
129 144 144
145 161 164
142 157 161
138 154 158
143 158 166
132 146 153
125 140 139
131 145 147
130 145 149
131 146 147
139 153 160
128 143 145
124 138 136
67 87 64
57 79 44
60 83 48
63 86 51
61 83 48
63 86 51
63 87 52
67 91 54
59 81 48
62 85 49
63 86 50
64 88 52
65 88 52
63 86 51
63 86 50
67 90 53
55 76 44
60 82 48
66 88 59
121 138 138
130 146 147
123 137 138
127 143 142
99 114 107
113 130 127
106 123 115
102 119 108
91 110 95
88 107 87
81 100 84
66 87 59
74 92 72
70 92 61
69 93 56
60 83 48
58 79 45
66 90 54
90 108 93
121 137 136
131 147 148
134 149 153
135 151 154
142 157 161
109 126 120
134 149 153
129 145 148
141 157 159
130 145 148
128 142 145
126 143 143
136 152 152
133 150 152
140 155 159
137 152 158
137 153 156
117 134 131
67 91 54
60 82 48
64 88 51
70 95 57
61 84 48
61 83 49
59 82 48
55 76 43
58 81 45
62 85 50
64 88 52
65 88 52
60 83 49
65 89 53
65 89 53
61 83 49
79 100 77
133 149 152
122 138 139
145 161 167
143 157 162
129 144 145
133 148 152
146 162 166
135 150 152
134 149 151
130 146 147
142 156 161
132 148 149
142 158 159
144 160 165
134 148 149
141 156 162
123 140 139
66 89 57
62 85 49
62 85 51
79 99 77
87 106 88
90 110 90
85 105 82
98 117 104
106 124 112
103 123 111
112 130 122
121 137 137
132 149 149
148 164 170
136 153 154
123 139 137
73 98 62
68 92 55
66 91 53
69 94 57
64 88 51
69 93 56
64 89 53
68 92 56
67 92 54
70 94 56
67 91 53
65 89 53
65 90 52
68 92 54
82 103 78
136 152 156
134 151 155
154 169 177
150 167 174
151 167 175
141 157 159
143 158 162
138 153 159
141 156 162
150 167 174
158 173 181
152 169 173
141 156 159
136 153 155
86 108 84
68 92 54
74 100 61
70 95 57
71 97 58
68 92 54
70 96 57
62 86 50
67 91 53
69 93 56
72 96 57
69 95 57
75 99 63
116 133 127
111 129 120
114 133 122
90 111 89
69 94 56
72 97 58
71 97 58
65 89 51
66 92 54
71 95 56
68 94 57
70 94 57
128 145 144
149 166 173
160 176 187
163 179 191
153 169 176
146 163 166
159 174 181
156 173 182
158 174 182
148 165 169
143 160 161
139 157 162
140 157 157
156 173 183
129 147 144
76 102 62
73 99 59
72 98 58
75 102 61
70 95 56
123 142 138
160 176 185
149 166 172
132 150 147
113 134 120
81 106 70
75 102 63
83 108 76
136 155 155
151 168 175
160 177 187
139 157 156
98 120 97
89 114 83
131 149 146
149 167 167
119 141 129
108 132 117
163 180 182
217 229 244
229 240 255
229 240 255
229 240 255
229 240 255
229 240 255
229 240 255
202 214 226
173 189 199
142 159 160
104 128 106
79 106 67
121 142 134
148 166 171
168 185 198
166 183 196
156 174 183
108 129 115
128 147 142
154 170 179
161 177 184
160 177 188
153 171 178
106 126 113
82 108 69
76 103 63
76 103 62
77 104 63
76 102 61
72 98 59
99 122 103
135 152 151
157 172 182
112 132 122
96 117 98
149 165 172
159 176 188
153 169 174
145 163 166
158 174 180
127 145 142
114 135 121
76 103 63
73 100 61
68 93 55
75 101 62
73 99 60
72 98 59
73 99 60
76 101 66
156 172 180
153 170 179
150 167 175
125 143 136
112 134 120
71 95 60
71 97 58
72 97 58
68 93 56
71 96 58
66 90 52
73 98 59
69 95 56
74 100 60
72 97 58
64 88 52
66 90 54
109 130 116
152 167 176
128 145 146
110 127 120
82 108 72
70 95 57
68 93 55
71 96 59
65 89 52
68 93 55
65 89 52
68 92 54
69 94 56
69 94 56
67 91 54
68 92 54
69 94 57
68 92 55
76 97 69
150 165 173
145 160 167
141 156 159
139 154 155
113 131 122
88 109 88
63 86 51
68 92 55
68 92 55
68 92 54
62 84 50
70 95 57
66 90 53
71 95 57
66 90 53
70 95 58
67 92 53
64 87 52
89 110 88
148 163 168
144 160 168
141 156 160
148 164 168
137 153 155
134 150 153
144 161 167
137 153 157
145 161 165
143 159 164
144 160 164
125 141 135
94 113 99
62 84 49
63 86 50
65 88 52
66 89 53
66 90 53
69 92 58
145 160 166
123 139 139
139 154 158
148 163 168
127 142 142
150 165 174
140 156 161
147 161 168
125 141 142
126 140 141
135 149 152
134 150 150
132 148 150
124 138 138
129 144 146
138 152 158
140 154 160
141 156 163
143 158 162
89 109 91
61 84 49
66 90 53
68 92 54
62 85 49
59 81 47
62 85 50
68 91 57
78 99 74
100 119 103
122 139 137
115 131 128
145 160 165
139 155 157
144 159 162
138 153 158
138 154 158
131 146 147
121 136 136
129 144 144
65 88 52
66 90 54
55 76 44
61 83 48
67 91 54
61 84 49
65 89 52
65 88 52
61 83 47
64 87 51
58 80 46
58 80 46
63 86 50
66 90 53
56 78 44
61 84 50
59 82 48
59 82 47
57 77 44
117 134 131
123 139 136
133 147 150
144 158 166
130 146 144
130 145 148
133 148 153
118 133 132
129 144 144
136 152 157
143 158 164
135 149 150
135 149 153
132 147 152
134 149 152
147 162 168
137 152 159
137 152 155
139 154 160
123 140 138
68 92 55
59 82 47
60 82 49
55 76 43
66 90 54
63 86 51
68 91 55
68 91 59
70 90 63
89 108 91
93 110 98
103 120 112
112 128 126
120 136 132
127 143 143
126 142 140
128 143 144
123 138 138
104 119 110
58 79 45
61 84 50
66 90 53
67 91 53
62 84 49
67 91 54
63 87 50
64 87 52
63 85 50
62 84 49
63 86 51
62 85 50
63 86 50
61 83 50
62 86 50
64 88 52
63 86 51
67 90 56
120 135 132
131 146 149
140 155 158
126 142 140
129 143 142
138 154 157
129 145 146
135 151 154
138 154 159
133 148 152
131 145 147
140 155 159
135 150 154
143 158 163
130 145 145
134 151 152
128 142 145
134 150 151
88 107 88
63 86 51
61 83 48
65 89 51
62 84 48
63 86 51
61 84 49
65 88 53
65 89 52
67 91 54
62 86 49
57 80 45
58 80 47
63 87 51
63 87 51
65 89 53
68 92 54
82 103 80
126 142 142
131 144 147
148 163 171
137 152 156
141 156 160
138 152 154
140 156 158
137 154 159
146 160 162
132 147 149
132 148 147
144 158 163
143 158 161
153 167 175
141 156 160
139 154 158
126 144 140
67 92 55
72 98 59
57 79 45
62 84 49
61 83 48
69 94 57
66 90 54
64 87 51
64 88 51
69 94 56
62 84 49
67 92 55
69 94 57
65 88 52
65 88 52
89 109 93
124 140 139
128 144 143
110 127 121
113 130 125
108 127 116
101 121 106
90 110 93
81 103 78
74 98 62
67 91 54
63 88 50
68 92 55
64 89 52
67 91 54
99 118 103
157 172 181
151 166 176
137 154 158
139 156 160
129 147 147
135 151 153
143 159 165
150 165 174
152 168 174
154 170 179
146 161 165
147 163 170
147 163 168
145 161 163
95 116 96
68 92 54
71 96 58
70 95 56
71 96 57
73 99 60
68 93 55
73 98 59
69 94 56
64 88 50
65 90 52
69 94 57
72 98 59
119 138 132
149 165 169
150 165 173
144 162 166
134 152 152
117 135 130
98 118 103
71 94 62
68 93 55
76 102 61
73 100 61
68 93 55
115 135 126
154 171 181
150 167 173
151 168 176
159 176 187
159 174 183
152 170 179
161 176 186
158 175 186
154 171 178
147 165 172
105 126 109
89 113 85
128 147 139
115 136 127
81 106 72
71 96 57
69 95 58
71 96 57
69 96 57
99 121 101
146 164 167
159 177 184
158 175 183
147 163 166
138 156 157
106 127 113
81 108 68
112 134 118
157 174 181
161 178 186
160 177 186
148 166 171
125 144 140
114 136 121
162 179 192
157 176 186
128 148 142
121 143 131
167 183 188
215 227 240
229 240 255
229 240 255
208 220 232
147 164 160
141 160 161
102 125 105
85 114 74
105 126 108
154 171 179
157 175 186
166 184 198
141 159 162
96 119 98
74 100 60
78 106 66
148 165 170
170 187 199
124 141 137
102 125 103
72 99 59
77 104 63
76 104 64
77 103 63
73 100 60
85 110 77
114 132 124
152 169 177
162 179 187
162 178 188
159 175 185
95 117 99
70 96 57
131 148 144
156 173 180
151 168 175
139 157 154
94 117 95
72 98 59
76 102 62
73 100 60
71 96 58
76 103 63
71 97 57
70 96 57
73 99 59
66 90 54
80 105 72
149 165 171
113 132 123
77 100 67
72 98 59
70 96 57
69 95 56
68 92 54
69 93 55
68 92 54
69 93 55
70 95 57
68 93 55
69 94 56
64 89 51
73 98 60
73 98 62
105 124 114
112 131 124
71 94 62
69 93 56
71 96 58
67 90 53
68 93 54
70 96 57
72 96 57
71 96 57
69 93 55
70 94 56
74 101 61
66 90 53
65 88 51
68 92 54
71 96 57
65 90 53
68 93 55
69 93 59
127 143 143
118 135 129
79 101 72
65 89 52
65 89 53
73 98 59
66 91 54
74 99 60
67 92 55
65 89 53
68 92 54
66 91 53
68 91 55
67 91 54
71 96 57
69 94 56
65 89 51
70 95 56
73 96 63
144 159 163
145 161 168
134 149 152
144 160 163
150 166 173
141 156 159
136 151 154
118 136 132
111 129 121
85 105 83
69 94 55
67 91 54
68 91 54
67 91 55
67 91 54
67 91 54
65 90 53
71 96 58
66 90 54
137 153 157
137 153 158
136 153 157
140 155 160
140 156 161
150 165 170
138 152 156
138 153 158
133 149 152
136 151 156
135 150 154
159 174 184
144 160 163
134 150 153
137 152 157
139 154 158
131 147 150
139 155 160
140 155 160
124 139 136
63 86 50
64 87 51
90 109 88
107 125 113
104 120 113
124 141 136
145 160 164
126 142 143
141 156 159
132 147 149
138 151 157
137 152 157
141 156 160
129 144 149
142 156 161
137 151 154
145 160 166
138 153 157
130 147 148
85 107 82
64 87 51
63 86 50
67 90 54
59 81 46
66 90 53
66 89 53
64 87 51
62 85 49
71 95 57
57 80 45
61 85 48
64 87 51
61 84 48
69 93 56
66 89 53
64 87 49
62 85 49
69 94 56
91 109 96
131 146 146
140 155 163
135 151 153
142 156 162
147 161 168
137 152 155
139 154 160
140 154 159
129 144 146
134 149 154
117 133 130
145 160 167
140 154 159
143 158 164
126 142 141
126 141 143
136 151 155
132 148 150
120 136 136
94 113 97
86 104 90
111 128 119
120 137 134
106 123 116
115 131 128
130 146 147
132 147 148
117 133 130
137 151 156
140 156 159
144 159 162
137 153 157
142 157 164
135 150 156
122 137 133
126 142 141
142 157 160
141 156 160
73 94 69
61 84 49
63 86 51
66 90 54
67 90 54
55 77 43
65 88 53
67 91 53
60 82 48
67 91 55
64 87 50
61 83 49
65 88 52
63 85 50
59 81 47
67 90 53
66 91 54
64 87 52
85 105 84
126 141 141
139 155 161
137 153 155
134 150 152
136 151 155
132 147 149
134 148 151
134 148 151
136 150 153
146 161 167
136 153 156
132 147 149
153 168 177
147 162 169
129 146 146
134 148 155
145 161 168
132 147 148
68 91 57
65 88 53
67 91 54
64 87 52
59 81 46
61 84 49
70 94 57
66 90 54
60 83 47
60 82 48
64 88 52
66 90 53
65 88 52
62 86 51
65 89 53
64 87 51
63 86 51
109 125 120
143 159 164
133 148 150
137 153 159
147 163 168
147 162 170
135 150 153
141 156 161
141 157 163
135 151 155
149 166 175
142 158 163
149 164 170
141 156 160
141 157 161
129 144 145
145 160 164
99 116 104
71 95 57
63 87 51
62 84 49
64 88 51
63 87 49
67 91 54
67 91 54
65 88 52
67 91 53
63 87 51
67 91 54
61 84 49
67 92 55
68 92 55
65 90 52
114 132 123
131 146 149
148 163 168
152 168 178
126 142 140
151 167 174
143 159 161
149 164 169
132 147 148
133 149 150
125 140 140
129 147 145
106 125 114
115 134 129
94 114 97
109 128 121
149 164 174
139 156 159
144 161 164
145 160 164
142 159 163
150 165 171
141 157 163
151 167 175
142 159 162
149 164 172
142 159 162
152 168 174
143 159 163
132 149 150
92 113 92
65 90 52
66 90 53
67 92 55
70 95 57
72 98 59
72 97 58
64 89 52
71 97 59
66 91 53
70 95 57
66 90 53
75 100 66
132 150 149
143 160 165
148 166 173
161 177 187
158 174 181
158 173 180
151 168 178
144 161 164
115 133 124
107 126 117
90 114 86
72 99 59
114 133 122
151 167 175
147 163 170
151 165 173
157 173 179
156 172 179
147 164 167
151 168 174
150 167 172
143 159 162
159 176 188
130 148 148
155 172 182
164 181 191
159 175 186
155 173 184
119 139 128
100 121 101
71 98 59
77 104 63
102 123 103
148 165 171
150 168 172
164 180 191
161 178 189
153 171 177
156 173 183
134 153 151
115 134 125
150 168 176
164 181 189
159 178 188
175 191 205
162 179 191
147 165 167
153 171 177
168 186 199
170 186 201
150 168 174
133 152 147
144 163 157
211 223 236
135 154 149
99 124 99
84 111 74
130 150 146
156 174 181
163 180 188
164 181 188
126 147 145
109 131 115
81 108 67
73 100 60
76 104 63
90 113 85
134 153 150
89 113 86
72 99 60
83 111 70
73 100 59
79 106 65
72 99 60
103 126 108
128 148 147
156 172 181
154 171 178
155 173 181
151 169 175
165 182 194
161 177 189
100 122 103
80 107 71
106 126 111
128 147 147
79 105 66
72 98 58
68 93 56
73 99 61
73 99 60
72 98 59
72 98 59
74 100 61
73 99 60
81 109 67
83 108 76
121 139 134
150 168 172
72 97 58
78 105 64
76 102 62
72 98 58
69 95 57
74 100 60
77 104 63
65 90 53
74 100 60
69 94 56
75 100 61
68 92 54
64 89 52
97 118 100
130 147 149
150 167 175
145 160 166
130 148 144
66 91 54
72 98 58
72 97 57
68 92 54
72 97 59
71 96 58
67 91 54
71 96 58
65 89 53
69 93 55
69 94 56
69 93 57
71 96 57
70 95 57
78 102 70
101 121 106
123 139 139
148 164 169
81 105 71
67 91 54
69 93 56
66 90 54
72 97 58
67 90 53
70 95 57
66 89 52
64 87 51
69 94 56
66 91 54
69 94 57
65 89 52
68 92 55
71 96 57
63 86 50
70 95 58
71 96 58
74 99 59
125 141 139
135 150 152
143 157 162
141 157 160
110 127 117
83 103 80
64 87 51
68 93 55
63 87 51
68 93 56
66 91 54
65 89 53
68 93 55
66 91 54
68 93 55
64 88 52
63 86 51
65 89 53
67 92 55
108 126 116
145 161 167
147 163 168
134 149 152
145 160 167
131 146 146
144 160 166
137 152 154
139 154 159
140 155 162
142 159 161
134 150 154
140 154 159
142 158 163
147 162 170
125 141 140
126 142 143
137 153 157
115 132 131
86 105 88
127 143 143
133 150 152
145 160 165
130 146 145
147 163 169
149 163 170
123 139 137
137 153 154
127 143 139
127 143 140
142 158 164
121 137 134
145 162 166
126 142 139
135 150 155
138 152 156
135 152 155
129 145 148
139 154 156
120 136 132
71 96 59
64 87 51
65 89 53
66 90 53
63 87 51
62 86 50
66 90 53
65 89 53
64 89 52
65 88 52
65 88 52
66 90 54
67 92 55
66 91 54
61 83 50
60 82 47
68 92 55
61 84 50
55 77 43
117 132 131
138 154 157
138 152 159
116 132 127
139 155 159
137 151 155
144 159 165
135 151 154
141 155 161
131 145 148
140 156 160
124 140 139
114 131 126
102 121 108
109 126 116
96 116 99
77 100 71
60 83 49
65 89 53
99 116 104
140 155 159
130 146 147
127 141 143
129 144 146
122 136 138
138 154 155
139 153 159
130 147 151
122 137 138
133 149 153
134 150 154
135 151 150
129 145 147
135 151 153
119 135 131
145 160 167
150 165 174
133 148 152
118 134 132
62 84 50
63 86 50
64 87 50
64 87 51
65 89 53
65 89 53
69 93 55
68 92 55
63 86 51
64 87 51
60 83 48
65 89 52
64 87 52
65 88 52
66 90 53
63 85 50
64 88 51
58 81 47
121 138 135
133 149 152
135 150 155
143 159 166
133 149 153
134 150 153
129 145 146
134 150 151
126 143 140
138 154 157
128 143 142
134 149 150
134 149 154
138 153 157
140 155 158
144 160 166
143 157 161
147 164 169
100 117 107
65 89 53
70 95 56
68 93 55
64 88 51
64 88 51
67 90 54
64 87 51
65 89 53
64 87 51
68 92 54
65 89 53
65 89 53
61 83 49
68 93 55
66 88 52
65 89 52
70 93 59
129 145 146
143 158 164
141 156 160
134 151 152
137 153 153
148 163 169
147 162 169
142 156 162
161 175 183
134 150 153
149 164 172
146 161 168
147 161 167
139 155 159
134 148 151
150 165 172
134 150 154
78 98 75
70 96 57
64 87 51
68 92 54
62 85 49
66 90 53
72 98 59
72 97 59
72 96 58
64 87 51
63 86 50
68 93 56
67 91 54
69 93 56
72 97 58
71 96 60
133 149 149
148 164 169
141 156 161
147 163 168
138 154 158
133 149 149
145 162 165
136 152 155
135 151 151
134 149 152
143 160 163
138 154 157
149 164 171
155 170 177
152 168 173
114 132 125
69 93 59
91 112 93
96 115 100
105 125 109
117 136 128
127 145 143
133 149 149
153 169 177
141 157 159
143 159 164
139 156 161
147 164 170
147 163 168
140 156 161
74 97 67
70 95 56
68 93 55
66 90 53
70 95 57
68 94 55
74 100 61
69 95 57
70 96 57
77 104 64
66 89 53
71 96 58
76 101 64
129 147 144
150 167 173
151 167 174
155 172 181
153 169 177
154 171 181
153 169 178
152 169 179
142 158 161
160 176 185
146 163 165
131 149 148
144 162 162
142 158 162
159 174 184
158 175 183
154 172 181
157 173 183
158 174 183
140 159 164
148 165 171
165 181 190
79 105 70
122 141 133
146 162 167
160 176 188
159 176 187
154 170 177
163 180 190
153 169 176
116 136 124
113 133 121
89 114 86
141 158 162
159 176 187
159 174 181
161 178 190
161 177 189
178 195 209
164 182 196
166 181 190
158 176 184
153 170 176
165 181 191
161 178 188
162 179 189
161 179 190
163 180 192
147 166 171
154 172 181
160 178 189
142 161 163
129 151 146
94 119 92
131 151 148
167 184 198
158 175 182
161 178 187
129 149 146
89 115 83
75 103 62
74 101 61
79 106 64
95 119 95
141 159 162
134 153 149
81 108 66
76 104 63
76 102 62
77 104 63
80 106 69
106 127 115
149 167 172
159 176 185
156 173 181
155 171 178
147 164 168
157 174 184
152 168 176
164 181 191
155 171 178
114 132 122
156 173 180
159 177 185
162 178 187
96 120 97
74 101 61
70 96 58
74 100 60
74 100 60
75 101 61
72 98 59
81 106 73
111 131 117
133 150 151
162 180 193
155 171 182
157 173 183
68 94 56
71 96 57
68 94 56
68 94 57
64 88 51
70 96 57
68 93 56
72 97 58
70 96 58
66 91 54
104 125 108
124 142 140
142 159 160
153 169 177
162 178 190
154 169 178
149 166 171
132 149 148
66 90 53
72 98 59
72 96 57
66 90 53
66 91 53
74 100 60
70 94 56
73 99 59
72 97 59
61 85 50
69 94 56
76 99 67
96 115 101
130 146 146
146 162 170
141 157 160
152 167 175
152 168 179
93 114 93
69 94 57
72 98 59
69 93 56
70 95 56
70 95 56
63 87 51
70 95 57
69 94 57
71 95 57
68 92 55
71 97 58
69 94 55
71 96 58
70 95 57
72 97 58
68 92 55
64 88 51
82 105 78
109 128 118
97 115 101
69 93 55
68 92 55
72 97 59
69 94 56
70 94 56
69 94 56
65 89 51
65 89 52
65 88 53
66 90 54
67 90 54
67 92 55
65 88 53
68 92 55
70 94 56
65 88 52
64 88 52
90 109 93
146 161 166
145 161 168
144 160 165
143 159 163
139 155 159
151 165 174
141 156 161
144 158 166
141 157 159
135 150 153
139 154 158
150 165 170
113 129 125
112 129 123
98 117 99
88 108 91
64 88 52
65 89 53
62 85 49
119 136 133
136 151 153
147 162 171
129 145 143
140 155 159
145 161 164
135 151 152
142 157 162
139 155 159
128 146 145
139 155 158
140 155 159
141 157 164
138 153 157
140 154 156
144 159 164
138 155 158
137 153 155
144 160 165
133 149 153
68 90 59
63 86 51
68 91 54
62 85 50
64 87 51
65 89 52
70 94 57
63 85 50
68 93 55
67 91 55
65 89 52
66 90 53
65 89 53
65 88 52
63 87 50
63 86 50
63 87 50
64 88 52
71 96 58
110 128 120
150 165 173
126 141 144
133 150 150
114 131 125
111 129 124
93 111 99
94 113 96
68 89 61
71 94 60
64 87 52
62 86 51
66 90 53
70 95 57
65 89 53
62 84 50
63 86 50
64 87 51
63 86 51
74 94 70
140 156 159
142 157 163
130 146 144
127 143 143
135 149 153
142 158 164
136 152 155
146 161 169
133 148 151
133 149 151
131 146 148
140 155 159
140 154 159
136 152 155
127 143 145
141 156 161
133 149 154
138 153 157
137 153 157
71 92 67
62 85 50
63 86 50
70 95 56
68 91 55
66 90 54
62 84 50
61 83 48
69 93 55
67 90 54
65 88 52
68 92 55
59 81 47
64 87 51
61 83 48
70 94 56
59 82 47
62 85 49
84 104 84
136 150 153
137 152 155
129 146 142
133 149 150
138 154 159
140 156 159
143 159 160
136 153 156
146 162 167
145 161 165
128 145 143
140 156 157
145 161 168
130 146 147
152 168 175
141 158 162
144 159 166
142 156 160
80 100 79
62 85 49
65 89 54
62 84 49
67 91 54
68 91 54
66 90 53
64 88 51
66 89 53
64 88 52
63 86 51
62 85 49
61 85 49
62 85 50
69 94 56
61 84 49
66 89 53
80 99 81
133 149 149
133 148 151
136 152 155
145 161 165
135 150 154
129 145 146
135 150 156
153 168 176
144 160 165
147 164 170
141 157 161
148 162 170
152 167 176
132 149 148
135 152 153
138 154 158
128 144 147
69 94 55
65 88 52
68 92 54
69 93 56
68 92 54
73 99 59
68 93 55
60 83 47
69 93 55
61 85 49
63 85 49
70 95 58
64 88 52
69 93 55
67 91 54
69 93 58
144 161 167
151 166 174
150 165 171
150 166 173
146 163 167
145 161 166
146 162 168
126 144 142
150 167 172
149 163 172
144 161 166
146 162 166
142 158 162
136 153 156
153 168 177
95 116 98
72 98 60
72 98 59
68 92 56
69 93 56
69 94 56
66 90 54
71 97 59
80 104 76
99 118 103
109 128 123
133 149 148
133 151 150
140 157 162
139 157 160
75 97 68
70 95 57
70 95 57
70 96 57
69 94 56
72 97 59
74 100 61
66 90 53
68 93 55
69 94 56
75 101 62
68 93 55
72 95 62
139 155 156
156 173 179
146 163 169
143 160 163
148 165 170
153 170 177
159 175 182
160 177 185
146 163 167
148 165 173
148 163 170
155 172 181
124 143 141
82 109 75
105 127 111
120 139 133
140 157 162
160 177 188
156 171 179
142 159 163
75 99 65
73 99 60
76 102 62
120 139 134
165 180 189
157 174 181
167 184 196
150 168 174
155 172 179
152 170 176
165 181 190
147 165 170
129 148 147
146 163 168
166 184 197
156 173 179
154 170 175
160 178 189
162 180 188
162 179 189
156 173 183
139 156 159
105 128 112
129 148 146
157 174 183
163 180 190
161 179 189
161 180 191
112 134 121
113 135 120
146 163 168
154 171 178
170 188 201
168 185 198
156 174 180
120 140 131
90 117 87
81 110 67
73 99 60
78 104 63
104 126 109
140 158 161
161 179 188
166 182 193
104 127 109
76 102 62
74 101 61
84 110 75
119 139 131
143 160 164
156 172 179
164 181 196
163 181 194
164 181 190
159 176 183
159 176 186
154 171 177
144 162 164
114 133 123
82 105 77
156 171 180
159 176 184
159 175 183
167 184 197
143 160 165
81 103 78
76 103 63
67 92 54
72 98 58
95 117 95
126 146 142
152 167 174
146 161 170
157 174 183
151 167 174
152 167 176
140 157 160
72 98 59
74 100 61
76 103 63
71 97 57
68 92 55
71 96 58
71 96 56
89 113 84
113 133 125
141 158 160
145 161 167
138 155 155
147 162 171
147 163 169
153 170 176
142 160 165
159 175 183
143 159 164
71 97 58
72 97 58
70 96 58
68 93 55
70 95 57
67 92 54
72 97 58
67 92 55
85 109 80
106 124 117
130 148 146
151 166 172
143 160 161
139 154 154
136 152 155
141 158 163
148 165 172
150 166 173
98 117 103
66 90 53
61 84 50
69 94 57
67 92 53
74 100 60
67 91 54
70 95 57
69 93 55
67 90 54
69 94 55
68 91 55
67 91 54
68 93 55
86 107 85
99 118 100
128 145 139
147 163 168
144 161 166
114 131 122
67 92 55
68 93 55
65 89 52
62 86 50
70 94 57
71 96 57
69 93 55
62 85 50
71 96 58
59 82 48
70 96 58
69 94 56
75 101 61
66 89 53
67 91 55
64 87 51
61 84 48
65 89 53
66 90 53
149 163 171
154 169 179
146 161 167
132 148 151
143 159 165
139 156 158
151 165 172
135 151 152
130 147 147
103 120 111
88 108 90
69 92 58
65 89 52
68 92 54
65 88 52
70 95 57
65 90 53
63 86 50
70 95 57
104 121 113
148 162 168
153 168 176
145 161 167
143 158 163
133 148 148
141 158 161
138 154 160
143 159 165
150 164 171
132 147 149
138 153 158
134 150 153
141 158 162
140 156 161
139 153 157
138 153 159
147 162 167
135 149 152
145 159 164
97 116 102
62 85 49
63 86 50
70 95 56
67 91 54
62 85 49
68 92 54
70 94 57
65 89 52
64 87 50
68 93 55
63 86 50
61 84 48
69 93 55
64 88 51
63 84 56
101 120 107
110 128 120
122 138 133
121 137 136
84 105 83
66 90 53
63 85 50
66 89 53
70 95 57
60 83 48
60 82 48
68 92 55
61 83 49
69 93 56
64 87 51
67 91 54
71 96 58
61 84 49
62 86 51
66 90 53
59 81 47
65 89 53
67 91 54
116 133 127
143 158 163
136 151 157
128 144 145
140 155 160
137 152 156
140 155 161
141 155 159
134 150 152
142 156 160
152 168 176
147 162 167
125 142 141
131 147 149
129 145 144
141 157 162
141 155 163
142 158 161
143 159 166
114 130 126
60 82 48
61 83 49
67 90 53
65 88 51
67 90 54
67 90 52
68 92 55
66 90 53
63 86 50
64 88 52
61 85 50
67 91 54
66 90 53
66 89 53
73 98 59
64 88 52
59 81 46
65 88 52
117 135 128
139 154 158
136 153 154
134 149 150
140 156 161
130 146 149
145 161 168
140 156 161
141 157 164
135 150 151
133 149 151
143 160 164
137 153 157
149 165 169
133 149 154
127 142 143
139 154 159
133 147 149
130 146 147
64 87 51
66 90 53
62 85 50
65 88 52
69 93 56
65 89 53
65 89 52
62 86 50
66 90 53
69 94 56
70 95 57
63 87 51
64 87 51
68 92 54
63 86 51
66 90 53
69 93 55
113 131 125
148 164 170
138 154 156
137 152 157
138 153 158
138 153 155
145 160 165
151 165 172
146 161 167
143 159 164
141 156 160
128 145 142
150 165 171
128 144 145
147 162 166
147 162 168
143 159 163
110 128 118
63 87 52
68 91 55
68 92 54
67 92 54
67 92 55
69 94 55
71 96 58
62 85 50
71 97 58
65 89 53
69 94 55
64 89 51
67 91 54
61 85 49
72 97 59
94 115 95
136 152 155
145 162 167
149 165 170
141 157 162
138 155 156
142 158 161
149 164 170
151 167 174
147 163 172
144 160 163
147 165 170
143 158 164
142 158 163
139 156 160
146 162 166
83 105 80
71 96 58
71 96 58
68 93 56
66 91 53
69 95 57
67 92 55
74 99 59
71 96 57
68 93 55
65 90 53
70 95 57
69 93 56
72 95 62
92 113 94
124 143 139
121 139 133
100 120 107
81 103 80
71 96 58
69 93 56
69 94 56
69 93 55
64 88 51
66 91 54
73 99 59
67 92 54
87 111 83
125 143 141
155 172 182
150 166 172
155 171 178
154 170 180
157 173 181
160 177 188
150 168 175
157 174 185
157 174 182
160 177 189
157 174 185
126 144 140
74 100 60
73 100 60
74 100 61
73 99 62
132 150 150
127 146 144
98 120 102
77 104 66
72 98 60
74 100 59
100 120 105
153 169 175
155 172 179
157 175 186
143 160 163
160 177 187
155 172 179
154 171 177
147 164 171
160 177 187
120 138 132
111 131 118
143 162 160
158 175 182
161 178 188
160 177 186
160 176 184
158 175 185
157 174 179
94 119 94
84 111 74
115 136 123
149 166 169
165 184 197
162 180 193
145 163 166
84 111 76
106 128 108
155 174 181
120 141 130
75 101 64
77 105 65
78 105 65
76 104 63
116 137 125
151 169 177
155 172 180
159 175 184
164 182 194
162 178 188
86 110 82
97 120 101
133 152 147
158 174 180
159 175 186
169 185 198
157 175 183
159 176 185
161 178 187
157 173 181
159 175 182
129 147 141
104 127 108
78 104 64
71 97 58
101 123 103
146 164 170
161 178 190
157 173 182
159 175 184
153 170 178
148 164 169
112 132 122
113 133 119
139 156 158
156 172 181
157 174 182
152 169 176
154 171 178
162 179 190
158 176 185
152 169 178
142 160 160
70 94 57
73 99 59
73 99 60
67 92 54
78 104 69
111 129 120
132 149 147
165 181 190
149 165 173
161 178 186
150 167 175
157 172 181
157 173 181
152 168 175
142 158 164
154 171 177
151 167 176
139 157 157
69 95 57
69 94 56
71 96 58
71 96 58
72 97 59
80 102 74
108 127 115
141 158 161
147 163 170
147 161 167
150 167 175
148 164 170
135 151 154
150 166 171
154 170 178
155 171 181
151 167 177
140 156 160
119 136 132
66 90 53
71 95 57
72 97 58
62 86 49
70 95 56
66 89 53
70 94 56
66 90 54
73 99 60
67 91 54
78 101 74
106 125 113
123 139 139
148 164 169
144 160 164
148 163 170
148 163 171
136 154 155
122 138 137
71 96 58
73 99 59
73 97 58
73 99 59
68 93 55
67 92 54
71 97 59
66 89 53
74 101 62
66 90 54
67 92 55
67 91 54
68 93 55
71 97 58
64 88 50
70 95 56
69 93 56
68 92 56
67 90 54
128 144 145
151 166 171
151 166 173
130 147 147
110 128 120
100 117 108
86 106 86
66 90 53
59 81 47
68 93 55
65 89 53
65 90 52
66 89 52
70 94 56
70 95 57
74 100 61
69 93 54
73 98 59
70 95 56
71 93 65
137 153 157
136 151 154
136 152 153
142 156 163
143 156 160
142 157 164
142 157 164
141 158 164
150 165 172
136 152 155
136 150 152
144 159 167
143 157 163
135 152 153
133 150 154
136 150 155
146 161 165
139 154 159
123 140 139
125 143 139
65 89 52
68 92 54
65 88 52
65 88 51
69 94 56
63 85 51
64 88 51
71 94 59
71 93 65
85 105 84
107 126 114
110 127 121
136 153 154
145 161 169
128 143 143
131 146 150
128 144 146
146 161 170
141 157 160
108 126 116
65 89 51
62 86 49
65 88 52
64 87 51
62 85 49
66 90 54
67 92 55
65 88 52
65 89 52
64 87 52
68 91 54
66 90 53
67 90 54
74 99 60
69 94 57
64 87 53
62 85 49
64 88 52
68 91 57
140 157 160
140 156 161
139 155 159
135 151 154
143 159 164
138 153 159
133 148 152
133 147 150
156 171 181
127 143 143
150 166 173
129 144 145
134 149 151
138 155 159
143 158 162
149 164 172
145 161 169
141 156 162
134 148 150
76 97 70
66 90 53
63 86 51
68 92 55
65 90 53
64 87 52
66 90 53
65 89 52
67 91 54
65 89 52
62 85 50
59 81 47
64 88 51
66 90 54
65 88 52
63 87 52
67 91 54
66 89 53
80 99 77
147 162 170
140 158 160
147 162 166
134 149 152
132 147 152
135 149 153
140 156 159
151 164 172
140 154 161
149 165 172
139 155 160
140 155 159
150 165 173
153 169 177
150 165 171
139 154 158
133 149 151
140 156 162
102 120 111
68 92 55
66 90 54
65 88 51
64 88 51
66 90 53
64 88 51
66 89 53
70 96 56
65 89 52
64 88 51
68 92 55
65 89 52
64 88 52
64 87 50
65 88 52
70 95 57
66 89 59
137 153 157
143 158 161
136 152 156
144 160 164
139 156 158
138 153 156
149 164 170
142 157 163
149 163 171
153 168 176
134 150 151
147 163 168
148 163 168
146 161 167
149 166 174
146 162 167
135 152 157
82 102 80
68 92 55
63 86 50
67 91 54
70 94 57
66 91 54
62 85 50
63 86 49
69 94 56
66 91 54
67 91 54
71 96 57
68 92 54
68 93 55
66 90 53
71 96 57
115 133 124
166 181 190
146 162 167
151 167 173
156 172 180
138 154 157
155 172 180
155 171 180
144 159 164
139 155 158
146 161 166
134 149 149
142 158 161
152 167 177
147 162 172
137 154 154
81 106 73
72 97 59
70 95 55
68 92 54
66 90 54
75 102 61
69 94 56
73 99 59
68 93 56
69 94 56
67 92 53
68 93 55
68 94 55
71 96 57
123 143 135
159 175 185
158 173 181
140 156 158
143 159 162
147 163 167
119 136 134
120 138 131
81 105 77
76 100 65
69 95 56
68 93 55
72 98 58
86 110 81
141 159 164
155 172 177
148 164 171
148 164 169
150 167 175
156 172 178
152 169 176
155 171 178
141 159 160
160 177 187
146 163 170
149 165 172
121 139 133
72 97 59
73 99 60
114 133 123
153 170 178
148 164 170
149 167 172
152 170 176
142 160 162
105 126 113
87 110 86
98 119 98
157 174 184
158 176 186
160 177 186
154 170 178
157 173 180
163 180 190
158 174 185
166 183 193
156 173 183
132 150 150
80 105 69
87 112 80
120 140 132
140 160 159
166 183 193
169 186 200
164 182 192
154 172 181
111 132 122
77 104 63
76 103 63
95 119 93
114 134 126
156 174 185
150 168 177
99 122 102
85 112 74
79 106 65
74 101 61
81 108 71
122 142 131
151 169 176
165 182 193
158 175 181
173 188 197
158 175 182
159 177 185
141 159 163
155 173 179
170 187 201
163 180 192
162 179 188
155 172 180
150 167 172
156 173 180
147 165 168
156 171 180
122 141 136
77 103 66
76 104 63
74 101 61
71 97 58
73 99 60
106 127 111
160 175 184
159 175 183
155 171 180
164 180 190
146 162 166
111 131 118
78 104 66
120 139 129
163 179 190
152 169 176
159 175 182
162 178 188
154 170 179
159 175 182
153 168 174
165 182 192
139 157 160
76 102 62
76 100 66
99 120 106
127 143 141
144 161 165
145 162 167
156 172 178
154 171 179
147 163 171
153 169 178
153 169 175
161 177 187
138 155 157
159 175 185
154 170 182
153 169 176
143 159 165
143 160 163
74 99 59
72 97 58
84 107 78
115 133 127
136 152 154
152 168 175
154 170 180
149 165 169
159 175 185
146 162 170
151 167 173
146 162 169
155 171 181
153 169 178
154 169 178
145 161 166
144 161 162
156 172 182
136 153 154
73 98 58
72 97 58
70 95 56
65 89 52
69 94 56
73 99 60
75 99 66
86 107 85
121 139 135
136 153 154
142 158 163
148 164 170
148 163 168
145 160 167
124 140 140
139 154 158
144 160 164
149 165 173
146 162 166
72 98 58
64 88 51
68 92 56
69 95 56
66 89 53
66 90 53
67 92 54
65 88 52
64 88 52
68 93 56
67 91 53
67 91 54
71 96 58
65 89 53
68 93 55
66 90 54
66 91 53
67 91 54
82 104 78
113 132 122
107 126 114
80 102 78
68 92 55
70 95 57
63 87 51
69 93 56
62 85 50
66 90 53
65 88 52
70 95 57
72 97 58
72 97 59
64 89 52
68 93 55
66 90 54
68 91 54
65 89 52
64 88 51
66 90 54
120 138 134
129 146 146
143 159 165
145 162 168
133 149 148
146 162 168
132 148 149
137 154 156
139 155 158
138 154 158
147 162 169
143 160 164
133 147 151
137 152 156
140 156 160
143 158 164
142 158 165
136 152 155
141 156 161
141 157 162
82 103 80
62 85 50
76 98 71
91 109 96
106 124 115
103 121 111
136 152 154
134 149 150
148 164 171
139 155 160
135 151 153
140 156 163
144 159 164
137 153 156
130 147 145
147 162 167
146 161 169
140 155 159
140 154 160
121 136 136
67 91 55
66 90 53
66 90 53
66 88 51
70 94 57
59 81 47
63 87 52
67 92 55
59 82 47
63 87 51
63 87 50
63 86 51
60 83 48
67 92 54
64 87 52
67 92 54
68 92 55
58 80 46
62 86 50
123 139 138
147 162 169
142 157 163
138 153 157
145 160 165
142 156 159
145 161 169
139 155 159
145 160 164
137 152 154
136 152 155
142 158 164
142 157 160
139 155 158
143 158 163
137 152 159
143 157 161
137 153 156
141 156 159
115 130 127
68 92 55
63 87 51
64 88 52
64 87 51
74 100 61
68 91 54
68 92 55
67 91 53
64 88 52
60 82 47
68 91 54
66 89 53
65 88 52
65 88 52
65 88 53
65 88 53
62 86 49
66 90 53
109 128 118
147 162 168
157 172 181
144 160 166
144 160 168
141 157 161
137 152 159
145 162 168
137 154 156
137 152 156
129 143 143
137 152 155
148 164 171
141 157 161
145 161 168
137 152 154
148 163 170
134 151 152
132 148 146
70 94 59
67 91 54
62 86 50
66 89 52
66 90 53
75 100 61
67 91 54
69 93 56
67 92 54
67 92 54
63 86 51
68 91 54
67 91 54
72 97 58
61 84 49
67 90 54
66 89 52
99 120 101
140 155 160
157 171 180
141 156 161
142 156 159
138 155 157
144 161 165
143 159 164
161 176 187
140 155 158
149 166 173
134 151 154
146 163 168
154 168 177
154 170 176
141 157 163
142 157 163
129 144 144
68 92 55
70 96 57
70 95 56
65 89 53
67 91 54
69 94 56
68 92 55
70 94 56
70 95 57
71 96 56
68 93 55
70 94 57
73 99 60
69 94 56
73 98 59
72 95 60
122 140 137
145 162 166
159 174 181
140 155 159
149 166 174
150 166 172
151 167 171
152 168 173
153 169 175
134 150 152
148 164 169
146 161 169
155 172 180
139 156 158
151 166 173
144 161 163
75 100 63
69 94 57
74 99 60
68 93 55
74 99 59
71 97 58
68 92 54
72 97 58
70 95 57
68 93 55
75 102 61
70 94 56
69 94 56
73 98 62
123 141 136
151 168 174
157 172 182
152 168 176
143 159 161
142 159 166
145 160 166
151 167 174
141 159 161
139 157 161
122 141 137
124 143 139
95 117 94
93 116 93
145 164 170
149 166 174
148 165 169
161 178 185
155 170 182
135 152 152
163 179 190
161 178 185
157 172 181
162 178 184
152 169 177
155 171 178
113 132 127
134 152 153
162 178 187
151 168 171
153 170 178
156 174 183
166 183 194
157 172 183
149 166 169
157 175 183
150 166 171
154 171 178
143 161 164
149 167 172
145 162 168
144 162 165
152 168 171
156 172 182
157 173 180
161 178 187
159 177 189
142 159 160
84 111 73
77 104 64
78 106 65
94 118 92
104 127 112
146 163 168
166 183 195
161 177 188
125 145 141
75 102 62
78 106 64
80 107 66
74 101 60
118 140 125
143 160 159
73 99 59
89 114 85
119 140 132
157 175 182
161 179 186
166 182 192
163 180 190
169 187 200
156 173 183
138 157 156
92 115 91
105 127 108
159 177 186
165 182 194
159 176 184
149 167 171
154 171 181
163 178 190
143 160 162
106 128 115
78 105 64
72 98 59
71 96 57
75 102 62
76 103 63
75 102 62
74 100 61
121 141 129
161 178 187
145 162 166
126 144 138
90 114 86
79 106 64
77 103 63
74 100 60
71 97 58
87 109 84
146 163 167
156 174 182
154 172 179
151 167 175
160 177 189
154 171 180
155 171 178
147 164 168
126 143 142
146 162 172
143 159 165
147 164 168
156 173 182
146 162 170
158 174 179
158 174 185
155 170 177
154 170 177
153 169 177
154 171 178
161 177 185
145 162 168
150 167 174
155 172 179
156 173 181
151 168 172
111 130 116
141 158 162
148 164 171
147 164 170
156 171 179
152 167 174
155 171 180
157 172 181
152 168 177
137 153 153
150 166 173
150 167 173
150 166 171
144 160 165
155 171 176
150 166 172
148 164 172
142 158 160
127 146 143
77 104 63
68 92 54
68 93 56
81 105 72
108 127 114
135 151 152
144 159 163
153 167 174
158 173 184
151 167 173
143 159 166
129 145 145
137 152 157
166 182 191
140 156 160
142 157 163
141 156 159
139 155 158
134 150 152
71 93 62
67 91 54
67 90 54
71 95 57
70 94 56
65 89 53
72 96 57
68 92 54
69 93 56
67 90 53
71 95 57
71 96 58
68 92 55
67 91 54
77 99 71
114 132 125
137 153 156
134 151 153
145 161 166
128 144 141
64 88 52
65 88 52
70 95 57
67 92 55
71 96 57
69 94 56
67 91 54
67 91 53
69 94 57
69 94 56
71 97 58
69 93 55
65 89 51
68 92 55
63 86 51
68 91 54
72 96 58
66 90 53
69 93 56
110 127 120
139 155 161
146 162 169
135 150 153
147 162 170
135 151 153
146 160 168
149 164 170
140 157 162
149 163 170
146 161 169
140 157 162
132 148 150
149 164 169
152 167 177
138 153 154
149 164 172
127 142 143
116 132 127
101 121 105
122 140 136
135 151 153
142 157 162
140 156 161
142 157 160
141 157 161
132 148 148
140 156 164
150 165 174
134 150 153
142 158 162
136 151 153
145 159 163
134 150 152
136 152 155
148 163 170
134 151 152
146 162 167
147 162 170
151 166 174
85 105 86
65 89 53
64 88 52
58 80 45
65 88 51
56 78 44
65 88 52
63 86 51
67 92 55
71 96 57
62 85 50
65 88 52
67 92 55
65 89 52
63 86 51
69 94 56
65 89 53
66 91 54
72 96 57
83 105 80
128 144 144
153 167 176
129 144 146
138 154 156
142 157 162
134 150 152
127 143 142
131 148 149
137 153 154
134 149 150
132 148 149
145 160 166
140 156 158
143 158 165
132 149 149
137 153 156
139 154 157
131 146 148
137 153 156
77 98 70
71 96 57
62 85 49
66 90 53
56 79 45
66 89 53
69 93 55
69 92 55
67 91 55
66 89 54
60 83 47
70 94 57
73 98 59
63 87 51
65 89 52
69 93 56
65 89 52
66 90 53
78 98 74
129 146 143
133 149 149
136 151 155
129 146 143
119 136 132
118 135 131
119 135 132
109 126 118
122 138 133
111 127 121
106 124 115
100 119 105
110 127 120
106 125 114
105 124 115
98 116 100
111 128 120
105 123 109
96 114 102
115 133 125
128 143 144
125 142 141
129 147 147
125 143 141
136 152 155
143 161 163
132 149 149
137 153 157
127 143 142
128 144 144
140 156 160
134 148 153
131 148 148
139 154 155
136 152 155
126 143 142
110 129 118
87 108 87
88 106 93
86 107 90
116 132 125
112 130 121
114 132 128
102 120 109
113 132 121
105 123 113
123 141 137
125 142 139
115 132 128
132 149 150
124 142 138
129 146 144
140 156 158
106 125 115
75 95 70
72 94 62
68 92 55
62 85 50
68 93 55
70 95 57
67 92 54
72 97 60
69 94 56
69 94 56
71 96 58
70 95 57
69 95 57
72 98 58
71 96 58
78 101 69
131 147 150
156 173 180
142 159 162
155 170 177
146 163 172
149 164 173
145 162 163
153 169 177
147 163 167
149 165 170
150 165 174
140 155 160
145 161 165
150 165 170
149 166 171
133 150 150
69 95 57
74 101 61
71 96 58
69 93 56
72 98 59
71 97 58
73 99 60
67 91 54
72 98 59
75 101 61
70 95 57
67 92 54
70 95 56
77 102 65
136 153 154
158 173 181
146 163 166
158 174 184
157 175 185
154 170 176
152 168 175
150 165 170
152 169 175
159 176 186
160 176 187
154 171 180
148 165 172
144 162 164
118 136 128
123 143 135
140 157 160
147 164 170
155 172 184
150 167 173
162 179 187
152 168 174
156 173 178
153 169 176
142 160 161
85 108 84
134 150 148
147 165 169
155 172 181
160 176 188
158 176 185
160 176 187
149 167 175
156 173 183
156 172 180
158 174 182
156 173 182
143 160 162
91 114 91
98 120 98
135 153 150
149 167 171
167 184 197
163 179 188
160 175 184
153 169 175
155 172 180
156 173 180
91 113 90
78 106 64
72 98 58
74 100 60
76 104 63
95 119 90
118 139 133
159 177 184
132 152 147
83 109 73
77 105 64
74 101 61
82 110 68
80 108 66
124 144 137
156 173 180
165 181 195
172 190 205
166 182 190
170 187 200
168 185 194
128 147 147
92 117 90
72 99 59
69 94 57
129 148 143
170 187 201
162 179 189
159 176 188
154 170 176
132 150 149
107 128 113
72 98 59
74 101 62
79 106 65
75 102 61
73 99 59
76 103 63
73 99 60
77 104 63
75 102 61
109 129 118
125 145 139
91 116 86
71 98 59
75 101 62
72 98 58
69 94 56
77 103 62
74 100 60
74 100 60
74 101 61
107 130 112
156 172 179
151 167 173
152 169 177
109 131 118
106 128 111
91 114 89
162 178 188
157 172 182
151 167 176
150 167 172
154 170 178
167 183 197
152 169 175
163 178 188
153 167 173
160 175 185
158 174 182
143 158 161
159 174 182
151 166 170
152 169 177
134 153 152
99 120 100
70 95 56
156 171 180
147 163 167
134 151 154
144 161 166
148 163 169
147 163 167
148 164 169
151 168 176
150 167 170
151 167 176
152 167 174
152 167 176
162 177 186
147 162 168
152 168 173
150 167 172
148 166 171
156 171 179
139 156 158
83 105 78
117 135 126
150 167 173
154 171 178
146 163 169
147 163 168
154 170 178
157 172 180
142 158 161
158 174 184
153 168 174
155 172 180
143 159 161
143 158 161
160 175 185
152 169 178
155 170 177
137 153 157
150 167 174
93 111 100
69 93 55
75 100 61
67 91 54
70 95 56
60 83 48
69 94 55
63 87 50
67 92 55
60 83 48
78 99 73
100 120 104
118 135 127
128 145 145
152 168 177
152 169 174
133 148 153
144 159 165
142 158 163
140 155 159
74 98 65
67 91 54
67 90 53
69 95 56
63 87 51
75 101 62
66 91 54
67 90 54
69 94 56
74 99 60
65 89 52
71 96 58
62 84 49
67 92 54
68 92 54
69 94 56
67 92 54
62 84 49
61 84 49
84 105 82
136 152 154
149 164 170
138 154 158
136 153 155
139 155 160
138 154 158
149 165 168
141 157 161
137 152 151
137 153 156
142 157 162
141 156 160
126 143 140
82 102 80
85 106 85
73 97 61
68 92 55
66 90 53
67 91 53
94 114 98
146 162 167
131 147 151
151 166 174
139 154 156
129 143 146
145 161 166
139 155 160
142 157 161
140 156 158
144 159 167
145 162 169
135 150 150
130 146 145
150 165 175
146 162 167
128 144 144
144 159 166
141 157 161
142 157 164
113 130 124
68 92 55
67 91 54
71 96 57
60 83 48
64 87 52
64 88 51
67 91 54
68 92 54
66 90 53
66 90 54
67 91 54
69 94 57
59 82 47
66 89 52
70 94 57
68 92 56
68 92 55
61 84 48
62 85 49
130 144 148
135 151 155
152 166 175
146 161 166
134 148 151
132 148 150
144 160 164
133 149 149
136 152 153
149 164 172
143 159 166
133 150 150
138 154 156
144 159 166
127 143 143
137 153 158
137 152 156
138 155 155
147 163 169
135 151 153
65 88 51
63 87 51
76 101 63
68 90 60
84 105 80
94 112 97
109 129 117
92 114 95
103 119 112
114 132 124
102 120 111
128 145 145
116 134 133
126 142 143
131 148 150
134 150 152
139 154 157
147 163 169
115 133 125
70 95 57
65 88 52
68 93 55
64 87 52
69 93 55
65 89 52
67 91 54
68 92 55
65 88 52
69 93 55
61 83 48
71 95 57
67 91 55
63 86 50
70 95 58
65 89 53
66 90 53
70 95 61
136 152 154
145 161 164
142 158 163
135 152 155
131 146 149
143 158 161
147 163 169
146 162 167
137 152 156
153 169 176
127 143 142
145 160 166
134 149 151
147 163 169
137 155 158
138 154 158
147 163 169
135 151 156
77 100 74
71 95 57
72 97 58
68 93 55
68 93 55
68 92 55
66 91 54
68 93 54
69 94 56
61 85 49
63 86 51
65 88 52
70 95 56
60 83 48
69 94 56
70 96 58
71 97 58
124 141 141
151 167 174
148 164 171
145 162 167
129 144 144
145 161 167
138 154 156
119 137 130
129 144 141
131 147 146
115 132 127
107 126 112
103 123 107
102 122 108
94 117 93
82 104 77
101 120 109
142 158 161
158 173 181
134 151 153
147 163 170
147 162 168
143 159 161
150 167 173
150 166 172
153 169 176
148 165 172
148 165 171
151 166 174
148 164 169
154 170 179
143 158 163
109 127 118
74 100 60
68 93 54
70 95 57
69 94 56
65 89 52
72 97 58
67 92 53
71 97 58
68 93 55
70 95 56
69 95 57
73 98 59
70 95 57
77 101 70
142 160 164
147 164 173
148 164 169
145 161 166
155 172 181
152 169 177
163 180 191
163 180 191
165 180 190
149 166 171
156 173 180
162 178 191
158 174 184
137 156 157
81 104 74
70 96 57
71 97 58
103 125 106
106 126 111
124 142 140
156 173 181
147 165 169
105 127 115
70 95 57
73 99 60
79 106 65
122 141 134
152 168 172
160 176 186
145 162 169
154 170 174
146 163 169
165 182 191
160 176 185
164 180 189
159 176 186
162 178 190
150 169 173
78 104 66
77 104 64
70 96 57
97 121 97
115 137 124
145 163 166
160 177 185
168 185 199
160 179 189
155 172 180
103 124 108
76 103 62
76 102 62
71 97 58
79 107 66
78 106 65
78 106 65
96 120 97
122 143 132
90 114 85
81 110 68
75 103 63
73 100 61
168 184 194
169 185 195
160 179 190
157 175 184
162 180 189
118 139 130
89 115 84
77 105 63
78 106 65
75 102 62
77 104 64
152 170 175
161 180 188
160 178 185
122 143 133
84 109 78
78 105 63
74 100 61
75 101 61
71 97 59
75 101 61
77 105 64
75 102 62
73 99 59
80 105 69
113 133 120
147 165 169
115 134 127
75 101 61
75 102 62
71 97 59
70 96 56
70 96 58
75 101 62
70 96 57
74 101 61
73 99 60
70 96 57
74 101 61
100 121 103
141 159 164
97 119 95
74 101 61
76 103 63
99 122 103
152 169 180
152 168 172
151 167 172
145 161 165
144 160 165
150 166 173
153 168 178
144 162 166
154 170 179
155 171 178
141 157 159
147 165 171
128 146 145
108 129 115
72 98 58
75 101 61
73 99 59
72 98 58
149 166 172
159 176 186
159 176 182
151 166 172
150 166 172
161 177 187
160 175 185
145 160 163
155 170 176
150 166 171
143 159 164
148 164 169
142 158 161
156 172 182
147 163 168
157 174 186
133 151 152
128 147 143
83 104 81
147 164 171
151 166 172
157 173 181
147 162 167
155 171 178
144 160 165
136 152 155
149 166 171
151 168 175
163 178 191
140 156 160
148 164 172
140 156 157
147 162 165
151 168 177
142 158 163
158 172 181
146 163 167
135 150 152
108 127 119
70 94 57
68 92 55
62 84 49
72 97 58
71 96 57
80 104 71
103 125 106
111 130 121
135 152 154
135 152 156
151 167 173
146 162 168
151 167 173
142 157 159
139 156 159
147 162 167
136 151 153
133 148 148
133 150 153
87 108 87
71 97 58
71 96 57
67 92 55
69 94 56
70 96 57
66 90 52
68 93 55
68 92 55
73 99 61
61 83 48
70 94 56
72 98 58
66 90 53
73 98 60
66 90 53
70 96 57
67 92 55
71 97 57
60 83 49
144 161 166
135 151 153
141 156 157
140 156 158
133 150 156
144 159 161
130 146 147
113 130 126
94 111 102
91 111 91
66 89 55
67 92 54
68 93 55
70 95 56
75 101 61
71 96 57
66 90 53
68 92 54
64 87 51
65 88 52
140 155 161
141 158 161
152 167 174
150 166 175
148 163 169
151 165 172
144 159 162
145 160 165
149 165 171
133 148 150
142 158 160
136 153 155
148 164 171
144 160 163
137 152 154
145 160 164
134 149 152
149 164 173
142 158 160
130 147 147
78 101 66
70 94 58
66 90 54
69 94 55
66 90 53
60 83 49
70 94 56
65 90 54
62 85 50
68 93 55
66 90 53
78 104 63
66 91 54
66 91 54
66 89 52
66 91 54
65 88 52
68 93 55
68 92 55
105 124 113
141 156 158
146 161 167
148 164 169
143 159 163
142 158 164
141 157 161
145 161 170
150 165 171
142 158 162
141 157 162
142 158 163
134 151 153
132 148 148
120 137 134
117 132 129
119 137 133
102 121 110
96 118 97
89 110 92
123 139 139
131 147 146
149 166 172
144 161 164
146 162 170
140 156 162
138 152 159
137 152 158
142 159 162
146 162 167
139 155 158
147 163 169
141 158 163
145 161 166
139 155 158
144 160 165
143 159 163
148 163 171
138 153 157
79 100 77
65 88 52
70 95 57
64 87 51
70 96 57
67 92 55
67 91 54
69 94 56
68 93 55
66 90 53
68 94 56
66 90 54
64 88 51
67 92 53
74 100 60
71 96 58
68 92 55
68 93 56
94 114 96
141 156 164
138 155 158
133 148 151
150 166 170
152 169 176
150 165 170
141 156 159
149 164 168
143 159 163
148 163 169
150 166 173
155 171 178
138 153 159
141 157 160
147 163 169
143 159 166
153 169 178
127 145 144
76 102 63
71 96 57
66 90 53
69 94 56
65 89 52
68 92 54
66 90 54
66 90 52
73 98 59
66 90 53
68 93 55
68 93 55
67 92 55
68 93 55
68 93 55
75 101 60
80 104 72
138 154 154
139 155 159
152 167 175
141 158 160
153 170 179
146 162 167
155 170 178
143 160 168
138 154 156
155 170 176
149 166 174
152 167 175
152 167 174
145 161 164
153 169 177
152 168 175
125 144 139
90 110 92
94 114 98
112 131 118
117 134 126
113 132 126
125 143 139
129 147 144
142 158 159
144 159 164
162 178 187
152 169 175
148 166 172
152 169 177
155 171 179
146 162 167
96 117 100
69 94 56
71 97 58
72 98 58
65 90 53
71 98 59
70 96 58
69 94 56
69 94 55
70 96 58
72 98 58
72 98 59
70 95 58
75 101 61
85 108 81
149 167 171
152 169 175
154 171 179
162 178 188
146 163 169
152 168 176
138 155 158
156 173 182
148 166 173
152 168 176
150 168 176
151 168 175
149 166 175
129 147 145
76 101 66
73 99 60
72 97 59
71 96 57
84 107 78
131 150 148
150 167 173
150 168 173
123 141 137
122 140 133
90 113 86
70 96 58
134 152 148
163 178 188
158 175 185
157 174 183
158 174 182
170 187 202
155 171 179
147 163 166
163 180 190
163 178 189
159 175 186
146 164 170
85 110 80
76 103 63
74 101 61
74 101 62
79 106 65
83 108 76
119 139 128
147 165 170
160 177 185
172 188 196
105 127 110
74 101 61
78 105 65
77 105 64
75 101 61
76 102 62
80 108 66
77 104 63
85 112 79
127 147 142
108 131 115
84 110 75
161 179 189
166 182 191
155 173 179
124 143 134
79 106 67
79 106 65
79 107 65
74 101 61
78 105 64
81 109 67
80 108 69
138 157 157
120 139 133
82 107 71
77 104 63
76 104 63
74 100 61
72 98 58
77 105 65
76 102 62
75 101 61
73 100 61
86 110 80
125 144 134
153 170 176
160 176 185
167 183 194
106 127 111
72 98 59
77 104 64
73 99 60
77 104 63
77 103 63
71 97 57
72 98 58
73 100 60
102 123 105
113 132 123
145 161 164
153 169 176
155 173 180
150 167 174
136 153 153
85 109 82
92 115 90
154 171 178
160 176 186
151 168 176
155 171 180
153 170 178
156 172 180
167 182 194
157 173 183
145 163 168
129 147 144
110 131 119
79 103 73
70 95 57
77 104 63
73 99 61
74 101 61
74 100 61
77 104 63
144 160 163
154 169 175
151 166 170
151 167 173
155 172 177
158 174 182
151 166 173
157 173 182
158 174 185
148 164 171
152 168 172
150 165 170
151 167 171
145 161 162
110 128 115
87 110 82
68 92 55
74 99 60
67 92 54
144 161 167
152 168 172
150 165 172
149 165 170
151 167 173
155 171 179
132 148 152
150 167 173
144 159 166
144 160 166
143 159 162
148 162 166
142 157 162
153 169 175
142 159 163
147 164 171
150 166 173
157 173 181
151 166 172
128 144 143
66 89 52
71 96 58
87 109 87
108 127 119
135 152 155
139 155 159
152 168 171
151 167 175
137 153 159
143 158 163
139 155 160
153 169 179
143 159 163
149 164 170
158 172 180
145 160 166
150 165 171
147 164 171
139 155 159
112 129 123
67 91 54
68 93 56
70 95 56
72 97 58
70 95 57
75 101 62
68 93 56
71 96 57
65 90 53
72 97 58
73 98 58
68 93 56
71 96 58
69 94 56
70 94 56
72 97 59
68 92 55
70 94 57
65 90 52
124 142 137
131 148 149
130 147 145
100 119 105
101 121 106
75 98 67
71 97 58
71 95 57
65 90 53
70 95 56
65 89 52
65 89 53
75 101 61
65 89 53
67 92 55
67 91 54
69 94 56
68 93 56
62 86 50
67 91 54
114 131 126
158 172 180
151 167 172
151 168 176
158 173 181
136 151 152
135 151 153
156 172 183
136 151 153
146 161 167
145 160 161
148 164 169
140 156 160
134 149 151
145 161 168
141 157 162
146 161 168
145 160 165
139 155 160
139 155 159
111 128 121
62 86 51
68 92 53
67 91 55
69 93 55
65 90 53
65 89 53
65 89 54
65 89 52
63 85 50
70 95 57
67 92 55
70 95 57
67 91 54
66 91 54
66 90 54
70 93 56
65 88 52
69 94 56
73 97 62
134 151 152
140 157 162
136 153 154
133 151 151
116 133 127
113 131 122
107 126 114
96 116 99
81 103 75
74 95 69
68 92 55
65 89 51
66 90 54
65 90 53
69 94 57
68 93 56
68 93 55
71 96 57
73 99 59
100 119 105
144 161 167
147 164 169
141 157 162
146 162 166
142 157 159
143 159 163
156 171 179
143 159 166
136 153 157
129 146 148
153 169 176
142 158 160
134 149 153
144 159 166
144 160 166
140 155 161
151 167 176
144 160 168
124 141 137
70 95 57
67 92 55
66 90 53
66 90 52
68 92 55
69 93 56
68 92 55
66 90 54
67 91 55
71 96 57
69 94 56
68 92 55
69 94 56
65 88 53
66 90 53
69 94 56
74 99 59
66 90 54
109 127 118
153 168 175
141 157 162
151 167 175
141 158 161
146 161 169
155 170 179
153 168 175
147 163 168
144 159 165
143 159 165
143 159 163
145 161 165
134 150 150
154 170 178
135 151 155
140 155 158
147 162 167
108 126 116
72 97 59
65 89 52
69 93 55
65 88 52
70 94 56
68 92 55
68 92 55
70 96 57
70 95 57
68 93 55
72 97 58
67 91 54
71 95 57
72 98 58
70 95 57
69 93 55
98 118 104
139 155 157
137 154 156
139 155 158
153 170 177
151 167 175
150 165 168
145 161 164
142 159 164
152 167 175
149 165 170
157 172 179
155 171 176
154 170 180
146 162 166
145 161 164
149 165 172
99 120 103
72 97 57
72 98 58
69 95 57
65 90 53
72 97 58
72 98 58
70 96 57
74 100 60
81 105 74
91 112 92
104 124 108
110 129 117
127 145 142
126 144 143
132 148 147
90 111 87
78 104 69
65 91 53
75 101 62
71 96 59
75 101 61
75 101 61
71 96 57
70 95 57
72 97 58
71 97 57
74 100 60
72 98 60
78 105 64
106 127 115
146 163 166
152 168 171
154 169 175
156 172 180
160 177 187
156 173 182
157 174 181
147 164 172
149 166 172
148 165 173
152 169 176
153 171 180
149 165 171
132 149 151
70 96 57
84 108 79
113 132 120
158 176 184
153 169 175
155 172 179
156 172 179
165 180 192
148 165 173
161 179 187
151 168 173
134 152 154
145 163 169
142 159 162
150 168 176
152 169 175
158 173 179
154 170 179
163 179 187
165 181 188
161 178 188
157 173 183
161 179 189
145 163 167
78 102 70
79 107 65
72 99 60
74 100 61
74 100 60
73 101 61
76 103 62
82 108 75
117 137 127
139 156 158
106 128 113
76 103 62
70 96 56
78 105 64
78 104 63
79 105 64
81 109 67
77 105 64
86 112 80
141 159 159
160 178 190
138 156 156
117 139 127
79 105 67
74 101 61
80 108 66
79 108 66
79 107 64
72 98 59
77 104 65
107 129 114
124 143 134
78 104 64
69 96 56
72 99 60
74 101 61
73 99 59
77 104 63
79 106 65
73 100 61
74 101 61
101 124 104
140 156 158
172 187 198
167 183 195
162 179 190
154 172 179
160 177 189
97 118 97
77 104 64
74 99 60
73 100 60
76 102 62
76 102 63
78 104 67
103 125 110
135 153 149
157 175 185
151 168 177
153 170 177
161 178 187
152 169 178
147 163 170
159 175 184
165 180 191
140 158 161
148 165 170
147 165 170
161 177 187
147 164 173
159 175 181
150 167 172
137 154 153
114 134 120
85 110 78
79 106 64
69 95 57
74 101 60
74 100 61
73 99 60
69 95 58
74 100 61
70 95 57
73 99 59
148 164 170
148 165 172
151 167 174
152 168 173
157 173 181
151 166 174
139 155 161
155 171 179
156 171 181
146 163 170
140 156 158
104 123 110
83 107 76
73 99 61
68 93 55
68 93 55
72 97 58
70 95 57
76 102 62
135 152 156
152 169 177
165 180 189
151 167 175
151 168 176
148 163 171
142 157 161
142 157 162
161 177 185
150 166 173
166 182 195
155 171 178
156 172 181
136 151 152
146 161 167
146 162 170
142 158 161
153 168 175
138 154 160
130 147 144
128 145 146
151 167 173
145 160 166
154 170 178
149 166 174
136 151 157
154 171 180
145 161 166
150 165 172
162 178 189
144 160 165
139 155 159
150 166 172
154 170 178
144 160 161
152 168 172
151 168 177
144 161 167
145 160 164
110 128 117
67 92 56
70 95 56
70 95 56
69 94 56
67 91 53
71 96 57
65 88 52
70 96 58
68 92 55
69 95 57
70 95 57
69 94 56
68 92 55
65 89 53
67 92 54
79 103 73
105 124 107
102 121 110
129 147 147
115 132 123
67 91 54
72 97 58
66 90 53
65 89 53
68 92 55
63 87 51
62 85 50
60 83 48
68 92 55
67 91 54
70 95 57
69 93 55
70 95 57
65 89 52
71 95 58
65 89 52
66 90 54
69 94 56
66 90 54
91 111 89
155 170 177
147 163 168
153 168 174
135 152 154
149 164 169
143 158 162
143 158 161
141 158 161
146 160 167
151 166 173
156 171 180
145 161 169
137 153 157
151 166 172
156 171 181
140 156 158
138 152 154
141 156 160
149 165 170
129 146 145
68 92 54
72 98 59
62 86 50
69 94 56
71 96 57
60 83 48
67 91 54
67 91 53
67 91 53
67 90 54
63 86 50
68 92 55
67 90 53
75 99 67
88 110 87
102 121 109
117 135 130
125 142 141
127 143 143
116 133 132
76 99 68
72 98 60
71 96 58
59 82 47
70 95 56
65 88 52
67 91 54
68 92 55
67 91 54
68 93 55
70 95 57
69 94 55
68 92 55
64 88 52
72 97 58
70 95 58
65 89 52
72 97 58
65 89 53
134 151 151
140 156 161
142 158 163
143 159 163
145 163 167
140 157 161
159 175 184
127 142 143
142 158 162
151 167 176
155 172 180
143 159 163
141 155 162
151 168 175
142 158 161
144 160 167
144 159 163
144 160 165
128 145 144
86 108 86
68 92 55
68 92 54
70 95 57
67 90 53
68 92 55
66 90 53
72 98 58
69 93 55
67 91 53
63 87 50
63 87 51
68 92 55
68 92 56
70 96 57
68 93 55
71 96 58
71 96 57
89 110 93
146 162 168
146 162 168
154 170 179
135 151 152
143 158 165
139 155 156
140 156 159
148 164 170
137 153 158
151 167 176
147 163 167
143 158 163
153 169 179
141 157 162
143 160 165
149 164 168
150 166 172
141 158 162
69 94 55
72 98 59
69 93 54
67 92 54
77 104 62
67 91 53
71 97 58
67 91 54
72 97 59
68 92 55
65 88 52
70 95 57
69 94 55
68 93 56
69 93 55
67 92 54
65 89 52
126 143 141
144 160 164
144 162 167
153 168 171
143 159 161
157 172 179
152 168 175
151 167 173
154 170 177
145 162 166
151 167 175
141 157 160
151 167 174
162 176 185
154 171 180
143 160 163
139 156 157
79 101 71
72 97 59
70 95 57
68 94 56
69 94 56
72 97 59
72 98 59
71 97 57
70 94 57
67 91 55
79 105 64
70 96 57
75 101 61
66 91 54
66 91 54
93 114 92
159 175 183
135 151 154
131 149 147
130 148 146
95 115 100
114 133 126
92 113 90
81 104 73
76 102 62
75 103 62
67 92 55
72 98 58
66 91 53
74 100 60
108 129 115
150 166 170
150 167 175
153 170 177
159 175 186
148 165 169
154 171 179
152 170 176
154 171 180
168 183 195
155 171 178
156 173 179
159 175 184
133 151 150
127 144 139
150 167 170
160 178 190
139 156 158
156 172 180
170 186 197
145 162 168
155 172 182
157 173 181
154 171 179
144 161 164
163 180 192
151 168 176
116 134 129
94 118 91
104 124 112
125 145 140
152 169 175
163 179 190
164 182 193
157 174 184
159 176 184
162 179 190
163 179 187
151 169 172
99 123 101
70 95 56
75 102 61
71 98 59
76 103 63
77 104 64
77 103 63
74 100 60
72 99 59
80 106 67
110 133 115
124 145 140
95 120 96
77 104 64
75 103 62
68 94 55
73 100 60
80 108 66
72 100 60
128 148 144
78 105 64
81 108 66
78 106 65
76 103 63
80 109 67
78 105 64
78 105 64
115 136 122
157 174 183
160 178 190
144 162 162
77 103 62
74 101 61
77 104 64
73 100 60
77 104 63
77 104 64
78 105 67
116 136 125
140 157 158
160 177 188
161 178 187
151 167 175
154 172 184
157 173 181
163 179 188
165 182 194
89 113 86
72 98 59
77 105 65
75 103 64
80 105 72
129 147 140
156 173 181
151 167 174
160 175 184
166 183 194
154 170 179
162 178 187
157 174 181
160 177 185
170 186 198
157 174 182
165 180 188
136 154 156
70 96 57
96 119 96
132 149 148
148 165 170
132 152 149
96 118 96
73 101 61
71 96 57
75 101 62
70 95 57
75 101 61
70 96 57
73 99 60
70 95 57
72 98 59
74 100 61
72 99 59
70 96 58
130 147 144
163 179 188
163 180 191
149 164 173
161 177 188
152 168 175
141 157 163
135 152 153
117 137 129
71 96 58
70 96 57
68 94 56
75 101 61
72 97 59
66 92 55
74 100 60
72 97 58
75 102 62
70 95 56
120 137 131
147 163 168
152 168 173
159 175 186
149 165 170
153 168 175
148 165 173
149 166 170
155 171 177
150 166 172
149 165 170
154 169 177
151 168 176
150 167 176
153 168 173
138 153 157
118 135 128
92 113 90
76 101 67
76 100 66
155 172 177
151 167 175
159 175 183
150 164 168
152 168 175
151 165 171
156 170 178
143 157 161
155 171 180
153 168 176
142 159 161
146 161 166
152 167 177
136 152 153
142 158 162
154 170 177
148 164 166
142 158 162
151 166 172
134 149 153
71 97 58
70 95 58
65 89 52
70 95 57
62 86 50
67 92 54
63 88 51
63 87 51
67 92 54
63 87 51
69 94 56
81 102 77
106 126 110
124 141 134
140 156 164
153 167 173
138 153 159
142 157 161
147 164 168
142 158 163
76 100 67
75 101 62
67 92 54
75 101 61
75 101 61
70 95 57
68 92 54
70 95 56
69 93 56
66 90 54
69 95 57
70 96 57
72 97 59
71 97 59
65 89 52
71 96 57
66 90 54
70 95 57
71 96 57
66 90 52
135 151 156
153 170 179
159 174 185
138 154 156
155 171 179
142 157 161
131 149 150
145 161 165
152 168 176
155 170 177
151 167 176
152 167 172
141 157 162
136 152 155
147 163 169
150 168 175
136 154 158
149 165 173
141 158 161
129 145 144
87 107 90
64 87 52
66 90 53
68 92 53
62 85 49
80 103 76
87 107 86
88 107 89
108 126 116
123 141 134
120 137 134
142 157 163
143 159 165
152 169 176
141 158 161
162 178 187
131 147 149
146 161 166
134 150 150
144 161 167
78 102 72
68 94 55
69 94 56
68 94 56
67 90 53
71 97 57
68 92 55
65 89 52
69 95 57
67 91 54
68 93 55
68 93 55
67 90 53
68 92 55
69 94 56
65 89 52
69 93 56
73 99 60
71 96 58
96 118 96
137 152 155
145 161 166
155 170 180
149 165 171
149 164 172
152 168 176
140 156 159
141 157 162
141 157 164
150 166 172
139 155 159
131 148 147
143 160 165
152 168 177
157 171 180
147 163 170
148 164 168
151 166 173
139 155 156
66 90 53
68 92 54
66 90 54
72 97 58
71 96 58
72 97 59
71 96 57
70 94 56
66 90 52
72 97 58
68 93 55
73 98 60
68 92 55
69 94 56
68 93 56
67 92 55
66 90 54
72 97 58
114 132 125
148 163 170
147 163 166
147 163 170
150 165 169
151 167 175
156 172 181
154 171 179
155 170 179
149 165 169
132 149 150
156 171 178
145 163 167
146 163 167
148 164 169
146 163 168
142 158 161
153 169 176
111 127 123
71 96 58
74 100 61
69 94 56
69 94 56
65 90 53
72 98 59
71 96 58
72 97 58
71 97 57
70 94 57
67 92 53
74 100 59
76 101 62
75 101 60
71 96 57
68 93 55
93 115 94
145 160 169
163 180 191
154 170 177
153 169 176
146 161 166
140 158 161
133 151 151
158 174 182
151 169 178
157 173 182
148 164 170
157 172 180
151 168 176
142 158 161
141 156 159
140 157 157
124 140 139
66 90 52
70 95 57
73 98 59
77 103 62
73 98 59
69 95 57
75 101 61
71 97 58
71 98 59
71 96 57
75 101 61
71 96 57
66 90 53
73 99 61
69 95 56
126 145 140
150 167 174
152 168 172
150 166 171
148 165 172
152 168 172
153 170 177
148 164 169
148 164 168
141 157 159
120 140 135
115 133 127
111 129 123
97 120 98
80 106 70
111 130 118
151 167 174
150 166 174
157 174 183
155 171 180
163 179 190
153 171 178
162 178 186
158 174 182
151 168 175
119 140 128
95 116 96
66 91 53
73 99 60
134 154 155
152 169 177
151 168 171
150 166 175
161 177 186
152 168 173
169 185 198
164 182 193
162 179 189
162 179 189
157 174 186
151 167 171
156 173 180
106 128 114
74 99 59
78 105 64
80 108 67
91 117 88
117 137 129
144 162 163
154 172 178
159 177 186
152 168 173
162 178 187
160 177 187
91 116 87
75 103 62
76 103 63
75 102 62
77 103 63
76 102 62
76 104 63
73 100 61
80 108 66
76 103 63
136 155 150
165 182 192
145 163 168
124 143 134
88 111 87
75 102 62
75 103 62
79 107 65
76 103 63
78 105 64
80 108 66
72 99 59
76 102 61
87 112 79
123 144 139
150 166 170
170 187 201
160 178 189
167 184 197
116 135 127
76 104 63
79 107 67
77 104 62
79 106 64
83 108 77
122 142 138
149 166 171
161 177 185
160 177 186
167 185 196
154 171 176
159 177 186
160 176 186
163 180 190
160 177 185
167 183 194
81 108 69
72 98 59
96 119 96
136 155 155
165 180 190
157 174 183
158 174 184
152 169 176
161 177 188
153 170 177
151 168 173
156 173 181
154 171 178
150 167 175
153 170 178
151 166 173
158 175 183
131 150 148
80 106 70
108 127 115
134 150 150
158 174 185
133 151 152
93 114 93
79 105 67
72 99 59
72 98 58
77 103 63
78 105 64
69 94 56
69 95 57
74 100 60
77 105 64
74 100 60
74 100 60
73 99 60
137 155 157
153 168 174
162 178 188
152 168 174
140 158 162
106 126 115
90 112 88
74 101 61
78 105 65
72 96 59
75 101 61
70 95 57
73 99 60
67 91 53
73 99 59
70 95 57
75 101 61
72 97 58
67 92 54
121 139 131
146 164 170
168 183 190
148 164 170
158 174 185
157 174 182
147 163 167
160 176 183
149 165 172
147 164 173
151 167 176
147 164 171
134 151 151
114 133 119
84 107 79
74 99 60
73 98 59
69 94 56
71 97 58
71 97 59
145 161 167
153 170 177
155 170 179
153 168 177
153 169 174
142 157 159
156 171 179
153 170 178
152 168 176
158 174 184
147 164 169
153 169 177
148 164 170
142 159 161
134 151 154
158 173 182
146 162 168
149 165 172
151 167 174
146 162 168
87 108 82
68 93 55
69 93 55
70 95 58
76 103 63
68 92 55
75 101 65
86 107 85
103 122 107
131 148 147
146 162 166
153 168 175
148 164 169
150 165 174
149 164 171
151 168 176
140 156 160
142 157 164
147 162 168
144 160 163
93 113 101
70 96 57
67 91 54
63 87 50
74 100 61
68 93 54
66 91 54
70 95 57
70 94 56
71 96 57
70 95 56
69 93 56
69 93 56
71 96 57
73 98 58
65 90 53
67 92 53
69 94 57
65 90 53
67 91 53
114 131 127
153 169 177
149 164 172
160 177 188
140 155 160
145 160 164
151 167 172
126 141 143
146 162 171
144 161 166
147 163 170
125 141 139
148 164 170
140 155 158
145 162 168
144 160 165
155 170 181
149 166 171
135 151 154
143 160 162
116 133 130
100 119 102
124 141 138
125 142 141
126 143 142
152 167 176
145 161 166
140 156 161
145 161 164
148 164 171
142 159 166
145 160 164
147 163 170
144 160 165
136 152 154
142 159 162
156 172 180
138 154 156
149 164 169
142 159 165
121 137 135
62 86 50
65 89 52
75 101 61
63 88 51
67 92 54
69 93 55
69 94 55
66 90 53
69 93 56
66 90 53
67 91 54
73 99 59
70 95 57
65 89 52
66 90 53
61 84 48
71 96 57
70 95 56
74 96 66
142 158 164
148 163 168
155 170 180
143 159 165
140 158 159
146 161 164
142 158 161
143 160 164
151 168 177
143 160 165
153 169 175
149 165 171
155 170 179
129 145 147
145 161 165
142 158 164
152 169 175
144 161 165
141 157 162
105 122 111
65 90 53
65 89 52
71 96 59
71 97 57
67 91 54
68 92 55
67 92 54
67 91 54
69 93 55
66 90 53
67 92 55
73 99 59
68 92 55
72 98 58
69 94 56
63 87 51
73 99 60
71 95 59
142 159 163
153 168 174
144 159 166
143 159 167
151 166 172
145 162 166
157 174 181
137 154 154
148 164 168
139 157 160
149 164 170
149 164 171
149 165 170
151 167 172
147 163 167
142 159 165
152 167 174
140 156 160
78 101 70
70 95 57
74 99 60
66 91 54
62 85 48
72 97 58
64 87 51
68 93 56
71 96 57
70 95 57
64 88 50
70 95 56
65 90 53
70 95 57
71 96 58
68 93 54
68 93 55
104 124 110
160 176 186
153 169 177
161 175 185
157 173 180
162 179 189
147 163 168
155 172 182
164 179 191
143 160 164
147 163 171
151 167 176
158 175 184
140 156 159
161 177 187
151 167 173
154 170 177
112 128 121
72 97 58
71 96 57
69 95 57
74 101 60
67 92 54
66 90 54
67 93 54
69 94 57
67 92 55
73 99 60
73 98 59
66 91 53
71 98 59
75 101 62
69 94 56
138 155 157
160 176 184
150 166 170
151 168 174
159 176 185
153 170 179
152 168 175
164 181 194
152 168 173
152 167 171
155 172 182
155 173 180
153 172 178
158 174 183
161 177 186
114 134 127
122 139 136
120 138 135
143 161 162
146 163 168
156 172 179
127 146 143
106 126 111
78 103 69
71 97 59
73 99 61
67 91 53
68 93 55
83 109 72
138 155 157
156 172 180
162 179 190
157 173 181
159 176 186
154 171 181
154 171 180
158 174 184
162 180 193
154 172 179
154 171 179
150 168 176
147 166 170
93 118 91
75 102 61
75 102 61
77 104 63
78 106 65
73 99 59
76 103 63
95 118 94
109 130 118
124 141 139
152 169 176
152 169 175
86 109 82
72 98 60
75 102 62
74 101 61
74 100 60
77 105 64
74 101 61
72 98 60
76 103 62
75 103 62
128 148 141
164 182 195
171 188 200
159 178 189
148 167 176
122 142 133
87 113 83
78 105 64
76 103 63
72 98 59
87 113 80
135 153 152
154 171 181
172 189 204
153 170 181
164 182 193
168 184 196
165 182 193
103 126 107
78 106 65
78 105 63
91 116 88
131 150 146
162 179 187
169 185 196
163 180 192
164 181 192
161 178 190
164 182 192
150 168 178
158 176 186
163 180 191
163 181 191
165 182 193
156 173 181
117 136 128
150 168 174
164 180 191
154 171 179
158 175 183
170 185 195
163 179 187
158 174 183
164 180 192
148 165 170
157 174 183
159 176 185
160 176 187
152 169 174
157 174 180
160 176 183
142 159 161
120 139 129
152 169 174
156 172 179
156 173 180
162 179 186
161 177 186
160 176 185
162 180 189
119 136 130
98 120 102
76 103 62
69 94 56
72 98 59
70 96 58
70 95 56
70 96 58
72 98 59
72 98 58
75 102 62
129 147 145
130 149 148
115 134 125
91 115 87
70 95 57
73 99 60
74 100 60
73 99 59
72 98 59
73 99 60
72 97 58
71 97 57
73 99 60
75 101 61
74 100 61
69 94 56
75 102 62
73 100 60
66 91 54
108 128 116
152 168 176
156 172 180
148 164 165
151 167 176
157 173 183
164 181 191
149 165 172
146 162 168
131 150 149
91 112 94
72 97 61
73 100 61
72 97 58
70 95 58
67 92 55
71 96 57
70 95 57
76 102 62
72 97 58
116 133 126
146 162 167
149 165 171
151 168 172
147 162 167
152 167 173
150 166 172
146 162 163
147 163 170
151 167 174
151 167 175
161 178 192
148 164 170
148 164 170
138 155 156
148 165 172
148 163 169
155 170 179
151 167 171
154 172 181
105 122 113
71 96 57
73 98 58
92 113 92
111 130 119
118 135 130
135 152 151
141 158 160
147 163 166
150 166 171
144 159 164
151 167 176
153 170 180
146 162 167
141 157 160
158 173 182
152 168 174
150 165 171
159 175 184
148 163 169
106 125 111
68 93 55
66 90 53
72 98 59
69 93 56
65 89 53
70 96 57
65 89 52
72 97 58
69 94 56
69 94 56
72 97 59
70 95 56
66 89 54
71 96 57
69 93 56
68 92 54
68 93 55
70 94 56
72 98 59
92 112 94
145 160 166
140 156 159
152 167 174
156 172 178
147 163 166
140 156 156
154 169 178
137 152 156
149 166 171
145 161 166
149 165 171
147 163 171
130 146 146
137 153 152
123 140 137
96 116 96
79 101 77
73 96 63
64 87 51
81 103 79
139 155 157
144 161 167
155 169 178
152 168 178
149 164 170
144 159 162
137 154 155
149 164 171
149 165 173
144 158 163
148 163 169
143 160 166
143 159 162
139 156 159
146 162 167
151 167 174
142 157 160
140 157 163
145 161 167
144 160 164
69 95 57
67 92 54
67 90 54
68 93 55
62 86 50
69 93 55
70 95 57
74 99 60
69 94 56
73 99 60
69 94 56
70 95 57
65 89 53
69 94 56
70 95 56
66 90 53
65 89 53
72 97 58
66 91 54
105 124 114
146 161 166
146 162 166
146 163 170
141 156 155
151 166 172
144 161 168
147 163 171
145 160 164
144 160 168
140 156 162
140 156 162
152 168 178
138 153 157
148 163 171
145 161 166
151 167 175
140 156 159
150 165 169
134 150 151
71 96 58
65 89 51
69 94 56
68 93 55
68 92 55
71 95 57
66 90 52
69 94 56
70 95 57
63 87 51
66 90 52
66 90 53
67 92 55
64 88 52
73 99 60
71 96 57
68 92 55
63 87 51
111 129 120
151 166 170
155 170 179
140 157 162
146 162 168
137 154 160
134 149 151
147 162 168
150 167 171
144 160 166
149 165 171
156 172 181
149 168 175
153 170 178
147 164 169
151 166 173
148 164 170
148 164 170
139 156 155
76 100 65
72 96 58
72 99 60
67 92 55
72 98 59
71 97 58
68 92 54
73 100 61
73 98 59
71 97 58
65 89 52
73 99 60
73 98 60
71 96 57
67 92 54
69 94 56
72 98 59
133 151 152
145 161 166
152 168 175
148 164 171
148 164 170
147 165 168
148 164 169
148 165 170
142 158 162
152 169 176
149 166 172
151 167 174
155 170 177
155 171 179
164 179 189
153 169 174
156 172 182
87 111 86
67 91 54
68 93 55
70 96 57
75 101 61
75 100 60
71 97 57
75 101 62
69 94 56
74 99 59
75 101 62
73 99 60
69 94 55
65 89 52
65 91 53
79 104 71
142 158 162
139 157 160
147 165 171
151 167 170
162 179 187
151 167 173
151 167 172
155 170 178
150 166 174
152 168 176
145 161 167
158 174 181
150 167 174
165 181 193
147 164 170
86 110 82
78 105 64
90 113 91
127 145 142
150 168 174
123 142 138
134 153 156
109 129 114
90 115 88
77 104 66
75 102 62
74 100 60
77 104 62
76 103 66
148 165 168
156 173 181
162 178 187
156 172 179
164 183 193
159 177 186
152 168 173
162 178 188
163 179 188
159 177 187
162 179 187
152 169 177
153 171 177
98 121 99
78 104 63
75 101 61
75 102 61
75 103 63
77 105 65
74 101 61
71 97 58
70 96 56
79 106 70
92 115 91
123 142 132
97 120 98
77 104 66
78 105 65
72 97 59
75 102 62
78 104 63
76 103 63
79 106 65
76 103 62
73 100 60
112 134 123
161 179 189
167 183 193
171 189 203
172 189 204
163 180 190
145 165 166
99 124 99
138 157 160
169 186 198
167 185 198
165 181 192
158 176 185
165 182 193
165 182 192
155 172 182
171 187 199
80 105 71
109 132 115
145 165 169
155 171 180
170 187 199
160 178 190
170 187 197
157 175 183
165 182 195
171 186 196
163 180 191
159 175 182
170 187 200
162 179 189
137 156 156
118 138 126
104 126 109
161 177 188
156 174 183
162 178 187
159 176 185
167 184 196
157 173 180
163 180 191
156 172 179
154 171 180
162 178 188
164 182 194
161 178 187
155 171 176
157 174 184
132 150 146
90 114 89
71 97 58
108 127 111
154 170 177
164 179 189
155 172 182
164 180 188
170 185 197
163 179 189
164 180 191
157 174 184
150 167 174
138 156 159
131 150 146
96 119 93
71 96 60
68 94 56
74 99 59
77 103 62
89 113 86
134 152 154
119 139 133
73 99 59
76 102 62
76 103 62
76 102 61
67 92 55
72 97 59
75 102 62
75 101 61
75 102 62
66 91 53
71 96 57
75 100 61
71 96 58
69 94 55
74 101 62
73 99 60
71 97 58
71 97 58
101 122 103
159 174 180
150 164 169
160 176 186
150 168 173
128 145 146
125 143 140
91 113 90
67 92 54
76 102 62
69 94 55
73 100 60
71 96 58
70 95 56
73 99 59
68 93 54
73 98 59
72 98 60
71 97 58
65 89 53
119 136 130
159 173 184
153 169 176
146 161 165
144 160 165
157 172 179
150 167 173
150 166 174
143 159 167
145 161 163
151 168 175
149 167 172
157 173 182
143 158 161
143 160 164
150 167 172
152 168 176
155 171 179
147 163 167
141 158 160
123 141 135
130 148 147
139 156 158
138 152 155
153 170 179
145 160 162
143 159 164
152 168 176
149 166 170
148 163 168
149 166 173
142 158 164
153 169 177
144 160 163
148 165 170
149 165 171
153 169 177
157 173 180
146 163 172
155 170 175
147 165 172
72 97 58
69 94 56
68 93 56
72 97 58
72 97 59
70 95 57
72 98 59
65 88 52
71 97 58
69 94 55
72 98 59
67 93 55
75 101 61
66 91 54
75 101 61
70 95 57
65 90 52
65 89 52
70 96 57
73 98 59
144 160 165
144 160 164
152 168 176
154 169 176
149 165 174
160 175 184
144 159 165
134 150 152
114 134 124
110 129 119
96 117 100
72 96 65
71 97 58
69 94 55
71 96 57
69 93 56
70 94 56
66 91 53
70 95 56
66 91 53
138 154 154
144 161 163
141 158 161
153 169 176
141 158 162
146 161 164
154 169 175
133 150 152
146 163 168
152 168 174
147 163 170
152 167 178
145 161 165
158 174 185
136 152 152
137 153 155
148 165 168
137 153 158
151 167 173
154 170 178
106 127 114
70 95 57
68 92 55
66 89 52
69 94 56
72 97 59
69 94 56
68 92 55
68 92 54
65 89 52
68 93 55
73 99 59
71 96 58
69 93 56
65 89 52
74 99 60
72 98 58
69 94 56
66 90 53
72 96 63
146 162 167
149 165 171
136 152 155
156 171 180
151 167 173
136 152 155
142 157 160
149 165 173
160 176 184
151 165 171
143 159 165
144 161 169
145 161 168
146 164 170
154 170 178
149 165 173
138 155 157
164 179 190
144 160 166
106 125 112
75 102 61
69 94 55
74 100 60
73 98 59
76 102 61
74 100 61
72 98 59
73 99 60
71 96 58
68 93 56
67 92 54
67 91 53
66 91 53
73 99 60
65 89 52
73 98 59
71 96 57
70 95 56
138 155 156
153 168 176
151 166 173
140 155 157
151 168 178
151 167 176
150 166 173
153 170 176
155 171 179
153 169 175
151 166 172
151 167 174
148 165 171
147 164 171
143 159 164
156 172 178
147 165 173
153 169 172
101 120 107
69 93 56
69 93 56
72 98 59
66 91 53
71 96 57
69 95 58
64 88 52
70 95 57
72 97 57
68 93 55
66 91 53
70 96 56
72 97 58
71 97 58
75 101 61
71 97 59
83 108 77
143 160 163
147 161 166
149 168 175
160 177 187
148 163 169
143 159 162
154 170 179
152 169 176
157 173 181
152 168 178
159 175 181
147 164 172
148 165 174
150 166 173
134 150 150
156 173 180
140 157 158
74 100 60
73 98 59
74 100 60
72 98 59
79 106 65
74 100 60
77 103 63
72 98 60
69 95 57
74 100 60
70 95 57
72 99 60
76 103 63
74 100 60
74 100 60
94 116 96
146 163 168
161 177 186
160 176 186
141 157 159
155 171 177
166 182 190
155 171 181
154 171 181
147 164 168
155 171 178
155 173 180
159 176 186
153 169 175
147 164 166
103 125 106
146 162 168
164 179 188
151 170 178
147 164 170
160 177 186
161 177 186
143 161 166
154 170 180
145 161 168
138 157 159
135 154 153
112 132 120
103 123 111
91 114 90
163 180 190
152 169 177
159 175 184
154 170 177
152 170 176
161 177 187
162 180 190
161 179 186
164 182 193
170 186 198
162 178 189
161 178 186
155 171 178
100 122 99
75 102 63
73 100 61
71 97 58
75 100 60
76 102 61
73 99 59
73 99 59
76 102 62
74 101 61
74 101 61
103 123 102
145 163 168
148 166 171
119 140 130
93 117 90
78 106 65
75 102 62
76 103 63
77 105 65
76 102 62
73 99 59
115 135 123
163 181 192
163 180 191
164 180 192
166 182 195
169 187 200
157 175 184
159 176 187
171 187 199
163 180 190
169 187 200
161 179 189
166 184 195
156 173 179
166 183 192
140 159 161
149 167 173
167 184 197
150 167 175
156 172 179
154 171 180
172 188 200
167 184 195
174 190 203
165 181 191
170 188 201
163 181 194
161 178 189
140 158 157
106 128 109
75 101 61
76 103 63
98 119 99
164 180 188
158 175 182
154 172 181
161 177 186
151 168 173
160 178 188
167 183 193
156 172 179
165 181 191
152 170 178
157 174 183
152 169 172
108 128 117
86 112 79
78 105 65
74 99 60
73 100 61
89 112 88
158 175 184
147 163 167
159 175 184
159 176 188
154 171 180
147 164 172
158 176 186
154 171 180
156 173 183
151 168 178
151 168 176
157 173 181
151 168 175
125 144 140
91 113 87
135 152 154
155 171 178
154 171 178
125 144 136
73 99 59
70 96 57
70 95 55
72 99 59
71 97 57
70 95 57
75 100 60
74 100 60
73 99 60
72 98 60
77 104 63
76 103 63
73 99 59
72 98 59
73 98 58
72 98 60
73 99 59
75 101 61
85 106 84
145 161 165
131 149 146
118 136 129
94 117 93
73 99 59
72 98 60
77 103 63
74 100 61
72 98 59
73 99 60
74 100 60
65 89 52
70 95 56
71 96 58
71 95 58
74 100 60
71 97 58
75 101 61
70 97 58
109 129 116
150 166 173
158 174 183
142 158 162
148 164 170
154 172 180
152 169 176
152 168 176
155 170 178
156 171 180
153 168 175
153 168 176
155 172 181
147 164 170
151 166 172
133 150 151
118 136 130
105 125 110
83 107 75
71 96 56
88 110 85
149 164 167
150 166 173
144 161 167
152 168 174
160 176 185
139 156 158
145 162 165
143 160 164
147 163 167
150 165 169
150 166 172
153 168 177
147 163 173
140 155 157
138 154 155
148 164 169
155 170 175
154 169 180
161 177 187
154 169 176
81 107 71
66 90 52
71 96 58
66 90 53
64 88 52
70 94 56
68 93 56
69 95 56
67 91 54
68 93 55
70 95 57
71 96 58
74 100 61
66 90 53
66 91 54
74 99 60
72 98 59
69 93 56
72 98 60
71 96 58
134 152 151
133 150 153
127 145 142
109 129 116
97 117 99
70 95 57
72 97 58
69 94 56
69 94 56
69 94 56
69 94 56
65 89 52
72 98 59
65 90 53
66 90 53
68 92 55
69 94 57
70 95 56
73 99 60
67 93 55
97 118 101
146 162 170
142 157 163
152 167 175
152 167 171
148 164 170
142 158 166
141 156 160
147 163 169
150 166 175
140 156 158
153 169 175
149 165 168
145 161 165
156 171 180
145 161 165
143 160 167
140 156 159
141 158 162
157 172 178
134 151 150
67 91 54
66 90 52
71 97 57
68 94 55
72 97 58
70 95 57
70 96 58
71 96 58
73 98 59
67 92 54
65 89 53
71 96 58
72 97 58
65 89 53
70 95 58
72 97 59
72 97 59
70 95 56
68 93 54
116 136 127
148 165 171
146 163 170
153 169 173
135 152 151
145 162 166
145 160 170
142 156 161
148 163 168
152 167 174
150 166 173
156 172 181
145 161 166
154 170 181
145 161 165
158 173 182
147 163 168
151 168 175
150 165 170
144 160 165
66 91 53
67 92 54
72 97 58
70 96 58
67 92 55
68 93 55
69 94 57
67 91 54
70 95 57
72 98 58
68 94 55
68 93 55
67 93 55
67 91 53
65 90 53
68 94 56
71 96 58
69 94 56
109 127 118
149 165 172
153 170 178
156 172 181
145 161 166
144 160 164
145 161 168
150 166 175
153 168 173
147 162 166
154 169 176
134 150 154
145 162 170
149 165 171
151 167 174
164 180 192
166 182 194
152 168 174
144 160 165
82 106 76
70 94 56
76 102 62
67 92 55
74 99 60
76 102 62
69 95 57
66 90 54
65 90 52
69 95 56
71 96 58
71 96 57
72 98 58
75 102 62
72 97 57
68 93 54
71 97 59
119 137 132
150 166 173
161 177 187
144 161 165
150 166 172
147 164 169
145 161 167
158 172 183
151 167 174
144 162 168
151 167 172
159 175 187
148 165 166
149 165 170
149 165 172
159 176 185
147 163 167
109 129 119
75 100 59
76 104 63
73 99 59
67 92 55
74 100 61
68 92 54
74 101 62
75 101 60
70 95 56
74 100 60
72 97 58
69 94 55
71 97 58
74 101 61
74 100 60
112 130 121
164 181 191
151 168 173
150 167 174
156 172 179
165 181 194
164 180 191
153 171 177
160 176 187
155 171 179
136 152 151
100 121 108
86 109 83
78 104 64
75 102 61
106 128 111
158 176 182
168 185 195
160 176 188
162 179 189
159 177 187
149 166 172
162 178 188
160 177 187
165 181 192
159 175 182
162 179 188
158 174 179
157 174 183
155 172 182
113 134 126
126 145 138
144 162 164
156 172 180
158 173 182
168 185 197
168 184 195
153 170 179
151 168 176
163 179 189
163 181 192
151 168 176
154 171 177
89 113 84
81 110 68
74 100 60
71 97 58
73 99 59
75 102 61
76 102 62
69 95 56
72 97 58
76 103 63
76 103 62
99 123 102
161 178 188
163 181 192
156 174 182
158 176 183
134 153 148
87 111 80
79 107 67
80 108 66
79 107 65
76 103 63
110 132 119
166 183 196
162 178 190
169 185 197
167 183 193
163 180 190
167 184 195
171 188 203
157 175 182
159 176 185
163 181 190
159 176 183
128 148 142
90 115 87
110 131 118
170 188 203
159 174 182
157 174 181
163 181 192
170 185 194
158 175 183
161 177 187
166 185 198
162 179 190
165 182 190
136 155 154
84 109 77
79 105 65
79 107 65
78 105 64
76 103 62
99 122 102
166 182 195
160 177 185
159 176 186
164 181 191
168 185 198
167 184 198
163 181 192
173 190 202
155 173 183
138 158 160
90 113 86
78 106 65
69 94 55
79 107 65
78 106 64
81 108 67
78 105 64
100 124 99
159 176 185
150 168 174
158 174 183
153 171 181
149 166 171
162 179 190
160 176 184
159 175 183
162 179 186
153 169 178
157 174 183
137 155 156
98 120 96
72 98 58
72 98 59
76 101 64
97 119 97
116 135 127
104 124 109
86 111 78
77 103 63
73 99 60
72 98 59
75 102 62
76 102 62
71 96 58
75 101 61
75 102 62
72 98 59
72 98 60
77 104 62
71 96 57
78 106 65
71 96 57
70 95 57
72 97 61
112 133 123
128 145 140
82 108 73
74 100 61
78 106 65
70 96 58
76 102 61
69 94 55
72 98 58
75 102 62
69 94 56
71 97 58
71 96 57
73 99 60
73 99 59
76 102 61
74 100 60
67 92 54
69 94 56
77 104 63
70 95 56
84 107 81
155 171 182
156 172 179
147 164 168
144 160 162
157 172 179
156 173 182
151 168 173
152 168 173
154 170 178
136 152 155
146 162 164
126 143 138
108 128 118
85 110 80
68 93 55
72 98 59
75 101 62
72 97 57
72 97 58
71 94 62
137 154 153
148 165 169
159 175 184
151 169 178
161 176 184
152 169 176
149 165 172
137 153 158
155 172 183
143 158 163
151 167 174
162 177 186
156 172 181
147 164 168
142 158 162
151 168 177
146 163 170
143 159 163
153 168 176
144 160 165
106 125 114
70 95 57
72 98 59
69 93 55
73 99 59
67 92 54
65 89 52
73 99 59
69 93 56
69 95 57
71 96 57
68 93 56
68 93 55
74 99 60
76 102 62
72 95 62
95 116 97
106 126 114
125 141 137
141 158 160
138 154 157
73 98 59
72 98 59
70 95 56
70 95 57
68 93 55
72 97 58
72 98 58
67 92 54
69 94 56
72 98 59
69 93 56
71 96 57
67 92 53
73 99 59
67 92 53
68 93 55
63 88 51
74 99 60
73 99 59
67 92 54
143 159 164
151 167 175
149 165 172
143 159 165
144 161 166
143 159 164
142 159 165
135 151 152
145 161 168
147 163 170
156 172 180
145 162 168
146 163 167
143 158 163
160 175 185
157 172 179
152 167 176
147 164 169
151 167 172
161 177 188
80 102 76
70 95 58
70 95 57
73 98 59
72 99 60
74 101 61
72 97 58
68 93 55
74 99 60
66 90 53
75 101 62
65 89 52
72 98 59
66 91 53
70 95 56
75 101 60
69 94 57
70 94 56
71 96 57
82 106 76
154 170 179
145 161 165
158 172 179
143 161 166
141 157 160
143 160 169
147 163 164
152 169 179
150 166 171
152 167 175
153 169 177
146 162 165
144 161 166
151 168 175
151 167 174
160 177 188
147 164 167
151 166 172
152 166 173
105 125 112
72 97 57
68 93 55
70 95 57
71 96 57
69 94 56
75 100 67
78 102 71
85 107 85
89 111 90
96 117 97
99 119 103
86 109 84
110 130 117
89 111 87
107 125 114
117 134 127
117 136 128
118 136 131
123 141 138
109 128 122
120 137 132
127 145 142
115 134 129
108 127 115
101 120 107
105 123 112
109 128 118
123 141 135
109 129 119
110 129 122
98 119 102
113 131 124
110 129 118
113 132 123
121 139 135
113 132 119
95 115 98
124 143 139
119 137 131
129 146 144
123 143 133
117 135 128
112 131 121
116 136 125
101 122 105
111 129 123
104 123 111
113 132 120
96 118 99
92 113 94
89 112 84
83 106 80
84 108 79
72 98 61
136 154 154
150 166 176
144 161 166
149 166 172
146 163 169
147 163 168
158 174 182
151 168 173
152 167 176
150 165 170
155 171 178
160 175 185
154 170 177
138 155 159
144 161 165
152 168 174
148 164 169
103 124 107
79 106 65
72 97 57
69 94 56
75 101 61
76 103 62
71 97 58
75 102 61
74 101 61
68 93 54
74 100 62
75 101 61
73 99 58
72 98 59
68 93 54
74 99 64
144 161 162
162 178 189
156 173 183
154 170 179
151 167 176
143 161 166
128 147 143
90 113 88
80 104 71
78 105 64
73 99 60
75 101 62
73 99 59
72 98 59
70 96 56
141 159 161
154 171 177
162 178 187
151 168 179
157 174 184
156 173 180
150 166 174
151 167 174
166 183 193
150 167 173
147 165 173
159 175 184
154 172 178
148 165 168
131 148 145
81 109 67
74 101 60
81 107 70
102 124 108
123 142 136
137 154 155
152 169 175
155 173 180
161 178 188
157 174 184
156 173 183
163 181 195
149 168 174
81 106 72
75 102 62
78 106 65
78 105 64
77 104 64
72 98 59
77 104 63
81 109 66
76 103 63
74 101 61
73 99 60
96 120 94
162 179 188
164 180 191
165 181 191
170 188 202
158 176 186
161 178 188
130 151 150
106 127 113
79 107 66
77 105 64
110 131 115
167 183 195
159 175 184
161 178 185
162 179 190
170 186 202
168 187 200
161 178 188
158 177 188
130 150 148
80 108 69
77 104 64
73 100 60
124 144 135
161 178 190
161 178 188
158 175 183
164 180 188
169 187 202
157 175 185
157 175 186
150 167 172
115 136 124
84 109 77
78 104 64
78 106 65
75 102 62
74 101 61
75 102 62
75 101 61
126 146 141
164 181 192
164 181 191
160 177 187
161 177 186
159 176 184
162 180 189
147 164 168
106 127 111
84 109 75
79 107 66
72 98 58
75 102 62
75 101 60
76 102 61
73 99 60
73 99 60
75 102 62
94 115 97
161 177 189
165 182 191
161 177 184
169 186 197
166 181 190
151 167 174
157 174 182
167 184 196
136 154 154
117 136 126
77 103 65
71 96 58
76 102 62
74 101 61
73 100 59
73 99 59
78 105 65
75 102 62
114 135 124
145 162 166
139 157 158
126 144 135
94 116 94
80 107 72
72 98 59
77 104 64
75 102 62
72 98 59
71 96 57
77 104 64
75 101 61
69 94 56
74 100 63
106 127 114
128 146 146
148 165 172
152 169 177
153 169 177
83 107 76
70 95 57
69 93 55
75 101 62
74 100 60
72 97 59
70 96 56
72 98 58
72 98 59
75 102 63
72 97 58
69 93 56
69 94 56
69 94 57
71 96 57
73 99 60
73 99 60
72 98 59
72 98 59
76 101 64
155 171 178
157 174 184
152 168 175
150 166 175
142 159 165
159 176 183
162 178 187
133 151 148
113 132 123
95 117 94
76 102 62
73 98 60
71 96 57
68 93 54
71 96 56
76 103 63
76 102 61
70 95 57
74 100 60
72 97 58
139 156 157
151 167 172
145 162 168
154 170 177
159 175 183
153 169 176
160 177 186
157 173 182
153 169 175
150 166 173
153 168 177
157 173 179
155 171 179
153 170 175
150 167 175
156 173 178
148 165 171
150 166 174
150 166 174
155 172 178
126 144 138
66 91 52
69 94 56
67 92 53
70 95 57
63 87 50
74 100 60
66 90 54
74 100 61
67 92 55
78 102 70
97 118 103
108 127 115
129 146 143
140 157 160
134 149 151
143 161 166
155 170 177
144 161 167
156 172 180
143 160 167
78 101 70
76 103 62
71 96 58
70 96 56
70 94 57
72 97 59
64 88 51
69 93 55
69 93 54
67 92 55
65 89 53
77 103 62
72 98 59
74 100 60
75 102 62
68 93 55
68 93 55
72 98 59
67 92 54
68 92 55
135 151 150
150 166 172
146 161 168
140 155 156
149 165 169
154 171 178
160 176 186
160 174 183
144 161 165
137 153 156
153 168 176
145 161 167
148 164 172
147 163 171
146 163 170
146 161 166
150 167 173
161 176 186
148 164 172
145 161 169
125 143 138
70 95 57
65 90 53
69 93 56
70 95 56
71 96 58
72 98 59
68 92 55
66 91 54
69 93 55
72 97 58
73 99 60
68 92 55
68 94 56
66 90 54
72 98 59
76 102 62
68 93 56
69 93 57
71 97 58
125 142 139
160 176 188
149 166 170
160 176 184
155 171 177
147 163 169
148 163 168
149 165 170
137 154 155
139 155 157
139 156 158
141 158 163
125 143 140
121 139 132
115 134 126
124 143 137
117 135 125
109 128 117
111 130 119
102 121 103
141 159 162
138 154 158
142 159 164
139 155 156
153 169 176
144 161 166
144 160 165
143 159 164
153 169 177
138 155 161
141 157 160
143 160 164
152 169 175
149 165 173
155 171 179
160 174 182
155 169 177
147 163 164
154 171 177
74 98 61
62 86 49
71 96 56
74 100 61
73 98 59
74 100 61
74 100 60
77 103 63
73 98 59
73 98 59
73 100 61
75 101 62
72 97 58
72 97 58
70 95 57
70 95 57
68 94 56
71 95 59
129 148 150
142 158 163
142 159 164
150 167 172
149 165 172
155 172 179
156 174 185
155 171 179
143 160 163
159 175 185
148 163 171
156 172 179
154 170 178
158 173 181
161 177 185
145 162 169
147 163 166
148 166 172
90 112 91
87 109 90
98 120 96
95 117 96
97 118 101
102 123 107
104 123 112
120 139 132
121 141 133
127 145 141
131 149 146
139 157 156
140 157 161
144 161 166
146 164 169
161 177 189
140 158 159
76 100 69
70 96 56
72 98 59
73 100 61
72 97 57
72 98 58
73 99 59
75 103 63
71 96 58
71 96 57
75 103 63
79 106 66
76 103 62
74 100 61
78 105 63
91 113 91
137 155 157
116 136 127
103 124 107
81 107 73
74 100 60
73 100 61
69 95 57
73 100 60
73 100 60
75 102 62
71 97 58
73 99 60
74 100 60
75 101 61
77 104 63
139 156 156
154 172 180
151 168 173
152 169 176
154 172 184
156 173 181
159 176 185
155 173 182
146 164 173
166 183 194
153 169 180
170 187 201
154 170 178
158 175 184
130 149 145
73 100 59
75 102 62
77 104 63
75 102 61
74 100 60
78 105 64
75 101 64
108 128 113
134 153 153
141 158 158
166 184 195
163 180 190
132 152 148
79 106 67
79 107 66
75 101 61
74 101 61
73 100 60
75 101 61
76 102 62
77 105 64
74 102 61
76 104 63
74 100 61
101 124 107
158 175 185
168 184 194
163 180 191
166 183 194
165 183 195
160 178 189
160 178 189
164 181 190
136 155 153
123 144 134
112 132 121
152 171 178
164 181 191
174 191 203
162 180 190
151 170 177
117 139 130
76 103 63
76 103 63
80 108 67
82 111 69
77 105 65
142 160 161
168 184 194
165 182 194
167 185 197
171 187 201
166 183 192
145 163 169
118 137 124
73 98 58
74 100 60
73 100 59
75 102 62
74 101 61
76 103 63
74 100 60
79 106 65
78 105 64
135 153 152
159 176 185
167 182 194
173 189 203
163 180 191
131 150 147
93 116 92
73 99 59
76 103 63
74 101 61
74 101 60
73 99 58
71 97 58
70 96 57
70 95 56
75 102 62
77 105 64
77 104 63
114 136 124
168 184 194
161 177 188
163 179 190
155 172 179
162 179 190
142 160 165
121 141 136
82 107 77
76 102 62
78 106 65
73 99 60
73 100 60
75 100 61
73 99 59
74 100 61
72 99 60
69 93 55
74 101 61
104 124 108
161 178 188
154 170 176
156 172 181
153 170 178
156 171 177
130 148 146
113 133 121
103 125 104
77 103 63
76 101 62
76 101 63
106 126 111
130 148 149
152 168 175
169 185 198
160 176 185
154 170 178
144 161 164
156 171 177
109 129 116
73 98 58
70 95 56
78 105 64
72 97 59
70 96 57
73 98 60
70 95 56
75 102 62
75 101 62
75 100 60
68 93 56
76 103 63
72 98 59
78 105 64
73 98 59
74 101 62
76 102 62
72 97 58
73 99 59
139 157 157
156 172 178
156 173 182
145 162 167
116 137 130
103 126 108
77 102 67
69 95 56
74 100 61
70 95 56
69 93 55
71 97 58
74 99 60
70 95 57
75 101 61
76 102 62
71 96 58
75 102 62
70 96 57
66 91 53
119 138 132
158 173 181
154 171 178
153 170 179
143 159 163
151 168 172
148 165 169
153 170 177
155 171 181
150 166 175
158 175 184
158 174 183
141 156 161
160 175 184
150 166 173
154 170 177
158 174 181
155 171 179
150 166 173
157 173 179
149 166 173
73 98 63
67 91 54
72 97 59
75 101 62
75 100 64
90 112 89
120 140 134
132 150 149
137 155 154
158 174 186
155 170 178
153 170 176
140 157 160
142 158 162
149 165 171
147 165 169
144 159 165
143 159 162
152 167 174
144 161 169
117 136 129
68 94 56
65 90 53
73 98 59
65 89 53
72 97 58
71 96 57
71 95 56
69 94 56
72 97 59
66 90 53
75 101 61
67 91 55
72 97 59
69 94 56
67 91 53
69 95 57
75 100 61
69 94 57
73 98 59
81 104 79
154 169 178
144 160 164
151 167 175
145 162 167
154 169 174
160 176 186
151 166 174
158 174 183
157 172 179
152 168 176
144 161 165
145 161 168
155 169 175
157 172 180
154 169 175
151 167 175
147 162 167
146 162 167
155 170 178
159 173 181
70 94 59
68 93 55
71 96 58
69 94 56
72 97 59
74 99 60
71 97 59
68 93 55
71 95 56
68 93 55
64 88 51
70 96 57
75 102 62
70 95 56
75 101 61
73 99 60
72 97 61
92 115 89
95 116 100
113 131 121
117 135 127
115 133 124
108 128 115
112 130 123
96 116 97
89 110 89
75 98 66
72 96 60
69 95 57
69 95 56
69 94 55
74 99 61
73 99 59
69 95 57
69 94 56
72 98 59
69 94 57
70 95 58
69 94 56
130 147 143
154 170 180
120 137 132
144 161 166
157 175 184
149 164 169
142 158 163
140 157 161
162 178 188
157 172 180
138 154 155
140 157 158
155 172 181
155 172 179
157 173 181
146 161 164
152 168 177
151 168 175
157 173 183
106 126 113
72 98 59
73 99 59
72 96 58
74 101 61
69 94 56
70 95 57
67 92 54
69 94 57
72 97 57
73 98 59
66 91 54
72 98 59
69 94 55
67 93 55
67 92 55
71 97 58
69 94 55
87 110 81
155 170 178
152 168 175
156 172 179
145 161 165
151 167 173
158 174 182
153 169 178
151 168 178
151 168 178
148 164 170
155 170 177
151 168 178
150 166 174
148 165 168
154 170 178
156 171 180
146 163 165
125 144 143
67 93 55
74 100 61
70 95 57
71 96 57
71 97 58
72 98 59
70 96 57
75 101 61
77 103 63
71 97 57
74 100 60
71 96 58
70 95 56
74 100 60
75 98 65
84 109 75
103 124 108
139 156 155
130 148 148
118 137 129
126 144 140
118 137 129
113 133 124
104 126 109
80 103 73
70 96 57
72 97 58
83 109 76
104 125 110
120 139 131
131 151 148
158 174 184
131 150 149
76 102 64
72 99 59
71 96 57
68 92 54
75 102 62
72 98 59
77 103 63
76 102 62
73 99 58
75 102 63
71 97 59
80 107 65
76 104 63
80 107 65
81 107 70
145 163 167
170 186 197
155 172 181
157 172 179
156 173 182
156 172 181
156 173 183
153 170 177
168 185 196
149 165 173
162 180 191
156 173 179
156 173 182
149 167 172
112 133 120
72 98 59
73 99 59
72 99 59
75 103 62
75 102 62
79 107 65
74 100 60
75 102 62
78 106 65
75 101 64
89 111 89
109 129 118
116 134 122
85 110 80
79 107 65
72 99 60
76 103 63
78 106 65
80 108 66
72 98 60
81 109 67
72 99 59
76 102 62
72 97 59
105 125 110
158 175 184
166 184 197
168 184 196
164 180 191
156 174 184
162 180 191
164 181 191
159 176 186
154 173 179
158 175 184
152 170 175
146 165 171
149 168 173
110 133 120
77 104 64
80 108 66
78 105 64
81 109 67
78 105 63
85 114 71
79 107 65
147 165 168
165 182 193
169 188 202
165 182 194
135 154 153
91 114 87
78 106 65
77 104 64
74 100 60
81 108 67
74 101 62
75 102 61
75 101 61
77 104 64
74 101 61
77 104 64
79 107 66
136 154 156
161 179 190
155 171 180
115 136 125
83 109 74
75 101 61
75 102 61
75 102 62
73 100 60
71 97 58
73 100 60
73 99 60
76 102 62
75 103 63
75 101 62
77 104 63
74 100 60
77 105 64
106 127 110
162 178 186
159 175 183
156 174 181
120 140 131
92 115 93
74 101 61
75 102 61
72 98 59
72 98 59
76 102 62
75 101 60
74 100 60
68 94 55
71 97 58
74 100 60
74 101 61
75 101 61
75 102 61
97 119 99
160 176 185
160 177 186
152 168 174
149 166 174
164 180 191
150 167 174
152 169 179
146 163 168
134 151 148
98 120 99
117 138 127
140 158 161
146 163 166
161 177 186
160 176 188
154 171 179
154 170 179
151 168 175
158 174 183
106 125 113
78 106 65
72 98 59
74 101 62
74 99 59
73 99 60
75 101 61
73 99 59
76 102 62
73 99 60
77 103 63
71 97 58
74 101 60
76 102 63
73 99 60
75 101 61
75 101 62
75 102 62
68 93 55
79 103 76
118 138 130
119 138 132
80 105 69
72 98 58
76 102 62
73 99 60
70 96 58
75 101 61
71 96 57
68 93 55
77 104 63
68 93 56
69 95 56
74 100 61
68 94 56
71 97 59
77 104 63
72 97 58
73 99 59
74 101 61
96 117 96
154 170 175
154 171 180
147 164 170
147 164 168
154 169 176
151 166 176
157 174 183
151 167 173
158 174 181
154 170 178
139 154 158
150 167 173
155 171 176
145 161 163
144 159 163
154 169 177
155 172 180
156 173 185
158 175 185
155 172 178
114 132 122
107 127 117
125 143 141
127 144 137
149 165 173
152 168 180
150 166 173
146 162 166
158 174 181
153 169 178
153 169 174
148 164 169
158 173 183
140 157 156
145 162 167
148 164 168
135 151 152
154 169 178
150 166 171
158 175 182
140 156 157
70 95 56
73 99 60
70 95 57
73 99 60
69 93 56
71 96 58
67 92 55
67 92 55
70 95 57
65 89 53
70 94 56
71 96 57
73 99 59
70 95 57
69 94 55
74 99 61
71 96 56
70 96 57
68 93 55
74 100 61
141 158 159
151 167 173
158 175 183
147 164 171
162 177 187
149 164 171
150 166 172
125 143 137
155 170 180
142 157 161
140 156 160
147 162 166
153 170 177
140 158 163
150 167 173
153 170 176
155 170 177
147 164 171
148 164 172
148 164 167
112 131 120
68 92 56
71 97 59
66 91 53
66 91 54
73 99 59
73 98 58
78 101 72
95 115 98
101 122 103
109 127 115
118 136 129
122 139 133
122 138 137
132 148 148
145 160 163
139 156 160
155 172 181
152 167 174
148 164 172
109 128 118
69 95 56
71 97 58
73 99 59
73 98 60
70 95 58
74 100 60
72 98 58
70 96 57
72 97 58
70 96 57
67 91 55
73 99 60
72 97 58
74 101 61
74 100 60
72 98 59
69 93 55
69 93 55
80 102 75
141 157 161
147 164 168
143 160 163
154 170 178
144 161 168
147 163 168
148 165 170
151 167 176
150 166 174
149 165 169
151 167 174
150 166 171
154 171 181
149 165 173
144 160 165
158 174 182
155 171 180
150 165 172
147 163 168
75 99 69
71 96 57
72 97 58
72 98 59
69 93 56
71 97 58
73 100 60
70 95 56
74 100 61
68 93 55
70 95 57
70 95 57
68 92 54
71 97 58
72 98 58
70 95 57
71 97 57
69 94 56
124 143 139
158 175 181
148 164 169
154 170 178
162 177 185
151 166 174
143 160 162
162 179 188
156 172 181
149 165 170
153 169 177
151 167 175
149 167 173
156 173 180
161 177 186
158 174 184
155 171 179
157 172 182
88 112 87
78 105 63
74 101 61
68 94 55
76 102 62
72 97 58
69 94 55
69 94 57
72 98 60
74 100 60
78 105 63
70 96 57
72 98 59
68 93 56
72 97 57
69 95 57
73 99 60
135 153 154
157 172 180
149 165 170
155 171 178
161 177 184
152 169 177
144 162 166
132 150 148
108 129 113
84 108 76
96 118 95
117 137 125
129 146 144
133 152 151
131 149 147
153 170 174
116 134 130
70 95 57
70 96 57
72 98 59
74 101 61
78 105 64
72 98 59
75 102 62
75 101 61
74 99 60
73 100 60
72 97 59
71 97 58
72 97 58
75 103 62
99 123 101
161 178 189
158 174 183
160 176 185
154 172 180
164 181 191
158 176 187
163 179 190
161 178 187
159 175 183
163 180 192
161 178 187
160 177 186
153 169 175
159 176 183
101 125 100
74 101 61
75 101 60
74 100 61
76 103 63
71 97 57
78 105 65
76 102 62
74 100 60
70 96 57
74 101 62
75 102 62
73 100 59
120 142 133
150 168 173
133 151 147
115 136 124
86 110 82
75 102 62
77 104 64
77 104 63
79 106 65
79 106 65
76 103 63
75 101 61
112 133 118
156 172 176
162 180 192
164 182 193
161 178 189
164 182 195
158 176 184
160 177 187
163 179 191
165 183 194
170 186 199
150 168 174
75 102 62
76 103 63
80 108 67
78 105 65
74 102 62
75 101 60
77 104 64
79 107 65
84 112 69
159 176 185
147 166 169
123 144 134
82 109 73
76 103 62
76 103 63
74 101 61
75 103 62
81 109 67
76 103 63
83 111 68
78 105 64
73 99 59
75 102 63
79 107 66
77 105 64
83 109 72
134 153 151
107 130 111
75 101 61
74 101 61
81 109 67
80 108 66
77 104 63
80 108 67
73 99 60
78 105 63
80 107 67
78 105 64
70 96 57
73 100 61
76 103 63
72 97 57
73 100 61
77 104 64
106 128 113
132 150 146
104 125 106
79 105 69
73 100 59
75 102 61
72 98 59
76 102 62
78 105 64
76 102 62
75 102 63
73 99 60
73 99 60
74 101 61
76 103 62
74 100 60
71 96 58
76 103 62
78 106 65
102 123 105
161 178 189
161 177 185
149 166 172
164 180 192
155 173 183
136 153 152
108 130 115
79 105 70
70 96 57
73 99 59
72 98 59
76 103 62
69 94 57
75 102 62
102 122 105
116 136 127
124 144 139
155 172 180
154 170 177
112 133 122
66 91 53
72 98 59
68 93 54
73 99 60
69 95 57
72 98 59
72 98 59
76 102 62
72 98 58
75 102 62
71 97 58
75 101 61
69 95 56
72 98 59
79 104 69
105 127 108
124 143 141
149 166 171
153 169 177
121 141 134
72 97 58
72 97 59
71 96 57
72 98 60
74 100 60
69 94 55
70 96 57
68 93 55
73 99 60
71 97 58
68 94 56
66 91 53
69 95 55
76 103 63
73 99 60
73 99 60
70 96 57
75 101 62
75 101 61
78 103 70
151 167 175
145 160 164
164 180 191
161 177 185
144 161 164
155 171 179
162 179 191
152 169 175
159 175 183
153 170 179
154 172 182
149 164 172
153 169 177
152 168 178
154 170 179
151 167 173
138 156 157
125 145 140
111 131 116
69 93 59
122 140 134
154 171 179
150 166 173
152 167 173
147 162 170
159 174 183
153 169 176
146 161 167
148 164 172
155 170 176
160 176 184
155 171 181
154 171 180
142 159 161
158 173 183
151 167 174
146 161 166
155 172 182
138 155 158
155 171 180
156 172 178
82 105 81
66 91 54
69 94 55
75 101 62
68 93 56
72 98 58
73 98 59
69 94 55
72 97 58
71 96 57
65 89 53
67 93 55
68 92 54
69 95 57
71 97 58
75 101 61
64 89 52
71 96 57
71 96 57
74 99 60
113 131 122
149 164 170
150 167 174
150 166 173
152 168 174
160 175 184
142 159 164
153 170 178
159 175 186
151 167 172
146 163 167
154 171 177
148 164 170
148 163 169
164 181 191
149 163 168
168 184 197
153 168 174
146 162 168
154 169 180
132 149 149
102 121 108
111 130 121
124 140 136
131 150 146
145 162 166
143 160 163
155 173 179
144 161 168
158 174 180
150 166 174
158 173 181
147 164 170
140 156 161
150 165 171
162 178 185
154 169 176
156 173 183
162 178 188
153 169 176
140 158 159
71 97 58
68 93 55
75 101 62
69 94 56
75 102 62
71 96 57
67 92 54
68 92 54
72 98 59
64 88 52
69 94 57
70 95 56
69 95 56
73 98 59
70 96 58
70 95 56
77 104 64
68 94 56
71 96 57
133 153 150
148 165 170
140 157 162
152 167 170
158 174 181
156 173 183
147 165 171
162 179 188
147 163 168
145 162 164
149 166 171
150 167 172
154 168 176
154 170 179
152 168 178
150 165 173
160 178 188
164 180 188
165 181 190
107 126 117
69 94 56
67 93 55
72 96 57
67 92 55
74 101 60
72 99 59
69 93 55
72 98 59
69 93 56
72 97 58
73 99 60
70 94 56
69 95 57
71 97 57
70 96 57
65 89 52
69 94 56
79 103 72
154 171 178
147 165 173
156 173 181
146 162 168
143 160 164
151 167 175
146 163 167
166 182 194
165 182 193
161 177 188
154 171 177
139 155 157
160 176 184
156 172 181
157 173 183
141 157 161
150 166 171
147 164 167
79 103 71
67 92 55
72 98 60
73 100 61
70 96 57
72 97 59
74 101 62
68 93 55
74 100 60
72 99 59
74 100 61
73 99 60
76 103 63
76 103 63
74 101 62
73 99 59
89 112 87
143 158 162
132 150 150
115 135 126
93 116 92
80 106 69
70 96 57
75 101 61
70 95 57
74 101 61
72 98 58
71 97 58
71 96 57
72 98 59
75 101 62
70 97 57
73 100 61
145 161 165
154 171 177
138 157 158
130 150 147
108 130 116
117 137 127
94 117 90
78 105 67
72 98 59
79 106 65
79 107 65
74 99 60
72 97 58
74 100 60
79 106 65
106 125 112
149 166 173
160 176 188
156 172 179
167 183 195
157 173 180
145 163 167
156 172 181
168 185 196
154 170 178
158 175 182
164 181 189
151 168 174
160 177 184
158 175 183
100 124 101
79 107 66
78 105 64
76 104 63
78 106 65
72 99 59
76 102 61
75 102 62
76 103 63
74 101 61
76 103 63
75 102 61
79 107 66
136 154 155
163 181 191
161 179 189
163 180 191
145 163 167
134 153 149
106 127 111
86 112 82
74 101 62
74 100 60
77 105 64
79 106 65
115 136 124
167 184 194
174 191 204
162 180 188
164 180 189
161 179 188
165 181 189
172 190 203
175 192 206
163 180 187
165 182 193
77 104 63
75 103 62
76 103 62
76 103 62
79 108 66
84 114 71
72 98 58
80 109 67
97 122 97
124 145 137
80 107 68
78 106 65
83 111 69
78 106 64
74 101 61
77 106 65
78 105 64
79 106 65
77 104 64
78 106 64
74 100 62
78 106 65
76 104 63
89 112 84
129 148 142
158 175 182
102 124 107
78 105 65
74 100 59
74 101 60
77 103 62
74 101 61
78 106 65
77 104 64
76 103 62
77 104 64
78 105 65
79 107 65
75 102 62
77 104 63
77 105 63
75 102 62
94 117 95
113 133 123
125 143 136
70 95 57
71 97 58
73 99 60
76 104 63
71 97 58
77 104 63
73 100 61
77 104 64
72 99 60
75 102 62
75 102 62
72 98 59
76 103 63
75 102 62
75 102 62
75 101 61
73 99 59
75 102 62
85 108 81
163 180 191
160 176 184
139 157 158
99 119 105
86 109 81
77 104 63
77 104 64
71 96 58
75 101 61
77 104 63
74 100 60
75 102 62
75 102 62
76 103 63
70 95 56
69 94 56
72 98 59
72 98 59
73 99 62
122 141 136
137 155 159
115 134 125
104 124 107
81 105 72
75 102 62
77 104 64
71 97 58
76 103 62
76 102 62
76 103 63
73 99 61
82 108 73
106 127 112
136 153 155
155 172 180
161 176 185
152 169 177
162 179 191
167 183 193
144 161 163
72 97 58
69 94 56
69 94 56
75 100 60
77 103 63
70 95 57
74 101 60
71 97 57
73 99 59
74 100 61
75 101 61
73 99 60
76 102 63
74 100 61
66 91 53
73 99 59
74 100 61
76 101 61
67 92 54
72 97 58
132 149 150
158 174 183
154 170 181
167 182 191
140 158 161
147 163 167
142 158 162
158 174 181
155 171 178
150 166 172
153 169 176
144 159 165
142 160 164
112 131 120
103 124 109
71 97 58
72 98 60
73 98 59
71 96 57
78 105 65
89 112 88
153 170 176
154 170 177
154 169 174
159 174 183
164 179 188
150 166 173
153 168 176
150 166 172
159 174 187
149 165 171
144 161 164
156 172 182
145 161 165
161 177 185
164 180 191
155 170 178
153 171 180
156 172 180
150 166 172
156 172 180
110 130 116
68 93 55
65 88 52
70 95 58
69 94 56
69 94 57
72 97 58
71 97 58
75 101 62
74 100 60
73 99 59
67 92 54
68 94 55
68 94 55
71 97 57
68 92 55
70 95 56
68 92 55
69 94 55
68 93 55
86 109 82
149 165 172
155 172 177
141 158 162
150 167 173
146 163 169
156 172 181
151 168 173
147 163 169
155 171 179
152 170 179
150 167 175
141 158 160
135 151 152
117 135 128
113 133 122
94 113 95
94 117 94
71 96 58
73 98 59
73 98 59
132 149 152
150 166 174
147 164 168
157 172 182
160 177 186
157 173 182
154 170 177
152 169 175
156 172 181
145 162 167
153 169 177
153 169 176
157 172 181
150 164 169
162 178 190
163 178 187
151 165 173
157 173 179
140 156 159
149 166 172
102 123 109
70 96 57
69 95 57
72 97 59
71 96 58
70 96 57
73 100 60
73 98 59
70 96 57
74 101 60
68 92 55
73 99 59
72 98 59
68 93 55
67 92 54
73 98 60
73 99 58
72 98 59
72 97 59
89 110 91
143 160 164
149 165 173
164 179 189
149 165 169
152 169 177
152 169 177
151 168 174
146 163 168
148 163 170
151 168 176
146 162 167
159 176 187
161 177 186
146 162 166
158 174 182
160 176 185
137 153 157
158 174 184
157 173 181
86 109 81
70 95 57
66 91 54
74 101 60
72 97 58
74 100 61
74 100 60
70 95 58
75 102 62
68 94 56
74 100 59
68 92 55
67 91 55
74 100 60
73 99 59
71 96 57
72 98 59
70 96 57
113 133 124
156 173 183
157 174 182
150 166 175
157 173 179
147 163 170
156 172 181
153 169 177
152 169 176
156 173 182
162 178 189
147 163 169
157 173 182
156 173 180
151 167 176
154 169 175
157 174 181
151 167 172
122 141 134
67 92 55
72 98 59
80 107 66
71 97 59
70 96 58
71 96 58
72 98 59
75 101 61
75 102 61
75 101 61
82 106 78
100 122 101
116 137 126
135 153 154
142 160 165
159 176 185
134 152 151
69 95 56
70 97 57
67 92 54
77 103 62
74 100 61
68 93 55
79 106 66
72 98 58
69 94 55
68 94 56
73 100 59
76 104 64
76 102 62
71 97 57
72 98 60
92 115 89
151 168 176
154 172 178
153 170 177
154 172 180
157 175 184
149 165 172
159 175 184
153 170 177
136 154 152
134 152 150
117 136 129
92 116 90
82 105 77
79 105 69
76 103 63
131 149 148
152 169 172
159 175 184
165 182 193
154 171 180
155 173 183
160 178 187
163 180 189
156 175 181
145 163 167
160 177 187
157 174 184
164 181 194
156 173 181
150 167 172
79 104 69
77 104 64
80 108 66
77 104 63
74 101 61
76 104 63
78 105 65
73 99 60
75 101 61
78 105 64
80 107 66
77 105 64
78 105 64
144 163 164
161 176 186
168 185 199
177 192 207
160 176 182
167 184 198
157 173 178
148 166 168
124 142 136
108 129 115
89 115 84
76 103 63
131 151 147
164 181 192
162 179 190
158 176 187
173 189 200
171 189 203
165 182 193
168 184 192
170 187 200
171 187 200
81 110 68
81 109 66
79 107 66
76 103 62
80 109 67
78 105 65
103 126 108
148 166 171
152 170 176
76 103 62
78 106 64
78 105 65
80 108 66
77 106 64
73 100 61
72 99 60
77 104 64
79 106 65
74 101 62
78 106 66
77 104 63
103 127 105
137 156 157
158 176 186
174 190 202
163 181 192
98 121 99
78 106 64
81 109 67
75 102 62
76 103 63
71 97 58
78 105 63
75 101 61
79 106 65
77 104 63
76 103 62
74 100 60
78 105 64
86 111 80
118 138 127
133 150 146
156 173 183
162 179 188
144 162 167
77 104 65
76 103 63
77 104 62
80 107 66
78 105 64
71 97 58
76 101 60
81 109 66
75 102 61
74 100 61
77 103 62
75 102 61
71 97 58
77 103 62
75 101 61
73 99 60
76 103 62
77 104 66
108 129 113
122 142 135
79 105 72
72 98 59
73 99 60
76 103 63
82 110 68
78 106 65
73 99 60
74 100 60
77 104 64
71 97 59
74 101 60
74 100 60
73 99 60
77 103 63
76 103 62
74 100 60
77 103 63
74 100 60
114 134 121
157 174 183
161 176 184
159 175 184
160 176 183
151 168 173
128 146 144
125 145 137
123 143 134
99 120 103
103 123 109
133 150 150
159 176 188
162 178 188
157 173 181
145 162 166
146 163 167
139 155 158
148 164 169
151 168 171
152 168 173
73 99 60
70 95 57
72 98 59
73 99 59
73 100 61
74 100 60
75 101 62
75 101 61
73 99 60
68 93 56
71 97 58
71 97 58
70 96 58
73 99 59
75 101 61
76 104 63
75 102 62
69 93 55
69 94 56
78 106 65
127 145 142
156 171 179
152 168 174
153 169 176
157 172 179
145 162 165
158 174 185
149 165 169
124 142 137
109 131 118
86 106 83
74 100 60
72 96 59
72 98 58
74 100 61
73 98 59
73 99 60
69 94 56
73 99 60
71 96 58
70 95 57
162 178 186
149 165 172
157 174 181
149 167 171
169 184 196
142 159 164
146 162 167
149 165 172
160 175 183
153 168 174
151 166 173
163 177 186
146 162 169
151 166 175
157 173 179
157 174 183
157 174 184
150 166 173
156 173 181
160 175 183
127 145 140
72 98 59
75 102 62
70 95 57
77 103 63
69 94 55
67 92 53
71 96 59
79 106 65
68 93 56
78 105 64
71 96 58
69 93 56
73 99 60
71 97 58
68 93 55
70 95 57
71 96 57
77 102 63
71 97 58
69 95 57
138 156 159
149 164 173
149 166 171
155 170 177
133 150 150
126 144 143
111 131 123
109 128 116
99 119 100
75 99 65
70 95 57
77 104 63
74 100 61
75 100 60
72 98 59
65 89 52
74 100 61
70 95 56
70 95 57
67 92 54
107 127 113
147 163 169
155 171 180
143 159 166
151 167 171
145 160 166
147 163 168
146 164 169
153 169 177
151 167 174
148 165 171
151 166 172
162 179 189
151 167 174
143 160 163
151 167 170
144 161 164
144 160 166
161 176 187
161 179 189
124 143 140
73 100 60
73 100 60
74 100 61
69 94 56
71 97 59
70 94 56
71 96 57
68 93 55
74 100 61
73 98 59
69 94 56
74 100 60
70 96 57
70 95 57
63 88 50
71 96 58
69 95 56
73 99 60
74 99 60
128 146 142
147 164 169
148 165 171
158 175 184
146 162 166
157 173 183
155 171 179
147 162 166
148 165 170
154 170 177
147 163 168
156 172 179
146 163 168
146 163 168
153 170 177
167 182 190
159 176 186
157 174 181
145 161 166
128 146 143
75 100 61
73 99 60
74 99 59
73 99 59
75 101 61
73 100 60
75 102 63
72 98 58
74 100 60
71 98 58
71 96 57
71 95 57
73 99 60
72 98 59
69 94 56
70 97 58
76 102 61
78 104 65
139 156 157
151 167 174
158 175 184
158 174 183
145 162 169
155 171 180
161 178 188
163 180 192
146 163 168
142 158 160
162 178 188
156 172 181
154 170 177
148 165 169
147 164 170
151 169 179
149 166 170
149 166 172
77 101 70
75 102 62
73 100 60
72 99 60
89 113 80
103 124 108
114 133 121
129 146 145
144 162 163
145 162 169
154 171 178
157 173 181
160 176 185
157 172 181
157 173 181
152 167 175
153 169 176
116 139 126
77 104 63
76 103 63
73 99 59
73 99 60
75 101 61
74 99 60
76 103 63
74 100 60
78 106 64
74 100 60
75 101 61
75 102 62
77 104 64
73 98 59
68 93 55
118 139 130
157 173 182
147 164 171
143 160 162
164 181 190
150 167 174
148 165 173
164 180 191
153 170 177
154 171 177
162 179 189
158 175 184
156 173 180
153 170 177
146 163 169
142 161 167
135 154 154
134 154 153
142 161 163
154 171 178
162 179 190
158 174 186
156 174 183
160 177 185
164 181 192
156 173 183
165 181 192
162 179 190
153 169 175
162 179 190
141 159 160
77 104 63
79 107 66
77 105 63
72 98 59
76 103 62
76 103 61
79 106 65
77 105 65
76 104 62
78 106 65
75 102 62
78 105 63
80 106 69
144 162 166
165 182 191
161 178 188
159 177 187
174 190 202
157 176 185
165 181 193
165 182 194
167 184 193
167 184 197
146 164 168
123 144 138
141 159 160
161 178 190
164 181 192
164 182 192
160 178 185
163 180 192
156 173 182
161 179 188
161 180 190
80 107 66
83 111 69
78 105 64
77 102 64
117 137 125
160 177 187
164 181 190
170 188 201
140 157 159
72 99 59
78 106 64
78 106 65
74 100 60
82 110 67
77 104 64
76 104 63
77 104 64
76 103 63
82 108 72
126 146 140
156 172 177
156 173 181
157 172 181
167 183 194
161 178 190
166 185 199
92 116 90
73 99 59
77 103 63
77 105 64
72 98 60
79 108 66
79 106 66
73 100 61
79 106 65
76 104 63
72 98 59
99 123 100
130 149 143
164 181 192
166 182 194
162 180 191
155 172 179
165 183 191
139 157 157
75 101 61
72 97 59
77 104 64
72 98 57
71 97 58
78 105 65
77 104 64
75 102 62
76 103 63
79 106 64
82 110 67
76 102 63
73 99 60
72 97 58
76 102 62
101 124 106
136 154 155
142 160 164
155 172 179
76 103 63
78 105 64
72 99 59
75 103 62
73 100 60
76 103 63
76 103 63
76 102 62
73 99 59
77 105 63
67 92 55
73 100 60
74 100 60
75 101 61
73 99 60
68 93 56
78 104 64
72 97 59
72 99 60
88 110 86
162 178 189
168 183 194
155 171 180
169 184 194
154 171 179
144 160 164
123 143 134
97 119 97
73 99 60
82 110 67
82 106 72
95 117 92
120 139 130
123 141 131
133 151 151
154 170 177
162 178 189
163 179 189
155 171 179
154 171 181
77 100 69
69 94 55
75 101 60
73 99 60
74 100 61
70 95 56
68 93 55
69 94 56
67 92 54
76 103 62
70 95 57
76 103 63
74 100 61
70 96 58
69 93 56
73 98 58
74 100 60
73 99 60
78 104 63
74 101 61
121 140 132
147 162 166
142 160 164
155 171 179
123 141 138
110 130 120
90 113 89
75 101 62
71 97 58
72 98 59
71 97 58
70 95 57
73 99 59
72 98 59
70 96 57
74 100 61
74 100 60
75 101 60
69 94 56
73 100 60
71 96 58
124 141 142
152 168 174
159 175 185
153 169 177
157 174 182
158 174 182
158 175 182
155 171 179
152 169 176
155 171 180
153 169 177
159 175 184
153 171 179
170 186 198
153 170 178
147 164 169
155 171 177
150 167 171
155 171 178
155 171 180
144 161 167
81 104 73
75 102 62
73 98 59
73 98 59
72 97 59
69 94 55
72 98 59
69 95 56
79 106 64
69 94 56
72 98 59
69 95 57
72 98 59
71 97 58
75 101 61
71 96 58
69 95 56
79 103 75
83 104 81
122 141 137
116 134 128
97 117 98
91 113 91
68 92 58
72 98 59
72 98 58
74 100 61
73 98 59
69 94 56
71 95 57
69 94 56
68 94 56
73 99 59
71 96 58
71 97 58
76 103 63
69 94 55
71 96 57
71 97 58
72 98 59
74 98 63
152 168 176
147 161 167
152 169 177
157 173 184
149 165 171
155 172 179
159 176 185
152 169 178
156 172 178
151 168 173
146 163 169
151 168 176
148 163 168
160 177 187
154 171 179
153 168 174
150 168 176
155 171 179
162 178 188
149 166 171
89 112 86
77 104 64
70 95 56
74 100 60
70 95 57
73 100 60
71 97 58
74 101 61
68 93 56
73 99 59
73 99 60
67 92 55
73 99 60
72 99 59
71 95 56
74 100 60
75 101 61
70 96 58
75 102 61
84 107 79
149 165 174
162 178 188
159 175 184
160 177 188
148 165 171
145 163 166
151 168 177
159 175 185
153 170 177
155 171 182
157 174 182
154 171 180
163 179 189
146 162 166
158 174 183
141 157 160
154 171 178
158 174 183
156 172 179
80 102 77
74 100 60
74 99 59
77 103 63
75 102 62
74 101 60
73 98 58
70 95 57
70 96 57
73 99 59
77 104 63
69 94 56
70 96 58
73 100 61
75 101 61
73 98 59
71 96 57
68 93 55
90 113 92
162 179 189
158 173 181
156 173 184
157 174 184
152 169 175
152 169 175
157 174 183
151 167 173
154 170 178
155 172 179
156 172 179
159 176 187
147 164 170
148 165 171
152 168 175
162 178 186
129 148 147
108 127 116
125 144 138
139 155 156
153 168 173
157 173 181
159 176 185
163 179 187
156 172 178
153 170 178
158 174 182
158 174 184
160 177 185
145 163 169
155 172 180
170 186 197
158 175 185
153 171 182
160 177 185
78 102 69
70 95 56
77 104 64
70 95 57
71 97 59
78 104 63
69 95 57
78 106 65
76 102 62
70 95 57
70 96 57
77 103 62
70 95 57
74 101 60
75 102 63
74 101 61
122 141 136
163 180 191
160 177 188
157 174 182
165 181 190
157 175 185
158 176 185
159 176 186
157 174 180
167 184 196
163 180 190
154 171 178
156 173 181
159 177 187
158 176 186
150 168 173
89 114 85
75 101 61
77 104 63
89 114 85
110 130 118
116 135 125
133 152 148
153 171 175
160 177 187
154 171 179
164 178 186
172 189 201
163 180 192
151 168 174
125 145 138
76 104 63
79 107 66
77 105 64
76 103 62
77 105 63
75 102 61
82 109 67
74 100 61
79 106 64
75 102 62
73 99 59
78 106 65
103 125 105
151 170 177
158 175 182
166 184 196
164 181 192
157 174 185
159 177 185
167 184 197
158 175 180
161 178 185
169 185 195
165 181 191
172 189 202
126 145 137
117 138 125
137 157 157
173 190 203
157 175 183
156 174 180
166 185 197
167 184 196
77 105 63
86 112 77
119 141 132
164 182 192
167 184 194
161 178 185
158 175 183
173 190 202
123 144 136
81 110 68
78 106 65
79 108 66
73 100 61
77 104 64
76 102 63
82 109 67
82 106 72
121 141 132
149 168 173
168 184 195
178 194 209
163 180 190
172 190 204
157 175 183
173 189 202
162 179 190
90 114 85
79 106 65
80 108 67
74 101 61
76 102 62
78 105 65
79 107 66
81 108 66
83 108 79
119 139 130
142 160 162
155 173 181
153 170 176
168 184 195
157 175 185
163 180 189
156 173 179
166 181 191
146 164 170
76 103 63
73 100 61
74 100 60
76 103 63
72 99 60
78 105 64
76 103 63
77 105 63
70 95 57
80 108 67
72 97 58
73 99 60
96 118 95
121 139 133
161 178 187
160 176 184
165 181 193
154 170 174
152 169 173
75 102 62
73 99 59
76 103 62
74 100 61
73 100 61
72 98 58
73 100 60
76 102 61
79 106 65
75 102 62
71 98 58
75 101 62
73 100 60
76 104 63
71 97 58
80 108 66
75 102 63
75 102 62
78 104 63
89 112 88
153 169 178
152 170 174
133 151 151
120 139 130
88 113 81
75 103 63
67 93 54
75 102 62
75 102 62
73 99 60
78 106 65
76 102 61
77 103 62
73 100 60
76 102 62
75 102 62
75 101 64
91 114 86
101 123 103
109 128 114
117 136 127
99 120 101
89 113 84
76 101 68
74 100 60
72 97 58
76 103 63
72 98 58
76 103 63
75 102 62
73 99 60
70 96 58
74 100 60
71 96 57
78 105 64
76 102 62
71 97 58
81 108 67
72 98 59
74 97 65
120 139 130
121 138 133
91 114 88
72 98 60
69 94 57
77 104 63
76 102 62
71 95 56
75 101 61
77 104 64
77 103 63
74 100 61
71 97 57
71 97 58
73 98 59
75 100 61
72 98 58
74 101 62
68 93 55
75 101 61
74 100 61
118 136 130
160 176 188
156 173 182
168 183 195
149 166 171
159 176 188
143 160 165
152 168 174
158 174 182
154 170 178
153 170 177
157 174 184
148 165 172
152 168 175
159 176 186
152 167 173
153 169 176
154 171 180
158 174 182
153 170 177
151 168 175
109 128 117
76 103 62
76 103 63
70 96 57
71 96 57
67 92 54
68 93 55
71 97 58
69 94 57
76 103 63
70 95 57
74 98 65
102 123 103
120 139 132
126 144 140
126 142 138
148 164 169
146 163 169
155 172 178
145 162 167
153 169 174
75 99 66
71 97 58
74 101 60
72 97 59
74 100 60
79 106 65
72 97 58
76 103 63
74 101 62
77 103 63
70 95 56
74 101 61
68 92 54
74 100 61
70 96 57
71 96 58
69 95 57
71 96 58
74 101 62
71 96 58
118 137 129
156 173 180
149 165 175
158 175 186
153 170 177
159 174 183
152 170 177
155 171 179
149 166 174
151 166 174
151 166 173
142 158 161
151 168 176
154 170 177
162 178 187
142 158 162
152 169 175
145 160 168
148 164 170
162 178 189
135 153 154
71 96 57
73 99 60
69 95 56
72 99 59
78 105 65
75 101 61
76 102 61
72 98 59
74 101 61
71 96 58
74 101 62
71 96 57
68 93 55
68 93 55
67 91 54
70 96 57
73 99 61
74 99 60
75 101 61
127 145 145
155 170 179
151 168 176
149 166 172
150 167 174
158 174 184
154 170 176
156 172 179
147 164 168
144 160 164
141 157 160
161 177 188
150 166 172
153 171 178
147 163 168
161 177 186
166 182 191
157 174 182
143 160 165
144 161 163
75 101 61
70 95 57
75 102 62
74 100 60
71 96 58
75 102 61
74 100 61
67 93 54
71 97 58
74 100 61
70 96 58
73 100 61
72 98 59
69 95 56
67 92 55
77 104 63
73 98 59
70 95 57
131 149 145
165 181 192
160 177 189
166 183 196
158 173 183
163 180 189
153 169 177
159 175 183
142 159 164
134 151 149
125 143 140
123 140 137
110 132 116
92 116 93
78 103 68
73 99 59
73 99 60
76 103 63
134 151 153
152 169 176
152 168 173
163 179 191
148 165 171
161 177 186
159 175 181
162 179 190
166 183 195
156 173 180
144 161 165
151 168 173
160 178 189
149 165 176
156 173 178
158 175 186
156 172 181
144 162 166
78 105 64
70 97 57
77 104 63
71 97 58
79 106 63
81 109 67
77 103 63
77 103 62
77 104 64
75 102 62
71 96 58
73 98 60
77 104 63
72 98 58
66 91 54
82 108 74
154 170 179
154 171 178
158 174 183
164 181 191
157 174 182
166 182 194
156 173 180
143 161 163
161 178 186
160 177 185
167 184 194
165 181 192
155 172 181
165 182 192
162 178 189
133 151 153
74 100 61
75 102 61
71 98 59
79 107 65
75 102 61
77 104 63
75 103 62
84 111 79
105 127 107
113 134 119
127 145 142
136 155 154
154 171 177
161 178 190
96 118 97
75 101 61
74 101 61
77 104 63
78 106 64
77 104 63
76 103 62
77 104 63
79 107 65
77 104 63
77 104 64
76 103 62
75 102 62
95 120 93
155 173 179
165 181 190
157 175 186
166 183 193
161 178 187
165 181 191
169 187 201
173 190 206
166 183 195
175 191 205
161 179 191
156 174 180
112 134 123
80 108 66
79 107 66
109 131 113
135 155 153
152 172 180
161 178 188
135 155 153
162 179 187
162 179 188
169 187 201
159 176 186
159 177 189
169 186 198
159 176 185
109 131 115
80 108 67
79 107 66
82 110 68
80 109 67
74 100 60
98 120 100
140 159 159
164 180 190
173 190 202
165 182 190
159 176 184
163 181 193
162 180 190
161 178 187
157 173 181
157 173 182
166 183 194
81 105 73
76 104 62
73 99 59
75 101 61
75 101 60
75 101 61
90 114 87
119 139 134
162 180 191
169 185 198
149 167 171
160 176 187
161 179 187
161 178 189
163 180 192
158 175 182
167 184 196
168 184 196
127 145 142
74 101 61
77 104 63
77 104 64
72 98 58
74 100 61
76 102 62
74 100 61
76 103 63
72 98 59
89 116 82
110 133 119
144 160 162
160 176 188
157 173 183
166 184 196
164 179 193
163 179 190
165 182 192
154 172 180
80 106 71
78 105 65
77 104 63
68 93 56
75 102 61
72 97 59
77 104 63
74 100 61
73 99 60
75 102 62
72 98 60
73 100 61
76 103 62
76 102 62
81 109 68
77 104 64
74 100 60
73 99 60
80 107 66
101 124 106
124 143 136
86 111 81
75 102 62
77 104 63
77 103 62
73 98 59
76 103 62
71 96 57
73 99 60
76 102 62
76 102 61
73 98 60
71 97 58
74 99 60
74 101 62
76 103 63
75 101 61
72 97 59
76 102 62
77 104 63
129 146 145
163 178 188
160 176 186
146 162 169
157 173 182
140 157 159
138 156 158
131 150 145
111 130 120
105 126 114
89 113 86
86 109 84
73 98 59
71 96 58
75 100 60
83 107 75
102 124 107
120 139 136
145 163 167
154 169 176
152 169 178
78 103 66
74 100 60
74 100 60
77 105 64
71 97 58
73 99 59
72 98 59
73 98 59
76 103 62
74 99 59
75 101 61
74 101 61
74 99 60
70 96 57
73 98 60
72 98 59
75 102 62
76 102 62
74 101 62
73 98 59
85 108 78
148 165 172
159 176 185
151 168 177
156 172 177
146 162 169
161 178 189
157 174 182
148 165 172
155 172 179
164 179 188
165 181 192
160 176 185
152 169 175
150 166 172
146 163 171
147 164 171
159 176 187
152 169 174
142 158 163
161 177 186
131 150 146
73 98 59
74 100 61
71 96 57
72 97 58
75 102 61
78 103 71
103 123 109
123 141 138
130 148 145
148 165 169
154 170 175
157 173 182
146 163 170
158 174 181
159 175 183
148 164 172
165 180 188
152 168 174
154 171 181
159 175 185
100 121 104
66 91 53
69 95 57
75 101 61
71 97 58
71 97 58
72 98 59
74 101 61
72 97 58
73 99 59
69 94 57
71 96 57
69 94 55
74 101 62
72 98 58
74 100 61
76 103 62
69 94 56
71 96 58
74 100 60
91 113 90
153 169 174
159 176 184
151 168 174
156 172 180
166 182 192
160 175 183
146 164 168
146 163 167
158 174 184
149 166 176
148 165 170
152 168 174
147 164 169
159 175 185
160 176 185
158 174 181
144 161 166
156 173 180
159 176 183
159 175 182
87 110 82
76 102 61
72 97 58
65 90 52
74 101 62
71 97 58
72 99 59
71 96 57
73 99 60
66 90 53
70 95 56
73 99 60
67 92 54
74 99 60
70 96 58
70 95 57
76 103 63
72 98 58
74 100 60
87 108 85
149 165 173
151 168 174
156 171 180
150 166 170
157 172 179
147 165 171
156 172 180
156 173 182
148 165 170
161 177 187
157 172 181
170 186 200
154 170 179
170 186 200
155 172 179
155 171 181
156 173 180
162 178 188
153 170 178
103 123 109
74 100 60
71 96 58
63 88 52
77 104 63
71 96 58
74 100 61
74 101 62
75 100 60
73 99 59
70 96 57
73 99 60
77 104 64
72 98 58
74 100 60
72 98 59
69 94 57
84 108 82
111 130 124
138 157 155
120 139 129
130 149 143
97 119 101
93 116 90
74 100 63
72 98 58
78 105 65
76 103 63
71 96 58
72 98 58
73 99 60
70 96 57
75 101 62
75 102 61
69 95 57
74 100 61
89 114 84
155 172 181
156 173 179
143 162 164
163 181 193
156 172 184
160 176 185
155 173 181
156 174 183
159 176 185
164 180 190
153 169 176
159 176 185
162 179 190
167 183 194
166 183 193
160 178 189
156 174 182
116 137 130
76 104 63
75 101 60
72 98 60
76 103 62
80 106 65
74 100 61
78 105 63
75 102 62
68 94 56
75 103 62
74 101 60
74 101 60
71 97 58
78 105 63
73 99 61
104 126 110
161 178 188
161 179 190
153 170 178
166 182 195
156 172 180
154 171 178
159 175 184
154 170 179
152 168 174
164 181 191
155 173 180
162 179 190
166 183 193
152 167 173
159 176 185
114 134 122
77 104 63
74 100 61
79 106 65
73 99 60
76 103 63
72 99 60
77 103 63
76 104 64
76 104 64
72 99 59
76 103 63
80 108 66
85 109 82
104 126 109
119 139 128
116 135 125
93 116 92
75 101 60
78 105 65
80 108 67
77 104 63
78 105 65
74 101 61
77 103 62
77 104 64
74 101 62
79 107 66
126 147 141
165 182 194
170 186 197
171 190 205
154 171 178
168 186 200
172 189 202
165 182 194
167 184 196
165 183 194
168 185 197
156 173 182
169 185 199
103 127 108
74 100 61
78 105 64
80 108 68
74 101 61
93 117 92
163 181 194
161 179 190
168 184 195
171 187 199
164 182 192
167 185 197
174 190 203
169 185 197
100 123 103
78 106 64
79 106 65
78 105 64
111 133 120
149 167 173
162 180 191
162 179 190
170 186 199
167 183 194
160 175 183
170 187 200
160 178 188
167 185 197
165 181 190
157 176 185
168 185 198
162 179 189
78 106 65
80 108 66
80 107 66
81 110 68
113 134 121
145 164 164
160 177 187
166 182 192
165 182 193
165 181 191
157 174 182
167 183 195
164 182 190
161 179 189
164 181 193
169 187 200
161 179 189
151 169 173
136 155 152
74 100 60
80 108 66
71 97 58
71 97 57
78 105 64
77 104 63
78 106 65
101 125 101
131 149 149
151 168 176
159 175 185
155 172 182
167 185 195
155 171 178
161 178 189
164 181 192
164 180 191
159 175 185
158 173 181
94 118 93
74 100 61
75 102 61
77 105 64
77 104 64
73 100 60
75 102 61
78 105 64
76 103 62
80 108 67
71 97 58
80 108 66
74 100 60
75 101 62
77 103 63
81 107 69
103 126 105
134 152 149
159 175 184
158 176 183
81 104 76
79 107 65
73 99 61
77 104 63
79 106 64
76 102 62
74 100 61
74 101 61
79 107 66
78 105 65
74 101 61
75 102 61
72 99 60
78 105 64
74 100 60
71 96 57
76 102 62
75 102 63
72 97 59
79 107 65
114 131 124
159 175 183
152 169 174
147 163 168
164 180 190
161 178 189
154 169 176
156 174 182
154 172 181
148 166 173
147 164 169
157 172 176
138 156 158
114 135 123
89 114 86
107 128 116
127 145 140
138 155 154
146 164 169
138 156 158
139 158 159
96 120 96
70 95 56
76 102 62
76 102 62
72 98 59
72 98 58
70 95 57
74 101 62
76 102 62
73 98 59
75 101 61
72 98 58
73 100 61
81 109 67
75 101 60
75 102 62
70 95 57
70 95 57
67 92 54
68 94 55
78 103 66
156 174 183
160 177 184
157 173 181
162 178 188
149 165 171
153 171 179
157 173 187
159 175 184
150 166 172
158 174 185
153 170 177
155 171 178
163 180 189
152 169 179
153 169 176
144 160 162
155 172 182
148 164 168
154 172 178
153 170 180
157 174 182
98 119 99
111 130 120
127 143 142
148 164 168
153 170 179
146 163 167
160 177 185
145 161 165
148 165 171
156 172 182
150 167 174
166 181 191
147 164 168
157 174 182
156 172 180
154 170 178
152 169 176
156 173 185
155 172 180
153 170 177
151 168 174
66 90 54
75 102 62
73 99 60
77 104 63
72 98 59
74 101 62
72 98 58
72 98 59
74 100 61
76 103 62
70 95 57
71 97 58
69 94 57
73 99 59
76 104 63
69 95 57
76 103 62
76 102 62
69 94 55
74 101 61
130 148 147
153 168 176
142 159 165
146 164 168
152 170 176
159 175 183
163 180 189
163 179 190
153 169 176
144 162 166
153 168 177
156 171 178
155 171 177
149 164 169
156 172 178
144 161 165
154 170 179
157 173 182
155 171 183
149 166 172
114 131 123
69 95 56
75 101 61
75 101 59
73 99 60
79 106 65
74 100 60
66 91 53
73 100 60
75 101 61
74 100 61
72 98 59
78 105 64
75 102 62
75 102 63
71 97 58
72 98 58
72 98 60
72 98 59
65 90 53
128 146 143
156 171 178
160 177 187
159 175 186
150 165 169
167 184 195
163 181 192
154 171 178
156 172 179
148 164 170
151 168 173
158 174 183
157 174 183
157 173 183
144 160 164
153 170 178
162 179 187
163 180 191
154 171 177
133 151 152
73 100 61
76 103 61
73 100 60
75 101 61
75 101 61
71 96 57
78 104 67
88 112 83
96 118 99
102 124 103
106 127 111
130 148 145
142 159 160
137 154 154
153 170 176
146 162 166
155 172 179
157 173 181
119 139 131
72 98 58
75 102 63
77 104 63
72 98 60
76 103 63
74 101 61
76 103 62
71 96 58
71 96 58
72 98 59
72 97 59
75 102 62
77 104 63
75 101 61
75 101 61
78 105 64
74 101 61
116 135 127
155 172 179
162 178 188
165 180 191
171 188 199
166 182 192
165 180 190
142 160 161
168 185 196
153 170 177
149 165 170
162 178 187
162 179 190
168 185 197
160 177 188
162 178 188
160 176 186
151 168 174
84 110 78
75 101 61
72 98 59
72 98 58
77 104 63
73 100 61
76 102 62
73 100 61
76 103 62
78 106 65
74 100 61
75 101 61
72 98 58
71 96 57
73 99 60
75 101 61
127 146 140
165 181 190
159 176 184
163 180 191
155 172 181
168 185 195
160 177 187
154 172 183
158 175 185
155 171 179
164 181 195
162 179 190
163 181 190
158 174 183
168 184 195
158 175 182
97 121 98
78 105 65
73 100 61
79 106 65
75 101 61
74 101 60
77 104 64
76 104 64
72 99 61
79 106 65
75 103 62
75 101 61
79 107 66
75 101 62
101 123 103
158 176 185
165 183 193
161 178 187
144 163 169
121 141 132
98 119 97
81 106 72
76 104 63
81 109 67
74 101 61
77 104 64
76 102 62
79 106 65
131 152 146
154 172 177
164 181 192
163 180 190
164 181 190
165 182 195
169 186 198
168 186 202
166 183 197
166 183 196
162 177 185
157 173 182
157 175 185
99 124 101
79 107 66
78 105 65
79 107 65
77 104 63
167 183 192
166 183 195
169 187 201
171 188 202
170 187 198
166 185 197
175 192 206
168 185 196
83 109 75
83 110 73
110 132 118
152 171 177
161 178 189
161 178 188
170 186 196
167 183 195
167 184 195
163 180 191
165 182 193
160 177 186
165 181 189
158 175 183
167 184 193
166 183 196
157 174 183
148 166 173
78 106 65
95 118 95
124 145 135
148 167 170
165 182 194
166 184 195
164 182 195
157 173 183
171 188 202
164 182 195
163 179 191
168 185 199
166 182 193
160 177 187
167 183 195
158 175 183
170 185 195
160 177 183
146 164 167
75 102 63
78 106 65
77 104 63
75 101 62
82 107 74
127 147 142
150 166 171
157 173 178
144 162 166
159 177 185
166 183 194
156 173 183
177 193 208
162 180 191
169 184 195
167 184 195
166 182 193
147 164 172
164 181 193
97 121 101
77 104 63
75 101 60
72 98 59
77 104 64
80 108 66
78 104 63
73 100 59
73 99 59
76 103 63
76 102 62
77 105 64
82 107 74
111 130 116
139 158 159
161 178 188
166 183 194
163 180 191
161 178 188
152 170 174
111 133 116
75 101 61
76 103 63
79 105 64
72 98 59
72 98 59
75 102 62
78 105 64
74 100 59
74 101 61
74 100 60
73 99 60
75 101 60
76 102 62
78 106 65
76 103 63
73 100 60
78 106 64
71 97 58
78 106 65
102 123 109
149 165 175
152 168 175
159 175 185
160 177 190
160 176 184
165 182 193
158 175 185
140 157 159
133 151 151
110 130 120
82 107 74
72 97 58
74 101 62
75 102 63
74 101 61
72 97 59
70 95 56
75 102 61
73 99 60
72 98 58
130 149 145
144 161 166
143 159 164
149 167 172
129 149 147
130 149 143
120 139 133
110 130 114
97 118 98
102 123 105
92 115 89
73 99 62
72 98 58
72 98 59
74 101 61
76 102 63
77 104 63
65 88 52
73 99 60
76 102 62
73 99 59
130 148 152
148 165 172
162 178 190
156 173 182
158 174 182
167 183 194
151 169 176
149 166 172
152 169 175
166 182 193
149 166 172
159 176 186
156 172 177
152 169 177
152 168 175
148 165 172
137 155 155
124 143 141
111 132 118
86 108 83
82 107 73
137 154 153
160 176 186
150 167 176
144 160 162
165 180 192
164 181 192
156 173 182
156 171 181
138 155 157
151 168 175
170 187 198
159 175 184
154 171 177
163 178 189
146 163 169
161 177 187
148 165 172
154 170 180
154 171 180
149 165 167
147 163 169
77 101 70
75 101 60
75 101 61
73 99 60
74 100 60
73 99 60
76 102 63
71 97 58
72 97 58
71 96 58
69 94 56
73 98 59
68 93 55
72 98 60
71 96 58
75 102 62
73 100 60
75 101 62
69 95 56
71 97 58
126 144 137
159 175 185
148 163 167
155 171 179
152 170 177
153 170 176
156 173 183
152 168 177
158 173 182
148 165 173
152 170 178
145 163 166
155 172 177
149 166 170
150 166 173
160 177 186
152 167 173
151 168 176
159 175 183
153 170 177
156 172 179
79 104 69
74 100 60
71 96 58
79 106 65
70 96 57
74 100 60
70 95 57
72 98 58
70 95 56
73 99 60
72 98 59
74 101 61
76 102 63
74 100 60
70 95 56
74 100 61
71 97 58
72 98 59
70 95 56
102 123 102
143 160 167
157 174 182
156 173 180
157 175 184
160 176 185
161 178 189
158 174 180
159 175 183
165 182 194
151 167 172
144 160 165
155 172 183
139 156 159
152 168 178
153 170 178
154 171 177
141 159 158
145 163 166
136 153 152
106 126 113
117 135 128
129 148 143
143 160 164
147 164 168
147 164 171
146 164 170
157 173 180
152 170 180
151 167 174
152 169 176
162 179 191
155 172 180
146 164 168
152 169 176
163 180 191
152 169 175
149 167 174
155 172 182
92 116 89
70 95 60
80 105 71
77 104 63
76 103 62
78 105 65
72 98 60
83 110 67
74 100 59
77 105 64
70 96 58
74 100 60
76 103 63
77 103 63
71 97 58
70 95 57
75 102 61
80 106 68
151 169 173
160 177 187
169 185 197
166 182 194
155 172 182
149 165 171
159 177 187
162 178 188
165 182 192
152 169 178
164 180 192
160 177 189
163 180 190
155 172 180
156 174 183
150 167 173
158 174 184
132 150 144
75 102 62
75 101 61
74 100 59
76 103 62
76 103 63
77 103 63
74 101 61
79 107 65
75 102 62
73 99 60
70 96 56
77 104 64
73 99 59
75 103 62
75 102 61
83 109 75
144 162 162
166 183 193
156 173 183
162 180 192
166 182 193
170 186 201
159 175 184
155 173 182
167 184 197
160 176 186
165 182 194
163 180 192
159 175 183
170 187 200
162 179 191
150 168 171
85 111 79
77 104 63
76 103 63
72 98 59
78 106 65
78 106 64
77 105 64
81 109 67
79 107 65
70 96 57
78 106 65
75 102 62
72 98 59
76 103 62
117 137 128
162 179 189
155 174 182
169 186 196
157 175 182
159 176 185
158 175 183
156 173 179
137 156 155
123 145 137
91 116 90
76 103 63
75 102 62
76 104 63
135 154 150
165 182 193
158 175 184
173 190 203
163 180 192
156 174 181
156 174 180
170 187 202
164 182 190
167 185 200
164 180 191
166 183 194
169 188 202
89 115 87
80 108 67
82 109 66
76 104 64
157 175 180
163 180 192
177 193 207
166 183 194
158 175 186
172 189 202
176 192 203
160 178 188
130 151 143
163 180 191
161 178 189
167 184 196
174 191 205
162 180 190
163 180 189
161 179 187
171 188 201
170 188 201
168 185 198
158 175 186
161 179 189
166 183 195
164 180 192
158 176 187
164 181 193
146 164 170
141 160 161
158 174 184
161 179 189
168 186 198
170 187 201
163 180 194
164 182 194
164 181 191
163 180 189
161 178 187
165 181 190
165 182 192
166 183 194
163 180 191
163 179 190
166 182 193
164 181 192
155 172 178
142 159 159
76 103 62
77 103 68
119 139 127
150 167 171
155 172 179
164 181 191
159 176 188
161 178 187
159 175 184
163 179 191
168 186 198
169 186 199
166 182 193
161 177 185
161 179 190
167 184 194
171 187 201
163 180 190
157 173 180
102 123 109
69 95 56
79 106 65
75 102 61
77 103 63
77 104 64
75 102 61
74 101 60
71 97 57
77 103 65
103 123 105
125 144 139
155 171 179
161 177 185
161 178 188
163 180 191
156 174 180
162 178 190
161 178 187
160 177 186
123 143 133
74 101 61
77 103 63
74 100 61
77 104 63
73 100 60
76 102 62
73 99 60
77 104 64
78 105 64
72 98 59
74 100 60
74 100 60
75 102 62
75 101 62
72 98 58
74 101 61
75 102 61
72 98 58
73 99 59
106 127 110
159 176 186
166 181 193
160 177 186
147 164 166
136 154 153
119 139 129
97 119 95
71 97 59
71 97 58
75 102 61
77 103 62
74 100 60
76 102 62
72 98 60
76 102 62
71 96 58
68 93 56
67 92 54
70 95 57
78 105 64
108 129 111
155 171 177
152 168 174
149 167 172
158 174 182
151 168 174
157 173 181
148 165 172
154 171 178
158 176 187
157 174 182
157 173 180
152 169 178
147 163 170
148 166 169
143 160 164
134 152 148
136 153 150
120 139 128
115 134 125
110 131 118
123 141 136
148 166 170
147 165 168
138 156 157
161 177 186
155 171 179
154 171 178
152 169 176
161 178 187
153 170 175
160 176 185
142 158 162
138 155 156
119 139 129
101 122 102
72 97 60
76 102 61
75 101 61
67 92 54
71 97 57
70 95 56
118 137 130
158 174 183
161 177 189
156 172 182
158 174 183
161 178 185
150 167 173
157 173 181
155 172 181
152 169 176
146 162 163
155 171 180
146 162 168
150 166 171
156 172 179
159 175 187
173 189 204
152 168 178
153 169 176
153 170 176
163 179 188
108 128 115
75 101 62
74 100 61
72 98 59
75 101 61
74 99 60
65 90 53
74 99 60
79 106 65
73 100 60
71 97 57
76 102 62
74 100 60
70 96 57
75 100 60
72 97 58
74 101 61
70 95 57
72 98 59
66 90 54
75 102 61
152 169 177
162 178 188
166 183 194
157 173 182
152 168 177
152 168 176
166 183 194
145 162 167
157 174 180
158 175 185
149 165 170
157 174 184
160 175 183
147 164 167
153 169 175
157 173 182
155 171 179
158 173 180
159 175 182
151 167 174
109 131 117
76 103 63
72 98 59
67 91 55
65 90 53
73 100 60
73 99 60
73 98 59
75 101 60
70 96 58
69 95 57
75 101 62
66 90 52
79 106 65
77 104 63
71 96 57
80 108 66
71 97 59
75 101 62
75 101 61
140 158 159
153 171 178
158 173 179
159 177 185
158 175 182
147 165 172
151 168 176
146 163 167
152 168 173
150 167 175
136 153 155
145 161 163
142 159 165
143 160 162
130 149 146
144 161 166
128 144 142
141 159 163
131 149 149
137 155 156
83 107 77
89 112 85
76 103 65
75 100 63
74 100 60
79 107 66
72 98 59
73 99 59
79 106 65
74 101 61
74 99 60
75 102 61
70 96 57
78 105 63
71 96 58
74 100 61
72 98 59
75 102 61
116 135 126
148 165 171
155 172 181
163 179 190
152 169 178
150 165 173
159 176 183
159 177 188
155 172 177
153 171 178
147 165 170
141 159 159
155 172 179
150 165 170
143 161 164
141 159 163
138 156 156
136 154 151
138 157 157
125 145 138
133 151 144
131 149 146
134 151 152
125 143 137
148 165 172
143 160 165
147 164 171
154 173 180
165 181 191
155 171 178
155 172 180
158 175 183
163 179 190
157 174 184
147 164 169
164 180 192
98 123 97
75 102 62
73 100 59
75 101 61
75 102 61
75 101 61
79 106 64
74 101 61
80 108 66
73 100 59
77 104 64
76 103 62
75 102 63
76 103 61
78 105 64
75 102 62
96 118 97
162 179 190
161 178 188
169 185 197
163 180 191
162 178 190
155 172 184
161 177 186
162 180 190
159 176 189
162 178 189
148 165 170
161 177 188
167 184 197
160 179 187
170 185 196
126 145 143
73 99 59
78 106 65
74 101 61
71 97 59
76 103 63
78 105 63
77 104 63
74 101 60
74 100 60
76 104 63
80 108 67
74 101 61
78 106 65
80 107 66
128 149 145
166 183 195
152 170 176
162 181 194
162 180 191
164 182 194
162 178 187
166 182 194
162 179 189
163 180 192
150 167 171
150 167 171
129 149 145
101 124 104
148 165 170
158 176 189
164 180 190
170 188 201
172 189 202
175 191 203
155 174 182
168 186 199
169 185 197
168 186 201
168 186 199
165 183 194
153 172 178
85 110 84
80 108 66
75 103 63
163 179 188
161 179 190
161 178 186
176 192 206
164 180 189
155 174 184
133 153 152
112 134 116
159 177 184
166 184 196
171 188 199
159 176 186
166 183 196
171 188 199
168 185 195
161 178 188
168 185 198
157 175 183
168 185 196
164 181 192
170 187 199
163 179 187
161 179 190
136 156 152
91 116 89
117 138 123
158 174 182
169 185 196
169 185 197
165 182 195
170 188 202
158 176 186
172 188 201
163 180 191
149 168 176
166 184 194
167 183 194
157 175 186
160 178 188
167 184 195
158 176 185
165 182 192
171 188 202
165 183 195
155 171 177
125 145 138
159 176 186
162 178 188
170 187 199
160 178 188
162 180 192
159 176 185
158 174 182
165 182 193
160 177 186
166 182 192
156 173 180
168 184 197
151 168 173
155 172 180
168 184 196
165 181 191
161 178 190
160 176 183
105 126 108
78 104 63
79 106 65
72 98 59
76 103 63
74 100 59
77 103 65
91 114 91
142 161 162
163 179 190
156 173 182
150 167 174
168 184 196
174 191 205
150 167 172
171 186 201
164 180 189
159 176 187
158 174 182
168 185 196
121 139 133
75 101 61
76 103 63
72 98 59
74 101 61
77 103 63
74 102 61
71 97 58
74 101 60
77 104 62
72 98 59
78 106 65
76 102 62
71 95 57
78 104 63
77 104 64
79 106 64
73 99 59
76 102 62
72 98 58
75 102 63
149 167 173
129 147 144
94 117 95
81 107 74
73 98 59
77 104 63
73 98 59
75 101 60
79 106 64
69 94 56
74 100 61
73 98 59
74 100 60
77 103 63
74 100 60
74 100 61
72 98 59
77 103 63
70 96 57
73 99 60
86 112 79
160 177 188
151 168 173
163 180 194
163 179 191
166 182 193
153 168 174
157 173 181
160 177 188
166 182 194
150 168 174
150 166 173
146 164 168
153 168 174
162 179 188
159 177 187
159 177 186
157 173 184
157 173 183
156 171 179
151 168 174
147 163 169
71 97 58
78 105 64
75 102 61
75 102 61
74 99 63
91 113 90
110 130 121
143 160 160
139 157 159
143 161 165
133 150 152
131 149 148
125 145 137
122 141 135
118 137 130
117 136 130
119 139 127
114 132 121
123 143 138
100 122 101
123 142 135
139 156 158
135 152 152
165 182 192
146 162 166
159 175 181
165 180 190
153 170 182
163 180 190
150 167 175
154 170 176
159 176 183
142 159 163
154 171 180
160 175 185
150 165 173
150 167 175
159 176 184
155 172 179
156 173 180
159 176 188
148 164 167
74 100 61
72 98 59
71 97 58
72 97 59
72 98 59
75 102 62
75 101 61
73 99 60
73 99 60
73 99 59
71 97 58
71 97 58
75 101 62
74 101 61
74 100 61
75 102 62
75 101 61
77 103 63
74 100 61
76 103 62
122 141 137
153 170 178
148 165 167
166 181 192
156 172 181
155 172 182
156 171 182
158 174 184
161 177 186
153 170 178
153 168 175
149 166 170
160 177 185
144 161 166
153 170 178
158 174 183
156 173 181
154 168 174
160 176 181
157 173 181
128 144 142
87 110 83
80 104 78
100 123 104
100 123 104
112 132 119
116 136 124
92 114 94
97 119 96
94 116 95
88 112 85
95 116 95
93 117 90
84 108 79
81 106 73
78 102 70
76 102 64
65 90 52
71 97 58
70 95 57
96 118 98
157 174 182
164 181 190
156 172 183
159 174 182
162 177 185
157 173 183
157 173 180
158 176 184
151 168 173
150 166 171
159 176 188
162 179 191
151 167 175
154 170 177
162 179 190
141 159 164
160 176 186
162 178 186
154 170 175
103 123 109
78 105 65
77 104 64
74 100 61
77 104 63
75 101 61
72 98 57
75 102 61
77 105 64
70 96 57
76 103 63
76 102 61
75 102 60
77 103 63
75 102 62
76 103 63
72 99 59
77 104 63
74 100 61
144 160 163
152 169 175
158 174 184
159 176 182
157 175 184
168 183 195
152 170 176
159 176 184
147 164 168
159 176 188
156 174 182
152 170 179
167 184 196
154 171 180
161 178 190
151 167 173
149 166 174
161 179 189
117 136 130
78 105 64
79 106 64
75 101 62
74 100 60
75 101 62
73 99 59
74 101 61
72 99 59
78 105 64
79 105 69
86 111 83
101 123 104
101 122 107
115 135 124
114 134 123
117 137 130
125 146 140
105 126 114
100 122 105
88 114 80
87 115 78
79 106 65
79 106 65
74 101 62
72 98 59
74 101 61
70 96 57
66 90 54
76 103 63
75 103 62
75 102 63
77 104 63
76 103 63
119 140 135
155 173 183
162 179 187
161 177 186
159 176 187
163 180 189
154 172 179
160 177 186
159 176 184
168 185 201
164 181 191
163 181 191
159 175 188
164 180 189
163 180 191
164 182 193
111 133 118
77 104 64
74 100 60
73 100 60
74 101 61
78 105 64
77 104 63
75 103 62
78 105 64
80 107 66
77 105 63
78 106 66
73 100 60
75 103 62
79 107 66
159 177 185
163 180 193
168 186 198
163 179 189
173 190 204
168 186 201
156 174 183
165 183 194
169 185 196
173 190 203
175 190 202
170 188 200
170 187 198
163 180 187
121 141 134
116 138 124
146 164 166
166 183 193
165 183 195
166 184 194
167 185 198
171 190 205
173 190 203
164 183 194
163 180 190
168 184 194
154 172 177
86 113 75
81 110 68
169 186 198
169 186 199
170 187 202
154 172 178
125 146 136
90 116 82
76 103 63
113 135 123
175 193 208
170 187 199
165 183 195
168 185 199
171 188 200
156 175 182
174 192 206
166 182 192
160 178 188
174 191 205
166 183 194
169 186 199
158 176 181
132 152 147
88 113 82
82 110 68
71 97 57
115 136 125
164 182 194
173 191 205
170 187 201
167 185 197
162 180 193
167 185 197
165 182 193
172 189 202
162 179 189
155 172 178
166 183 194
159 178 186
167 184 195
176 192 207
164 180 189
159 176 185
132 150 147
104 128 108
114 134 122
158 175 185
171 188 201
164 181 193
159 177 186
167 183 194
159 177 183
154 173 181
160 177 190
164 181 192
162 180 190
169 186 202
156 173 179
172 189 200
157 174 183
165 182 195
159 176 185
162 178 189
174 191 206
158 175 186
111 132 119
74 101 61
78 105 63
74 100 62
94 116 94
128 147 148
160 177 186
155 172 179
166 182 192
155 172 181
162 178 187
156 174 183
161 176 186
165 181 190
161 179 192
163 180 189
156 174 183
164 181 190
161 178 188
162 178 187
123 142 139
79 106 65
72 99 59
73 99 60
71 96 57
78 104 63
75 101 62
71 97 57
74 100 60
81 109 67
72 98 58
75 101 61
71 97 57
78 105 64
74 100 60
74 101 62
76 103 63
80 106 66
121 140 132
122 142 132
143 160 164
104 127 106
70 95 56
75 101 61
72 97 59
71 97 58
74 100 61
78 106 65
76 102 62
75 101 61
72 98 59
68 93 55
74 100 60
75 101 61
72 98 59
71 97 58
77 103 63
75 102 63
73 99 60
76 103 63
74 101 61
76 103 63
152 169 175
149 166 173
155 172 178
166 182 192
160 176 185
154 170 174
152 168 175
158 176 186
153 169 177
167 184 198
153 170 176
156 172 180
155 172 177
156 173 180
159 175 186
165 181 192
160 176 187
167 181 192
158 173 180
153 170 177
154 171 181
99 121 101
92 115 91
125 143 138
133 150 145
163 180 191
155 171 176
165 182 194
151 167 175
162 178 186
149 166 171
164 181 192
164 181 192
147 164 168
161 177 186
159 175 182
153 169 178
152 170 177
154 169 178
154 171 179
154 170 178
162 177 187
86 110 82
72 97 58
73 99 59
72 97 58
73 98 59
75 101 62
77 104 63
80 106 70
90 112 88
89 112 86
97 121 97
88 111 86
90 114 85
93 117 91
104 125 107
106 128 111
103 127 105
97 120 96
98 118 99
107 126 113
105 126 112
126 146 136
118 137 128
132 149 149
142 159 162
138 155 158
125 143 139
134 154 152
115 134 125
125 142 137
127 147 142
135 153 155
120 139 138
125 144 138
130 148 151
128 146 143
122 142 136
121 141 133
135 153 147
128 146 143
139 154 157
138 157 157
105 126 109
114 134 125
121 138 132
97 118 100
108 129 119
106 126 114
105 125 110
101 124 100
85 108 82
97 119 97
87 111 83
92 115 89
84 106 82
79 101 73
83 109 78
76 102 65
90 115 85
108 129 113
113 134 123
122 141 132
120 139 131
102 122 105
89 110 88
84 107 78
88 110 87
72 97 58
68 93 55
72 97 59
76 103 62
69 95 57
72 98 59
72 98 59
75 102 62
73 99 59
75 101 62
76 103 63
69 94 56
71 96 57
78 105 64
73 99 60
145 163 165
161 177 187
158 174 185
156 172 183
160 178 190
168 183 195
155 171 179
157 173 182
159 175 181
159 175 185
149 166 170
151 168 174
160 176 184
161 177 186
144 162 167
154 170 177
166 182 195
169 183 195
160 175 185
149 166 170
74 100 61
75 102 63
75 102 62
74 101 61
74 100 61
71 96 57
75 103 63
75 102 62
75 102 62
74 101 61
74 101 61
76 103 62
74 100 61
73 99 60
75 102 62
78 106 65
75 102 62
76 103 63
99 120 104
163 179 188
158 174 183
159 175 182
154 172 182
160 177 186
156 173 182
159 176 187
159 176 186
155 170 176
160 176 185
164 181 193
149 166 172
159 176 186
155 173 181
157 175 184
163 179 188
164 180 191
150 168 174
84 109 77
76 103 63
74 100 60
72 98 59
74 101 61
76 102 61
73 100 60
71 97 58
73 99 60
72 98 59
74 100 60
76 104 63
73 99 60
71 97 58
73 99 60
77 104 63
74 100 61
121 140 132
156 175 186
165 181 190
158 175 185
158 175 184
151 169 176
152 169 173
146 164 167
141 159 158
127 146 141
114 134 126
112 133 121
106 128 111
92 114 89
81 108 73
76 103 63
78 105 68
149 166 170
155 172 180
161 178 187
162 177 187
160 177 185
153 171 180
154 172 180
157 174 180
168 185 196
161 177 187
169 186 199
163 181 192
154 172 180
162 180 192
160 178 189
160 177 188
89 114 84
76 103 63
77 104 64
78 106 64
78 106 65
75 102 61
78 106 64
72 99 59
72 98 59
78 106 64
75 103 62
74 101 61
75 102 62
72 98 60
103 125 102
161 178 188
166 184 196
166 183 196
161 178 188
166 183 195
156 174 180
159 177 184
159 177 186
161 178 186
163 180 192
156 173 181
166 181 193
153 172 179
152 171 175
89 114 82
79 107 66
89 114 85
99 122 102
134 155 153
140 159 159
165 182 194
159 175 184
174 191 204
174 192 207
164 182 191
159 177 185
119 139 129
79 106 64
161 179 191
152 171 178
123 144 135
82 110 70
77 104 64
79 107 66
79 107 66
144 163 165
174 190 202
168 186 198
171 189 202
171 189 204
172 190 205
162 179 188
169 188 199
162 180 192
171 188 202
167 184 195
144 161 163
127 146 139
84 112 74
74 100 61
81 109 68
78 105 64
82 110 68
122 143 130
164 182 189
170 186 196
165 181 189
158 175 184
159 176 187
161 178 186
156 174 184
161 179 190
165 182 193
158 175 183
166 183 192
168 185 197
159 177 188
156 175 181
121 142 132
76 102 65
80 108 67
77 104 63
108 130 116
164 181 190
165 181 193
161 179 189
168 184 196
158 176 183
160 177 187
163 181 193
170 186 199
153 170 178
156 174 184
162 179 188
166 182 193
159 175 182
161 178 187
161 178 188
157 174 184
167 184 196
153 170 178
176 193 207
112 130 120
98 122 97
126 145 139
151 169 177
169 186 198
158 175 185
168 184 197
172 187 199
160 178 189
167 184 194
167 183 195
165 182 193
159 175 183
167 183 194
163 180 192
160 177 189
161 178 189
163 179 189
160 175 185
166 181 190
144 162 162
75 101 62
75 102 62
76 103 62
70 96 57
77 104 63
76 104 63
78 105 65
76 102 62
72 98 59
72 98 59
78 105 64
70 95 57
75 101 61
80 106 71
113 133 122
132 150 148
149 166 172
167 184 196
161 178 187
160 176 186
115 135 124
77 105 64
79 106 64
75 102 63
70 95 57
71 96 58
73 99 59
73 99 59
72 99 59
78 104 63
82 110 67
71 97 58
74 101 61
78 105 64
73 100 61
70 95 56
76 102 62
80 108 66
74 99 59
74 99 60
74 101 61
144 161 165
165 180 193
163 179 190
156 173 185
158 176 184
157 174 180
160 176 186
148 165 173
160 177 188
159 175 185
159 177 185
158 173 180
160 176 185
152 170 175
153 170 177
149 166 171
168 186 198
154 170 177
135 153 150
118 137 127
103 126 103
131 149 149
157 173 185
153 169 176
156 173 182
157 174 183
161 178 189
155 172 182
153 170 176
152 168 175
154 169 175
162 178 187
152 168 177
152 170 177
160 177 186
157 173 176
157 173 182
166 182 193
156 172 181
153 169 177
153 168 175
157 174 181
128 147 143
68 93 56
76 104 64
78 105 63
70 96 57
76 103 63
79 106 65
75 101 61
74 101 61
75 102 61
75 101 62
77 104 64
76 103 63
75 101 61
73 99 60
72 98 59
73 99 60
74 101 60
72 97 58
71 97 58
72 98 57
129 146 143
155 171 179
162 178 191
154 172 180
153 170 178
164 181 191
159 176 187
155 171 178
160 177 187
158 175 185
162 179 189
154 171 179
152 169 176
154 170 178
159 176 187
146 162 167
166 183 194
153 170 178
154 170 178
147 165 170
161 176 185
101 124 105
75 102 62
79 106 65
74 101 61
78 105 64
78 105 64
84 108 81
93 114 89
103 123 106
107 126 114
126 145 140
142 161 161
137 153 152
150 168 175
148 165 169
157 173 184
160 177 188
155 173 181
165 181 193
160 176 184
139 156 158
71 97 59
76 102 62
75 101 61
74 100 61
72 97 58
75 102 62
77 103 63
72 98 59
74 101 61
72 97 59
72 98 58
70 95 57
71 97 58
78 105 64
77 104 63
79 107 65
70 95 57
80 107 67
74 100 60
99 118 105
164 180 192
164 181 191
146 162 165
160 177 187
150 166 173
164 181 193
157 174 181
146 163 165
166 181 191
154 171 179
156 172 180
163 180 188
160 176 183
164 180 190
147 163 167
156 172 180
159 176 182
149 165 169
159 176 186
106 127 112
78 104 64
74 100 59
74 101 61
76 103 63
71 97 58
71 97 57
71 97 59
73 100 60
72 98 59
78 104 63
79 106 65
79 106 65
73 99 60
78 105 64
76 103 63
68 93 56
73 100 61
71 97 58
132 152 151
164 180 191
164 181 192
155 171 175
152 169 174
164 181 191
156 173 182
162 179 189
157 174 182
166 184 196
150 167 173
161 176 185
162 179 190
168 184 197
166 182 193
162 179 190
162 179 187
157 174 181
152 169 172
80 107 66
74 100 61
77 104 63
79 107 66
75 102 62
75 102 62
73 100 60
76 103 62
78 105 64
78 105 64
76 104 63
72 98 58
76 103 63
77 104 64
76 102 61
77 105 65
69 95 57
148 165 170
170 187 201
160 177 185
159 176 183
161 178 188
159 176 183
157 175 183
165 182 193
160 178 187
154 170 182
164 180 191
168 184 194
173 190 202
154 173 179
155 172 179
155 172 180
151 168 171
128 149 143
139 158 158
150 168 171
147 164 169
166 182 193
161 179 190
163 179 189
165 182 194
171 188 200
158 174 182
165 182 195
166 183 196
162 180 190
154 173 184
163 180 192
146 164 167
80 106 68
73 100 59
75 103 63
77 105 64
77 104 64
81 109 68
73 99 60
76 103 63
73 99 60
79 107 66
80 107 66
80 108 67
81 110 68
78 105 65
102 126 107
171 189 202
162 180 190
162 180 191
170 187 199
168 185 197
172 189 204
173 190 204
172 190 206
172 189 202
163 182 194
173 190 202
164 182 193
162 180 191
142 161 163
79 107 66
77 105 64
75 102 62
80 108 66
77 104 63
86 112 77
117 139 128
125 146 137
149 168 172
173 191 205
169 188 202
169 187 199
131 150 143
152 170 174
103 126 107
79 107 65
81 109 67
80 108 67
80 108 67
80 108 67
141 162 162
162 179 190
166 183 194
163 180 191
159 177 187
164 181 191
172 189 203
167 183 193
167 186 198
155 172 177
97 119 102
77 105 65
79 107 65
82 111 69
75 103 63
77 105 64
77 105 65
76 104 63
117 138 125
168 185 198
168 185 199
168 185 197
165 181 189
159 177 186
172 189 203
170 187 201
166 183 196
170 186 200
162 179 187
159 175 184
140 159 159
101 126 102
72 99 59
74 101 61
78 105 64
80 108 67
80 108 66
114 134 117
168 185 198
171 187 197
167 184 195
170 185 196
163 180 190
170 188 202
163 180 187
151 168 176
164 182 192
158 175 183
164 182 192
167 184 194
159 177 188
167 183 196
162 180 194
160 176 187
161 176 185
160 176 184
132 150 148
138 155 154
163 180 187
165 182 194
162 179 190
150 168 174
166 182 193
153 171 177
163 181 192
155 173 182
153 171 179
155 172 181
167 184 195
169 186 196
162 178 186
158 176 186
168 186 199
168 184 194
160 178 188
163 180 191
164 181 190
144 161 161
77 104 64
73 100 59
76 102 61
81 110 68
73 99 61
80 108 66
75 100 60
75 103 62
75 102 61
76 103 62
96 120 92
126 145 138
144 161 164
163 180 190
164 179 188
158 175 183
163 180 190
161 178 189
167 183 194
153 168 173
125 143 135
76 103 63
74 100 59
74 100 61
73 100 61
72 98 59
76 103 62
74 100 60
74 101 61
76 103 62
82 110 68
69 94 56
75 103 62
75 101 61
73 99 60
72 97 58
73 100 61
74 101 60
76 102 62
76 104 63
79 106 65
125 144 140
151 167 173
158 175 183
147 164 168
166 182 194
158 175 183
148 166 174
163 179 188
159 177 189
162 178 185
155 170 179
156 173 183
162 178 188
153 169 176
140 158 163
120 139 130
91 114 89
78 105 65
74 99 59
79 107 66
70 95 57
110 130 116
162 178 190
158 174 182
150 167 176
157 174 186
163 180 189
161 177 185
148 164 170
160 176 186
157 174 182
161 177 185
155 172 179
150 166 174
156 173 182
147 164 168
148 165 172
149 167 176
162 178 184
161 178 188
147 165 168
158 174 184
150 168 171
75 102 62
76 103 62
74 100 60
75 101 61
71 97 58
73 99 59
74 100 61
72 99 58
73 99 58
76 102 62
74 100 60
73 98 59
76 103 63
75 101 61
72 97 59
75 101 62
72 98 59
74 101 61
78 104 63
75 101 61
97 119 98
158 173 181
154 171 176
164 181 189
152 169 173
166 183 195
163 179 187
155 172 179
161 178 188
157 172 180
159 176 185
154 170 177
160 177 186
156 171 177
154 171 178
146 164 170
154 172 180
157 173 179
159 176 184
163 178 188
150 167 175
111 132 117
118 137 131
134 152 152
135 154 154
140 158 156
156 172 182
156 173 184
156 173 181
155 172 182
161 177 185
160 176 185
163 178 188
153 169 177
164 180 192
159 176 187
145 163 168
161 179 189
169 185 198
157 174 183
151 168 174
149 165 171
93 117 93
75 101 62
77 104 63
75 101 61
70 96 58
76 103 63
79 106 64
70 95 57
76 102 61
78 105 64
75 101 61
72 98 59
74 99 59
73 99 60
73 99 60
75 101 61
82 109 67
74 100 60
75 101 62
67 92 54
147 164 167
160 176 183
153 170 177
150 166 171
149 167 173
156 172 179
155 171 178
156 173 180
146 164 171
166 183 197
158 174 185
148 165 169
163 178 189
149 166 169
159 175 184
165 180 191
157 173 181
172 187 200
152 169 176
150 167 175
72 98 58
74 100 61
76 102 62
73 99 60
74 100 60
77 104 63
74 100 60
78 104 63
77 105 64
72 98 60
70 94 57
75 102 61
70 96 57
72 98 59
76 103 63
73 99 60
72 98 58
75 101 62
102 124 108
153 170 178
164 181 190
168 184 196
160 175 184
149 166 174
161 177 185
159 176 186
164 181 191
150 168 174
157 173 182
159 175 182
162 179 190
166 182 192
168 186 198
156 173 180
172 189 202
164 181 193
166 183 196
91 115 92
75 102 62
77 104 63
74 100 61
77 104 64
74 100 60
75 102 62
77 104 64
72 98 59
76 103 62
76 102 63
77 104 64
77 104 63
73 100 60
77 104 64
74 101 60
76 104 63
111 133 117
161 178 188
152 170 176
165 181 192
160 175 184
160 177 184
160 176 186
171 187 200
158 175 184
165 181 192
160 177 186
166 182 194
162 179 190
169 185 196
160 177 185
163 180 190
161 178 186
138 158 156
74 101 62
78 105 63
75 102 62
76 103 63
92 116 91
91 114 91
111 132 119
127 146 139
141 161 163
142 160 161
157 174 183
154 172 178
163 180 188
163 181 193
155 174 180
120 141 132
80 108 66
78 106 65
80 108 66
79 106 65
74 101 60
78 106 64
77 104 62
78 105 63
76 103 63
80 108 67
77 104 63
72 99 59
81 109 66
76 103 63
132 151 150
168 185 198
166 184 195
166 183 192
161 178 187
160 178 187
166 183 195
159 176 184
167 183 192
165 182 191
167 184 196
171 188 201
160 177 188
165 183 196
131 150 146
77 103 63
80 108 67
80 109 67
78 107 65
78 106 64
77 104 63
80 108 66
76 105 64
91 117 84
115 138 126
146 166 169
120 141 131
168 185 198
169 186 198
148 168 172
92 118 88
80 109 67
81 109 68
83 112 70
150 169 172
166 182 193
169 186 198
162 180 190
177 193 207
174 191 204
161 179 189
128 148 143
95 119 96
81 109 67
81 109 67
76 103 63
78 105 64
77 105 64
79 107 65
81 108 67
74 101 61
82 109 67
130 150 147
170 187 199
168 184 195
172 189 203
159 176 186
166 184 194
175 192 206
170 188 202
167 183 193
156 174 182
134 152 148
88 114 81
79 106 64
80 108 67
77 104 63
81 109 68
77 105 63
80 108 66
75 102 62
107 130 114
157 174 179
165 183 197
153 170 176
169 186 198
168 185 197
163 180 190
151 168 175
160 176 184
170 186 196
165 182 192
166 182 194
153 170 178
170 186 199
157 174 183
164 180 191
144 161 161
110 133 116
81 109 70
76 104 64
121 141 133
175 191 204
147 165 170
165 181 190
160 177 187
161 178 187
164 182 194
167 183 195
165 181 192
168 185 197
158 175 181
159 176 184
163 179 188
166 182 194
162 179 189
169 186 197
159 176 187
162 178 190
165 182 193
156 173 180
157 174 182
77 104 63
72 98 59
78 105 64
74 100 61
76 102 62
77 104 64
80 106 67
101 122 104
132 151 147
148 166 171
167 183 194
165 182 192
152 170 175
163 178 186
168 184 194
165 181 189
165 183 193
162 178 189
173 189 204
157 174 182
130 149 143
78 105 64
78 105 64
77 104 64
73 99 60
73 99 60
76 102 62
74 100 61
74 100 60
74 101 62
78 106 65
69 95 56
76 104 63
69 95 57
75 102 62
74 101 60
77 104 63
76 104 63
73 98 58
83 111 68
78 105 64
113 135 122
163 178 189
163 180 189
162 179 186
157 174 180
171 185 196
160 177 187
166 182 193
158 175 181
147 165 168
123 141 134
102 124 107
85 111 81
77 104 64
79 107 65
74 100 61
77 103 63
78 105 64
73 100 61
71 97 58
72 98 58
96 118 95
152 170 178
172 187 200
151 168 177
165 183 195
157 174 183
157 173 181
161 178 187
161 178 187
158 175 185
149 166 174
145 162 167
153 170 179
150 166 169
147 164 170
165 182 192
158 176 186
170 187 201
160 177 189
154 172 182
160 177 189
160 175 182
85 109 77
71 97 58
71 96 57
71 97 58
76 102 62
74 101 61
74 101 61
72 98 59
74 101 61
69 94 56
76 103 61
68 93 56
77 103 63
73 99 59
77 104 63
75 102 61
74 100 60
76 103 63
76 103 63
73 99 60
73 99 60
148 167 176
163 180 191
158 174 181
158 176 184
151 168 176
160 178 187
159 176 187
153 168 173
163 180 189
162 179 190
156 174 184
156 174 181
144 160 165
128 146 145
122 141 135
102 121 108
96 118 99
85 109 79
80 108 65
72 97 58
88 112 81
151 168 172
155 172 181
160 177 185
154 170 176
155 171 180
162 179 190
153 169 177
153 169 177
158 174 179
157 173 180
155 172 180
163 180 192
154 171 181
153 169 179
154 170 177
151 170 177
160 177 187
162 178 189
155 173 180
151 168 174
129 148 146
79 107 65
73 100 60
72 97 59
77 104 64
69 93 54
75 102 61
76 102 62
77 105 64
74 100 61
74 101 61
72 98 59
72 98 58
79 107 66
73 99 59
81 109 67
75 102 62
74 100 61
74 100 60
75 102 62
103 122 108
155 172 181
149 167 174
151 167 174
148 166 172
156 173 180
152 169 176
158 175 183
158 174 184
166 183 196
156 172 179
149 166 170
159 175 186
156 174 182
151 169 176
167 182 193
151 167 172
156 173 182
164 181 191
155 173 182
114 134 125
75 101 61
70 97 59
74 101 61
73 100 60
76 103 63
78 105 64
74 100 60
71 97 58
74 100 61
75 102 62
76 102 62
76 103 62
71 97 58
76 103 63
77 104 64
75 101 61
75 102 62
76 102 62
126 145 137
161 178 186
160 176 186
149 166 171
162 178 187
167 183 195
161 178 187
150 166 172
159 177 189
167 185 197
157 174 182
157 174 184
156 171 176
160 176 185
162 179 188
162 179 188
158 175 185
154 171 178
147 165 172
83 111 71
79 107 66
79 107 65
73 99 59
77 104 64
74 101 61
76 103 63
74 100 60
75 101 62
80 107 66
74 101 61
73 100 61
81 108 66
82 110 67
76 103 64
76 103 64
81 108 66
135 155 154
165 182 191
160 177 187
172 189 200
161 179 188
154 171 181
172 190 202
162 179 190
159 177 188
166 183 194
168 186 197
169 187 198
166 183 196
162 178 186
158 175 185
166 184 195
157 175 183
109 131 116
75 102 62
81 109 68
80 108 66
78 106 65
74 100 60
76 103 63
78 106 65
78 106 64
77 105 64
75 102 62
90 115 86
91 115 90
107 128 115
135 154 152
143 163 166
104 127 105
78 105 63
73 99 60
77 105 64
74 100 61
77 105 64
79 106 64
76 103 62
72 100 61
75 101 61
77 104 64
74 101 60
70 96 57
77 104 63
75 102 61
142 162 164
168 187 200
163 180 191
160 177 187
160 177 187
176 193 206
159 176 183
168 185 200
162 180 189
162 180 190
158 175 186
162 179 191
168 186 199
162 181 192
109 132 117
81 110 68
78 106 65
78 106 65
78 106 65
80 108 67
76 102 62
77 104 63
82 108 74
129 148 145
162 179 188
177 194 208
175 191 205
174 192 208
163 181 190
163 182 193
126 147 143
78 105 67
76 104 62
156 175 182
171 187 197
167 184 195
174 191 203
159 177 186
114 136 122
87 113 82
78 105 64
77 105 64
81 109 67
80 109 67
78 106 64
72 98 59
80 108 66
80 108 67
81 109 67
83 111 69
79 106 65
133 154 148
152 170 178
164 182 194
160 178 187
159 177 188
165 182 193
167 183 195
136 155 155
102 124 107
79 107 66
76 103 63
76 104 63
75 103 63
79 107 66
81 109 67
79 107 65
77 104 64
77 105 64
81 109 67
116 137 125
169 186 199
179 196 213
162 179 189
163 180 190
172 189 202
159 177 187
168 183 195
155 173 176
171 187 200
167 183 194
159 175 184
168 185 198
150 165 169
127 146 140
83 108 73
80 108 67
77 104 64
79 107 66
76 102 62
128 148 145
171 187 199
167 185 197
166 183 194
155 173 182
155 173 181
161 178 188
159 176 185
165 181 191
155 171 180
162 180 189
160 179 190
166 183 194
171 188 202
170 187 202
169 185 198
164 179 187
157 174 182
163 179 190
162 179 187
150 167 170
78 105 63
77 105 65
80 107 66
81 108 71
97 120 98
131 151 146
156 173 180
152 168 175
162 178 188
166 182 193
165 182 192
157 174 182
165 182 194
155 172 177
161 178 187
150 167 173
160 177 188
161 179 189
164 181 191
169 184 195
141 159 160
80 107 66
72 98 59
76 103 63
80 107 66
77 105 64
79 107 66
76 103 62
75 102 61
80 107 66
78 106 65
75 101 61
77 105 64
75 102 62
75 102 61
74 101 62
78 106 65
81 108 66
75 102 62
72 98 58
74 100 60
91 115 92
157 173 179
155 172 181
166 182 193
169 186 199
151 169 177
129 146 142
115 136 124
87 110 81
71 97 57
73 99 60
72 99 59
77 104 63
78 105 64
74 101 61
76 102 62
75 102 62
71 96 58
76 103 62
75 101 62
71 97 57
76 102 62
146 163 169
163 180 189
158 174 182
152 167 175
168 185 199
162 178 185
148 165 174
152 170 178
162 179 190
161 177 186
153 169 177
160 177 185
160 175 184
149 165 170
163 180 189
168 186 200
160 176 185
160 177 185
156 172 181
157 174 183
156 173 182
106 128 110
73 99 59
76 104 64
73 100 60
75 102 61
76 103 63
75 101 60
75 102 62
71 97 57
72 98 59
74 100 60
75 101 61
75 101 61
75 102 61
70 94 58
76 104 64
73 100 60
76 103 63
75 102 61
74 100 61
66 90 52
131 150 149
160 176 185
154 172 178
154 170 177
155 172 182
150 168 173
143 160 163
130 147 145
117 137 128
101 127 101
86 112 79
72 97 58
71 97 58
73 100 61
69 94 55
76 102 62
74 100 60
74 100 60
76 103 63
74 101 61
74 100 60
119 138 133
151 168 173
164 181 192
158 176 184
157 174 181
159 176 182
159 177 184
148 165 171
155 173 182
158 175 186
162 178 188
162 180 189
159 176 186
153 170 175
149 165 170
154 171 178
151 168 173
165 181 193
164 181 191
154 171 179
152 169 179
79 105 66
72 98 59
74 100 60
71 97 57
76 103 63
73 100 60
79 107 65
73 99 60
79 105 64
79 106 65
78 105 63
75 101 61
73 99 60
71 97 57
73 98 59
73 99 60
73 99 60
80 107 65
77 104 63
72 98 59
151 168 175
162 179 191
143 159 162
159 175 184
165 181 192
152 170 176
166 184 195
158 174 185
165 182 193
164 180 189
157 174 180
149 166 172
152 168 177
162 178 189
160 177 187
161 178 189
155 173 179
156 173 181
152 169 176
148 166 170
73 99 59
73 99 59
79 105 64
75 102 62
81 109 67
77 104 63
75 101 61
73 99 60
76 103 62
71 97 58
75 103 61
74 101 61
73 100 60
73 99 60
80 107 66
75 103 62
75 102 62
76 103 64
86 112 82
159 175 183
156 172 179
165 181 192
157 174 181
170 188 203
160 178 187
163 179 188
163 178 190
161 176 186
162 179 188
172 188 201
158 175 182
153 171 177
165 182 193
172 187 198
168 186 198
160 176 186
163 179 188
127 146 141
76 103 63
76 103 62
76 103 63
79 106 65
75 103 63
77 104 63
75 101 60
80 107 67
72 97 57
75 102 62
77 104 63
74 101 61
75 101 61
75 103 63
76 103 62
78 105 64
78 104 65
155 174 182
165 182 193
163 180 190
171 188 200
151 168 178
169 186 196
172 187 198
161 178 189
166 182 192
157 173 180
155 172 177
159 174 181
163 180 190
160 178 188
164 180 190
167 184 198
149 166 172
87 112 81
70 97 57
76 103 62
79 106 66
74 100 60
77 104 63
79 106 65
72 99 60
75 101 61
77 104 63
75 102 62
79 107 65
78 106 64
76 103 62
77 105 63
88 113 84
155 172 179
166 184 197
136 156 152
113 134 121
121 142 136
104 128 108
88 115 81
78 105 64
83 112 70
77 105 64
76 102 61
81 109 66
79 107 66
75 102 61
84 110 77
171 188 200
166 183 192
158 176 188
168 185 194
162 180 191
164 181 191
177 193 207
161 179 191
166 182 194
161 178 188
167 186 199
169 187 199
164 182 193
162 179 193
90 114 87
80 107 65
81 109 66
78 105 65
78 105 65
81 108 69
120 141 133
149 168 176
170 188 202
172 188 201
166 184 195
173 190 205
169 185 199
167 185 199
160 178 187
170 187 200
148 167 171
111 134 117
166 183 197
171 188 201
163 180 189
117 139 126
84 112 69
79 107 65
84 112 68
80 108 66
78 105 64
83 111 69
78 105 64
75 102 62
78 106 64
81 109 67
78 105 64
80 107 65
77 105 64
77 105 65
141 161 161
166 184 197
172 187 198
166 184 194
162 179 188
143 162 165
90 115 87
77 104 64
81 109 67
77 104 63
79 106 66
77 105 64
79 106 65
79 107 65
79 106 65
78 106 65
79 107 66
74 101 61
79 107 66
105 127 108
156 172 179
162 178 185
164 180 190
172 189 200
166 184 194
164 181 191
162 180 193
160 177 183
160 176 183
156 174 182
131 151 147
96 119 94
76 104 63
73 99 59
76 103 63
75 103 63
76 104 63
81 109 68
78 105 64
124 144 138
167 184 196
156 174 182
170 186 196
161 178 189
160 177 187
160 177 187
158 174 184
162 178 187
163 181 192
173 190 204
167 184 198
160 178 190
163 180 190
152 169 176
158 176 184
168 184 195
157 175 184
159 174 182
162 179 188
160 178 189
84 108 82
108 128 114
141 161 164
156 173 180
165 181 191
162 178 188
172 190 204
162 179 190
156 172 182
162 179 188
163 180 190
156 174 183
159 176 187
173 189 203
168 184 195
166 182 191
160 176 185
164 182 196
156 172 179
165 182 192
161 178 187
72 98 59
81 108 66
77 104 64
74 101 61
76 102 62
77 104 64
79 107 66
78 105 64
78 106 65
80 107 66
72 98 59
78 105 64
76 103 63
74 100 61
75 101 61
73 99 60
77 104 63
74 100 61
76 103 63
71 98 58
72 99 59
148 167 172
144 163 164
116 135 125
86 109 81
76 103 62
75 101 61
78 105 65
76 103 63
74 101 60
72 98 58
72 99 58
79 106 65
73 100 61
76 103 62
77 104 64
76 103 63
70 96 57
73 100 60
76 102 62
71 97 58
71 97 59
133 151 152
153 169 176
160 179 190
173 190 203
165 181 193
154 170 177
153 170 177
162 178 188
162 179 191
162 178 189
162 179 190
161 177 188
158 174 181
162 179 187
159 176 184
151 167 173
156 172 180
155 171 179
155 173 184
159 175 183
164 181 188
132 150 149
78 105 64
76 102 62
72 98 60
80 108 67
80 107 65
75 101 61
80 107 66
74 100 60
74 101 62
77 104 64
76 102 61
74 100 60
73 98 59
75 101 60
74 100 60
72 98 58
78 105 64
79 107 65
79 103 74
104 126 111
121 140 138
123 143 137
100 122 103
89 113 86
73 99 62
74 100 60
75 101 62
76 102 62
72 99 59
76 102 63
71 97 58
77 104 63
75 102 62
73 99 59
79 106 65
78 105 64
78 105 63
72 97 58
72 97 58
72 98 58
73 98 60
108 129 111
161 178 188
161 179 190
162 178 186
161 177 185
160 177 188
165 182 193
156 173 183
161 177 186
161 178 186
150 167 175
160 176 187
159 175 184
167 183 194
157 172 180
149 166 174
148 164 169
162 178 187
163 179 191
162 179 187
154 171 178
117 136 124
73 99 59
76 103 62
75 102 61
80 107 65
69 96 57
77 103 63
76 103 63
71 98 59
77 104 63
76 102 63
75 101 61
79 106 65
73 98 59
79 106 65
77 104 64
69 96 56
72 98 58
76 104 64
76 103 63
117 137 128
149 166 170
156 175 184
161 177 189
159 176 182
169 185 196
162 179 188
165 182 193
152 169 176
165 181 191
156 172 177
153 169 176
153 170 178
163 179 189
174 191 203
157 175 182
157 175 182
157 174 181
149 166 173
164 181 191
119 138 126
76 102 62
81 109 68
72 99 60
74 100 61
73 100 60
78 105 65
72 98 59
75 101 60
78 105 64
76 102 62
77 104 63
77 104 63
75 102 62
73 99 60
75 102 63
80 107 65
78 106 65
71 97 58
124 143 136
154 170 180
157 174 183
156 174 184
164 181 192
166 182 192
157 174 180
161 178 189
152 169 177
161 178 190
156 173 180
166 182 194
166 182 193
156 173 180
172 188 200
164 181 191
169 184 195
160 177 186
162 180 190
77 103 65
75 102 61
77 104 64
81 110 68
78 105 65
78 105 64
77 104 63
76 103 62
82 109 67
78 106 65
75 103 64
78 105 65
76 104 64
74 101 62
76 103 63
75 102 62
74 101 60
98 122 104
164 180 189
174 190 204
155 173 181
160 177 186
161 177 191
163 179 190
158 175 188
171 187 200
159 176 185
168 185 199
160 178 189
163 180 190
164 181 191
169 187 200
165 182 193
162 178 185
135 154 150
79 106 65
76 102 61
76 103 62
79 107 66
78 105 63
80 108 67
76 103 63
76 103 63
76 104 64
78 105 65
78 106 64
80 108 67
75 102 62
78 106 65
80 107 66
113 135 123
166 182 194
168 184 197
159 176 186
164 182 193
161 178 189
162 180 191
148 167 172
147 166 171
128 148 145
122 143 132
90 116 86
73 100 61
78 106 65
75 102 62
97 120 100
167 185 200
155 173 182
173 190 204
161 180 192
164 182 194
167 184 195
174 191 205
168 185 198
166 185 198
173 191 205
168 185 197
175 192 208
158 177 187
163 180 189
82 109 72
78 105 65
75 103 62
106 129 114
156 174 182
162 180 192
159 177 186
171 189 201
167 183 195
165 183 194
170 186 197
165 184 198
169 186 198
173 191 203
178 196 211
162 178 187
162 180 190
129 150 144
139 159 159
79 107 66
78 105 64
78 106 65
79 107 66
81 109 67
82 111 68
75 102 63
81 109 67
77 104 63
77 105 65
75 102 62
79 106 66
79 106 66
76 103 63
84 112 70
84 113 70
145 165 170
161 177 185
153 171 179
117 137 124
77 105 65
78 106 65
80 108 67
79 107 66
78 106 65
75 102 63
77 104 64
81 109 68
77 104 64
77 105 64
77 104 64
80 107 66
80 108 66
78 105 64
77 104 63
120 139 130
164 181 192
168 184 194
166 183 193
167 182 194
170 187 200
171 189 202
155 173 180
148 166 169
111 134 115
79 106 68
77 104 62
75 102 61
74 100 61
76 102 61
79 107 66
75 101 61
73 100 60
76 103 62
78 105 64
121 141 135
165 181 193
167 183 197
158 176 186
163 180 192
170 186 199
170 188 202
163 180 190
170 187 199
164 182 192
159 176 184
164 180 192
153 171 181
161 179 191
165 182 192
158 176 186
164 181 193
162 179 190
165 182 194
145 163 165
120 140 130
147 165 169
157 175 185
165 182 194
155 172 177
159 175 185
153 169 176
167 183 194
159 177 186
158 176 186
159 176 185
162 179 190
166 182 192
161 178 188
160 176 186
171 187 200
163 179 190
164 181 191
161 177 187
158 176 184
156 173 181
163 179 191
91 115 90
77 104 64
75 102 62
75 102 62
79 106 65
76 103 63
80 107 65
77 104 64
78 105 65
75 102 62
79 107 65
77 105 63
74 101 62
75 101 61
73 99 60
80 108 67
81 108 66
80 105 72
104 125 109
118 139 132
138 155 156
112 133 122
75 102 62
78 105 65
76 103 62
77 104 64
79 106 64
74 100 61
76 103 62
72 98 59
75 102 61
74 100 61
75 101 61
78 106 65
78 105 64
74 100 61
78 104 63
76 103 62
77 104 63
75 102 61
74 100 60
78 105 65
119 138 131
160 176 185
164 182 194
166 182 192
152 170 178
153 170 177
161 177 190
158 175 184
155 173 182
163 179 188
154 172 181
159 176 186
156 172 179
167 185 195
163 179 188
144 160 163
164 180 190
149 165 170
147 164 167
155 172 178
147 164 165
143 161 162
79 106 68
77 104 63
77 104 63
73 100 62
76 104 63
71 96 58
76 102 62
73 100 60
73 99 59
78 106 64
77 104 64
74 101 62
78 103 65
100 125 104
103 126 105
128 146 142
138 155 157
166 183 193
153 170 176
155 171 180
156 173 183
90 113 87
75 101 61
71 98 59
79 106 65
75 102 62
73 98 59
75 102 62
79 106 66
73 98 59
75 101 62
76 102 62
75 102 62
70 96 57
68 93 55
75 100 60
70 95 57
77 103 63
72 98 59
74 100 60
75 102 63
70 95 57
158 176 184
149 165 172
164 181 193
162 178 188
160 177 185
159 175 184
154 172 180
156 175 186
152 168 176
156 173 182
156 174 182
172 189 200
158 176 185
153 169 177
161 178 190
155 172 180
160 178 188
157 174 182
158 174 184
162 178 188
143 161 165
71 97 57
78 106 64
76 103 63
71 96 58
73 99 59
75 102 62
75 101 60
74 99 59
78 105 65
76 103 62
78 105 64
74 101 62
70 96 58
79 107 65
77 104 63
71 97 58
74 101 61
77 104 63
78 106 66
73 99 63
145 163 166
151 168 173
159 176 184
157 174 183
165 181 193
151 169 175
167 183 195
155 173 179
164 181 193
146 165 172
172 189 201
166 183 197
157 174 181
158 173 183
169 185 197
165 181 189
158 175 184
159 176 185
161 177 187
158 175 182
76 103 62
78 105 64
74 100 61
80 108 67
66 92 54
77 104 63
80 107 66
77 104 63
77 104 63
72 99 59
72 98 58
77 104 63
76 102 61
82 109 67
75 101 61
74 100 61
73 99 60
76 102 62
77 103 68
149 166 171
162 180 191
158 176 186
161 179 188
154 171 178
159 177 185
157 174 180
150 166 170
151 167 170
164 182 193
159 176 185
161 179 189
161 178 188
172 188 200
163 181 192
155 171 180
163 180 193
163 179 189
129 148 143
78 105 64
70 96 57
77 104 64
72 99 59
77 104 63
72 99 60
77 104 62
76 102 62
80 108 65
78 106 64
77 103 63
75 102 60
73 99 60
77 105 64
77 103 63
79 106 65
78 106 65
142 161 161
167 184 197
170 185 197
167 184 192
162 179 189
156 173 182
150 167 173
164 182 193
166 183 194
168 184 194
163 181 191
167 184 196
150 167 170
160 177 186
157 174 181
164 183 194
168 185 198
112 133 120
78 106 65
74 101 61
75 101 61
79 106 64
79 107 65
78 105 64
75 102 62
81 109 67
78 105 64
79 106 64
78 105 65
76 104 63
75 102 62
77 105 64
81 110 67
150 169 174
156 174 182
171 188 201
163 180 193
167 183 196
159 177 187
163 180 190
164 182 194
171 188 203
155 172 180
163 180 191
171 188 202
141 160 160
119 141 133
115 137 124
136 155 156
161 178 190
180 196 210
172 189 202
170 187 200
165 182 193
167 185 197
173 190 203
155 173 181
169 185 196
170 187 200
162 179 190
166 185 196
164 182 194
137 156 151
109 133 115
147 167 170
164 181 195
169 186 199
168 187 199
163 182 195
166 183 195
167 185 197
170 188 204
178 196 212
178 195 211
171 188 201
173 189 201
167 186 198
145 164 168
130 151 145
174 192 207
170 188 200
152 170 174
115 137 124
82 110 68
81 108 67
78 105 64
79 107 65
78 106 65
78 105 65
78 105 64
80 108 66
79 106 64
76 103 63
78 105 65
79 106 65
81 109 67
84 111 73
115 137 124
98 121 96
80 109 67
79 107 65
79 106 65
82 110 68
76 103 63
76 104 64
76 103 63
75 102 62
76 104 63
81 108 67
75 101 61
80 107 66
80 108 67
78 106 65
79 106 65
79 107 66
80 107 65
115 136 122
166 182 192
168 185 197
162 180 189
161 178 186
154 171 175
117 137 126
78 105 70
81 109 67
75 102 61
78 106 65
77 104 64
79 106 65
78 105 64
77 104 63
81 110 68
73 101 61
83 111 68
76 102 62
78 106 65
104 125 108
160 177 187
161 178 189
163 180 192
167 184 197
168 185 199
164 181 192
167 183 191
156 174 184
165 183 194
172 189 200
153 169 176
157 173 181
159 175 184
160 177 186
157 173 182
144 162 166
105 125 114
81 106 70
78 105 64
74 100 61
141 159 161
166 183 195
169 185 196
157 175 184
170 186 198
162 178 189
163 180 192
156 174 182
162 179 188
157 174 185
156 172 179
159 177 186
168 185 198
162 178 187
156 173 179
161 179 190
163 181 195
158 175 183
161 178 188
160 176 184
157 174 184
106 127 108
79 106 66
74 101 61
75 102 61
78 105 65
76 103 62
74 101 61
77 105 64
77 104 64
72 98 59
79 107 65
71 98 59
76 103 62
77 104 64
107 128 112
128 147 140
140 157 160
169 184 194
160 178 188
176 192 207
166 182 194
132 149 147
75 102 61
71 96 58
74 100 61
77 104 64
78 107 65
69 93 55
73 99 59
79 106 65
73 98 57
78 105 63
74 101 60
78 105 64
74 100 60
68 93 55
76 103 63
79 105 65
79 106 65
72 99 60
75 101 62
79 105 65
91 114 91
155 171 177
166 182 193
163 180 191
164 181 194
159 176 187
157 173 181
158 175 183
154 172 181
166 183 192
163 179 190
166 183 195
154 172 181
159 175 183
166 182 192
165 181 190
163 180 188
153 171 177
163 180 189
161 177 185
158 176 186
150 167 174
87 110 85
74 100 61
75 102 62
77 104 63
76 103 63
73 99 59
75 102 62
79 103 70
113 135 122
122 143 136
140 157 155
143 161 165
148 165 172
156 173 182
164 180 192
161 177 188
152 168 175
168 185 198
168 184 192
161 178 188
160 177 186
115 134 128
78 104 63
77 104 63
76 104 64
77 105 64
75 101 61
74 101 61
76 103 62
76 102 63
73 99 60
73 100 59
76 103 63
73 99 59
74 100 61
74 101 60
80 108 66
75 102 62
72 97 58
74 101 61
80 107 66
75 102 61
125 144 140
152 169 174
156 173 182
158 175 183
162 180 193
157 174 182
160 176 185
155 172 179
162 179 187
164 180 190
163 181 192
161 177 189
166 182 192
169 185 198
164 181 192
153 171 179
161 178 188
164 181 193
165 183 192
157 175 184
165 182 193
81 106 75
79 105 65
73 99 60
73 100 60
76 102 62
75 101 61
75 102 62
73 99 60
75 102 61
75 101 61
75 102 62
78 106 65
71 96 58
80 108 67
77 104 64
67 91 54
74 101 61
73 99 60
76 103 63
69 95 57
134 153 152
155 173 181
161 178 185
158 173 182
150 168 175
159 176 185
164 181 194
150 167 173
170 186 198
160 178 188
169 185 197
149 165 170
160 177 188
158 174 183
157 174 183
156 173 183
158 175 182
159 176 184
159 176 183
154 171 178
112 133 120
72 98 59
72 99 60
83 112 69
79 106 64
76 103 63
76 103 63
75 102 61
79 107 66
78 105 64
73 100 60
74 99 60
78 106 65
77 104 64
76 102 62
75 102 62
75 101 61
81 109 68
72 99 59
123 144 137
167 183 195
168 185 200
160 177 188
172 189 201
166 183 196
157 174 181
163 179 191
156 173 182
160 177 185
165 181 190
165 182 193
164 181 191
164 181 192
162 180 191
161 179 190
153 170 176
161 179 190
162 179 190
91 115 90
78 105 65
75 101 61
78 106 65
76 103 63
71 96 57
77 105 63
76 103 63
78 106 64
76 103 63
76 103 62
80 108 67
78 105 65
74 100 60
76 102 62
75 102 63
74 100 61
94 118 93
163 180 191
156 174 181
159 177 186
162 178 189
154 172 180
161 178 187
166 183 194
170 186 198
161 178 189
165 181 191
159 175 183
164 182 196
155 172 181
171 189 201
165 182 191
171 187 203
158 176 186
97 121 95
79 108 66
81 108 66
78 105 64
73 100 60
80 108 65
75 103 62
77 105 64
74 101 61
78 105 64
80 107 65
76 103 63
81 109 67
74 101 61
76 103 63
82 110 76
154 173 182
161 178 188
160 178 187
172 189 204
163 179 189
166 184 197
168 185 197
175 191 204
172 189 204
159 177 185
166 184 195
166 183 194
161 180 189
170 187 200
162 181 193
119 141 132
101 126 103
131 153 148
141 160 160
158 177 183
165 181 193
166 184 196
179 196 211
175 191 203
175 193 207
167 185 197
163 180 192
151 169 176
104 126 111
144 164 169
175 193 209
171 189 203
167 185 197
173 191 205
182 200 216
169 187 199
168 186 196
169 186 197
169 187 199
165 183 192
165 183 194
145 163 166
102 127 103
79 107 65
110 132 117
167 185 197
171 189 204
172 189 203
174 190 202
157 174 182
124 145 139
77 104 63
79 107 65
80 109 67
77 105 65
79 107 66
84 113 71
78 105 65
81 109 67
78 106 65
108 130 113
132 152 146
173 190 205
99 122 103
83 112 69
80 108 66
78 105 64
82 109 67
80 107 66
76 103 63
79 106 65
83 112 70
82 110 69
80 108 67
76 103 62
79 107 66
79 106 65
78 104 64
76 104 64
80 108 66
79 107 66
80 108 65
124 144 133
175 191 206
167 185 197
134 154 152
117 137 124
78 105 64
74 101 61
78 105 63
78 105 64
79 108 67
78 105 64
77 104 63
76 104 63
81 109 67
78 106 65
74 102 62
80 108 68
74 101 60
81 108 66
76 104 63
104 128 108
168 185 192
169 186 198
164 181 191
151 169 175
154 172 179
166 183 194
170 187 201
167 184 197
172 188 199
164 182 192
157 174 180
157 174 180
141 159 160
114 136 124
93 116 90
80 107 66
72 99 59
79 106 65
71 97 58
78 105 65
132 149 147
166 183 197
159 175 184
166 183 197
165 182 195
165 182 193
168 184 197
161 178 187
165 183 196
164 182 195
163 179 186
171 187 200
170 187 200
165 182 192
152 170 176
166 183 196
162 178 189
166 183 196
157 175 186
164 181 191
171 187 199
116 136 127
79 106 66
76 103 63
76 103 62
78 105 64
79 107 66
73 100 60
74 100 61
82 111 68
77 104 63
90 115 81
120 140 134
139 158 160
158 174 184
160 177 185
167 184 197
160 177 186
169 186 198
160 178 188
169 185 197
150 167 171
138 156 157
74 101 61
76 104 64
75 102 62
74 100 60
76 103 62
78 105 64
75 102 62
77 103 63
78 105 64
74 102 62
79 106 65
74 101 62
74 102 62
75 102 62
75 102 62
76 103 62
74 101 61
79 106 65
77 104 63
74 100 60
81 107 71
155 171 178
164 181 192
150 166 174
161 177 185
155 172 181
163 180 189
155 172 181
162 180 192
155 171 181
160 177 188
145 163 167
168 183 194
156 173 182
161 178 190
154 171 179
158 175 183
159 176 185
158 174 181
147 165 170
168 185 197
164 180 192
137 155 156
74 100 61
83 107 79
114 134 125
123 143 133
139 157 159
160 178 188
154 171 179
150 166 174
148 165 170
162 179 187
154 169 179
164 182 192
165 183 195
155 173 181
156 173 184
167 182 190
152 168 175
150 167 172
165 182 192
155 172 180
146 163 168
75 102 62
72 98 59
76 103 63
75 102 61
79 106 64
72 99 59
73 99 59
77 104 64
81 110 67
72 99 60
74 100 61
74 100 61
76 103 62
76 103 62
75 102 62
73 99 60
76 103 63
78 105 64
75 102 61
75 101 61
87 111 86
166 183 193
159 175 184
160 176 182
149 165 170
154 171 179
161 178 188
171 187 200
166 183 194
158 174 184
167 183 193
161 177 184
150 167 174
159 177 184
158 174 182
161 177 188
173 190 205
151 168 176
151 167 173
166 182 192
169 186 199
138 157 157
75 102 62
72 99 59
79 106 65
74 101 61
77 103 63
75 101 61
76 104 63
76 103 63
73 99 60
76 103 62
75 101 61
73 99 59
79 107 66
76 102 63
73 99 59
73 100 61
73 100 60
76 103 63
78 105 64
86 111 81
168 186 200
164 181 191
164 180 189
161 177 186
167 184 195
165 181 193
154 172 178
167 184 194
161 179 189
155 171 180
172 190 204
162 178 188
155 172 180
158 176 187
159 176 186
166 183 194
163 180 189
162 180 193
158 175 185
149 166 171
75 101 61
77 103 62
75 102 62
73 99 60
76 103 63
76 103 62
78 106 65
77 104 63
77 105 65
76 103 62
71 97 59
79 106 64
73 100 60
70 96 57
82 110 68
73 99 59
73 98 59
75 102 62
76 103 63
156 174 181
175 192 207
162 179 188
164 180 192
159 175 182
165 180 190
156 173 181
163 179 187
156 174 183
166 183 194
156 174 183
164 181 193
154 171 178
168 184 197
158 174 181
159 175 185
158 176 185
158 176 186
148 166 172
76 103 62
79 106 65
80 107 66
74 101 62
74 100 61
74 100 60
81 108 67
77 104 63
77 105 64
78 105 64
72 98 59
77 103 63
75 102 62
78 106 65
81 109 67
78 105 64
78 106 64
124 144 132
165 181 192
166 183 193
157 174 180
163 180 190
167 184 196
162 178 187
162 180 191
154 172 181
160 177 186
164 182 195
163 180 190
166 183 195
165 181 191
160 177 186
172 190 205
159 176 183
149 168 172
79 106 65
80 108 66
76 103 63
78 105 64
80 107 65
77 103 63
76 103 62
80 107 66
80 108 67
75 102 62
76 104 63
79 107 65
75 102 62
74 101 61
79 107 66
105 125 107
167 185 197
168 185 197
165 183 194
168 185 198
163 180 193
180 197 211
168 185 199
169 187 198
160 177 188
160 177 185
159 177 186
171 188 200
161 180 188
173 191 205
159 176 184
86 112 79
77 105 64
78 106 65
81 109 68
89 113 81
112 133 117
127 148 143
148 166 171
161 177 188
149 168 172
103 128 107
81 109 67
80 107 65
92 118 82
156 174 179
176 194 209
168 186 199
172 189 201
168 186 200
170 187 200
162 181 192
173 191 206
164 182 192
139 159 155
91 117 85
83 111 69
79 107 66
80 108 67
138 159 158
171 189 204
168 184 195
173 189 202
166 185 197
168 184 195
173 190 202
146 164 167
120 140 134
83 111 74
76 104 64
79 107 66
78 107 66
79 106 65
114 136 121
139 158 157
169 185 197
165 183 195
169 186 195
110 133 115
77 105 65
80 107 65
78 106 65
77 105 65
76 103 62
78 106 65
81 108 67
81 110 68
81 109 67
80 109 68
82 111 69
79 107 66
78 106 64
78 105 64
77 104 63
79 107 65
72 99 59
83 111 68
107 128 120
117 137 127
82 108 71
79 106 65
77 105 64
76 104 63
74 101 61
82 110 68
77 105 64
79 107 66
78 106 65
78 105 64
78 106 66
80 107 66
82 110 68
77 105 63
79 108 67
79 106 65
74 100 60
84 112 69
99 123 104
167 184 198
167 185 197
163 180 193
166 183 194
177 194 208
166 184 193
172 189 203
162 180 191
169 187 200
149 166 173
132 150 147
86 110 80
80 108 66
79 106 65
76 103 63
82 111 69
77 104 63
76 104 63
81 109 67
79 106 65
134 153 151
161 177 186
166 182 192
168 184 196
170 186 197
163 180 190
157 173 183
161 178 186
161 178 188
160 178 187
161 177 188
169 187 200
164 181 192
159 176 186
170 187 201
159 176 185
162 178 185
155 172 179
163 180 190
159 175 184
170 187 201
131 150 148
70 97 58
76 104 63
77 104 64
77 104 63
77 104 64
82 110 69
97 119 100
131 150 146
150 167 168
167 185 195
155 172 180
166 184 197
159 175 184
155 172 179
157 175 182
158 176 184
164 180 190
156 173 181
163 179 191
169 185 195
146 164 166
76 103 62
79 106 65
74 100 60
77 103 63
74 101 61
78 105 65
76 103 63
77 104 63
71 97 59
77 103 62
78 105 64
72 98 58
78 105 65
71 97 58
75 102 62
81 110 69
75 101 61
78 104 64
74 101 60
72 98 59
72 98 59
144 162 164
151 169 176
166 183 193
158 175 183
159 176 185
163 181 192
166 182 193
161 178 188
161 177 186
153 169 177
166 183 197
159 175 182
165 182 192
166 184 196
159 176 182
151 168 175
156 172 180
162 177 187
156 174 180
131 149 147
124 143 135
116 136 125
148 165 170
159 176 185
147 165 172
158 174 185
170 188 201
165 181 191
163 179 191
166 183 195
155 172 178
160 177 184
165 181 191
160 178 188
167 185 199
157 174 181
167 183 194
156 174 185
162 178 187
162 178 189
156 173 180
164 180 191
163 180 190
92 115 93
74 100 60
77 104 63
74 101 61
74 101 60
70 96 57
78 105 64
76 103 63
76 104 64
79 107 66
76 104 63
74 101 61
75 102 61
75 102 62
75 102 62
74 100 60
76 103 63
72 97 58
74 100 60
78 105 65
71 98 60
149 166 168
156 173 183
167 185 198
170 185 196
161 178 188
164 180 191
164 181 191
162 178 186
163 179 187
153 170 178
159 176 184
165 183 193
158 175 180
159 177 186
162 179 189
161 178 187
151 168 173
157 174 184
164 180 190
164 180 191
159 176 184
84 109 76
72 99 60
74 100 61
78 105 63
78 105 64
75 101 62
77 105 64
75 102 62
74 101 62
69 95 56
75 102 62
77 104 63
75 101 62
75 102 61
73 99 60
78 105 65
76 103 64
76 103 64
73 99 60
77 104 62
134 153 152
162 179 190
162 179 191
163 179 190
158 175 188
163 180 191
162 180 188
164 180 190
169 187 199
154 170 177
155 173 179
163 180 192
165 184 195
163 180 191
159 176 185
162 179 189
165 182 192
169 186 200
161 178 187
161 178 191
107 128 113
79 107 66
78 106 65
77 103 63
78 105 64
73 100 61
74 101 61
76 102 62
78 105 64
75 101 62
73 99 60
73 99 60
73 99 61
73 100 61
80 109 67
77 105 63
73 99 60
78 105 64
72 99 60
121 142 132
153 170 178
167 184 196
164 181 190
158 175 185
168 185 198
155 172 180
158 176 187
157 174 183
165 183 194
168 185 196
150 167 171
166 184 196
170 188 202
162 179 188
168 187 202
165 181 192
160 177 186
162 179 188
113 135 123
74 101 62
76 103 62
78 105 65
75 101 62
73 99 60
77 104 63
78 106 65
76 103 64
73 99 60
73 99 60
73 100 60
78 106 64
77 104 63
71 97 57
75 101 61
80 107 66
84 111 76
152 170 177
167 183 194
165 181 192
171 188 200
164 180 192
166 183 195
164 180 191
162 179 189
170 187 199
169 187 196
168 184 195
168 186 200
166 183 194
166 183 196
163 180 188
164 181 192
165 183 195
103 125 106
78 105 63
75 102 63
77 104 64
79 107 66
77 105 64
76 103 63
78 106 65
82 110 67
74 101 61
73 100 60
77 105 64
79 107 65
78 106 65
80 108 66
79 106 65
122 143 136
168 185 197
164 181 193
170 187 199
167 184 196
172 188 200
164 181 193
169 186 199
173 191 206
161 178 188
175 192 208
158 176 184
157 175 180
165 182 194
161 180 191
141 160 160
79 107 66
83 112 70
77 104 63
74 102 61
79 107 66
101 126 104
130 151 147
160 179 188
158 176 184
138 157 157
127 147 138
97 123 98
80 108 66
92 117 89
163 181 192
177 195 211
165 183 193
166 184 192
180 197 215
168 185 198
166 183 193
94 118 90
81 109 67
83 112 70
81 109 67
77 105 65
83 112 70
141 159 158
172 190 204
176 193 208
160 178 188
170 189 204
168 185 198
164 182 194
171 188 202
170 186 198
161 180 189
149 167 170
101 125 102
130 151 147
159 177 184
174 192 208
170 188 203
163 181 191
173 189 203
173 190 205
92 115 88
76 103 63
74 100 60
79 106 64
80 109 68
78 105 64
76 103 63
79 106 65
74 101 61
82 110 68
79 106 65
75 101 60
82 110 68
77 105 65
77 104 63
79 107 65
94 118 91
127 146 141
150 168 174
141 160 161
78 105 64
76 103 63
81 110 68
78 106 65
79 107 65
74 101 62
82 110 67
77 104 63
81 109 66
76 104 63
82 110 67
76 103 62
76 103 62
81 109 67
83 111 68
75 101 62
78 105 63
76 103 62
80 108 67
91 116 87
161 179 188
171 187 199
167 185 197
164 181 192
163 181 190
163 179 188
147 165 170
123 143 136
88 112 83
78 106 65
74 101 61
76 104 63
80 107 66
77 104 63
76 102 63
73 99 60
79 106 64
80 107 65
76 104 64
81 110 68
116 137 123
160 177 188
171 189 203
158 175 185
161 178 187
165 182 193
164 181 193
170 187 199
157 173 182
165 182 190
171 186 197
160 178 190
157 175 184
163 181 191
160 178 189
166 183 194
169 186 198
172 189 202
170 186 199
164 181 192
164 181 190
134 153 150
73 99 59
74 101 61
90 114 89
129 148 143
142 160 162
156 173 182
161 179 188
163 179 191
166 182 192
165 182 191
164 181 192
162 180 190
167 183 197
163 182 196
172 188 202
161 178 191
166 183 197
157 174 184
161 177 188
167 183 195
166 183 193
88 115 80
79 107 65
79 106 65
77 105 63
78 104 63
77 104 63
78 105 64
78 105 64
79 106 64
77 103 63
73 99 59
79 107 66
76 102 63
78 105 64
74 101 61
76 103 63
77 104 63
73 100 59
76 102 63
78 106 65
75 102 62
121 141 132
161 178 189
159 177 187
164 181 191
162 179 187
163 181 191
161 178 189
166 182 194
157 173 182
155 171 178
156 173 184
164 180 189
165 181 192
160 178 189
151 168 175
133 151 147
114 134 120
84 110 75
73 100 59
78 105 64
77 104 63
72 98 60
154 171 180
160 176 186
151 169 175
158 175 184
159 175 183
159 175 185
161 176 187
164 182 191
155 171 180
159 176 183
158 175 182
162 179 187
161 178 188
171 188 201
156 173 182
161 178 188
156 173 183
156 174 183
155 172 179
168 185 197
167 184 193
133 152 148
75 101 61
72 98 60
74 100 61
77 104 63
74 101 61
74 101 61
74 100 59
82 110 68
75 102 62
80 107 65
77 104 63
76 102 62
77 103 62
76 102 62
76 103 63
76 103 63
76 103 63
80 108 67
78 106 65
78 106 64
131 151 146
163 179 189
163 180 189
154 171 180
167 183 194
164 180 190
161 178 188
164 181 191
173 188 203
151 169 178
174 190 202
167 184 198
155 172 180
162 178 189
161 179 192
161 178 187
161 178 187
163 179 189
160 177 186
167 183 193
168 185 198
117 137 129
76 103 63
72 98 59
73 100 60
71 97 59
78 106 65
77 104 63
79 106 65
75 102 62
74 101 61
77 104 64
76 103 63
79 106 65
75 101 60
74 101 62
71 97 58
80 107 65
73 100 60
77 103 64
74 99 60
96 118 95
166 182 194
169 185 197
165 182 194
159 175 184
163 179 187
164 182 192
163 179 190
164 180 189
162 179 190
160 178 187
167 183 196
166 183 194
153 171 176
166 182 193
161 179 190
171 188 199
166 183 196
156 173 180
166 183 195
151 171 179
77 104 64
74 101 61
76 102 62
77 104 64
74 100 61
72 98 59
81 106 75
86 112 80
84 109 77
89 114 82
81 107 70
98 121 98
87 113 82
86 110 79
89 114 82
90 114 87
99 123 99
90 116 84
98 121 102
144 162 168
152 170 177
164 180 188
164 180 191
162 180 190
164 181 190
158 175 183
165 181 194
164 180 190
171 189 201
161 179 188
158 175 182
169 186 199
168 185 198
153 170 178
172 189 205
165 183 194
170 187 197
158 174 183
86 113 78
76 103 63
75 102 61
79 107 66
73 100 60
79 107 65
72 97 58
74 101 61
80 107 66
77 104 63
79 107 66
75 101 61
77 105 64
76 104 63
78 105 65
77 105 64
74 101 61
97 120 101
157 172 180
173 191 204
162 180 190
170 188 202
164 182 192
167 183 195
160 178 189
167 184 196
162 181 195
171 187 199
173 188 202
170 187 199
169 185 196
163 180 192
157 173 181
167 185 197
161 177 185
80 106 72
77 105 64
80 108 66
77 104 64
75 103 62
73 100 60
79 106 66
78 105 64
82 111 69
79 106 64
75 102 63
77 105 64
79 107 66
81 108 66
79 107 65
79 106 71
154 171 180
159 176 185
166 183 193
166 183 194
164 182 193
164 180 187
169 186 198
164 182 194
164 182 193
169 187 202
173 190 204
162 180 189
161 180 190
169 186 199
171 189 204
126 146 135
77 105 64
83 111 71
103 127 108
137 156 156
161 180 187
163 180 192
165 184 195
168 186 201
167 185 195
175 191 205
160 178 188
164 182 194
158 175 182
146 165 170
150 170 176
157 176 184
168 186 197
170 187 201
170 188 200
171 189 203
78 106 65
77 104 63
79 108 66
81 109 67
82 110 69
75 103 63
137 157 157
165 183 195
165 183 196
162 180 192
171 188 202
170 188 204
171 188 201
163 180 191
168 187 201
171 188 202
136 158 155
97 122 100
86 111 81
128 148 144
160 177 186
159 176 185
176 193 209
172 189 202
162 179 187
93 118 91
76 103 62
77 103 63
79 106 65
78 106 64
79 107 66
79 107 66
80 108 67
79 107 65
81 109 67
78 105 65
82 111 68
78 106 65
82 111 69
100 123 107
150 168 170
175 194 209
170 187 198
177 192 207
143 162 164
82 110 68
76 103 62
80 108 67
77 104 63
80 108 67
76 104 64
76 103 63
80 107 66
78 105 63
80 108 66
78 106 65
76 103 63
80 108 68
75 103 62
75 101 62
77 104 63
79 107 66
78 105 64
77 104 63
89 114 82
176 192 205
162 180 190
166 182 192
160 178 186
128 148 141
88 113 83
75 102 62
81 108 66
76 103 63
75 103 63
81 108 67
78 106 65
79 107 66
75 101 60
82 110 68
79 107 66
80 108 66
78 106 64
78 105 64
79 106 64
114 136 125
165 181 192
170 187 201
166 183 194
163 180 190
169 186 196
166 184 197
164 181 190
166 183 195
174 190 203
165 183 195
166 183 191
159 177 184
161 179 189
160 177 188
160 175 185
170 186 199
165 182 192
165 183 196
149 166 171
160 178 186
147 164 168
121 141 135
152 169 175
152 169 175
176 193 206
171 188 202
156 173 181
168 185 197
166 182 193
162 179 189
165 181 192
163 181 193
157 175 182
161 177 188
164 181 194
165 181 192
167 184 197
168 184 193
166 184 197
172 188 199
167 183 194
158 175 186
110 131 117
78 105 64
76 104 63
72 98 59
78 105 65
74 100 60
76 103 63
77 105 64
74 100 60
70 96 57
78 105 64
76 103 63
74 101 61
75 103 62
77 104 64
78 106 64
74 101 62
73 98 59
76 103 63
79 106 65
77 104 63
98 120 100
164 179 192
164 181 194
165 183 195
162 180 191
166 183 196
157 173 181
153 170 177
153 171 176
148 166 170
139 157 158
116 136 125
88 112 87
76 103 62
77 104 64
75 102 62
76 103 62
81 109 68
75 101 61
75 102 61
77 103 63
76 103 62
132 153 151
157 174 185
163 179 189
160 177 186
157 174 184
156 171 178
166 182 191
158 175 186
162 179 191
153 169 177
162 179 190
167 183 194
162 178 188
163 180 190
152 170 176
154 171 180
161 178 188
165 180 190
158 175 184
161 178 189
165 182 192
141 160 160
78 106 65
79 106 65
75 101 61
73 98 58
78 105 64
76 103 63
71 98 59
81 109 67
76 103 62
77 104 63
76 104 63
78 106 65
77 105 65
76 102 62
75 102 62
73 100 61
78 105 64
76 102 61
72 99 59
75 101 61
85 110 78
152 170 175
157 175 186
158 175 182
169 186 199
156 175 185
150 165 171
158 175 185
160 178 189
162 178 187
159 176 187
158 176 186
155 172 183
159 176 186
173 189 201
163 179 187
165 181 191
158 175 184
151 168 176
156 173 182
161 177 186
146 164 168
69 95 56
74 100 59
75 102 62
76 103 61
74 100 61
77 104 62
75 102 61
78 106 65
73 99 58
75 102 62
76 103 63
74 100 60
73 100 60
72 98 58
75 102 62
72 98 60
78 105 64
78 105 65
75 101 61
72 99 59
139 158 159
157 175 184
160 176 187
165 181 191
151 168 177
151 168 174
151 169 174
133 152 151
134 151 148
136 154 154
127 145 139
119 139 131
107 127 112
110 130 118
106 128 111
115 136 127
110 133 119
95 120 97
98 122 99
102 125 105
125 144 140
155 172 182
157 175 184
151 170 180
154 170 175
155 172 179
161 178 187
153 169 175
166 183 194
163 180 190
152 169 178
172 190 203
162 179 191
172 188 200
167 184 195
161 179 191
164 182 194
158 176 185
167 184 196
142 161 161
76 102 61
77 105 64
73 99 59
83 112 70
77 104 64
81 109 68
82 110 68
77 104 64
77 104 66
79 105 69
86 110 79
93 117 90
91 115 87
98 122 99
92 116 90
102 124 103
114 135 123
113 133 122
125 145 139
148 165 168
125 145 141
131 151 147
128 149 148
116 137 128
114 134 126
113 135 124
100 122 101
109 130 114
96 120 94
84 109 77
74 100 63
80 107 66
76 104 63
76 103 62
76 102 62
78 106 64
141 160 161
160 177 186
164 181 192
161 178 186
171 188 201
164 183 195
172 189 200
158 176 184
168 184 196
167 185 194
168 185 197
151 168 174
169 186 197
160 179 191
161 179 192
170 187 201
165 182 192
144 163 165
76 104 63
81 108 67
77 104 63
82 110 67
78 105 65
80 108 66
75 103 63
75 101 61
78 106 66
77 105 64
77 103 62
77 103 63
75 103 63
75 102 62
79 108 66
103 126 109
165 183 196
163 180 190
166 182 192
174 190 204
165 182 194
171 188 200
168 185 196
156 174 178
174 192 207
168 185 196
165 181 191
156 173 181
165 181 193
171 189 204
150 168 174
120 141 130
158 176 185
165 184 196
156 176 186
178 195 209
167 186 199
160 179 189
168 186 199
165 183 195
172 189 201
164 183 193
169 186 197
175 193 207
173 190 205
144 163 164
80 107 71
110 134 114
122 142 135
144 163 168
170 187 200
80 109 67
80 108 66
79 106 65
81 109 67
82 110 68
83 113 70
154 172 179
172 188 200
172 190 204
174 190 207
166 185 201
174 192 207
167 184 197
148 166 172
119 140 130
77 103 66
79 107 65
80 109 67
80 108 66
82 110 68
85 114 73
111 133 119
140 161 159
167 184 196
173 189 202
81 108 70
77 105 64
77 105 64
80 108 67
80 107 66
75 102 63
82 111 69
78 106 66
80 108 66
75 103 63
80 108 66
77 103 66
133 154 149
158 176 186
173 190 202
169 186 200
162 179 190
173 190 204
164 180 190
147 167 172
82 111 68
80 108 66
76 103 62
75 102 62
82 110 68
77 105 65
76 103 63
76 103 62
77 104 63
74 101 61
81 109 67
78 106 65
75 101 61
78 106 65
77 105 64
78 105 65
79 106 65
76 102 62
78 106 65
76 103 63
170 186 196
135 154 152
106 128 114
75 102 65
74 101 61
80 109 67
78 106 65
77 105 64
81 109 68
78 106 64
78 105 65
75 101 61
78 106 65
78 105 64
73 99 59
79 106 65
75 103 62
77 104 64
74 100 60
78 104 63
102 124 106
164 182 192
155 173 182
157 175 185
168 185 196
164 179 188
158 174 182
172 190 204
163 181 193
162 179 191
161 178 188
159 175 184
157 175 185
173 188 200
163 179 192
159 176 185
152 170 176
159 176 182
148 166 171
111 132 117
89 116 84
73 99 59
162 181 191
162 178 188
162 178 186
161 177 187
163 180 191
163 180 189
162 180 190
167 184 198
163 179 191
167 184 195
163 180 189
159 178 187
172 188 202
171 188 201
169 185 196
160 178 187
165 182 194
151 169 175
162 179 188
163 179 188
161 179 187
131 150 144
74 101 61
76 103 63
74 101 60
77 104 63
73 100 60
76 104 63
75 101 62
71 97 58
76 103 64
78 104 63
79 106 64
77 105 64
79 106 66
77 104 63
76 102 63
75 102 61
76 103 63
74 100 61
75 101 61
77 104 63
81 108 72
160 178 187
153 171 179
164 182 194
155 172 177
142 160 162
125 145 140
115 136 121
76 103 62
75 102 61
74 101 61
75 102 62
82 109 67
77 104 64
78 105 64
73 101 61
75 102 63
76 103 62
80 107 65
76 103 63
77 103 63
73 100 61
124 142 134
155 172 182
158 174 181
165 182 194
160 178 192
159 176 184
154 171 179
164 181 191
165 182 192
162 179 186
157 174 183
152 169 177
158 175 184
172 188 200
157 173 179
148 165 172
159 176 185
158 175 184
173 189 202
159 175 186
155 172 181
164 179 187
93 116 91
73 99 60
74 101 61
77 105 64
73 99 60
76 103 62
75 102 62
72 98 58
78 106 65
74 100 60
78 106 64
79 107 66
74 100 61
75 101 62
75 102 62
75 101 62
74 101 61
75 101 61
80 108 66
81 109 67
77 104 63
144 162 163
166 183 196
163 180 191
162 179 187
156 173 182
163 179 189
161 178 188
166 183 195
173 188 202
166 183 193
167 183 194
158 175 185
160 178 187
159 174 182
165 181 189
154 172 179
152 169 175
170 188 203
157 175 184
161 179 190
163 181 192
102 125 104
78 104 64
76 104 63
73 99 60
76 103 62
76 103 63
78 105 65
80 107 65
80 108 66
87 112 84
98 122 102
108 129 115
112 134 121
136 154 152
125 146 138
119 140 130
130 149 144
135 153 154
150 167 171
151 169 177
142 160 160
80 106 71
75 102 61
70 96 59
74 101 61
74 100 59
75 102 62
71 97 57
73 99 60
73 99 60
78 105 64
75 103 62
75 102 62
76 103 63
71 97 59
80 108 67
78 106 65
76 103 63
74 100 60
76 103 63
106 128 111
159 176 185
162 179 188
158 174 182
154 172 179
162 178 187
163 180 193
164 181 192
159 175 184
160 176 187
167 183 194
164 182 195
158 174 182
164 181 189
165 182 192
159 176 187
165 182 192
163 180 190
156 174 183
170 187 199
107 129 112
76 103 62
77 104 63
76 104 64
76 104 63
78 106 66
79 106 65
72 98 58
75 102 61
77 104 64
77 105 64
81 109 67
75 101 61
76 104 64
81 108 67
75 102 62
78 104 63
75 102 63
80 106 70
151 169 174
161 178 188
164 181 191
165 182 194
153 171 176
163 180 190
165 181 189
163 181 193
169 186 197
167 185 197
158 175 184
158 175 184
165 181 189
161 178 189
154 172 178
152 168 172
141 159 160
147 164 167
125 143 138
130 152 150
136 157 157
150 166 169
147 166 170
155 173 180
165 181 189
175 192 207
173 190 206
161 179 190
164 182 193
165 181 192
166 183 195
179 197 214
168 186 200
166 183 198
169 186 197
99 123 101
78 106 64
73 100 60
83 112 70
79 106 66
77 105 64
77 104 63
77 104 63
77 105 65
78 105 65
79 106 65
78 106 65
78 105 65
82 110 68
79 107 66
79 107 65
125 146 139
166 184 198
168 185 197
167 185 197
160 178 188
165 182 195
169 187 198
171 188 202
164 181 191
169 186 200
161 179 191
163 182 193
136 156 153
107 131 114
82 108 71
96 119 96
159 176 185
162 178 188
166 181 192
172 188 200
171 189 203
171 189 203
163 181 192
174 192 206
170 188 204
166 184 196
170 187 200
176 193 208
173 189 201
165 183 193
112 134 120
83 113 71
82 110 68
78 105 65
89 114 83
79 107 66
85 113 70
81 109 66
82 110 68
81 110 68
84 113 71
163 181 192
168 187 200
168 185 195
167 185 196
166 184 197
148 167 171
105 130 108
81 108 68
78 106 65
77 105 65
79 106 65
81 109 67
78 106 65
78 105 65
76 104 64
80 108 66
79 107 65
84 112 78
112 134 122
112 135 122
87 116 78
80 107 66
78 106 65
80 108 67
81 109 67
81 110 68
78 106 65
79 107 66
103 126 109
136 157 157
172 188 200
172 189 202
164 180 191
173 189 203
171 189 203
166 184 196
164 181 192
175 192 204
153 171 179
78 106 65
78 105 65
82 110 67
77 103 63
77 104 63
81 108 67
79 107 66
82 110 68
79 107 65
80 108 66
80 108 66
75 102 61
78 105 64
74 101 61
85 113 71
79 107 65
74 101 61
80 106 68
109 131 113
140 159 159
85 110 81
77 104 63
79 107 66
75 102 61
76 104 63
81 109 68
77 103 63
75 102 63
72 99 59
77 104 63
79 106 65
75 102 62
81 109 67
78 106 65
78 105 64
76 103 63
77 105 64
77 104 62
77 104 64
78 105 64
92 115 91
160 177 185
169 186 199
161 177 185
172 189 201
168 186 197
163 179 190
177 192 207
164 181 195
172 189 204
156 174 186
170 188 203
174 192 208
167 183 192
160 176 185
144 162 164
107 130 115
77 105 64
75 102 62
78 106 65
81 110 69
81 109 68
152 170 176
173 190 204
165 183 195
168 186 199
164 181 193
162 178 187
164 181 193
160 177 186
165 181 190
160 178 187
162 179 189
161 178 188
170 188 200
169 186 199
162 179 188
159 175 184
166 182 192
163 180 193
168 185 197
159 175 184
174 190 205
143 162 162
78 106 65
77 103 62
78 105 64
79 107 65
71 97 59
77 105 64
82 111 69
79 106 65
79 106 64
79 107 66
77 103 62
76 103 62
74 100 61
75 102 62
78 106 65
73 99 60
81 109 67
76 104 63
77 105 64
79 106 68
98 120 103
123 141 135
130 149 147
83 106 74
76 103 63
80 107 65
76 104 64
76 103 62
76 104 64
74 100 60
77 105 64
76 103 62
75 102 62
76 103 62
76 103 63
76 103 63
76 103 62
79 106 64
74 101 61
78 106 65
70 96 58
77 104 64
89 113 87
158 175 185
155 172 179
164 181 191
165 181 191
161 178 188
149 167 175
170 186 196
155 172 180
173 189 202
172 189 203
172 188 201
160 177 186
167 183 194
165 182 193
156 173 183
164 182 192
172 188 200
162 178 189
155 173 184
159 176 187
164 180 192
123 143 135
78 105 63
81 109 67
74 100 62
77 104 64
78 106 64
74 101 61
77 103 63
77 105 64
76 103 63
80 108 66
77 104 63
80 108 67
77 105 64
73 99 60
75 102 63
79 106 65
77 105 65
75 101 61
69 95 56
73 99 59
116 137 123
160 178 188
158 173 180
152 170 177
160 178 189
159 176 184
165 182 191
152 170 176
163 179 188
157 174 182
164 180 190
159 176 185
165 182 192
158 176 184
164 181 192
161 177 186
156 173 179
163 180 191
167 184 195
158 176 183
155 173 180
129 150 146
114 134 119
120 142 132
125 146 137
128 147 146
147 163 167
143 162 165
151 169 173
156 173 182
154 172 181
166 182 194
168 185 198
166 184 197
169 186 195
162 179 191
172 189 203
178 195 211
164 180 191
162 180 189
159 175 185
162 179 190
109 130 116
73 99 59
76 103 63
73 100 61
74 100 61
79 107 65
75 102 62
71 98 58
73 99 58
76 104 64
78 105 65
76 103 63
74 100 61
82 110 68
79 108 66
76 103 62
72 97 58
78 106 64
76 103 62
76 103 62
138 156 157
168 187 201
166 182 192
164 181 191
160 176 184
162 179 189
167 184 196
161 178 190
161 178 188
170 187 199
163 181 191
163 178 184
162 180 191
171 189 204
169 186 199
165 183 194
157 175 183
165 182 195
164 181 195
154 171 176
76 103 63
74 101 62
83 111 68
76 104 62
75 102 62
77 105 64
70 96 57
77 104 64
72 98 60
78 107 65
77 105 64
80 108 66
78 106 65
79 108 67
77 104 63
80 107 66
76 103 62
77 105 64
131 150 145
168 184 197
163 181 192
167 183 196
152 170 175
170 187 201
169 187 200
156 172 181
164 180 189
170 187 199
163 179 189
170 187 198
160 179 187
163 181 191
173 190 205
167 184 196
169 187 201
159 177 185
148 168 169
84 112 69
76 104 63
80 109 67
77 104 63
76 102 62
86 112 79
91 116 86
90 114 84
105 127 108
110 131 120
128 148 145
137 155 151
149 167 173
158 175 181
155 174 180
162 179 191
159 177 186
83 110 72
75 102 62
78 106 65
78 106 65
81 109 67
78 106 64
79 106 65
78 105 65
81 109 67
79 108 66
76 102 62
78 106 66
79 106 64
76 104 63
84 112 69
76 104 63
162 180 189
165 183 192
163 180 189
169 186 198
164 181 191
163 180 192
167 184 195
174 190 205
149 167 171
123 144 135
94 120 90
82 110 68
79 107 66
83 112 69
81 109 68
123 143 132
167 185 198
165 184 199
170 186 195
172 189 202
164 183 195
170 186 199
168 186 201
169 185 199
172 189 202
175 193 206
160 178 189
177 194 207
179 197 213
163 180 191
90 116 85
80 108 67
85 115 71
80 108 66
79 107 66
81 109 66
83 111 69
78 106 65
81 109 68
84 111 73
170 189 204
176 194 211
170 187 201
144 163 167
97 120 98
77 104 64
76 103 63
79 107 66
81 109 67
80 108 66
80 108 67
81 109 66
83 111 69
78 105 65
76 103 62
82 111 69
82 111 68
79 107 66
94 119 92
165 181 192
153 171 180
145 163 165
114 137 121
82 108 72
79 106 64
80 108 66
126 147 139
155 173 180
161 179 192
163 180 191
170 186 197
167 184 196
161 178 187
165 182 192
174 191 204
170 187 201
161 177 187
158 175 185
139 158 158
76 104 63
78 105 65
81 109 67
78 105 63
77 104 65
80 107 66
78 106 64
76 103 63
79 106 65
81 110 68
79 107 65
75 102 62
80 108 66
80 108 67
79 107 66
103 126 105
138 158 158
171 188 200
168 185 198
168 184 194
103 127 105
78 106 65
77 105 64
76 104 62
76 103 63
76 104 63
78 105 65
78 105 64
78 106 65
75 102 62
75 101 61
80 108 67
76 104 63
78 106 65
78 104 63
73 100 60
77 104 63
76 104 63
80 108 65
78 105 65
77 104 63
160 177 190
172 189 203
169 187 200
168 185 197
176 192 207
162 180 191
165 182 193
167 184 196
161 177 188
165 182 194
155 172 179
131 151 145
101 125 104
80 108 66
78 105 64
75 102 62
75 103 63
77 104 62
74 101 61
78 106 65
76 104 64
149 168 174
162 179 190
161 178 189
159 177 186
160 178 188
161 178 188
161 178 187
156 173 180
162 180 191
164 182 193
163 181 192
163 180 189
163 179 190
168 184 196
157 173 181
156 173 178
157 174 181
170 186 197
156 174 183
162 180 192
158 174 182
157 175 184
76 103 63
76 103 62
75 101 61
77 104 63
77 105 64
75 102 62
80 108 67
79 107 65
82 110 67
79 106 65
76 103 62
77 105 64
76 103 63
76 104 64
80 108 67
84 111 77
101 124 102
120 140 130
146 164 167
149 166 170
163 179 192
131 150 147
75 102 62
79 107 66
71 97 58
74 100 61
79 107 66
77 104 64
76 104 63
79 106 65
81 108 66
77 104 64
76 104 63
74 101 60
78 105 64
75 101 61
73 100 60
75 103 63
69 94 56
75 102 62
77 103 62
75 102 62
72 99 60
153 169 176
169 185 197
163 180 191
162 177 184
170 187 199
163 179 188
161 178 187
166 182 195
162 180 190
162 180 192
165 182 195
160 176 186
152 170 178
163 179 188
178 195 212
161 177 185
155 171 180
161 177 185
166 183 194
156 174 182
164 181 191
138 156 155
75 101 61
74 101 62
74 102 61
76 103 63
75 102 62
75 102 62
77 104 63
78 106 65
76 103 62
78 105 64
73 99 60
76 102 62
74 101 62
77 104 63
72 98 60
75 102 61
74 101 62
74 101 61
78 106 64
78 105 64
76 102 65
157 175 183
157 175 184
171 187 200
162 179 190
161 179 189
157 174 182
167 182 194
174 191 206
167 184 194
166 182 194
158 175 182
156 173 178
133 153 151
124 144 136
125 146 141
116 137 125
92 115 92
91 116 89
74 101 62
76 103 63
77 104 66
138 155 158
160 178 187
171 188 199
163 180 188
161 177 188
169 185 198
164 181 193
165 181 191
158 176 186
168 185 194
159 176 183
162 180 190
160 178 190
166 183 192
165 181 191
160 177 186
168 186 199
158 175 184
165 182 192
168 186 199
145 162 166
76 103 62
75 102 61
74 100 60
78 106 64
76 103 62
76 102 62
76 102 63
76 103 62
80 108 66
74 100 60
78 105 64
78 105 63
76 102 61
78 106 64
74 100 61
78 105 63
77 105 65
72 98 59
78 106 64
95 118 99
163 179 187
160 178 190
164 181 190
158 176 187
165 182 190
157 175 184
166 182 192
156 173 180
166 184 196
159 177 186
158 176 187
169 186 198
161 178 190
162 178 187
157 173 182
163 180 192
163 180 191
165 182 192
165 182 192
110 131 120
76 104 63
77 104 63
77 104 63
82 108 66
78 106 64
77 104 64
81 108 65
74 100 59
73 99 60
79 106 65
77 103 63
72 98 59
83 112 70
76 104 64
76 103 62
82 109 67
79 106 65
81 109 68
147 165 172
164 182 193
169 186 197
173 191 206
150 167 174
157 175 184
156 173 181
167 185 195
167 185 199
165 183 194
165 183 195
154 171 178
167 185 199
164 182 193
168 186 197
171 190 205
157 173 182
170 188 201
115 136 124
79 106 65
74 102 62
78 106 65
77 104 64
81 108 66
80 108 66
78 106 65
77 104 63
77 105 63
80 108 66
80 109 66
82 111 69
82 111 69
79 107 66
78 105 65
84 109 75
118 140 132
131 151 146
122 142 134
123 144 137
112 134 118
92 117 87
77 104 64
79 107 66
78 105 63
82 110 67
82 111 69
81 109 67
73 101 61
79 106 65
79 107 66
80 108 67
99 124 98
168 186 198
169 187 199
163 181 191
168 186 196
146 165 168
128 149 140
94 119 94
82 111 68
75 102 62
80 108 66
80 107 67
77 105 65
77 105 63
76 103 62
84 113 70
147 166 170
165 183 195
165 182 191
170 187 200
169 187 200
170 188 203
166 184 193
172 190 204
164 183 194
174 191 205
172 190 205
167 184 195
174 192 206
162 181 190
154 172 176
88 116 79
79 107 67
84 112 69
80 108 67
81 109 68
78 106 66
79 107 65
79 107 65
99 124 101
177 195 210
148 168 171
100 124 101
82 110 68
79 108 67
80 108 67
82 110 69
83 111 68
79 107 66
82 110 68
82 110 68
80 108 66
79 106 65
79 107 66
80 108 65
80 107 67
80 108 67
76 103 62
104 128 108
180 197 212
167 184 195
172 189 204
161 179 189
151 170 180
103 126 106
139 159 158
168 185 196
172 189 204
168 185 199
165 181 192
168 185 197
168 185 198
177 193 205
171 189 202
170 187 201
177 195 212
170 185 196
164 183 194
135 155 154
75 102 62
80 108 66
80 108 67
79 107 66
79 107 66
80 108 66
81 109 68
80 108 66
80 107 66
76 104 63
82 110 68
79 108 66
87 112 81
117 140 126
162 180 190
163 180 190
164 182 193
165 183 195
166 184 195
165 183 195
103 127 106
77 105 63
77 104 63
77 104 63
78 105 64
77 104 64
77 105 64
79 106 65
78 106 64
80 108 67
74 102 62
75 102 62
77 104 64
79 107 65
77 105 64
75 102 62
74 101 61
72 98 59
76 103 63
81 108 67
76 104 64
162 179 190
160 178 187
159 176 184
168 185 199
168 185 197
169 185 197
162 180 190
161 180 192
117 139 128
102 125 103
76 103 63
81 109 67
82 110 68
78 105 64
79 107 65
78 106 64
76 103 61
76 104 63
76 102 62
76 103 62
76 104 63
140 158 160
168 185 199
158 175 179
162 179 190
163 181 192
175 192 206
164 181 191
170 187 199
164 180 190
156 173 182
165 182 193
161 177 186
169 186 196
159 176 185
169 185 196
174 190 203
167 185 197
161 177 185
169 185 198
163 179 188
174 190 203
160 177 186
87 113 79
78 105 64
80 108 66
74 100 60
75 101 61
76 104 63
71 98 57
77 104 63
79 107 66
71 98 59
75 102 62
82 108 70
102 124 103
128 148 143
149 167 171
152 169 177
169 185 195
174 192 207
162 179 189
167 184 197
156 172 177
159 178 186
74 101 61
83 112 70
72 99 60
75 103 63
74 101 61
73 99 60
72 99 60
79 107 66
78 105 65
77 103 62
79 106 64
76 104 64
77 104 63
78 105 64
77 105 65
74 100 60
78 105 64
79 108 66
76 103 63
77 104 64
79 106 64
131 150 149
158 175 182
173 189 202
161 180 192
155 173 181
158 175 184
153 170 178
166 184 195
158 175 183
160 177 189
171 188 200
158 174 180
162 179 189
164 181 192
168 184 194
157 174 183
159 176 184
167 183 194
164 182 193
160 178 187
154 171 180
159 176 185
90 115 88
77 104 64
77 105 64
74 100 60
78 105 65
80 107 65
73 99 60
76 103 62
73 100 61
75 101 61
80 108 66
74 102 61
76 103 63
72 97 58
74 101 60
77 104 64
77 105 64
78 105 64
76 103 61
76 103 63
77 105 64
144 163 165
160 177 186
149 166 175
145 163 168
122 141 136
124 144 136
124 146 136
93 116 96
97 120 98
81 109 68
75 103 63
76 102 63
80 108 66
77 104 63
76 103 64
73 100 61
72 98 59
77 105 64
79 106 65
82 110 68
80 108 67
130 150 148
161 179 189
165 181 193
157 175 183
163 181 191
159 176 185
162 180 190
160 177 187
162 180 193
156 173 182
149 167 175
156 172 181
169 186 197
160 176 186
171 188 202
160 177 186
173 190 203
173 190 205
169 186 199
160 177 187
166 182 194
102 123 103
75 102 62
81 108 66
76 103 63
71 98 59
77 104 63
77 105 65
79 105 64
77 104 64
79 107 65
76 103 62
76 103 63
76 102 62
74 100 61
75 102 62
76 104 63
78 105 64
76 102 61
76 103 63
81 109 67
139 159 162
159 174 182
153 171 178
166 182 191
163 180 191
169 186 197
162 180 191
151 168 174
168 184 194
163 181 194
162 178 187
170 186 196
167 184 194
166 184 195
159 177 186
158 176 185
160 177 187
170 188 200
159 176 185
146 164 167
75 103 62
78 105 64
79 106 64
79 107 65
77 104 64
76 103 62
75 101 61
77 104 63
79 107 65
75 102 62
79 107 67
74 101 61
80 107 67
75 102 62
79 106 64
80 108 66
80 108 67
73 99 60
116 137 127
159 177 188
159 177 186
171 188 203
169 185 197
168 186 199
174 191 204
162 180 189
165 181 192
159 176 186
164 182 195
171 188 200
157 175 186
178 194 210
158 175 184
166 183 193
171 188 200
165 181 191
149 167 172
76 102 65
79 108 66
78 105 64
78 107 66
77 104 63
78 105 64
80 108 67
76 103 63
76 103 63
76 103 63
78 106 65
72 99 59
80 108 67
78 105 64
77 105 64
79 107 67
81 109 70
161 179 188
168 186 202
173 189 199
163 179 188
176 193 208
163 179 188
162 180 190
150 169 170
145 163 163
136 155 152
119 141 131
106 128 114
84 110 76
76 103 62
80 108 66
80 108 66
123 143 138
145 164 167
104 127 110
89 116 84
75 103 63
78 105 64
81 109 68
82 110 68
79 106 65
82 111 69
78 106 65
78 106 65
77 104 63
74 101 61
80 108 67
89 115 84
158 174 182
168 186 199
163 181 191
165 183 196
166 184 197
173 190 206
165 182 191
175 192 208
160 179 188
171 187 201
168 186 197
177 195 212
165 183 194
172 189 204
138 158 158
78 106 65
78 106 65
79 108 66
79 106 65
80 109 67
79 107 65
87 112 80
122 143 135
91 116 86
81 109 67
80 108 67
79 108 66
78 105 64
78 106 65
82 111 69
84 113 71
80 108 66
79 107 65
77 106 65
78 106 65
75 103 63
82 110 68
78 106 65
76 103 63
80 108 66
80 108 66
111 133 116
176 192 207
174 192 208
147 166 171
116 137 127
80 107 68
80 109 67
76 104 63
77 104 63
116 138 124
134 154 152
160 178 186
170 188 202
150 169 175
175 191 204
166 183 195
160 177 186
173 191 205
164 182 192
162 180 191
138 158 158
76 103 63
80 108 67
79 106 64
77 104 63
82 111 69
75 102 61
77 105 64
78 106 65
76 103 62
79 107 65
114 135 122
142 160 160
165 182 192
169 188 203
174 191 206
171 187 200
175 192 206
162 180 194
169 187 198
161 178 187
87 111 82
81 109 67
77 104 63
84 113 70
77 104 64
76 103 63
82 110 67
76 103 63
80 108 67
79 107 66
78 107 65
81 109 68
77 104 63
77 104 63
78 105 64
78 105 64
77 104 64
78 105 65
81 109 67
78 106 65
78 105 63
150 168 172
163 180 191
161 179 188
174 191 206
157 174 181
127 147 141
95 118 95
74 100 61
79 107 66
79 107 66
75 102 63
79 107 65
71 97 57
77 104 64
78 105 65
77 105 65
78 106 65
78 106 64
75 103 63
82 110 68
76 103 62
117 137 128
169 185 197
175 192 205
174 190 204
156 172 182
162 179 191
170 185 196
165 181 191
170 188 200
167 184 194
159 176 187
164 180 189
170 188 200
163 181 193
161 179 188
173 190 203
168 185 197
166 184 195
166 182 196
159 175 184
156 172 180
172 189 202
105 127 109
75 101 61
78 105 64
78 105 64
79 107 66
73 100 60
75 101 61
80 106 68
98 120 99
137 154 151
145 162 163
154 172 180
158 175 186
163 180 193
180 197 212
159 176 183
161 178 186
162 180 191
168 184 195
155 172 180
166 183 193
162 180 192
85 110 77
75 102 62
76 104 64
77 104 62
74 100 60
76 103 63
79 106 66
75 101 61
78 106 64
77 104 64
71 98 58
76 103 63
74 101 61
78 105 64
76 103 63
79 106 65
79 107 66
73 99 59
76 103 63
76 103 62
78 106 65
95 119 92
164 181 190
167 184 195
162 178 187
165 182 194
164 179 187
154 171 181
166 183 196
169 186 200
171 186 197
163 179 190
172 189 200
158 175 181
163 180 192
160 178 187
167 182 193
160 178 189
157 175 185
163 179 190
164 181 193
161 179 190
173 190 204
121 141 134
80 108 67
76 103 63
80 107 66
79 107 65
74 101 60
76 103 61
76 103 62
78 106 65
76 103 62
69 95 56
74 101 62
74 102 61
79 106 65
80 108 67
82 107 76
102 125 107
118 137 130
116 138 126
141 159 160
142 160 161
145 164 164
81 108 71
76 103 63
77 103 63
76 103 63
78 105 64
73 100 60
79 107 66
78 105 64
77 104 64
75 102 62
76 103 63
76 103 63
76 103 63
78 105 64
74 101 61
77 105 65
78 106 64
72 99 59
76 103 62
76 103 63
98 120 100
169 186 198
166 183 196
164 181 192
160 177 185
168 187 201
172 189 202
165 182 193
157 174 180
157 174 181
159 176 187
164 180 191
157 176 184
164 180 190
154 171 181
160 178 189
162 179 189
157 175 187
156 174 181
164 181 190
161 178 187
150 168 172
77 103 63
78 106 66
77 104 63
79 107 66
75 101 61
75 101 62
79 106 65
76 104 64
77 104 63
79 106 65
75 102 60
78 105 64
73 100 61
79 108 66
78 105 65
77 104 65
77 103 63
74 101 61
76 103 63
100 122 104
179 194 206
151 169 174
163 180 191
161 179 188
164 181 190
160 177 184
172 189 201
168 185 199
166 183 195
178 195 212
156 174 183
156 174 180
159 177 185
167 184 195
168 184 194
163 181 193
168 185 196
163 181 193
165 180 190
114 136 125
75 102 61
77 104 63
77 105 64
74 101 61
75 102 62
78 106 64
79 107 66
78 105 65
78 105 63
71 98 59
78 106 65
72 99 61
76 102 61
77 104 63
76 104 63
76 104 63
76 103 63
72 98 59
148 166 171
172 189 204
164 182 193
166 183 191
175 190 203
163 180 192
175 191 203
168 184 196
157 175 184
159 176 186
171 188 198
165 182 195
165 182 195
169 186 201
169 186 201
167 184 196
166 184 196
170 187 200
112 132 119
82 111 69
81 109 67
79 106 65
77 105 64
78 106 65
80 108 67
82 109 67
82 110 68
74 101 61
75 102 62
78 106 65
75 103 63
76 103 62
74 101 62
78 106 66
77 104 63
110 132 113
154 171 177
169 187 199
167 184 196
168 186 199
160 178 187
161 178 185
170 187 199
164 181 191
160 178 188
171 189 205
173 190 205
169 186 200
151 169 174
119 141 132
99 122 104
132 152 150
111 133 117
89 115 83
79 106 65
80 108 67
78 106 65
75 103 63
77 105 63
77 104 64
76 103 63
80 108 66
79 106 64
77 104 63
81 110 68
80 108 67
78 107 66
106 128 109
172 189 203
169 186 198
175 191 203
165 182 192
176 194 207
167 183 195
171 187 199
171 188 201
173 190 204
170 187 198
162 180 186
163 182 194
180 197 213
175 193 207
112 135 121
77 105 64
77 104 63
77 104 63
86 114 78
134 154 147
167 185 198
135 155 153
81 109 67
81 111 69
80 109 68
81 110 68
80 108 66
82 110 69
76 104 64
80 108 67
77 105 65
79 106 65
76 103 62
78 106 66
83 111 68
83 111 68
80 108 67
83 111 68
80 108 66
77 104 63
112 135 121
141 161 164
97 122 97
81 109 67
79 107 66
78 106 65
79 106 64
75 102 62
78 105 65
76 103 62
79 106 65
77 104 64
96 120 95
115 136 125
136 155 155
171 188 199
163 180 191
164 180 190
175 192 204
170 188 202
147 166 170
83 112 70
78 105 64
79 107 66
78 105 64
79 107 66
77 104 63
77 104 64
92 116 91
140 159 157
160 178 188
168 185 197
173 189 201
158 176 185
170 188 202
169 186 197
170 187 200
173 190 205
168 185 197
159 176 186
157 175 182
112 134 121
81 109 67
75 103 63
75 103 63
72 98 59
75 103 62
78 105 65
78 105 64
77 104 64
81 108 67
77 104 64
80 108 66
77 104 64
80 109 68
78 106 65
77 104 62
78 105 64
79 106 65
83 112 70
75 103 62
73 100 60
140 159 160
151 170 178
123 143 136
95 118 94
74 100 60
79 106 65
77 105 64
79 106 64
77 104 64
79 106 65
77 104 64
77 104 63
74 101 60
82 110 68
79 107 66
81 109 66
77 105 64
78 107 65
73 100 60
79 107 66
80 108 66
105 128 111
169 187 200
155 173 184
164 181 194
166 183 194
164 182 194
162 179 190
173 190 203
168 186 198
158 174 184
161 178 186
173 190 203
162 179 189
159 177 186
170 187 199
155 172 182
169 185 197
165 181 192
161 178 187
161 177 186
161 178 190
168 183 192
124 144 140
78 106 65
74 101 61
78 105 64
101 124 104
118 139 126
138 156 155
154 172 179
169 185 198
156 173 182
163 180 191
166 182 194
170 186 197
169 185 198
163 181 189
163 179 188
170 187 199
161 179 190
168 185 197
169 186 202
160 177 187
164 180 193
111 133 120
77 105 64
75 103 63
80 108 67
78 105 65
73 101 60
76 103 62
75 102 62
79 107 65
75 102 62
80 108 67
72 99 59
75 102 61
76 103 62
78 106 66
74 101 61
78 105 65
79 107 66
76 103 62
83 110 68
77 104 63
77 104 66
169 187 200
167 183 193
161 178 188
160 177 188
163 179 190
161 177 187
169 186 199
167 183 194
155 171 183
160 177 187
167 184 197
167 184 197
160 176 186
164 182 192
169 186 201
159 176 185
156 173 181
155 171 179
168 184 197
169 186 196
174 191 205
147 165 169
78 105 64
79 107 65
79 107 66
71 97 58
81 110 68
76 102 62
73 100 60
77 104 63
100 123 101
112 134 121
119 140 127
136 155 152
150 168 174
154 173 182
157 175 184
160 178 186
158 175 185
155 172 179
164 182 193
171 187 202
173 190 205
94 117 96
81 109 67
77 104 63
75 102 62
73 100 61
78 104 63
79 107 66
73 99 60
75 102 62
75 102 62
72 98 60
83 111 68
77 104 64
74 101 60
74 101 61
76 103 63
77 105 64
76 103 63
78 105 64
78 106 66
77 105 64
151 170 174
169 187 199
158 173 185
162 179 188
174 191 204
168 185 197
157 174 181
154 170 176
165 182 193
167 184 197
164 182 194
164 180 190
168 185 196
163 179 188
166 184 197
158 175 185
161 178 189
159 177 188
159 177 192
171 187 200
164 182 192
92 118 89
76 103 63
74 102 61
78 106 65
75 102 62
76 104 62
82 109 68
77 105 64
78 105 65
80 108 67
80 108 67
79 105 64
79 107 65
73 100 61
80 107 66
77 104 64
76 103 62
73 99 59
75 102 62
77 104 64
149 167 170
161 179 188
163 180 190
163 180 190
170 186 200
161 179 191
166 183 192
166 184 195
168 185 197
158 175 183
163 180 193
156 174 181
170 186 197
166 182 194
162 180 190
161 178 187
174 192 206
164 182 193
165 182 193
159 177 184
78 104 66
75 102 61
77 104 63
78 106 65
72 98 59
73 99 59
77 104 64
77 105 63
76 104 64
79 107 64
77 104 64
79 106 65
81 108 66
77 105 64
79 107 66
74 101 62
73 100 60
80 108 67
103 126 109
172 189 200
165 182 191
162 180 188
156 173 181
161 178 188
161 178 187
171 188 199
159 177 185
161 178 189
164 182 194
168 186 199
157 174 182
157 173 182
165 181 191
167 185 197
164 182 193
163 178 188
166 183 193
80 107 69
72 99 59
79 106 65
77 104 64
80 108 66
75 102 62
79 106 65
75 102 62
79 106 65
77 104 62
81 109 67
75 102 62
78 105 63
78 106 66
79 107 66
73 99 60
80 108 67
139 158 161
159 176 184
170 189 203
172 189 201
162 179 188
170 188 201
164 182 192
166 184 197
154 173 182
145 166 165
121 141 131
93 118 89
79 107 65
78 106 65
80 108 67
77 105 64
104 128 107
160 177 186
169 186 198
158 176 182
140 159 161
129 149 146
118 138 128
100 124 98
83 111 71
80 108 67
82 111 69
81 110 68
80 108 66
79 108 68
81 108 66
74 101 61
148 169 175
168 186 199
174 192 207
169 187 201
167 185 200
174 191 206
180 198 215
169 186 196
175 192 205
178 195 212
170 187 200
173 191 205
180 196 211
168 186 197
160 179 190
94 119 87
94 121 94
126 148 141
165 183 196
174 190 204
169 185 196
134 154 148
83 111 69
81 110 68
80 108 67
81 109 68
76 103 62
82 110 67
83 111 68
78 106 65
82 111 68
78 106 65
80 107 65
83 112 70
79 106 65
74 101 60
79 107 65
81 110 68
89 115 86
135 153 151
143 162 162
87 116 72
83 111 69
83 112 69
81 109 67
77 106 65
75 101 61
78 106 64
78 106 65
76 103 63
82 111 69
80 109 67
82 111 69
77 105 64
81 109 67
84 111 76
94 118 90
122 144 135
150 167 171
168 185 195
150 169 173
81 108 67
80 107 66
79 107 66
78 105 65
86 112 80
108 131 112
147 165 168
174 191 207
178 194 209
171 187 199
165 182 194
165 183 195
176 193 209
167 186 197
167 185 195
171 187 198
169 187 200
172 188 201
172 189 201
167 185 198
96 119 98
81 109 67
75 102 62
80 108 66
77 105 64
77 105 64
75 102 62
78 106 64
80 108 67
82 110 67
83 111 69
77 103 62
81 110 68
77 104 63
77 105 65
81 110 68
78 106 65
79 108 66
81 109 67
101 124 104
131 151 148
117 138 128
80 108 67
79 106 64
76 103 62
78 106 64
75 101 62
78 105 64
78 106 65
75 103 62
77 104 63
74 100 60
80 108 67
79 106 66
78 105 64
79 106 64
78 106 65
75 102 62
77 103 63
79 107 66
78 106 65
76 103 63
82 106 75
165 182 194
165 183 193
172 189 202
163 181 192
164 181 192
160 177 188
161 178 189
168 185 198
162 179 190
147 165 173
167 183 191
164 180 190
177 193 207
162 181 192
161 178 188
164 181 188
166 184 196
169 186 199
164 181 193
169 186 200
167 184 198
149 168 174
121 142 135
145 163 166
154 172 178
165 182 194
165 183 195
159 174 183
164 180 189
173 190 203
167 184 195
156 173 183
169 186 198
169 185 196
167 184 194
166 184 197
165 181 192
168 184 195
170 186 198
165 182 194
169 185 198
166 183 193
164 181 192
116 138 131
80 108 66
78 105 64
74 101 62
74 100 61
77 104 64
78 105 65
76 104 63
75 102 61
76 104 64
76 103 63
79 106 65
82 110 68
75 101 60
76 104 64
77 104 64
75 103 62
78 106 65
78 105 65
77 105 64
78 106 64
83 112 69
147 165 166
165 183 193
169 186 199
161 179 190
166 184 197
162 180 192
174 191 205
168 184 196
164 181 192
170 186 198
168 184 196
168 185 198
164 181 192
165 182 191
169 187 200
162 179 188
160 177 188
167 183 192
165 182 192
172 189 202
167 184 196
161 179 187
83 106 77
77 104 62
88 114 82
102 125 106
140 159 155
136 155 152
159 176 186
162 180 189
164 181 191
166 183 193
160 178 189
167 183 195
157 173 182
165 181 192
168 185 198
169 185 195
161 177 186
168 185 197
165 182 194
155 173 182
160 177 185
139 158 160
80 107 66
80 108 66
80 108 67
81 110 68
72 98 59
80 108 67
75 102 62
74 101 60
78 106 66
77 104 64
75 103 63
80 108 66
73 100 60
79 107 66
78 106 65
77 105 64
78 105 64
76 104 64
75 102 61
73 100 61
111 133 117
160 178 189
160 179 186
161 177 188
166 183 194
165 181 190
171 187 200
164 181 190
166 184 196
167 184 193
166 183 193
156 173 182
156 174 181
165 182 193
166 183 193
150 168 175
160 177 184
167 185 197
164 183 196
169 186 198
160 177 187
133 152 148
79 107 66
80 108 66
78 105 64
78 105 64
77 104 63
80 107 65
77 105 65
76 103 63
81 109 67
73 99 59
77 104 64
78 106 65
77 105 64
78 106 65
74 101 61
77 104 62
83 111 68
79 107 66
74 101 62
110 132 118
171 187 199
174 190 205
164 180 190
166 184 195
166 182 195
170 187 199
174 190 203
161 178 186
166 183 196
168 186 201
160 177 185
159 177 185
160 179 189
165 182 194
169 185 197
160 178 188
162 179 192
168 186 196
161 177 187
124 144 138
71 98 59
72 99 59
81 108 66
77 104 63
81 110 67
76 103 62
81 108 66
80 107 66
82 110 67
80 108 67
80 107 66
74 101 62
78 105 64
73 100 60
76 103 63
76 103 62
81 109 67
75 102 62
147 166 171
165 183 194
164 181 191
166 183 194
171 187 198
157 174 183
168 185 194
162 180 190
166 182 194
163 180 189
161 180 192
158 176 184
173 191 205
165 182 195
156 174 181
170 188 202
164 182 191
168 185 200
130 151 150
78 106 66
79 107 66
82 110 68
82 110 67
78 106 65
77 105 64
75 102 62
80 108 67
74 101 61
79 107 66
76 104 63
80 107 65
78 105 65
78 106 66
76 104 63
84 113 70
84 110 72
162 180 190
163 180 191
165 183 196
169 186 197
148 166 171
131 151 149
98 122 100
80 108 66
77 105 65
74 101 62
80 108 66
78 105 64
79 107 65
81 109 66
80 109 67
80 108 66
120 140 136
164 180 190
164 182 194
178 197 216
159 177 186
166 184 195
161 179 190
167 185 198
166 184 195
132 153 150
130 149 143
115 139 122
88 114 80
82 110 68
77 105 64
77 105 63
145 164 167
169 186 201
164 182 195
172 190 204
166 183 194
171 188 200
166 185 198
170 188 201
170 189 203
170 188 199
175 193 208
168 187 199
170 186 199
172 190 205
149 168 172
168 185 195
168 185 197
166 183 196
161 179 190
177 194 209
131 152 147
78 107 66
81 110 69
77 105 64
83 112 70
77 105 64
77 105 64
85 114 71
79 107 66
82 111 69
78 106 66
83 111 69
82 110 68
81 109 67
79 108 66
101 123 98
142 160 162
173 189 199
164 181 190
138 158 159
84 112 69
82 111 69
79 108 66
80 107 66
80 108 67
79 108 67
79 107 66
80 108 67
84 112 69
79 107 67
80 109 68
82 110 67
84 113 71
81 109 67
78 105 64
81 110 68
81 109 67
79 107 65
82 110 71
122 142 137
138 157 156
120 143 131
98 122 95
148 167 168
159 177 187
169 187 202
157 175 183
167 183 194
165 181 191
169 187 198
172 189 203
159 176 181
171 189 203
163 181 192
166 184 195
169 185 197
166 183 196
167 184 196
175 192 205
165 181 191
120 140 128
76 104 63
79 108 66
73 100 60
83 112 70
80 108 67
79 106 64
80 108 67
76 103 62
77 104 64
82 110 68
80 109 66
79 107 66
78 105 64
82 110 68
80 108 67
118 137 123
132 150 145
167 186 197
176 191 202
165 182 194
135 156 155
81 109 68
78 106 65
76 104 64
80 108 65
79 107 67
76 103 62
78 105 64
78 106 65
75 102 62
78 105 64
77 105 63
79 106 65
76 103 62
76 103 63
77 104 63
79 106 65
78 105 63
80 107 66
77 104 64
74 100 60
76 103 63
157 174 183
169 186 197
164 182 194
161 178 191
168 185 198
165 182 194
159 177 188
160 178 188
158 174 183
167 183 194
167 184 195
170 186 199
168 185 197
168 185 199
168 185 198
165 181 192
162 180 191
158 177 186
150 168 176
120 141 134
94 117 92
102 125 105
167 185 199
169 184 195
165 182 194
168 185 197
157 175 182
166 183 194
164 181 193
164 181 191
161 178 190
164 180 190
169 188 203
155 173 182
161 178 189
171 188 199
158 176 186
164 180 191
163 181 191
166 184 195
163 180 189
165 182 191
162 179 190
144 161 164
77 105 64
78 106 64
80 108 66
79 107 65
78 105 64
78 105 65
73 100 61
74 101 62
77 104 63
75 102 62
78 105 64
77 104 64
79 106 65
76 103 64
79 107 64
76 103 62
82 111 69
77 104 64
81 108 66
76 103 63
76 104 64
123 143 134
160 177 188
147 164 172
172 188 202
171 188 200
168 185 195
166 183 192
168 185 197
163 180 188
168 185 195
169 187 200
162 178 184
161 178 188
163 180 191
169 186 199
159 177 186
160 177 185
162 179 187
165 182 193
135 153 154
131 151 146
128 148 142
140 159 160
157 173 182
164 180 190
158 175 185
161 177 187
166 183 193
165 183 193
162 179 190
168 184 197
157 175 184
164 181 194
163 180 189
161 178 191
159 176 184
163 180 190
164 182 191
160 177 185
169 186 199
163 181 192
166 183 198
164 182 195
158 174 181
73 100 60
80 108 67
78 105 64
77 104 63
77 104 64
77 104 63
78 105 64
80 108 66
77 105 64
76 102 62
73 99 60
79 107 66
78 104 64
73 100 60
75 102 62
77 104 64
75 102 61
77 104 63
77 104 64
74 101 60
81 109 66
158 175 184
169 186 200
171 187 199
154 171 179
163 180 188
165 184 194
161 178 186
165 181 191
160 177 184
166 182 196
163 181 191
163 181 190
168 185 197
170 187 199
167 184 197
168 186 201
161 180 191
165 183 192
165 182 193
169 185 196
155 172 179
78 103 68
71 98 57
81 109 67
76 103 62
78 105 64
75 102 62
71 98 59
73 99 59
78 106 65
76 103 63
78 105 65
77 104 63
76 103 62
73 99 59
76 102 62
81 108 67
77 105 64
79 106 65
78 106 65
78 105 64
137 156 154
161 178 186
163 181 193
168 186 200
169 185 194
166 184 195
164 180 189
150 167 172
169 185 196
161 178 183
169 185 198
168 185 197
161 179 188
157 175 183
161 178 187
161 179 192
169 187 200
163 181 189
173 191 204
156 175 182
83 109 74
78 106 64
73 100 61
81 109 67
79 108 67
75 102 62
81 110 68
75 101 62
79 106 64
77 105 64
80 108 66
76 103 63
75 102 62
79 107 65
76 104 63
77 104 64
74 101 61
79 107 66
91 117 86
169 187 198
165 182 193
160 178 188
168 186 200
162 180 190
158 174 182
162 179 186
162 179 188
159 177 186
170 188 203
169 186 199
162 178 188
170 187 199
164 181 193
170 187 200
169 186 200
163 181 193
171 188 202
105 129 112
76 104 63
79 108 67
76 104 63
80 108 67
81 109 67
79 107 66
76 102 63
78 105 64
77 105 65
77 105 64
80 108 66
82 111 70
81 109 67
78 106 65
78 106 64
80 108 66
134 155 151
123 144 137
105 128 109
86 113 75
76 103 63
76 105 64
78 106 65
75 103 62
81 108 66
78 106 65
82 110 68
79 107 66
75 103 62
81 109 67
77 105 64
78 106 65
83 111 70
151 168 172
165 183 197
171 189 202
172 189 205
170 186 197
172 190 204
170 187 200
168 185 194
166 184 194
177 194 208
171 188 200
172 189 203
166 185 198
144 163 166
132 152 148
128 149 144
162 181 190
176 195 210
169 187 199
169 186 198
180 197 213
156 174 182
174 191 205
168 186 196
169 186 198
169 187 202
171 188 200
176 194 209
173 191 207
160 179 192
174 192 207
171 189 202
173 191 206
165 182 193
177 195 212
121 144 132
75 103 63
84 112 69
77 105 65
77 105 64
79 107 66
77 105 65
81 110 68
72 99 59
80 108 67
77 105 64
78 106 65
82 111 69
116 138 125
144 162 166
172 190 205
164 182 192
172 188 199
176 193 206
145 165 168
81 109 68
79 107 66
82 110 69
79 108 66
80 108 66
81 110 67
84 112 70
76 104 63
77 105 64
76 103 62
78 105 65
81 109 67
79 107 66
82 110 68
76 104 64
79 107 65
78 106 66
76 104 63
78 106 65
108 131 115
136 155 156
107 130 110
82 109 69
107 131 111
132 151 149
142 162 165
162 179 187
154 172 182
166 183 194
167 184 196
166 184 197
163 180 191
167 184 196
173 191 207
172 190 206
170 188 201
166 183 194
168 185 196
174 192 209
176 193 207
120 140 130
79 106 65
78 106 65
79 107 65
79 106 65
78 106 65
78 106 64
83 112 69
77 105 64
79 107 66
78 104 63
80 107 66
81 110 69
102 126 110
139 158 157
155 172 178
159 176 184
165 183 194
169 186 199
167 185 197
174 190 203
151 170 175
80 108 66
71 97 59
78 106 64
78 104 63
82 110 68
78 106 65
79 106 65
80 107 66
77 104 64
77 104 63
78 105 62
75 102 61
77 104 64
80 108 66
77 105 64
79 107 65
76 104 64
77 105 64
77 105 63
80 108 66
77 104 64
142 160 162
168 185 198
166 182 193
163 181 190
163 182 193
162 179 187
168 185 198
172 189 201
169 187 199
163 181 191
178 194 207
162 179 188
159 176 186
170 186 198
153 172 178
134 154 154
101 125 103
83 110 75
78 105 65
76 104 64
77 104 63
74 101 61
166 184 195
166 183 194
171 188 201
159 177 184
166 183 194
172 188 200
173 191 206
166 184 194
158 173 182
164 180 189
165 181 193
161 178 189
156 173 180
167 184 195
167 185 199
156 174 183
169 186 200
159 178 189
159 177 186
166 183 196
167 184 195
158 175 184
77 105 65
80 108 67
79 106 65
75 101 61
80 107 66
78 106 65
78 105 65
73 100 60
75 103 62
73 100 60
75 102 62
80 108 67
79 107 65
77 105 64
80 108 66
75 103 62
76 103 62
80 108 67
75 102 63
76 103 62
73 99 59
95 119 94
162 180 192
161 179 191
162 180 190
165 182 192
162 179 189
158 176 184
162 179 188
156 174 185
162 180 190
171 189 203
166 184 196
159 176 187
148 164 168
133 151 148
118 139 127
109 132 115
88 116 80
77 105 64
78 106 65
82 110 68
73 99 59
112 133 122
172 189 204
161 177 185
160 178 185
163 181 192
163 181 191
165 183 196
158 176 185
165 182 193
169 184 194
160 175 184
168 186 197
173 189 201
158 174 182
166 183 195
166 182 194
170 187 198
171 188 199
153 171 179
163 179 188
163 181 192
167 184 197
99 120 104
77 105 64
74 101 61
79 107 66
77 104 64
74 101 61
77 104 64
75 103 62
76 104 64
79 106 64
77 104 64
74 102 62
80 108 67
76 103 63
79 106 65
78 106 65
75 102 62
78 105 64
79 107 66
77 104 63
81 109 68
124 144 136
161 178 188
152 169 177
163 180 190
165 181 191
158 176 186
157 174 181
171 188 203
169 186 199
168 184 195
166 184 195
163 180 191
161 179 188
163 180 190
164 181 188
155 173 182
165 181 193
165 182 196
175 193 210
172 189 201
160 179 188
105 129 110
79 107 64
83 111 69
79 106 64
76 103 62
77 104 63
76 103 63
76 103 63
78 105 65
78 105 64
70 96 56
79 107 66
80 108 66
78 105 64
78 106 64
76 103 63
76 104 63
78 105 65
76 103 63
77 105 64
113 134 119
162 179 190
159 177 184
164 181 192
162 180 188
162 178 186
166 183 191
169 186 199
168 185 200
169 186 198
167 184 193
168 185 195
164 182 192
165 183 194
159 177 187
164 180 191
171 187 200
166 184 196
167 184 196
172 188 200
120 141 130
81 110 68
74 102 62
80 108 67
78 105 65
76 104 63
79 106 66
79 107 66
79 107 65
79 107 65
79 106 64
74 101 61
77 104 63
80 107 66
77 104 63
75 102 61
77 104 63
77 105 65
77 105 65
133 153 151
166 183 195
172 189 202
162 180 190
169 186 197
169 186 199
161 179 190
161 178 188
162 179 188
168 185 198
162 179 188
167 184 196
163 182 194
174 192 205
163 182 195
160 178 189
170 188 201
167 185 197
148 168 176
79 107 65
79 106 64
81 109 67
81 109 68
76 103 63
75 103 63
77 105 64
81 109 68
80 108 66
80 109 67
78 106 64
93 119 92
115 134 122
145 165 166
152 170 178
164 182 195
162 180 190
108 131 117
80 108 66
80 108 67
80 108 67
80 108 68
76 103 62
83 111 69
83 112 69
80 108 66
79 107 66
74 101 61
80 108 66
83 111 68
81 109 68
79 106 65
85 114 70
100 124 96
174 191 204
171 187 200
175 192 206
174 192 206
176 193 208
165 182 194
162 180 192
172 190 203
173 190 207
167 186 200
174 191 206
170 189 205
175 192 207
167 186 199
174 191 204
139 159 160
86 112 79
125 146 138
124 145 138
146 165 170
158 177 185
167 184 193
166 184 196
172 190 204
171 189 203
170 187 201
170 188 202
174 191 205
169 187 201
176 193 206
178 195 213
173 189 204
172 189 202
165 183 194
102 128 101
80 109 67
79 108 66
79 107 66
86 115 72
78 106 66
82 110 68
79 107 66
81 109 67
78 106 65
82 110 71
119 140 131
158 175 183
171 189 204
172 191 206
157 175 183
169 187 200
167 185 195
182 199 214
130 150 146
79 107 66
80 108 67
79 106 65
84 112 69
80 108 66
83 111 69
82 111 68
80 108 66
77 104 63
80 108 66
82 110 67
83 111 69
79 106 66
82 111 69
77 105 65
85 115 72
80 107 65
106 129 111
143 163 165
135 154 155
80 109 67
81 108 67
80 108 66
77 105 63
78 106 65
80 108 66
78 106 65
84 110 79
112 133 120
145 164 164
151 169 175
159 177 184
169 185 196
174 192 207
167 184 196
170 186 201
166 183 193
173 190 205
171 187 199
167 185 198
131 150 145
82 110 68
80 107 65
81 109 68
78 107 66
82 110 68
80 109 67
75 102 62
76 104 63
76 103 62
98 123 96
128 148 143
152 171 178
165 182 195
167 184 196
157 174 184
169 186 196
171 188 202
166 183 195
174 191 205
169 186 197
150 168 172
79 107 66
77 104 63
79 107 66
77 105 65
77 105 64
78 106 66
77 105 64
79 107 65
73 99 60
76 103 63
80 109 67
81 110 68
75 102 62
75 103 63
79 107 66
75 103 62
80 107 66
76 104 63
81 109 67
77 104 63
79 108 68
139 158 162
165 183 196
170 186 197
163 180 191
166 182 194
166 184 196
169 187 202
162 180 191
166 183 194
163 181 191
163 181 191
143 162 165
117 138 123
86 112 82
77 104 64
76 104 63
79 108 66
79 107 65
75 102 63
79 107 66
78 105 64
77 103 63
150 168 172
160 178 186
178 195 211
168 185 198
163 180 189
165 180 189
162 180 188
160 179 191
166 184 194
155 172 182
158 176 186
164 182 192
160 178 188
159 176 184
171 188 201
172 189 203
161 179 190
160 177 187
159 177 187
172 189 203
166 184 195
165 182 194
100 123 100
77 105 65
77 103 63
80 108 66
78 106 66
73 99 60
82 110 68
77 104 63
75 102 62
76 103 62
81 109 67
78 105 65
75 103 63
76 103 62
77 104 63
78 106 64
77 105 65
74 101 61
77 104 64
75 102 62
81 109 67
80 109 67
159 176 183
161 179 189
161 178 190
161 176 185
171 189 202
171 189 203
169 185 195
147 165 168
129 149 144
110 131 119
105 128 108
85 111 76
82 110 68
79 107 66
79 106 64
77 104 63
78 105 65
74 100 60
78 107 66
73 99 59
80 108 67
80 107 69
170 186 197
167 184 197
156 172 179
174 192 204
169 187 198
165 184 197
170 187 200
169 186 199
162 179 191
170 187 200
155 173 179
172 189 203
150 168 172
154 171 176
163 180 190
156 173 178
171 188 201
166 183 194
157 174 184
168 186 196
165 182 192
137 156 153
78 105 64
76 103 64
77 106 64
81 109 68
81 109 67
74 101 62
77 105 64
78 106 66
75 102 62
80 107 66
76 103 63
77 104 63
81 110 68
82 110 67
80 107 66
78 105 63
75 102 62
74 101 62
82 110 68
78 105 64
95 120 95
156 174 179
172 189 200
167 184 196
166 183 194
162 178 188
167 184 197
168 185 198
161 177 187
154 170 178
166 183 195
163 180 190
165 182 192
165 182 196
156 173 183
173 189 203
165 183 193
160 177 188
167 183 193
169 186 196
175 191 205
137 156 157
76 103 63
79 107 66
77 104 64
80 108 66
80 107 66
77 104 63
79 107 66
76 102 62
77 104 63
82 110 68
78 106 65
74 102 61
80 109 67
77 104 63
72 99 59
79 107 67
77 105 63
77 103 63
80 107 65
81 109 68
154 173 182
165 182 193
168 186 198
163 179 190
166 183 195
166 183 192
165 182 194
165 183 195
172 189 200
167 184 194
163 181 193
164 181 190
164 181 190
176 193 208
165 181 189
154 172 180
160 178 187
166 184 200
169 187 200
158 175 182
77 105 63
80 108 66
77 104 64
74 100 60
75 102 62
77 104 64
79 106 65
75 103 62
77 104 63
81 109 67
80 107 66
78 105 64
78 106 65
79 107 66
74 100 59
80 108 66
82 111 68
80 107 66
97 122 91
160 179 186
170 187 199
167 184 195
168 185 196
170 187 201
170 188 199
167 184 196
165 182 193
172 190 205
174 191 206
169 186 200
161 179 190
163 180 189
175 191 203
165 183 195
168 185 196
175 191 206
174 191 207
120 141 135
79 106 66
78 106 65
76 104 64
81 109 67
77 105 65
87 114 81
110 133 116
120 141 134
142 161 165
159 178 187
159 177 185
162 179 191
181 199 217
173 191 207
160 178 188
160 177 187
151 169 174
91 119 87
83 112 69
76 103 63
77 105 64
79 107 66
78 105 65
81 109 68
73 100 60
78 107 66
78 105 63
80 108 67
79 107 66
75 102 62
79 107 66
79 107 66
82 110 68
129 149 142
161 179 189
171 189 203
166 184 197
165 184 198
177 195 212
166 185 196
167 184 196
166 182 191
173 191 205
163 182 195
167 184 196
170 187 200
171 189 204
178 196 212
174 193 208
111 135 118
78 106 65
78 106 65
78 107 66
79 107 66
93 118 89
129 149 143
146 165 168
165 183 193
172 189 202
175 192 207
171 188 200
167 187 201
171 189 201
172 190 204
171 190 207
167 186 199
167 185 196
89 117 78
80 108 67
82 110 68
84 113 71
76 104 64
82 111 69
82 111 68
80 109 67
90 118 83
132 153 148
168 185 198
171 188 199
171 189 204
165 182 194
171 188 202
174 191 206
169 187 201
170 187 202
169 188 199
130 151 142
81 110 68
82 111 68
80 108 66
83 111 69
80 108 66
79 108 66
81 109 66
79 107 66
77 105 64
84 113 71
79 108 66
81 109 67
80 108 66
77 105 64
83 111 69
127 149 139
150 169 178
175 192 209
165 182 194
145 163 163
80 108 66
79 107 66
80 108 65
80 109 68
81 109 67
79 107 65
78 106 66
80 108 66
78 105 64
76 103 63
78 106 65
85 111 76
108 131 112
111 132 118
144 163 165
163 180 190
164 180 190
175 192 204
164 182 195
164 182 193
138 158 156
84 112 69
79 107 65
82 110 68
83 110 68
79 106 65
80 107 66
92 118 88
116 137 129
153 171 173
160 178 189
172 189 204
169 185 197
172 190 205
175 193 207
176 193 207
168 186 201
157 174 184
166 183 193
166 184 195
171 188 200
170 186 198
71 98 59
77 104 63
79 107 66
77 103 63
80 108 66
77 104 64
79 106 65
79 106 65
77 104 64
79 107 66
82 110 67
81 109 68
77 105 64
80 108 66
76 103 63
73 100 61
78 105 63
81 109 67
75 102 62
77 104 64
81 109 68
121 141 136
172 188 202
164 182 194
170 186 200
171 188 200
169 186 199
167 185 197
159 178 186
148 166 169
101 125 102
78 106 68
76 104 64
82 110 68
78 107 65
77 105 64
75 102 63
78 106 65
81 109 66
77 105 64
79 108 67
77 104 64
78 105 65
139 159 159
160 176 186
162 176 184
167 185 195
159 176 186
167 184 196
167 185 195
170 186 198
155 172 180
165 183 193
172 189 202
169 186 197
169 186 198
160 176 184
172 189 202
152 171 179
162 181 195
169 186 200
159 177 188
159 177 184
172 188 201
159 178 189
124 144 137
76 103 62
76 103 63
78 106 65
75 102 61
79 106 65
81 110 68
72 99 60
75 103 63
75 102 62
79 107 65
81 109 67
79 106 65
80 108 66
77 104 64
80 108 67
79 107 65
75 102 62
77 103 63
79 107 66
73 100 61
77 105 65
127 146 146
153 171 177
150 169 175
137 155 153
108 130 113
90 116 84
81 110 68
77 105 64
74 101 62
77 105 65
78 105 64
74 101 60
81 109 66
78 105 64
73 99 61
77 105 64
81 110 67
76 103 62
76 104 64
77 105 65
75 102 62
76 103 63
139 158 160
164 182 195
163 181 195
161 179 189
166 183 196
171 188 201
174 191 204
159 176 185
168 185 198
168 186 198
170 188 201
161 179 188
158 175 183
161 179 189
162 179 188
170 188 200
159 177 188
161 178 185
170 186 200
160 177 187
171 189 204
163 180 188
91 116 86
77 104 63
75 102 62
72 99 59
81 109 67
76 104 64
76 103 63
76 102 61
79 106 65
77 105 63
79 106 64
80 108 66
78 106 64
78 105 64
79 107 65
79 107 66
81 109 68
80 109 67
77 104 64
78 105 64
82 109 66
150 168 169
158 176 187
172 190 203
167 184 198
166 183 194
163 181 191
164 181 195
165 182 196
172 188 201
159 176 183
168 185 197
156 174 182
171 188 201
156 174 183
160 178 186
159 177 186
174 190 203
166 183 195
168 185 195
168 184 195
159 177 188
104 126 107
74 101 61
78 106 65
77 104 63
78 105 64
78 105 65
78 105 64
77 104 64
84 113 70
79 107 65
78 106 65
77 105 64
78 106 66
80 109 67
75 102 64
80 108 66
81 109 67
79 107 66
80 107 65
81 108 67
116 137 124
157 174 183
171 188 200
162 178 191
164 182 192
176 193 208
168 186 199
167 183 194
165 181 190
172 189 203
160 177 186
168 185 199
166 185 195
170 186 198
156 173 179
168 186 197
170 188 201
165 184 196
168 185 197
159 176 184
121 141 134
78 106 64
74 101 61
78 105 64
76 104 63
78 107 66
81 108 66
79 106 65
78 105 64
77 105 63
79 108 66
76 103 63
83 112 69
78 105 64
79 107 66
77 104 64
79 107 66
80 109 67
78 105 64
121 142 136
171 187 198
164 182 195
172 189 202
164 180 188
159 177 189
171 189 204
176 191 203
161 180 189
171 189 201
179 195 211
171 188 204
157 176 185
165 182 193
176 193 208
175 192 208
164 183 195
169 188 203
162 179 188
95 118 93
94 119 93
116 139 122
145 164 166
152 169 174
163 181 193
168 186 199
167 184 195
175 192 207
168 186 198
167 184 198
164 181 193
167 183 197
174 191 206
157 175 181
172 190 204
178 194 208
140 159 158
82 111 68
75 103 62
81 110 68
80 108 66
77 105 64
80 109 67
81 108 67
82 110 68
81 109 67
79 107 65
77 104 63
81 110 68
79 108 66
80 108 66
81 110 68
79 106 68
163 180 191
174 191 205
171 188 201
174 191 206
175 191 206
174 192 207
168 187 201
173 189 202
171 188 201
175 193 207
170 188 202
173 192 206
171 189 203
171 190 204
176 193 207
167 185 200
83 109 75
76 103 62
78 105 65
78 106 65
81 110 68
82 110 68
84 114 71
80 108 67
82 110 74
104 127 108
132 153 150
148 168 170
177 195 211
174 191 205
162 181 193
180 197 212
172 190 205
79 106 65
78 107 66
80 109 68
81 110 69
79 108 67
81 109 67
91 118 87
132 152 149
153 170 176
178 195 211
171 190 206
169 187 200
168 186 200
168 185 196
176 193 206
169 186 198
171 188 203
164 182 193
179 196 211
123 144 137
82 110 68
82 110 68
83 113 70
78 106 65
79 107 66
80 108 67
78 106 64
75 102 62
77 105 64
82 111 69
81 109 67
78 107 66
106 129 108
144 162 165
166 185 196
168 185 198
173 191 205
168 186 200
161 180 190
149 167 174
76 103 62
74 101 61
76 103 63
78 105 65
81 109 67
74 101 61
80 107 66
78 105 65
77 105 65
76 103 63
80 108 67
77 104 64
79 107 67
78 105 64
80 108 66
80 108 66
99 124 97
104 129 108
117 139 126
141 160 161
144 164 165
81 109 67
77 104 63
82 109 68
85 113 73
120 140 130
144 162 162
162 180 190
168 186 198
174 191 205
169 185 197
170 185 197
167 185 198
171 187 199
167 184 195
160 177 186
177 195 214
164 181 192
163 181 193
163 180 188
158 175 184
157 175 184
74 101 61
78 106 65
79 106 65
81 109 68
78 105 65
77 105 64
82 110 68
80 109 67
76 104 64
81 109 67
78 105 65
79 107 66
79 107 66
80 108 66
80 108 66
78 105 64
75 103 62
76 104 63
80 107 65
79 107 66
77 104 64
112 135 118
169 187 200
170 185 197
166 184 197
144 163 164
124 145 136
99 122 99
78 106 65
76 103 63
76 104 64
79 107 65
77 104 63
78 105 64
79 106 65
75 102 62
77 105 65
77 104 63
84 112 70
76 102 62
76 102 62
79 107 66
80 107 66
123 143 136
163 179 187
160 177 188
172 187 199
174 189 202
162 180 188
172 189 201
167 184 196
172 189 204
172 190 204
161 178 188
158 175 182
159 176 186
170 187 202
169 186 199
167 185 196
163 180 188
169 187 201
168 184 195
170 187 200
162 179 189
167 184 195
142 162 162
81 110 67
79 106 65
73 100 60
77 102 62
76 103 63
78 105 65
81 109 67
77 104 63
79 107 66
80 108 66
78 106 65
79 107 66
78 104 63
77 105 64
77 104 64
79 107 65
78 106 64
74 101 62
103 125 103
117 138 131
141 160 163
148 167 172
78 104 67
79 107 66
77 105 65
83 112 70
77 104 63
78 105 64
79 107 65
78 105 64
73 100 60
80 107 65
76 103 63
77 104 63
79 106 65
76 103 63
80 108 67
80 108 66
77 104 63
82 110 68
80 108 66
80 108 67
80 107 66
115 136 125
160 176 186
166 183 194
161 179 190
160 177 185
171 187 198
171 188 199
175 193 208
164 182 193
169 186 196
165 182 193
161 177 187
168 185 197
154 172 180
163 182 194
170 186 198
164 180 192
159 176 183
161 178 185
172 188 197
159 176 185
159 176 187
119 142 133
78 106 66
77 104 63
79 107 66
83 111 68
78 104 64
75 102 62
77 103 62
79 107 66
74 101 61
75 102 62
78 106 65
78 106 65
73 100 60
82 110 68
79 107 65
77 105 65
78 106 65
78 106 65
78 106 65
78 105 64
109 131 115
159 175 185
158 176 184
165 182 194
161 178 190
165 182 193
168 186 198
164 183 196
165 182 194
171 188 200
164 181 192
161 178 188
166 184 197
165 183 194
169 187 200
169 187 200
165 183 195
164 182 192
178 195 209
166 183 194
162 179 190
139 158 159
79 107 65
79 107 65
77 104 64
75 101 61
79 107 66
81 109 68
75 102 61
74 101 61
81 109 67
79 106 65
81 109 67
82 111 69
79 107 66
78 105 63
80 107 66
76 103 63
77 105 64
79 106 65
75 102 62
92 118 85
161 178 186
164 180 190
167 184 196
167 184 194
163 180 191
163 181 192
165 182 191
163 181 192
169 186 197
155 174 181
158 176 186
160 178 190
161 179 192
171 188 201
164 182 192
165 182 191
168 185 195
170 186 199
158 176 185
165 182 192
78 105 64
83 112 70
79 107 65
78 105 64
75 102 62
78 106 65
82 110 69
76 103 62
70 97 58
85 114 71
77 105 64
79 107 65
73 100 59
79 107 65
81 110 68
79 108 67
78 105 65
79 107 66
96 121 91
156 175 183
170 188 199
178 195 208
169 185 197
164 182 193
171 188 201
159 177 186
175 193 208
170 187 197
169 186 200
167 185 196
165 182 193
176 192 206
158 176 184
150 166 169
148 169 171
131 152 149
103 126 105
131 151 145
174 192 206
169 187 200
166 184 195
168 185 197
166 184 196
165 182 193
177 194 208
166 184 195
172 189 201
170 187 198
163 180 192
164 182 193
169 187 200
170 188 202
165 181 192
160 177 186
166 184 196
101 126 102
78 106 65
82 111 68
76 104 64
78 107 66
75 102 62
80 108 66
77 105 64
79 107 66
80 107 66
80 108 67
81 110 68
82 111 69
79 108 67
81 110 69
81 110 68
95 121 93
173 191 205
168 186 198
167 185 194
169 187 200
162 180 193
169 186 199
171 188 201
167 184 197
169 188 203
164 182 194
177 194 210
174 193 207
171 188 201
171 188 201
172 190 207
144 165 166
79 107 66
79 108 66
75 102 62
78 106 65
78 106 65
79 107 66
79 107 66
77 105 64
82 111 69
79 108 66
83 112 69
176 194 209
175 194 211
166 183 198
170 188 205
160 177 183
81 109 68
80 108 67
85 115 72
79 107 65
103 127 108
142 163 162
169 187 202
172 190 204
168 187 200
177 194 208
168 186 199
170 188 202
160 178 191
166 182 192
176 193 206
169 187 199
168 185 195
176 193 209
176 194 210
132 153 148
81 110 68
79 107 65
83 112 69
73 100 62
79 108 66
80 109 68
81 109 66
79 107 66
78 105 65
81 109 68
128 149 144
142 161 164
173 190 204
178 196 212
168 187 202
167 185 197
166 184 199
172 190 205
178 196 212
150 169 176
79 107 65
80 108 66
81 109 67
80 108 66
78 106 66
79 107 66
80 109 68
79 107 66
80 108 67
81 110 68
77 105 64
79 106 65
80 107 66
80 109 67
79 107 66
81 110 68
84 112 69
85 114 71
84 112 69
83 112 69
127 149 141
169 186 196
137 157 155
87 112 79
125 147 138
147 166 171
166 182 192
168 185 197
173 190 201
172 190 204
173 190 204
167 184 195
171 189 202
165 183 193
168 184 194
161 178 188
157 175 185
160 177 184
167 183 195
170 187 200
168 185 198
163 180 194
90 116 87
73 100 60
78 106 66
77 104 64
79 106 65
75 103 62
78 106 65
80 108 66
76 104 63
78 105 65
79 106 65
74 100 61
79 107 66
77 105 65
80 108 66
77 105 65
76 104 64
79 106 65
77 104 64
75 103 63
79 106 65
104 127 111
134 153 149
104 127 108
83 111 72
78 106 65
79 107 66
81 110 67
76 104 63
75 102 62
79 107 66
79 107 65
83 111 69
76 103 62
83 111 69
78 105 65
79 106 65
80 109 67
73 99 59
79 107 66
81 108 66
80 107 65
77 104 63
100 124 98
169 185 197
169 185 198
166 182 193
164 182 192
165 183 192
168 186 199
165 183 193
171 188 200
165 181 193
170 188 199
167 184 196
170 186 199
154 172 180
168 185 197
165 182 194
163 180 190
163 180 192
172 189 202
157 174 182
166 182 195
164 181 189
160 178 186
79 105 64
80 108 66
73 100 61
81 109 67
77 105 64
76 103 63
74 100 60
72 98 59
74 101 62
76 104 63
79 107 66
80 108 67
76 103 63
93 118 89
122 144 135
139 158 157
152 170 175
163 179 188
169 186 201
165 182 193
172 188 200
166 183 192
79 107 66
77 105 64
76 103 62
75 103 62
77 105 64
77 104 64
80 108 67
77 105 64
80 108 66
79 108 66
79 108 67
76 103 63
78 105 64
79 107 66
78 105 64
78 105 64
74 100 61
76 104 63
77 105 64
78 105 64
80 109 66
87 112 82
148 166 173
165 182 195
163 180 192
163 180 191
162 180 189
170 188 200
156 174 182
165 183 195
166 183 194
167 185 197
168 184 193
167 184 193
165 184 196
170 187 199
173 190 203
174 191 205
162 180 191
173 191 204
161 178 191
165 181 190
146 164 169
149 167 171
77 105 64
76 102 62
77 104 63
75 102 62
78 105 64
78 106 65
81 109 67
75 102 61
75 102 62
72 99 60
79 107 65
80 107 65
80 107 66
77 104 64
82 110 68
80 108 66
73 100 59
77 105 64
75 101 61
75 102 62
79 105 69
151 169 175
164 181 194
171 187 199
159 176 187
170 187 201
167 183 195
160 178 191
171 188 199
162 180 191
159 176 185
169 185 198
179 196 211
166 182 193
159 175 184
156 173 180
166 182 194
163 180 190
164 181 193
168 184 195
170 187 199
159 175 184
89 115 85
75 103 63
84 112 69
74 101 61
81 109 66
79 107 65
74 101 62
77 104 64
81 109 67
74 101 61
83 111 69
79 107 66
80 108 67
82 110 67
83 113 71
80 109 67
76 103 63
77 104 64
77 104 64
81 109 68
131 152 149
176 193 207
167 184 193
164 182 192
170 188 203
163 179 190
168 183 193
166 184 197
168 186 198
171 188 203
163 181 192
155 174 183
163 182 193
167 184 196
163 180 193
168 186 198
163 180 191
164 181 192
169 187 198
166 184 194
137 157 154
80 108 67
78 106 65
79 106 65
82 110 68
82 111 68
78 105 64
80 108 66
80 108 67
79 107 66
76 103 63
78 107 66
76 102 62
81 109 68
76 104 64
78 106 64
79 108 66
78 106 65
80 108 66
127 149 140
163 180 191
164 182 193
168 186 201
166 184 196
178 196 214
167 184 197
161 179 188
164 182 193
151 169 177
134 153 152
128 147 141
108 131 116
80 108 67
75 102 62
80 108 66
81 109 67
78 105 64
84 112 75
156 173 180
172 190 203
163 181 190
174 191 204
167 183 193
172 190 204
167 185 198
168 186 198
174 190 204
171 189 203
167 183 191
168 185 198
163 181 193
168 186 198
175 192 204
171 188 201
166 183 195
150 170 175
76 104 64
79 107 66
78 106 64
76 103 63
82 111 69
75 102 62
80 108 66
74 101 61
80 108 66
83 111 69
78 106 65
79 106 65
82 110 68
82 110 68
82 111 69
79 108 66
133 152 149
170 188 202
165 182 193
176 193 207
167 184 197
167 185 197
173 191 206
168 186 199
173 191 207
178 196 213
175 192 206
173 191 206
172 188 201
165 182 195
177 195 209
169 188 202
117 139 128
80 107 66
81 109 67
80 107 66
80 108 67
75 102 62
83 112 69
79 108 67
80 108 66
81 110 69
80 109 68
174 191 206
170 187 198
171 189 203
179 196 211
160 179 187
84 113 70
82 111 69
109 131 111
146 165 166
172 190 203
168 186 201
168 185 195
179 197 214
166 184 196
173 191 206
172 189 203
176 194 210
167 185 197
174 191 206
170 188 200
171 188 198
171 189 203
178 195 211
176 194 213
102 125 105
80 108 66
81 109 67
77 105 65
76 104 63
77 105 63
82 111 68
79 108 66
87 115 79
124 146 136
167 184 196
174 192 208
173 191 204
166 184 193
176 195 212
173 191 205
168 186 199
175 192 206
173 189 202
176 194 209
158 176 185
78 106 66
78 107 66
81 110 68
78 105 63
78 105 64
78 107 66
79 107 66
80 109 67
81 109 67
77 105 64
82 111 68
76 104 63
83 110 68
81 109 68
75 102 61
82 110 68
83 112 69
82 110 68
79 107 65
96 121 96
130 151 142
99 123 100
77 105 65
81 109 67
77 104 63
81 109 67
80 109 67
87 114 78
99 122 104
119 140 129
145 164 166
151 170 177
162 180 192
167 186 200
167 184 196
170 187 200
170 187 199
162 181 192
161 178 185
169 186 199
169 185 196
168 186 199
99 123 100
76 104 63
81 110 67
78 106 65
82 111 69
77 105 64
78 106 65
80 108 65
78 105 64
81 109 67
75 102 62
76 103 62
81 109 67
78 106 64
75 102 62
82 111 69
80 108 66
79 107 66
94 119 92
130 150 145
147 165 169
172 188 200
82 110 68
76 104 63
76 103 63
82 110 68
80 108 66
72 98 60
80 107 66
78 105 64
81 109 67
81 109 68
80 107 66
81 109 66
77 105 64
79 106 65
78 106 66
79 107 65
77 105 64
82 111 69
79 106 65
78 105 64
79 108 66
84 110 73
159 177 187
166 183 195
158 176 185
166 183 194
165 182 189
163 181 193
159 177 184
174 190 202
170 188 202
161 178 188
170 186 199
170 187 200
161 179 190
167 185 196
162 179 187
173 189 201
165 184 195
161 179 191
168 184 195
162 178 189
169 186 201
169 187 201
91 115 89
76 104 63
83 111 69
82 110 67
81 109 67
75 102 62
79 107 66
77 105 64
86 112 81
111 133 124
134 154 149
143 162 164
162 180 187
165 182 193
153 172 180
168 185 196
169 186 199
165 182 190
164 183 196
168 185 197
169 185 198
168 186 199
106 129 112
79 107 66
78 106 66
79 107 66
76 103 63
79 107 66
78 105 65
79 107 66
77 105 64
77 105 65
79 107 65
79 106 65
78 105 64
79 107 65
78 105 65
81 109 67
77 105 65
77 105 64
77 105 65
79 107 66
75 102 62
76 103 62
158 175 184
166 183 196
166 183 195
166 183 195
169 185 197
171 188 201
164 181 193
172 188 203
164 181 193
167 185 200
170 187 199
158 175 182
166 185 201
163 180 194
163 182 197
164 181 192
173 190 204
157 174 183
166 185 197
167 184 197
162 180 189
162 180 190
94 119 92
78 106 64
82 111 69
80 107 65
77 104 63
78 105 64
81 109 67
79 107 66
78 106 65
76 104 63
81 109 67
80 108 67
77 105 64
74 100 60
75 102 62
80 108 67
77 105 64
80 108 67
72 99 59
74 101 60
76 104 63
127 147 139
174 191 203
173 189 202
177 193 206
162 178 187
164 182 193
166 183 191
168 184 197
159 177 188
158 173 180
155 173 180
165 183 195
169 187 202
161 179 189
166 184 197
171 188 201
167 184 196
167 184 195
162 180 190
167 184 197
167 184 196
129 150 143
79 107 65
78 105 64
76 103 62
77 104 64
83 111 68
82 110 67
78 106 65
76 104 63
78 106 65
78 105 65
77 104 64
74 102 61
81 110 68
83 112 69
77 104 64
87 114 78
100 125 99
102 124 104
100 124 100
111 133 117
143 162 164
144 162 166
159 176 186
144 163 168
146 165 168
142 161 161
140 158 159
134 154 151
142 160 164
120 140 131
125 145 138
122 143 137
132 152 148
120 141 133
134 155 153
135 155 151
136 156 151
124 144 138
122 144 135
124 145 136
141 160 162
144 164 167
135 154 152
139 157 153
137 157 154
145 163 163
143 163 165
122 142 134
129 149 143
133 153 150
134 153 145
117 138 124
126 147 140
125 145 137
115 137 128
114 136 123
115 135 121
122 144 133
109 131 113
152 169 172
153 172 181
164 182 191
148 167 171
129 149 147
109 131 117
86 111 81
79 107 66
78 106 65
77 105 64
80 108 67
79 107 66
76 103 62
79 108 66
79 107 66
84 113 71
78 105 64
81 109 66
115 137 129
174 192 208
166 183 195
161 179 187
166 184 196
175 193 207
172 189 204
167 185 198
172 190 205
168 186 198
176 194 209
171 189 200
168 185 198
171 189 200
170 187 201
163 181 191
169 187 202
168 187 199
115 137 124
78 106 65
77 105 65
76 104 64
80 108 66
77 105 64
81 110 68
82 110 69
74 103 63
81 109 68
80 109 68
81 109 67
77 104 64
79 107 65
79 107 66
85 114 71
82 111 71
148 166 172
167 185 197
165 183 195
172 189 202
168 186 197
169 188 201
171 188 200
168 186 199
173 191 206
174 193 209
177 195 210
162 180 191
165 184 197
169 187 200
167 185 196
164 183 196
91 116 88
84 112 70
83 111 68
80 109 67
80 108 67
84 114 71
81 109 67
84 112 70
83 111 69
81 109 67
166 184 197
173 191 206
178 197 215
172 189 202
157 175 179
116 139 127
163 182 191
181 199 217
174 192 207
164 181 188
165 184 196
167 186 198
173 190 204
174 192 207
172 189 202
166 184 198
179 196 213
169 185 197
175 193 206
173 191 208
172 189 202
167 187 201
173 191 205
170 188 202
113 135 121
80 109 67
82 111 69
80 109 68
76 104 63
81 110 68
110 135 114
138 157 157
156 175 186
173 190 205
185 201 217
167 184 197
168 185 196
166 184 194
169 187 200
175 193 212
169 186 198
165 183 193
160 178 188
171 189 204
163 181 190
81 109 67
80 108 67
76 103 63
83 111 69
81 109 68
76 104 63
82 110 68
82 110 68
78 106 66
82 111 70
80 107 65
79 107 65
80 108 68
79 107 66
81 109 67
77 106 65
83 110 73
112 135 120
156 172 176
174 192 207
147 166 172
77 105 64
80 109 68
78 106 64
78 106 64
83 112 70
79 107 66
81 109 67
80 108 66
77 105 64
78 106 66
80 108 66
76 104 63
97 122 96
110 132 116
128 149 140
135 155 154
152 170 175
156 175 183
173 190 203
177 194 211
178 195 210
98 122 102
77 105 63
78 105 64
79 107 65
82 110 68
81 109 68
81 108 67
82 110 68
81 109 67
80 108 66
80 108 67
78 106 65
77 105 64
76 103 63
82 111 69
108 130 116
138 158 159
161 179 191
171 187 200
165 183 198
168 185 197
157 176 186
88 114 83
79 107 66
78 105 64
81 109 67
79 106 65
76 103 63
79 106 65
77 104 64
76 104 64
79 108 66
78 105 64
78 105 64
81 109 67
84 113 70
81 109 67
81 109 67
81 109 67
74 101 61
78 106 65
81 110 67
76 104 63
73 100 60
163 181 191
167 184 194
168 185 198
171 188 201
168 186 199
163 179 187
171 188 202
168 187 200
168 185 197
173 189 200
164 182 192
169 186 197
164 182 195
172 189 204
159 177 184
167 183 196
165 183 197
173 190 204
164 181 192
171 189 205
167 185 196
168 186 198
111 133 116
81 109 68
76 103 63
78 106 65
98 124 97
117 139 129
138 158 156
153 171 175
166 182 194
161 177 188
173 188 200
161 178 188
164 180 190
171 187 198
169 186 198
173 189 202
157 175 183
159 177 185
170 187 200
168 186 200
169 186 197
171 187 201
141 160 161
75 102 62
76 103 62
80 109 67
76 104 63
81 110 68
77 104 64
78 105 65
77 105 64
83 111 69
79 107 66
77 105 65
75 102 62
80 108 66
82 110 68
77 105 64
79 107 65
77 105 65
78 105 63
79 107 65
75 102 62
78 106 65
124 144 137
153 170 179
166 184 198
163 180 190
168 185 196
165 182 194
167 185 195
176 193 210
153 171 178
171 188 201
169 186 199
166 183 194
165 181 191
159 177 188
161 178 186
168 185 201
169 185 198
171 189 203
158 175 186
163 181 191
174 190 203
170 187 200
122 143 135
79 106 66
79 106 65
82 109 67
80 108 66
80 108 67
80 109 68
77 103 63
78 107 66
79 106 65
78 106 65
79 106 64
78 106 64
74 101 60
78 106 65
79 107 65
75 103 63
81 109 67
81 108 67
75 101 61
78 106 65
97 122 99
164 181 191
164 181 194
172 190 204
167 184 196
162 180 192
153 171 180
167 183 193
163 181 190
169 186 199
177 195 209
174 189 200
163 181 193
163 180 190
169 187 200
172 189 203
165 183 192
166 184 198
164 181 189
169 187 199
167 186 198
137 157 159
96 119 100
105 126 110
113 135 117
126 146 142
116 138 128
129 148 146
121 143 135
149 168 173
136 156 155
156 174 180
163 181 192
163 180 190
158 175 183
166 183 193
169 186 198
165 182 192
171 189 202
167 184 192
172 189 201
170 187 198
123 143 135
82 110 67
80 108 67
75 102 62
81 109 67
78 105 64
74 100 59
78 106 65
77 105 63
78 106 65
79 106 65
78 105 64
84 112 69
76 104 64
73 100 61
81 109 67
79 107 66
79 107 65
80 108 67
76 104 63
144 163 163
167 184 199
164 182 194
167 184 193
166 184 196
164 183 195
164 180 186
168 185 197
171 189 203
172 189 203
163 180 189
162 179 188
175 192 207
173 190 202
160 178 186
148 167 171
140 160 159
114 135 123
97 121 98
114 135 121
161 179 189
171 188 200
161 178 186
160 179 186
167 184 192
157 175 183
153 172 180
150 169 173
154 172 180
140 158 157
139 159 157
148 167 170
137 158 155
139 160 161
109 132 116
120 141 129
107 130 113
104 127 110
153 171 177
174 190 202
174 191 205
162 178 187
165 184 196
169 187 199
168 185 199
173 191 206
171 188 201
177 193 204
168 185 199
177 194 209
168 187 198
173 191 204
169 187 202
166 183 193
168 185 199
166 183 193
84 111 74
78 107 66
78 107 65
80 109 66
78 107 65
82 111 69
75 102 61
80 109 67
80 109 68
77 105 64
79 106 65
81 110 68
80 109 68
77 104 64
81 110 68
81 110 69
114 137 123
169 187 200
169 186 198
169 185 198
170 189 204
178 196 213
171 188 202
168 186 199
172 191 207
172 190 204
171 191 207
178 195 213
167 184 198
165 184 195
176 194 208
164 183 196
146 166 167
78 105 63
82 111 68
80 109 67
84 113 71
80 109 68
80 108 65
80 108 67
81 109 67
81 109 68
176 194 208
172 190 204
172 189 201
151 169 174
136 156 152
178 195 211
171 188 203
171 188 202
173 191 206
169 187 202
174 191 205
180 197 212
176 193 205
175 193 210
166 185 198
160 178 188
176 193 208
171 189 203
173 189 201
161 178 187
172 191 205
176 195 212
174 191 207
170 188 203
109 132 114
80 108 67
83 111 68
82 110 70
123 145 135
148 166 169
172 189 201
169 188 202
180 197 212
169 187 199
168 185 197
173 190 206
167 183 194
176 193 207
171 189 200
171 187 198
163 181 193
168 185 195
172 190 203
177 195 211
140 159 160
82 110 68
81 109 67
81 110 68
80 109 68
81 110 68
83 111 68
73 100 60
81 110 68
79 107 65
81 109 67
79 107 66
78 106 64
77 106 65
81 110 68
109 132 114
143 162 162
163 180 190
164 182 194
169 186 199
170 187 199
153 174 180
78 105 65
80 108 66
82 110 68
78 106 65
78 105 64
78 106 64
81 110 68
79 107 65
76 104 63
76 104 64
83 112 70
75 102 61
78 105 64
78 106 65
79 107 66
81 108 66
77 105 64
80 108 67
87 114 79
103 127 107
111 134 116
130 150 144
109 132 115
114 134 124
98 122 94
82 110 68
79 106 66
81 109 67
81 110 68
80 108 67
81 110 68
79 107 66
90 118 83
117 139 125
144 163 164
167 184 199
168 184 196
168 186 198
180 196 210
159 175 185
174 190 203
170 188 201
163 181 191
102 126 104
78 105 65
76 104 63
80 108 67
81 108 68
76 103 64
78 106 65
78 106 65
82 111 68
78 105 64
83 112 70
76 103 63
81 109 68
80 108 67
76 103 63
80 108 65
79 107 65
78 105 64
73 100 61
77 105 65
76 103 62
76 104 64
145 164 168
169 187 199
162 178 188
165 181 193
169 187 201
168 185 200
164 181 193
168 185 200
169 186 199
170 187 200
169 186 197
170 187 198
163 180 187
165 184 196
165 183 195
168 184 197
161 178 191
165 183 194
160 177 188
164 182 196
175 193 209
176 194 209
137 156 152
117 138 123
139 158 159
165 182 193
165 182 190
163 181 191
173 189 201
180 197 213
176 194 211
161 179 190
170 187 197
173 190 206
170 188 200
169 186 197
174 191 203
160 178 186
158 176 184
168 185 196
153 170 178
173 190 205
165 182 192
164 180 191
152 171 177
78 106 65
76 102 62
82 110 68
79 107 65
79 107 66
80 108 67
78 105 64
77 104 64
81 109 67
79 107 66
79 106 66
78 106 64
74 101 62
78 106 64
79 106 66
80 108 66
78 105 64
79 107 66
82 110 67
78 107 67
79 106 65
89 113 87
163 180 190
168 184 197
166 183 194
168 186 199
175 193 209
169 185 197
171 188 201
158 175 183
168 186 198
166 184 197
169 186 201
165 182 192
159 177 185
168 186 198
179 196 210
161 180 191
166 183 195
162 179 187
162 179 190
176 193 208
168 185 197
145 163 166
77 105 64
76 103 62
78 105 64
77 104 62
78 106 66
79 107 66
82 111 69
76 103 63
78 106 65
83 110 68
77 104 63
80 108 66
75 103 63
74 101 61
79 108 67
78 106 66
79 107 65
76 104 63
76 104 63
80 108 68
78 105 64
146 164 168
168 186 200
168 185 198
165 182 192
163 181 192
166 183 195
166 183 191
164 181 191
165 183 191
157 175 183
149 169 172
129 150 147
137 157 155
128 147 142
116 137 128
115 136 123
108 130 115
90 116 83
81 108 69
78 107 66
82 109 67
153 172 177
166 184 196
168 184 197
167 184 196
166 184 198
174 191 205
165 182 192
161 179 187
166 184 198
160 178 188
169 187 200
160 177 185
170 187 200
164 181 192
159 177 188
161 179 189
167 184 195
173 190 205
165 182 191
170 188 200
160 178 187
84 112 75
79 106 64
81 109 67
82 109 67
77 104 64
81 109 67
75 102 60
75 103 62
73 99 60
75 102 61
75 102 62
78 106 65
79 107 66
79 106 65
81 109 67
80 108 66
79 107 65
78 106 65
80 107 66
93 119 91
165 182 192
166 184 195
164 182 193
168 185 198
167 184 197
169 187 201
164 182 193
155 174 181
130 151 144
125 146 139
125 145 137
103 127 107
82 108 71
80 108 66
79 107 67
74 101 62
79 107 66
75 102 63
81 109 67
147 166 165
171 189 204
169 185 197
165 183 193
167 185 201
170 188 201
170 188 203
176 193 207
171 189 202
169 187 201
173 190 204
173 190 204
160 178 188
164 181 192
172 191 202
162 180 189
165 182 194
171 188 200
157 175 182
83 111 71
77 104 64
94 120 91
104 128 107
118 140 126
122 144 135
128 148 142
137 157 153
157 175 181
149 168 171
154 171 176
162 180 190
168 186 200
172 191 208
174 191 207
171 189 201
173 191 204
138 158 158
82 111 69
82 110 68
76 104 64
83 111 68
81 110 68
81 110 67
80 109 66
81 110 69
78 106 65
80 110 68
81 109 67
83 111 68
81 109 67
84 112 69
82 110 68
80 109 68
137 157 156
174 191 206
168 186 201
170 188 202
160 178 190
176 195 211
176 193 210
155 172 179
167 185 197
168 185 196
170 188 200
168 185 196
174 191 205
167 185 198
167 185 199
172 190 204
118 141 129
76 104 64
83 112 70
82 111 70
79 108 68
81 110 67
81 110 68
84 113 70
83 112 70
168 185 196
137 157 156
98 124 97
83 112 69
144 164 166
174 192 208
179 196 213
177 195 211
169 186 196
167 186 199
174 192 209
168 185 197
175 192 208
179 196 210
172 189 201
176 193 207
179 197 213
173 191 206
165 182 192
170 188 202
172 190 204
175 194 211
162 179 186
172 189 202
96 121 93
91 119 82
132 153 149
158 177 186
184 201 218
167 186 197
172 189 202
170 188 202
169 185 198
168 186 199
172 190 206
177 194 208
176 193 206
168 185 197
174 191 203
168 186 197
177 194 209
175 193 208
171 189 202
162 179 191
144 163 163
80 108 66
79 108 67
78 106 64
84 113 70
82 111 68
79 107 66
79 107 65
79 107 66
83 112 69
79 106 66
78 106 65
89 116 85
127 148 144
154 173 181
165 182 195
170 188 204
173 190 203
173 190 203
166 183 195
167 185 199
157 177 183
78 105 64
80 108 66
80 108 66
81 110 69
78 106 65
78 106 65
80 108 67
75 102 62
80 108 66
82 111 69
79 107 65
81 110 68
76 104 64
78 106 65
78 106 64
80 109 67
77 105 63
76 104 64
81 110 68
80 108 67
79 107 66
133 153 149
171 189 203
162 181 192
166 185 195
164 180 190
154 173 180
144 163 166
140 159 157
132 153 152
86 111 79
127 148 142
162 181 190
163 181 192
159 176 182
178 195 213
163 182 195
179 196 212
170 189 203
173 190 205
170 187 199
171 188 202
166 183 194
112 132 123
77 104 64
79 107 66
77 104 64
77 105 64
78 106 64
77 104 63
79 107 66
83 111 68
75 103 62
83 112 70
80 108 67
80 109 67
80 107 65
81 109 67
77 103 62
77 104 64
73 99 60
80 107 65
78 106 64
76 104 63
74 101 61
126 146 138
174 192 204
174 191 205
165 182 196
160 177 188
163 182 193
167 184 197
181 196 210
166 184 194
158 177 188
163 181 191
172 188 203
163 181 194
158 176 185
171 187 200
164 182 190
159 176 184
164 181 192
158 176 185
131 151 148
119 140 130
92 118 90
112 135 118
166 184 196
176 193 207
172 189 203
172 190 205
164 182 193
170 189 205
163 180 192
159 178 190
164 183 195
164 181 192
172 189 204
165 182 192
172 190 203
172 189 204
168 185 198
171 188 201
151 168 174
164 180 192
167 185 197
171 188 200
169 186 200
156 173 182
91 117 85
80 108 66
78 105 63
78 105 65
77 105 65
77 105 64
77 104 63
78 106 65
78 105 64
79 106 65
78 106 65
76 104 64
79 107 66
81 108 66
80 108 66
74 101 61
77 104 63
73 99 60
80 107 66
76 103 63
77 104 64
77 104 64
148 167 173
173 191 204
165 184 198
172 188 200
177 193 206
175 192 206
175 192 203
162 180 189
173 190 203
174 190 203
159 177 187
165 182 193
170 187 202
172 188 202
166 182 194
177 194 209
163 181 193
163 180 192
169 185 196
168 185 196
166 184 198
166 184 198
82 109 69
76 104 63
76 103 63
73 100 60
78 107 65
83 112 69
78 105 64
77 104 63
77 105 64
73 100 61
80 108 66
82 111 68
75 102 62
77 104 62
79 107 65
79 107 65
80 108 66
77 104 64
79 107 66
93 118 87
106 130 109
138 158 157
135 154 151
119 141 136
134 154 151
114 136 125
104 127 110
85 111 77
77 104 65
77 105 65
79 107 66
80 108 67
77 105 65
79 107 65
77 104 64
77 104 63
80 108 66
79 108 67
78 106 65
78 106 65
80 108 66
79 106 65
102 126 105
167 184 197
166 184 196
172 189 201
165 182 194
169 185 195
171 188 199
167 185 197
164 181 192
169 187 200
175 192 206
171 189 202
167 184 196
174 192 207
170 188 201
170 187 200
168 185 197
172 189 204
166 184 196
169 186 200
173 190 205
125 145 138
78 106 65
74 102 63
76 103 63
81 109 67
79 108 67
79 107 66
80 109 67
76 104 63
77 104 63
78 106 65
81 109 68
74 101 61
81 110 68
81 109 67
81 109 67
79 107 66
79 107 65
86 111 75
112 135 119
144 162 161
129 149 145
125 145 140
108 130 114
101 125 102
83 110 73
82 111 68
79 106 65
82 111 68
82 110 68
75 103 62
79 106 65
85 114 72
78 106 65
75 102 63
76 104 63
80 109 68
77 105 64
81 109 67
100 122 105
171 188 204
165 183 193
165 183 197
173 190 204
170 188 200
158 175 184
168 185 198
174 190 203
169 186 199
161 180 193
172 188 200
168 186 197
170 188 200
178 195 209
169 187 199
160 178 187
160 177 185
164 181 195
119 140 131
79 107 65
80 108 66
79 107 66
79 106 65
79 107 66
81 110 68
82 111 68
80 108 66
79 108 66
81 108 66
79 107 66
88 114 80
99 125 98
109 132 118
118 141 127
121 143 132
140 159 157
112 134 116
105 128 107
88 114 81
80 109 67
77 105 64
82 110 67
80 109 67
81 110 68
78 105 64
80 109 67
81 108 66
81 109 67
78 106 65
82 111 70
82 111 69
81 110 68
86 113 76
161 179 189
171 189 200
174 191 205
167 186 198
178 195 211
178 196 214
178 196 214
164 183 196
165 183 192
172 190 204
167 184 198
169 186 197
171 188 201
168 185 196
167 184 196
159 177 185
94 120 91
82 111 69
79 107 66
77 106 65
84 113 70
80 109 68
81 110 69
81 110 68
93 119 90
81 110 68
83 112 69
83 112 69
148 168 171
170 188 204
180 197 214
169 188 202
178 195 210
177 195 212
174 192 208
173 190 204
176 193 209
172 190 204
173 190 204
179 195 210
174 191 203
172 189 202
171 189 203
168 186 199
165 182 189
171 188 199
169 187 200
164 182 194
149 168 171
160 179 186
172 188 202
171 189 203
173 190 205
167 186 198
168 185 198
171 188 199
171 188 200
170 187 199
161 180 193
177 193 207
171 188 202
174 193 208
172 189 202
173 190 205
179 197 214
171 189 205
177 195 210
178 195 212
153 172 178
78 105 65
83 111 70
82 111 69
81 109 67
79 107 65
81 108 67
82 111 69
79 106 65
82 111 69
110 132 116
145 164 165
165 183 197
173 190 204
173 191 206
172 189 202
167 185 196
168 185 195
170 189 201
176 193 206
166 183 196
165 182 191
79 107 67
80 108 67
82 110 69
84 113 70
83 111 69
81 109 68
81 110 68
81 109 68
77 105 65
78 106 64
82 111 70
77 105 64
81 109 67
82 111 69
80 107 66
79 107 65
81 110 68
83 112 69
80 108 67
78 106 65
76 102 62
129 149 145
172 189 202
168 186 199
180 197 213
168 186 200
160 176 182
137 156 156
124 144 134
95 120 90
78 105 63
76 104 63
82 110 69
89 115 81
98 123 100
104 127 109
129 150 142
138 157 156
139 159 160
157 175 182
167 185 195
157 175 183
172 189 205
133 152 149
78 106 65
78 106 65
81 110 69
80 107 66
80 108 67
73 100 61
77 104 64
76 104 63
83 112 70
78 105 64
81 109 67
80 108 66
77 105 64
77 104 64
79 107 66
79 107 66
82 111 69
79 107 66
79 107 66
77 105 64
75 102 62
117 138 125
167 184 198
170 187 201
169 186 198
164 182 195
166 184 197
173 191 205
166 184 198
169 186 198
164 182 192
170 188 201
171 189 205
163 181 190
168 185 198
161 179 187
147 165 166
104 126 108
80 107 66
76 103 64
75 101 61
79 108 66
78 106 64
80 108 69
178 195 209
176 194 208
153 171 177
167 185 196
170 188 202
171 189 200
167 183 194
166 184 198
170 188 201
169 186 199
171 188 199
169 187 202
168 186 201
171 188 201
167 184 198
168 184 195
176 192 204
170 188 201
169 186 197
174 189 201
170 187 199
161 179 190
119 141 131
78 106 64
78 106 66
80 108 68
78 105 65
77 105 64
80 108 67
82 110 68
80 108 67
76 103 62
80 108 67
78 105 64
76 103 63
81 109 67
79 107 66
79 107 66
77 105 65
75 102 62
76 103 62
78 106 66
79 107 66
82 111 69
132 152 149
156 173 184
163 181 190
160 178 188
167 185 199
170 188 200
164 182 194
164 182 194
176 192 204
167 184 198
171 187 201
163 180 189
170 187 200
165 183 194
163 180 191
167 185 196
169 185 199
158 175 183
168 186 198
169 187 203
161 178 189
152 169 174
130 150 145
78 105 64
79 107 66
78 105 64
78 105 64
75 102 62
76 104 64
75 103 62
83 112 69
79 107 65
83 109 75
93 118 93
119 141 131
118 140 127
131 151 148
136 156 155
155 172 178
164 181 194
165 181 191
157 175 184
167 183 192
170 186 198
86 112 77
77 105 64
76 102 61
79 107 66
78 105 65
80 108 67
78 106 65
79 106 65
78 105 64
78 105 64
74 100 60
80 107 65
78 106 65
80 108 66
83 112 70
78 106 65
76 104 63
81 109 68
80 108 67
79 107 66
83 111 69
161 180 191
166 184 199
163 181 191
164 183 193
162 181 192
170 188 198
166 185 197
167 185 197
173 190 202
158 175 183
172 189 203
177 193 206
161 179 189
171 189 203
166 183 193
168 185 199
158 176 185
169 186 200
162 179 190
164 180 190
157 175 183
85 114 74
76 104 63
79 106 65
77 105 65
77 105 65
78 106 64
79 106 65
79 107 66
79 107 66
97 122 96
106 129 111
116 138 126
128 148 141
143 161 161
156 176 183
151 171 180
169 186 195
173 191 207
170 187 199
163 180 187
88 114 78
82 111 69
79 107 66
81 110 68
80 108 66
78 106 65
83 112 70
79 107 65
77 105 65
78 106 64
84 113 70
81 109 68
83 112 69
80 108 66
79 107 66
79 107 66
81 109 67
80 108 67
79 107 66
148 168 172
170 188 205
174 191 206
179 197 214
165 183 195
163 181 193
172 188 201
171 188 199
157 176 183
167 185 197
165 183 196
165 183 197
175 193 208
173 188 201
175 192 207
168 185 195
169 187 196
171 189 202
161 179 189
91 117 82
82 111 69
81 109 67
78 106 65
79 107 65
78 106 65
82 110 69
80 108 66
84 112 70
81 110 68
81 110 69
81 109 67
78 106 65
80 108 66
83 112 69
79 108 67
80 108 67
100 124 103
174 193 209
166 184 199
164 183 193
157 175 184
157 176 181
151 170 176
126 148 138
118 140 129
104 126 109
93 119 88
79 108 66
78 106 65
80 108 67
78 107 66
84 112 70
81 110 68
116 138 122
177 193 208
178 195 211
175 192 207
173 190 203
176 193 208
162 181 193
172 190 203
178 196 212
171 189 201
177 195 209
165 184 197
165 183 195
175 193 208
173 191 203
164 182 196
163 182 192
81 109 67
77 105 65
79 108 67
83 111 69
82 110 68
82 111 69
83 112 69
81 110 69
82 110 68
78 107 66
82 111 69
151 171 174
169 187 201
178 196 213
181 198 215
171 190 204
178 196 211
171 189 203
170 188 199
161 179 187
163 182 196
168 188 203
170 188 202
172 190 204
179 196 211
174 191 205
178 194 206
164 182 192
148 169 177
113 136 121
83 110 71
163 182 192
172 191 207
172 190 206
164 182 196
170 188 201
168 185 197
166 186 198
179 198 215
171 188 203
173 190 206
170 187 202
166 182 192
168 187 200
175 193 208
166 183 193
168 186 202
185 202 222
166 186 201
164 182 194
178 196 213
144 164 166
83 111 70
83 111 68
84 113 70
81 109 68
82 111 68
77 105 64
96 122 95
145 165 168
166 185 196
175 192 207
170 187 200
171 188 201
167 184 194
172 189 200
179 196 211
171 188 200
161 179 188
167 183 196
171 188 203
174 192 207
161 180 190
81 109 68
80 108 67
77 106 66
80 108 66
80 109 67
80 109 68
79 106 65
78 106 65
81 110 69
82 110 68
81 109 67
79 108 66
78 105 64
83 111 68
79 107 65
82 110 68
77 106 65
81 110 68
81 109 67
81 108 67
75 102 61
116 139 125
164 181 192
174 191 202
148 167 171
120 142 132
85 112 76
80 109 67
83 111 68
79 108 66
82 111 69
79 106 66
74 100 60
79 107 66
81 109 66
80 108 66
80 108 66
78 106 65
81 109 67
80 108 67
80 109 67
79 107 66
94 119 89
119 140 127
139 158 162
135 154 151
136 155 151
134 155 150
103 126 107
94 119 90
90 117 85
79 107 66
77 104 63
80 109 67
77 104 63
78 106 65
80 109 68
80 108 67
78 107 66
84 113 70
74 101 61
81 108 67
80 109 67
81 110 68
82 111 69
102 126 104
171 188 202
176 193 208
167 184 196
168 186 197
163 181 191
172 189 200
166 183 195
172 190 203
169 185 197
158 176 184
132 150 149
110 133 114
93 118 92
79 107 65
78 106 65
78 105 64
78 106 65
80 108 67
78 106 65
80 108 66
79 106 64
79 106 64
151 169 173
169 186 199
157 175 184
167 184 195
165 182 195
168 185 197
170 187 199
178 194 210
168 187 202
168 184 195
169 187 201
171 188 203
175 191 206
162 180 192
170 186 198
166 183 195
159 177 187
165 182 193
173 189 201
171 188 203
171 188 203
176 194 208
133 153 150
76 103 62
80 109 67
81 109 68
75 102 62
78 106 65
77 104 63
79 106 65
80 109 67
80 108 66
79 107 66
78 106 65
76 104 63
74 101 62
82 110 68
79 106 65
81 110 68
79 107 65
78 105 65
79 107 66
77 104 63
79 107 66
107 129 112
167 184 194
164 182 193
163 180 188
166 184 195
163 180 191
165 183 195
172 189 202
165 182 196
171 188 203
159 176 185
169 186 196
170 188 198
168 184 196
170 188 202
172 190 204
168 184 196
167 185 198
161 179 188
164 181 188
170 187 200
175 193 206
147 166 169
77 104 63
79 107 66
108 132 113
109 131 112
123 144 133
127 147 143
141 159 159
136 156 157
156 174 183
164 183 196
166 183 194
173 189 200
176 194 210
169 187 198
172 189 205
160 178 190
166 184 195
162 180 193
175 191 203
167 185 197
167 185 196
122 144 133
81 109 68
78 106 65
82 111 69
75 102 62
81 108 67
74 101 61
79 107 66
79 107 66
80 108 66
80 109 67
76 103 62
78 105 64
80 108 66
79 107 66
75 103 62
79 107 66
79 108 66
82 110 69
80 108 67
79 107 65
124 145 138
164 182 191
169 185 197
159 176 186
169 187 198
164 182 196
166 183 195
171 188 200
167 183 195
165 181 194
163 181 195
169 185 198
175 192 205
173 189 203
157 175 184
162 180 191
167 184 197
173 190 204
167 185 200
175 192 205
171 188 200
109 131 116
104 127 105
121 143 132
126 146 137
137 158 157
142 161 163
156 173 179
161 178 186
165 184 197
174 192 207
164 182 194
178 194 207
172 189 204
170 186 197
166 184 196
164 182 194
167 184 196
168 184 195
171 188 201
171 189 204
122 144 131
79 107 65
79 107 66
79 107 66
75 103 63
77 104 63
80 108 68
81 110 68
80 108 66
77 105 65
81 110 68
82 110 69
77 105 64
79 106 66
77 106 65
77 105 64
72 99 59
80 108 66
76 104 63
91 115 86
174 193 207
172 190 206
166 184 195
167 185 198
170 187 201
175 192 206
175 193 207
173 188 201
168 185 196
171 188 202
169 186 199
173 189 203
168 186 200
167 185 197
170 187 200
172 190 204
162 180 189
172 189 200
133 152 148
82 111 69
78 106 64
82 110 68
80 109 67
77 106 65
80 108 66
82 110 68
82 110 69
85 114 70
79 107 66
76 103 62
80 108 66
79 107 66
80 108 66
81 110 68
79 107 66
81 109 68
151 171 177
170 187 202
173 191 204
177 194 208
172 189 202
168 186 200
173 191 205
175 193 208
169 187 200
177 194 210
170 187 199
162 180 188
146 166 168
132 152 149
129 151 146
113 137 120
81 109 70
148 168 171
175 193 210
177 195 211
166 186 201
178 197 215
166 183 196
169 187 201
173 189 202
169 186 197
175 192 208
176 194 211
174 191 205
167 185 198
169 186 200
167 184 195
180 197 212
118 140 127
80 108 67
81 110 68
82 111 69
79 108 67
78 106 66
80 108 66
80 109 68
78 106 65
85 113 70
82 111 69
157 176 185
170 187 200
177 194 209
173 190 204
175 192 206
177 195 211
177 196 213
168 187 200
174 192 209
168 186 199
171 189 203
171 189 203
179 196 212
173 192 206
169 187 199
145 165 169
119 141 128
80 109 67
79 107 65
79 107 66
164 182 194
166 184 195
174 192 208
172 191 204
166 185 200
169 188 202
161 179 187
166 184 195
175 191 204
175 193 209
173 190 206
161 179 189
166 185 196
177 194 208
170 188 204
171 188 202
182 200 217
166 183 196
163 182 195
174 192 207
156 175 182
78 105 65
80 108 67
78 106 64
85 112 75
117 139 127
143 163 166
178 196 211
182 199 215
170 187 198
175 192 204
178 195 210
173 190 203
170 188 204
166 183 194
169 188 204
170 188 201
172 190 205
173 190 204
173 190 203
176 193 209
161 179 189
79 108 67
80 107 66
80 108 67
80 107 66
83 111 69
78 106 65
77 106 65
78 105 64
74 102 63
83 111 69
80 108 66
79 107 66
77 105 63
79 107 66
81 110 68
81 110 68
83 112 69
81 109 67
78 105 65
76 104 64
81 110 68
112 133 119
129 149 145
82 110 71
76 103 63
77 105 65
79 107 66
80 108 67
81 109 67
82 110 68
81 109 67
80 107 66
79 107 65
79 106 65
79 106 65
82 110 68
81 109 68
82 110 67
79 107 66
85 114 71
79 108 67
82 111 69
78 106 65
103 127 111
174 192 206
164 181 191
174 192 209
171 188 200
156 173 181
163 181 194
173 189 200
170 186 198
160 177 186
155 173 180
144 164 169
140 159 158
130 151 148
114 136 120
114 136 124
102 125 105
91 118 87
87 112 81
77 104 63
77 104 63
79 107 66
81 108 66
159 178 188
167 184 197
170 186 197
169 186 200
179 196 211
171 187 197
144 163 165
124 145 134
92 115 89
79 107 66
80 108 67
72 99 59
81 108 66
79 107 66
78 106 65
78 106 65
77 105 64
82 110 68
80 108 66
80 108 66
81 108 67
79 108 67
127 146 143
174 191 205
175 192 205
162 180 193
166 182 195
170 187 199
175 192 205
162 180 191
165 182 193
172 189 201
176 193 207
177 193 208
169 187 198
168 186 199
170 188 200
169 187 200
164 182 194
160 177 186
165 183 195
166 184 197
170 186 196
154 172 178
169 187 199
80 108 67
79 106 65
80 108 66
81 109 67
76 102 62
80 107 66
78 107 66
78 105 64
79 108 66
78 107 65
79 106 65
82 110 68
76 103 62
77 104 64
81 109 67
76 104 62
81 109 67
75 102 62
77 104 62
84 113 70
78 106 65
82 109 70
164 181 190
166 183 192
169 185 198
170 186 195
168 185 196
158 175 182
174 191 205
170 188 202
167 184 196
165 182 195
172 188 200
167 183 192
168 185 200
163 181 193
172 189 202
173 191 203
170 187 199
166 184 195
147 166 172
155 173 177
116 138 128
105 127 114
152 171 180
172 190 204
168 184 193
166 183 195
160 179 190
175 191 203
173 190 203
169 187 198
171 190 205
156 175 184
162 178 188
170 187 199
172 190 206
168 185 196
168 184 195
164 182 195
169 186 198
171 188 201
171 189 204
169 187 198
173 190 205
158 176 184
82 110 68
79 107 66
76 103 63
82 111 69
80 108 67
82 110 68
77 104 63
78 106 64
80 108 67
78 106 64
78 105 65
84 113 71
80 108 66
76 103 62
78 106 65
78 106 66
77 104 64
79 107 65
73 100 60
76 103 62
87 115 80
154 171 176
170 187 201
169 187 202
169 185 196
163 181 193
178 194 207
172 188 203
174 192 206
168 186 201
165 183 193
161 178 187
146 165 169
146 165 167
135 154 152
127 148 142
115 137 125
100 124 105
102 125 106
86 112 80
81 108 67
106 129 108
167 185 201
167 185 197
167 184 198
159 176 186
167 186 200
172 189 203
167 185 197
166 185 199
173 190 203
166 184 196
182 200 216
173 190 204
164 182 192
169 187 201
164 183 198
162 180 189
174 191 204
168 185 198
174 191 203
166 184 194
81 109 67
77 104 63
79 108 67
76 103 63
81 109 67
80 108 67
79 107 66
76 103 63
80 108 66
74 101 62
78 106 65
81 109 67
77 105 65
80 108 67
77 104 64
76 104 63
80 108 67
77 105 65
76 104 64
143 163 165
166 184 197
166 184 197
172 189 201
173 189 200
166 183 197
162 180 191
166 184 195
166 184 196
167 185 197
170 187 197
166 184 195
172 190 204
166 184 194
175 193 209
163 181 190
171 190 205
170 189 204
167 185 199
92 119 89
81 109 67
76 105 64
79 106 65
79 107 66
80 108 66
81 110 68
79 108 67
78 106 66
79 107 65
79 107 66
77 105 64
81 109 67
77 105 64
79 108 66
79 107 66
77 105 65
88 115 83
167 185 198
171 189 202
169 187 198
174 191 203
173 191 206
180 198 216
170 188 201
171 188 199
161 180 190
173 191 207
175 192 207
175 193 209
168 186 200
173 191 207
173 192 208
170 187 201
168 186 197
116 138 122
122 144 135
133 154 150
160 178 186
167 184 193
178 195 212
178 194 210
173 191 204
174 192 205
177 195 210
174 191 206
166 183 195
168 187 200
176 194 209
171 187 201
177 195 210
99 124 99
82 111 69
83 112 70
82 110 68
83 112 70
79 108 66
83 112 70
82 112 69
80 109 68
81 109 67
172 190 204
174 191 205
176 195 212
173 190 205
178 196 212
172 189 203
174 192 207
178 195 211
180 197 215
179 195 211
172 189 202
179 197 214
179 197 213
142 162 164
99 124 99
85 114 71
83 112 69
83 112 70
76 104 64
80 109 67
172 190 203
171 188 203
165 182 193
175 193 208
175 194 212
176 193 209
175 193 205
171 189 203
169 188 202
172 190 202
173 190 204
170 188 200
171 188 200
167 184 195
172 190 204
167 185 197
164 180 190
171 187 202
171 189 202
168 185 196
142 161 162
81 109 68
89 116 81
130 151 148
155 172 180
169 187 201
173 191 205
167 184 196
173 190 203
169 186 196
172 188 201
164 183 194
179 196 211
172 191 208
173 191 206
167 184 197
166 185 199
174 192 206
174 192 207
161 179 188
168 186 199
174 192 207
81 108 66
78 106 64
76 104 63
80 108 66
80 108 67
77 104 63
78 106 65
79 107 66
80 108 66
79 108 67
82 111 68
79 107 66
83 112 70
79 107 66
78 105 64
82 110 69
77 105 64
81 109 67
106 128 110
142 162 165
168 185 199
156 175 186
79 106 64
79 107 67
82 111 68
78 105 64
77 105 65
82 110 68
81 110 69
80 108 67
82 111 69
75 103 63
76 104 64
79 107 66
77 105 64
80 109 67
81 109 67
80 108 66
79 106 65
78 105 64
81 110 68
79 107 65
78 106 66
85 112 75
172 190 202
162 180 192
173 190 202
161 179 189
165 181 191
171 189 201
165 183 195
171 188 203
180 197 214
164 183 196
168 186 200
171 189 203
168 185 198
163 180 191
161 179 193
167 184 196
164 182 194
160 177 186
168 185 198
160 178 191
154 172 177
146 166 168
134 154 148
123 144 134
155 172 180
163 182 191
143 162 164
113 135 122
101 127 103
99 123 96
92 120 86
75 101 61
78 106 65
82 111 69
76 103 64
79 107 66
80 108 66
80 108 67
78 106 65
80 108 66
78 106 65
80 108 65
79 107 66
80 107 66
116 138 128
166 184 196
168 185 197
165 183 197
167 185 198
162 179 192
168 185 196
163 181 192
173 191 206
166 181 193
173 190 201
169 187 200
174 191 203
167 183 195
173 190 206
168 186 196
175 192 207
172 190 203
165 182 193
163 182 194
162 178 186
169 187 199
169 187 201
96 120 94
76 103 63
79 108 66
80 107 65
80 108 66
81 109 67
81 109 67
80 109 67
80 108 67
77 104 63
75 102 62
82 111 69
81 109 68
80 108 66
80 107 66
74 100 61
80 108 67
78 107 65
78 104 63
79 106 65
80 108 66
78 105 64
146 164 164
159 178 190
167 184 196
161 177 186
160 178 190
161 177 185
165 182 192
151 170 177
168 185 196
172 189 203
177 194 209
154 171 180
148 165 168
135 156 152
110 132 117
101 125 99
90 117 85
79 106 66
80 108 67
78 106 64
78 105 65
82 111 68
148 166 168
160 177 187
166 183 195
166 182 191
169 185 197
170 187 202
170 188 202
170 187 199
166 183 196
169 186 197
172 189 201
165 182 192
169 187 200
159 178 188
168 185 198
168 185 197
174 190 204
173 190 202
168 185 198
164 181 191
171 188 203
166 184 199
99 121 99
82 110 68
80 108 67
83 111 70
75 103 62
75 102 62
80 109 67
81 109 67
75 102 63
77 104 63
78 106 66
79 107 66
80 108 67
78 106 64
79 107 67
76 104 64
89 115 83
95 120 94
97 121 97
107 130 112
116 138 126
139 157 157
129 150 146
129 148 147
125 144 138
119 141 130
102 126 105
95 120 91
82 109 73
81 111 69
76 103 63
77 104 63
80 109 67
76 103 62
81 109 67
78 106 64
78 105 64
79 106 65
80 108 67
80 108 66
79 107 65
83 111 69
153 171 175
174 191 206
173 190 202
171 189 204
162 180 192
161 180 190
166 183 195
171 188 203
164 182 194
168 186 200
163 183 195
168 185 195
166 183 195
174 192 206
162 180 191
172 189 202
178 195 211
177 194 211
169 186 201
173 190 205
117 138 127
79 107 66
83 111 69
81 110 67
82 110 68
78 106 64
81 109 68
83 112 69
84 112 70
80 109 67
83 111 68
82 110 68
80 108 67
79 107 65
76 104 63
82 111 69
82 111 69
78 106 65
76 103 63
93 119 90
176 194 209
170 189 205
170 187 200
163 181 192
176 193 209
166 185 199
168 185 195
173 191 208
172 190 204
173 192 208
175 193 208
162 180 188
175 193 207
169 187 201
170 187 200
166 183 194
167 185 196
171 189 205
145 165 166
77 104 62
80 108 67
83 111 68
78 106 66
80 108 66
74 101 61
80 108 67
81 109 68
80 107 66
81 109 67
77 105 64
77 105 64
83 112 69
81 109 67
81 110 68
77 105 64
81 109 68
124 146 136
171 189 202
170 187 200
164 182 192
177 194 210
174 192 207
171 188 200
166 185 198
175 192 205
174 191 205
175 192 207
166 185 197
176 193 207
170 188 202
175 192 207
173 191 204
170 188 201
142 162 163
79 106 65
81 109 67
84 114 71
77 105 65
89 118 82
104 129 105
119 141 130
136 156 154
154 172 178
166 184 195
163 181 193
177 194 208
168 185 197
175 193 208
176 194 210
153 172 176
80 108 66
82 111 68
83 112 70
80 108 66
83 112 69
79 107 66
85 114 71
79 106 65
85 114 71
181 198 214
175 192 206
166 183 194
169 186 198
177 195 210
172 189 204
170 188 201
171 189 204
172 189 204
177 194 210
172 190 204
125 148 140
91 117 87
78 106 65
84 113 71
79 106 64
79 108 66
83 113 70
81 110 69
84 114 74
176 195 211
174 191 206
173 192 208
173 191 206
175 192 205
162 180 189
175 193 208
172 190 206
167 184 197
179 197 212
172 190 205
173 189 201
180 197 213
180 196 210
167 185 197
174 192 205
177 194 208
171 188 201
171 188 200
168 185 194
148 168 171
151 170 176
175 193 209
163 182 193
165 184 196
176 193 208
181 198 216
171 189 203
181 198 215
166 184 197
173 190 205
172 189 202
173 191 206
168 186 198
166 185 196
169 186 200
170 188 200
174 192 207
175 191 204
170 188 201
168 186 199
171 188 200
88 113 83
81 109 68
81 109 67
80 108 68
77 105 64
78 105 63
80 107 65
80 108 67
79 107 66
81 110 67
78 106 64
80 108 67
86 115 72
78 106 65
78 107 66
100 124 101
141 161 163
165 183 194
160 177 187
169 187 200
166 184 196
162 180 191
80 107 65
77 105 64
82 110 67
83 111 70
80 108 66
83 112 69
79 108 66
80 107 65
77 104 63
79 108 66
77 105 63
78 106 65
83 112 70
76 104 63
79 107 66
78 107 65
82 111 70
82 110 67
81 110 68
78 106 65
81 110 68
78 105 65
157 175 183
170 186 198
173 190 205
168 185 197
174 192 207
167 185 195
165 181 192
158 175 183
179 196 209
165 182 195
174 191 206
160 178 188
169 186 199
161 176 185
163 180 191
170 187 199
166 184 198
163 180 192
171 188 201
167 183 193
159 177 186
135 156 155
130 149 144
174 191 204
172 189 204
161 177 186
165 183 195
167 183 192
170 188 201
171 188 200
167 184 195
167 186 199
164 182 194
162 180 189
145 165 171
155 173 182
154 171 175
149 167 169
129 151 143
135 154 153
123 144 136
122 142 134
113 135 118
112 135 122
113 134 123
158 176 184
160 179 190
166 185 198
164 182 193
167 183 193
170 187 202
162 180 188
170 188 203
162 180 192
169 187 200
177 194 209
170 189 203
168 185 199
171 189 203
174 191 204
162 179 189
163 180 188
166 184 195
162 180 190
160 177 186
167 184 195
164 182 194
115 137 121
82 110 68
77 105 64
80 108 67
78 104 63
80 108 67
79 107 65
82 110 69
83 111 69
76 104 63
79 107 65
80 108 66
82 111 68
80 109 67
77 105 63
80 109 68
81 109 67
78 105 64
78 106 64
79 107 65
79 107 66
80 108 66
106 128 113
157 176 185
156 174 182
167 185 199
173 190 205
168 186 195
149 168 170
128 149 142
114 136 123
94 118 93
79 105 67
78 106 65
83 111 69
77 105 64
77 105 65
79 107 65
75 101 62
78 106 64
77 105 65
80 109 68
80 107 66
80 107 65
107 131 114
165 183 196
163 181 192
171 188 202
165 183 195
173 190 204
167 184 195
178 195 211
167 185 198
162 181 193
172 189 203
166 183 196
168 186 202
170 187 199
163 180 190
168 186 199
174 192 207
169 187 200
162 178 191
165 183 193
162 178 190
161 179 191
139 158 156
96 120 96
115 138 124
102 127 99
121 144 137
125 146 137
134 156 150
135 154 151
138 157 154
143 163 167
148 166 169
142 160 158
146 164 167
159 177 184
169 186 196
169 186 197
171 188 202
172 190 204
165 181 189
160 177 185
161 180 190
164 182 193
74 101 62
83 111 68
81 110 69
78 106 65
80 108 67
78 107 66
74 101 61
81 109 67
79 107 66
78 106 65
77 105 63
76 104 63
81 110 68
81 110 68
78 106 65
76 104 63
82 111 69
79 106 65
77 104 63
81 110 68
119 140 131
174 192 206
163 181 192
167 185 199
171 188 201
163 181 193
175 190 203
161 179 192
177 194 209
160 180 188
172 189 202
171 189 203
179 195 210
168 187 202
165 183 195
177 194 210
163 181 190
159 177 185
182 199 215
165 182 194
160 178 186
79 107 65
81 109 67
79 106 65
78 106 64
82 110 68
82 110 68
82 111 69
81 110 68
81 109 67
80 108 66
79 106 64
83 111 68
84 112 69
81 110 69
78 106 65
81 109 67
79 107 65
78 106 65
79 107 66
132 151 148
173 190 202
177 195 210
160 179 189
176 194 207
162 180 192
177 194 210
174 191 205
169 187 200
171 190 205
172 189 204
172 189 201
166 184 199
174 191 204
169 187 201
174 191 205
178 196 212
169 186 200
164 183 195
96 122 92
79 108 66
78 105 65
75 103 62
83 112 70
82 110 68
81 110 68
81 110 68
85 114 71
80 107 66
80 108 67
81 110 68
80 108 66
79 107 66
81 109 67
80 109 66
82 111 69
80 106 68
167 185 197
170 189 204
163 181 195
169 187 201
172 189 202
174 192 207
163 181 193
177 195 210
173 192 207
171 188 200
172 190 206
171 188 202
166 184 197
175 193 207
174 192 206
171 188 203
173 190 205
110 133 119
83 112 70
80 109 68
82 111 68
84 113 71
79 107 65
84 113 70
79 108 66
81 109 67
82 111 69
94 120 91
110 132 120
117 139 127
144 164 166
158 177 186
170 188 202
116 139 123
84 113 70
81 110 69
82 111 69
82 112 70
83 111 69
80 109 67
83 111 69
101 127 105
171 189 204
173 190 206
175 192 206
175 193 211
178 196 212
174 191 205
180 198 216
173 192 208
158 176 183
126 149 141
88 116 78
83 112 69
83 112 69
82 111 69
81 109 68
78 106 65
84 113 70
80 109 68
85 115 72
90 116 85
168 186 200
175 192 205
170 187 199
172 191 207
171 188 201
167 185 197
168 186 197
182 198 215
176 193 208
180 199 218
171 188 201
166 184 196
171 190 204
177 194 207
172 190 206
183 199 215
169 187 199
166 186 200
139 157 156
110 134 115
110 133 114
179 196 211
165 184 197
169 188 200
179 195 210
175 191 203
169 188 204
171 190 204
164 183 194
179 196 212
175 193 207
169 186 199
173 191 205
171 188 200
167 184 197
172 189 199
182 200 218
173 190 206
172 189 203
167 185 196
165 181 191
169 187 200
97 122 97
77 105 65
81 110 68
77 105 64
78 107 65
84 112 69
82 110 68
79 106 66
82 110 68
79 107 66
82 110 67
85 113 71
95 120 90
130 151 150
163 182 193
173 191 207
165 183 193
172 189 205
175 192 205
177 195 210
167 184 195
165 182 192
85 112 75
81 110 69
80 108 66
81 110 68
78 106 65
78 107 66
77 105 64
81 109 68
80 109 67
81 110 69
78 106 65
82 111 68
80 108 66
79 107 66
82 111 69
78 106 66
82 110 68
79 108 67
79 106 65
80 107 65
78 106 64
80 107 65
152 172 180
170 188 201
174 191 205
177 193 206
170 187 201
166 183 196
167 185 197
170 187 198
177 193 207
164 181 194
170 188 202
169 186 199
162 181 192
173 190 203
172 189 203
182 199 217
167 185 197
145 164 167
133 154 145
97 122 93
77 105 65
75 103 62
116 138 125
163 181 189
163 181 193
159 177 186
167 186 199
167 185 198
174 191 204
166 184 194
170 187 202
161 179 190
158 175 184
164 181 190
173 189 205
164 183 197
175 192 207
174 191 204
165 182 194
170 187 198
169 187 202
172 189 202
174 191 205
169 187 199
166 182 192
80 109 70
78 106 64
79 107 66
80 108 66
81 109 67
87 112 79
85 111 79
97 122 93
99 125 98
99 124 99
107 131 117
113 135 121
120 141 132
106 129 116
124 143 136
133 153 151
125 145 141
119 141 128
125 145 138
132 152 145
134 153 150
142 161 161
138 158 156
121 143 131
123 145 135
119 141 130
116 138 125
112 134 118
116 139 125
100 123 105
97 121 90
105 127 110
92 119 89
107 129 109
97 121 96
97 121 97
102 126 105
99 122 101
98 123 102
99 124 103
83 110 73
91 117 84
95 120 91
88 114 83
102 124 105
141 161 164
131 151 146
111 134 116
98 121 96
91 116 90
95 119 90
95 120 94
96 121 98
92 118 88
88 114 82
99 124 100
108 132 114
97 119 95
99 122 97
109 130 114
108 132 114
109 132 116
107 130 117
101 125 105
122 143 132
121 142 131
110 134 118
148 167 169
143 163 161
138 158 157
135 155 155
138 157 158
132 153 149
133 154 151
117 139 129
122 143 133
115 138 124
108 130 113
113 136 121
111 133 119
104 127 108
103 125 106
91 116 86
88 112 86
89 115 81
76 103 63
81 109 67
79 106 65
102 125 103
159 177 187
166 182 195
172 190 203
170 188 200
173 190 204
167 183 192
170 187 199
158 176 187
166 184 194
166 182 192
172 190 206
163 180 190
168 186 200
173 191 206
166 183 197
171 188 201
176 195 211
172 188 202
161 178 187
165 184 197
167 184 196
111 134 118
80 109 67
80 108 67
80 107 65
76 104 63
80 109 67
79 107 67
80 109 68
73 101 60
79 107 65
79 107 65
81 110 68
81 109 67
80 108 66
79 106 65
79 107 66
79 107 65
80 109 67
79 106 65
83 111 69
85 113 75
160 178 188
168 186 200
174 192 208
167 184 196
164 182 194
173 192 208
166 183 191
169 185 199
168 186 198
177 194 207
179 198 218
167 185 198
173 191 207
166 185 196
167 185 196
165 182 191
171 189 204
168 186 199
164 182 193
167 185 198
128 148 142
77 104 63
78 107 67
77 104 63
78 106 65
81 110 67
83 112 70
82 110 68
80 108 66
79 108 67
75 102 61
82 109 67
79 108 66
82 111 70
81 109 67
79 107 66
84 113 71
78 105 64
81 111 69
101 124 104
170 188 200
169 184 196
174 192 208
159 176 184
174 192 207
171 189 201
170 189 201
161 180 194
176 193 210
174 191 203
166 183 195
171 189 200
179 197 213
170 187 201
159 178 187
174 192 207
170 188 199
167 185 200
152 171 176
83 112 69
80 109 68
79 107 65
79 106 65
87 116 72
81 108 66
79 108 65
81 110 68
82 110 68
80 108 67
77 105 64
79 107 66
85 114 72
81 110 69
84 114 71
77 105 64
82 110 68
116 138 128
169 187 199
173 190 202
168 186 199
164 182 194
168 187 200
172 190 205
175 194 210
175 193 209
171 189 202
164 183 195
171 190 204
180 198 214
179 196 212
170 187 200
178 195 212
176 193 208
160 178 184
86 114 74
84 114 71
81 110 67
82 112 70
78 106 65
83 112 71
79 108 66
77 104 63
84 113 71
79 107 66
79 107 66
80 109 67
84 113 69
78 107 66
86 114 79
97 123 96
137 157 156
129 149 142
115 139 124
82 110 74
82 111 69
78 106 65
82 110 68
115 139 122
161 180 190
167 185 197
178 196 212
178 196 212
177 194 207
177 195 209
162 181 192
108 130 114
81 110 68
80 109 67
81 110 69
82 111 70
79 107 66
78 106 65
79 108 66
80 108 67
79 108 66
78 107 66
82 110 68
87 114 81
167 185 197
167 186 198
164 181 191
172 191 206
175 191 206
174 191 204
174 192 203
179 197 215
185 202 220
177 194 212
177 193 210
177 194 209
173 190 203
173 192 209
178 195 212
157 176 183
135 157 153
86 114 77
82 111 68
80 108 66
112 136 116
172 190 204
170 189 205
172 189 203
167 184 195
169 186 199
177 195 210
165 184 196
175 194 210
172 190 205
170 188 199
173 192 208
168 186 198
170 189 205
168 187 201
172 190 204
172 189 203
169 188 204
178 194 209
169 186 199
168 186 197
178 194 210
113 136 119
81 110 67
80 108 67
81 108 66
82 111 68
80 108 66
79 107 66
82 110 68
80 108 66
90 115 85
126 148 140
157 174 180
163 180 189
179 197 212
173 190 206
163 182 194
176 192 207
177 194 208
170 190 204
172 189 200
169 187 199
166 184 193
91 117 87
81 109 67
77 105 65
79 107 65
79 108 67
81 110 68
80 109 67
80 109 67
79 107 65
82 110 68
82 110 69
78 106 65
81 109 66
81 109 67
80 108 67
77 105 64
79 106 66
79 107 66
85 114 71
82 110 68
81 110 68
76 103 62
152 171 175
176 192 207
164 182 192
165 183 197
166 183 191
172 190 204
173 190 204
165 183 197
177 193 206
172 188 200
171 188 203
160 178 188
162 181 191
168 186 198
133 153 150
106 131 109
80 107 69
79 108 67
77 104 64
83 112 70
80 109 67
78 106 65
112 135 123
175 192 208
169 186 199
173 189 203
173 189 201
174 191 206
158 176 183
167 185 197
168 185 196
168 183 193
171 189 201
172 189 201
175 192 204
171 188 201
169 186 198
161 179 188
167 184 197
171 187 198
177 194 211
166 184 196
171 188 203
168 186 199
165 183 194
124 146 135
75 102 61
80 107 66
80 107 66
81 110 68
78 106 65
80 107 66
82 110 68
81 109 67
81 109 67
83 112 69
82 110 68
80 108 67
78 105 64
75 102 62
77 104 64
81 110 69
80 108 66
81 110 68
81 109 68
76 103 62
81 109 68
100 125 100
172 188 203
174 190 203
172 187 197
165 182 195
161 179 189
169 186 197
174 191 205
164 183 192
172 189 202
168 185 198
165 182 193
173 190 202
177 194 210
169 186 198
161 180 189
147 165 168
145 162 164
136 156 154
117 139 130
82 110 72
80 108 66
82 110 67
153 171 176
170 187 199
164 183 194
169 187 201
170 188 200
167 185 198
168 185 199
172 189 203
166 184 196
180 196 212
177 193 208
170 188 202
166 184 196
161 178 186
175 191 204
160 176 186
173 190 203
170 188 201
169 187 200
169 187 201
170 187 198
181 198 215
119 140 131
82 111 68
75 103 63
82 111 69
75 102 63
76 104 64
79 107 65
80 107 66
76 105 65
77 105 65
82 110 68
81 110 68
78 107 66
82 111 69
75 102 62
77 105 65
77 105 64
79 107 65
79 107 66
79 108 67
79 107 66
76 103 62
137 156 153
170 188 200
173 191 203
168 186 199
173 191 202
169 187 202
178 196 213
172 189 204
158 177 188
161 179 189
176 192 205
168 185 196
164 183 196
169 187 200
171 188 202
166 185 198
166 184 195
175 192 207
173 190 204
176 193 206
167 185 199
147 167 167
83 111 69
80 107 66
79 108 66
80 108 66
75 103 62
80 108 67
82 111 69
83 111 69
77 104 63
81 109 67
82 111 68
82 110 68
78 105 64
78 106 65
80 109 66
83 112 70
78 106 65
76 104 63
78 106 64
79 107 66
128 148 142
167 185 197
180 197 215
165 184 197
178 194 207
159 177 187
165 183 193
172 189 204
166 183 194
173 189 202
175 192 206
167 185 196
169 185 197
166 183 195
173 191 205
170 188 200
171 190 206
172 190 203
168 187 201
166 184 197
153 171 176
82 110 68
79 107 66
85 114 72
82 111 69
80 108 66
82 110 68
80 108 68
78 107 66
81 109 67
79 107 65
77 106 65
79 108 67
82 110 68
78 107 66
82 110 68
78 106 65
79 107 66
82 111 69
80 108 66
126 147 137
167 185 196
166 184 197
172 189 203
172 190 206
165 183 194
168 185 195
174 190 202
168 185 197
172 188 199
167 186 199
174 191 204
175 192 205
170 188 201
173 190 204
174 191 206
175 193 208
172 190 204
173 191 205
119 140 129
81 110 68
79 108 67
81 110 68
78 106 65
83 112 70
78 106 65
78 105 64
77 105 64
77 105 65
82 111 68
79 107 65
80 108 67
82 111 69
83 112 70
81 110 68
83 113 71
80 109 67
155 174 179
164 181 190
171 188 200
164 182 193
177 194 208
180 196 210
169 186 197
164 181 194
170 188 199
173 190 205
163 182 193
177 195 212
168 187 203
174 192 205
171 189 203
170 188 200
171 189 200
128 149 144
82 111 69
81 109 68
81 109 68
80 108 67
80 108 68
83 112 69
83 112 70
83 112 70
81 111 69
84 113 70
84 113 71
80 109 67
82 111 69
79 107 66
83 112 69
120 143 129
175 193 206
175 192 204
169 187 201
79 107 66
83 111 69
82 110 67
110 133 113
171 189 202
171 189 200
172 190 203
175 193 209
155 173 178
117 139 126
79 107 67
81 109 68
81 110 67
82 111 69
86 115 71
81 109 67
82 112 70
80 108 67
84 113 70
80 109 68
79 108 67
79 108 67
78 106 64
108 131 111
173 191 207
178 196 211
177 195 211
173 191 206
179 196 214
169 187 198
169 187 197
167 186 198
170 188 201
175 193 207
173 192 207
169 187 197
173 191 206
146 164 168
103 127 106
79 107 65
80 108 68
84 112 69
78 106 66
77 104 64
115 138 121
178 196 212
176 193 208
172 190 206
169 186 199
174 193 209
174 192 207
173 190 201
164 182 191
174 191 207
173 190 202
177 195 210
175 192 206
165 184 197
173 191 207
164 182 193
173 191 206
170 187 202
168 186 196
171 191 207
171 189 202
173 190 204
111 135 119
79 107 66
80 108 67
83 111 69
83 113 70
81 110 68
77 105 65
116 139 127
151 170 174
171 189 205
173 190 202
176 192 205
172 190 207
167 185 197
165 184 195
174 192 206
167 184 196
172 189 204
177 195 209
171 187 199
169 186 200
176 194 208
104 126 111
80 108 67
79 107 65
77 104 64
80 107 65
77 104 63
84 114 72
80 108 66
82 110 67
80 108 66
83 111 68
79 107 66
79 108 67
80 108 67
80 108 67
83 111 69
75 102 61
77 105 64
78 106 65
77 106 65
82 111 69
81 109 67
135 155 150
169 185 196
166 183 195
171 188 202
168 186 201
170 187 200
169 187 200
171 188 200
166 182 193
173 190 205
152 172 177
127 148 141
78 105 68
78 107 65
78 106 64
82 110 68
77 105 64
78 106 65
79 106 64
76 103 62
83 112 69
81 109 67
84 113 73
163 181 189
166 183 195
168 185 194
169 186 199
178 196 214
170 187 199
169 187 202
174 192 208
168 186 200
173 191 204
165 182 192
168 187 200
172 189 202
174 192 206
166 182 195
162 180 192
168 185 199
174 191 205
170 187 200
164 181 190
167 186 200
175 193 209
141 158 158
78 107 66
82 110 69
81 110 68
77 104 63
78 107 66
76 103 63
77 104 63
77 105 64
79 106 66
73 100 60
78 105 65
81 109 67
75 102 61
82 111 69
82 111 69
76 104 63
80 107 66
80 109 68
81 109 67
80 108 66
81 110 68
80 108 67
169 187 199
165 182 195
163 179 188
172 189 201
175 193 207
166 184 197
173 190 205
171 189 201
174 192 206
166 184 197
149 168 173
151 169 173
110 132 119
96 122 97
87 114 75
76 103 63
81 110 68
79 107 66
79 107 67
76 103 62
80 109 67
77 105 63
128 149 142
170 187 198
173 190 204
174 191 204
160 177 187
161 178 187
164 182 196
174 191 206
166 183 194
170 188 202
163 181 191
171 187 200
168 186 198
164 183 196
169 185 196
165 183 193
168 186 197
170 188 199
165 183 197
172 189 205
165 183 195
174 190 205
153 173 180
78 106 64
79 107 66
79 108 67
78 105 63
79 107 66
80 108 66
77 105 64
76 103 62
78 106 64
77 105 64
76 104 64
79 107 66
75 103 62
78 106 65
82 112 70
77 104 64
78 106 66
77 104 64
76 103 62
80 109 68
78 105 64
128 148 141
173 189 203
171 189 204
168 186 199
173 192 208
165 183 194
163 181 191
161 179 192
166 184 199
171 189 203
164 183 194
168 186 199
171 189 205
171 188 201
173 190 202
172 190 204
165 182 193
169 187 200
176 192 207
166 184 197
167 185 197
170 186 198
96 122 96
79 107 66
80 108 66
79 107 65
78 105 64
81 109 68
82 110 69
79 107 66
77 105 63
80 107 66
79 107 65
80 108 66
76 104 63
75 101 60
79 107 66
79 108 66
78 106 66
79 107 66
81 109 68
79 108 67
88 114 80
162 180 190
177 194 208
166 184 195
170 188 201
158 176 186
160 178 189
175 192 207
169 186 198
167 184 195
170 187 201
174 192 207
168 186 200
163 180 193
169 186 197
172 189 203
171 189 204
170 188 202
164 183 195
169 186 198
176 193 208
119 142 130
82 111 69
84 112 69
82 110 68
81 109 68
82 111 69
81 111 70
79 108 67
78 106 65
82 111 69
83 112 70
78 106 66
83 111 68
77 105 64
77 105 64
78 106 65
79 106 65
79 108 66
80 108 67
94 119 93
167 185 195
174 192 208
174 192 208
169 186 198
171 187 202
178 195 209
172 189 205
175 192 206
169 185 196
172 191 203
171 189 202
174 191 207
168 185 197
172 190 203
172 189 203
172 190 204
163 180 190
164 182 194
163 180 187
79 108 66
79 106 66
80 108 66
82 110 68
83 113 71
80 108 67
82 111 69
78 106 65
81 110 67
79 107 65
78 106 65
85 114 71
84 113 70
79 108 67
80 108 67
83 111 69
79 107 65
90 116 86
168 186 196
169 187 202
175 194 210
174 192 207
181 197 212
178 195 209
173 191 206
175 194 209
173 191 205
171 189 205
171 189 202
173 190 204
172 190 203
177 194 209
174 191 205
163 180 190
167 185 198
100 124 103
83 113 71
82 110 68
81 109 67
83 112 70
82 110 68
81 109 67
79 107 66
82 110 69
81 109 67
83 113 71
85 114 71
83 113 71
86 116 73
81 109 68
83 112 70
154 173 182
173 192 208
174 192 208
78 107 67
86 115 72
80 109 67
116 139 129
181 199 217
166 185 200
156 176 184
109 133 112
83 111 69
80 109 67
81 110 68
82 111 69
84 114 73
83 113 71
80 108 67
83 112 70
83 111 69
83 112 70
83 112 70
83 112 70
82 111 69
80 109 68
80 108 66
113 136 118
176 194 210
171 188 199
179 196 212
177 193 208
173 191 207
170 188 204
175 194 212
177 194 208
170 188 201
170 188 201
155 173 182
131 152 146
100 126 102
83 112 70
87 117 73
86 115 72
80 108 66
79 108 67
83 112 69
82 111 68
111 135 121
170 187 201
172 190 203
174 191 204
172 190 203
171 188 203
179 196 210
174 190 202
170 190 205
163 181 194
164 182 196
179 197 215
178 195 211
173 191 206
171 190 205
172 189 201
170 188 201
178 195 210
172 190 204
167 184 197
173 190 205
178 196 213
110 131 116
79 107 67
81 110 69
80 108 65
99 124 99
139 158 158
170 188 201
169 186 201
170 187 200
166 183 194
167 185 198
170 188 201
167 185 196
176 193 209
171 189 202
168 185 195
177 193 207
167 185 198
161 179 192
169 186 198
158 175 184
166 183 192
111 133 116
82 109 67
81 109 66
80 108 67
79 107 65
84 113 71
83 112 69
76 105 64
79 108 67
82 111 68
77 106 65
79 108 66
79 107 66
80 109 67
76 104 63
81 108 66
79 107 67
81 108 66
79 107 65
83 113 71
82 110 69
83 112 69
120 141 129
168 186 199
175 192 205
166 184 195
170 188 200
163 182 194
163 182 194
156 175 178
109 132 118
79 107 65
83 111 69
77 104 64
81 110 69
78 106 65
82 111 69
79 108 66
80 108 66
79 107 65
79 107 66
79 106 65
75 102 62
79 107 66
80 108 67
164 183 194
165 182 195
174 191 204
163 180 189
160 178 190
154 172 181
165 183 195
173 190 202
173 190 203
163 181 193
167 186 199
170 187 200
171 190 204
163 180 190
173 190 205
166 184 195
173 190 203
168 186 197
183 200 218
170 187 199
176 193 210
173 190 204
156 174 183
82 110 68
80 108 67
77 104 64
79 106 66
79 107 65
80 108 67
81 110 67
77 104 64
79 107 66
80 107 66
79 107 65
80 109 67
81 109 67
74 101 62
82 111 69
78 106 65
81 109 67
81 110 68
79 107 66
80 108 66
81 110 69
78 106 65
128 148 144
175 192 209
173 189 201
168 186 198
168 186 199
159 177 187
139 159 157
118 140 128
96 122 96
78 106 65
80 108 67
82 110 68
82 110 68
78 105 65
78 107 66
78 106 65
81 109 67
78 106 66
81 109 67
81 110 68
80 107 64
81 108 67
99 124 98
168 187 201
169 186 198
174 192 208
171 188 202
165 184 198
169 186 201
176 193 207
161 180 190
173 190 203
159 177 188
172 189 202
174 192 205
169 187 201
186 203 222
175 193 207
175 191 203
163 181 192
166 185 198
169 185 198
164 182 195
172 191 204
168 185 197
97 122 95
84 113 70
77 104 64
76 104 64
80 108 67
77 104 64
80 109 68
80 107 66
82 110 68
73 101 61
76 103 63
77 105 64
75 102 62
80 110 68
80 108 66
78 106 65
81 110 68
81 109 67
78 107 65
81 110 68
78 105 65
84 111 77
160 178 187
167 185 198
164 181 190
169 186 198
170 188 203
168 185 197
165 183 194
162 181 192
169 187 201
164 181 192
168 186 198
166 184 193
165 182 193
176 194 209
167 185 200
163 180 190
168 186 198
167 185 198
175 192 205
166 184 194
163 181 191
124 146 140
80 108 66
79 107 65
79 107 66
81 110 68
81 109 67
80 108 66
83 112 69
77 105 64
84 112 70
78 106 65
79 107 65
79 107 66
79 108 66
82 111 69
79 107 66
81 109 68
79 107 66
81 109 67
80 109 67
78 106 65
136 157 155
160 178 188
168 185 198
170 188 200
164 181 192
172 189 200
169 187 201
169 187 200
164 182 191
169 186 198
176 194 210
167 184 196
173 190 202
163 181 191
174 191 203
171 189 204
170 188 200
165 183 195
170 187 201
178 195 210
150 169 173
82 111 69
78 105 64
82 110 68
81 109 67
81 110 68
80 108 66
82 111 68
83 111 69
79 108 67
82 110 69
78 106 66
79 107 66
80 109 67
80 109 67
82 110 68
79 107 64
77 105 65
80 108 66
81 110 68
124 145 137
168 186 199
170 188 203
172 190 205
173 189 201
161 179 190
170 189 202
170 188 201
165 182 196
171 190 204
163 182 196
169 186 196
178 196 213
173 190 202
172 190 206
173 190 202
166 186 201
177 195 213
169 186 198
111 133 119
80 109 67
80 109 68
79 107 67
83 111 68
81 110 68
82 111 69
84 112 69
76 103 63
82 110 67
82 110 68
82 111 68
83 111 68
80 109 67
80 108 66
78 106 65
85 114 71
83 112 70
138 159 158
170 189 204
175 194 212
171 189 205
169 187 200
166 183 195
178 196 211
168 187 201
174 191 205
176 194 209
167 185 197
175 193 208
176 195 211
166 183 193
172 190 204
176 193 209
182 200 218
150 170 175
80 108 67
81 109 67
85 114 71
82 111 69
82 110 68
79 106 66
82 112 70
81 110 68
84 112 70
82 109 67
84 113 70
79 108 66
83 112 70
81 110 68
85 114 71
95 123 93
170 188 203
170 187 199
84 113 70
79 107 65
83 112 70
132 153 147
150 170 177
108 133 114
82 111 69
80 108 66
85 114 70
76 105 64
83 112 70
82 111 69
76 104 64
83 112 69
82 111 69
82 111 69
81 109 68
80 108 68
79 107 66
85 115 72
83 112 69
82 111 69
78 107 66
103 128 108
170 189 203
168 187 199
173 190 203
165 184 199
169 187 201
168 187 201
172 190 205
166 183 192
150 169 177
120 142 128
79 106 68
81 110 68
84 112 69
79 107 65
81 110 68
81 110 68
80 109 67
83 112 71
80 109 67
84 113 70
115 137 122
172 189 204
179 196 210
181 197 212
176 194 211
174 191 204
173 190 205
177 194 208
169 187 198
171 188 199
171 190 205
170 188 202
160 178 189
172 189 202
172 189 201
176 192 205
171 188 202
171 190 205
171 188 202
173 190 203
170 187 201
172 192 206
132 155 152
106 131 106
126 146 138
154 174 180
174 191 207
180 196 212
173 191 203
175 192 204
177 195 210
172 188 201
180 198 215
175 191 207
171 190 204
162 179 188
170 187 203
183 200 217
168 186 198
173 189 200
169 188 203
174 192 206
171 189 205
173 190 202
113 135 126
80 108 66
81 109 67
79 108 67
78 106 65
82 110 68
82 111 69
81 109 67
81 110 68
82 111 70
79 107 66
81 109 68
81 109 67
81 109 67
77 105 64
79 108 66
80 108 67
83 112 70
79 107 66
80 108 67
77 105 64
80 108 67
118 140 127
180 197 212
171 188 200
161 179 189
137 157 153
116 138 126
77 105 65
83 112 69
83 110 68
80 108 67
79 107 67
80 109 67
78 106 65
78 106 66
82 110 68
80 109 66
84 113 70
82 111 69
83 111 68
81 110 68
78 106 65
84 113 70
76 103 63
154 175 182
176 193 208
166 184 196
168 185 198
163 181 193
171 190 205
182 198 215
164 181 191
166 183 193
173 191 207
166 184 196
173 191 206
170 188 204
171 187 198
171 189 204
160 177 189
170 187 199
170 186 196
166 184 197
168 187 200
175 192 205
163 181 192
166 184 195
88 115 76
77 104 64
76 104 63
77 105 64
79 107 65
79 108 65
81 109 68
79 107 66
77 106 65
75 102 62
80 107 66
83 112 70
77 104 64
82 111 69
78 106 65
78 107 66
81 109 67
80 108 66
77 104 64
77 104 63
78 107 66
84 111 74
128 148 145
131 151 147
115 138 124
102 125 98
78 106 64
80 108 66
82 111 69
80 108 66
78 106 66
78 106 65
81 109 67
79 108 67
82 110 69
83 112 70
79 107 66
78 106 66
82 109 67
79 107 66
80 109 66
85 115 72
75 102 61
74 101 61
82 110 68
161 179 189
170 187 199
166 184 196
167 185 197
162 179 189
168 185 196
169 188 204
165 183 195
172 189 202
170 187 198
173 191 205
174 191 205
166 183 192
172 190 203
164 181 193
168 186 198
166 183 191
162 180 190
175 192 205
170 188 202
166 185 198
166 183 194
135 156 151
75 102 61
82 111 69
80 108 67
79 107 65
78 106 65
82 110 68
83 112 69
77 105 64
82 110 68
84 113 71
78 106 65
83 111 69
82 111 69
80 108 66
78 105 64
77 104 65
76 103 63
79 107 66
80 109 67
80 108 67
78 106 65
151 171 177
175 193 208
166 183 196
168 185 198
179 196 209
169 187 198
167 185 197
171 187 200
171 189 203
164 181 191
170 188 201
171 189 202
167 184 197
166 183 195
171 189 204
171 188 201
170 186 195
165 184 196
168 187 198
174 191 207
170 187 200
156 176 186
86 114 76
80 108 67
83 112 70
77 104 64
74 102 61
76 104 63
76 103 63
79 108 67
80 108 67
84 112 69
84 112 69
80 109 67
83 112 70
79 106 64
81 109 68
75 103 63
82 111 70
80 108 66
78 105 64
79 107 65
97 123 91
171 189 203
173 188 201
177 194 209
166 184 196
171 187 197
171 188 203
164 183 194
163 181 192
170 189 203
173 190 204
163 181 193
170 187 200
166 183 194
170 188 202
172 189 203
172 190 205
172 190 203
168 184 194
170 187 202
175 193 211
116 139 128
82 110 68
80 108 67
82 111 68
77 105 64
77 105 64
82 112 70
80 109 68
82 111 69
79 107 66
74 102 62
79 108 67
81 109 67
82 111 69
80 107 66
76 105 64
80 109 68
77 105 64
82 111 69
89 117 83
174 192 208
166 183 193
169 188 201
169 186 199
169 187 199
170 187 198
171 189 202
172 189 201
163 181 190
174 191 206
175 192 206
169 186 198
169 187 199
171 189 206
171 189 203
177 193 205
169 187 199
174 191 207
164 181 191
78 106 65
83 112 70
81 109 68
76 103 63
79 108 67
79 108 67
81 110 68
80 108 67
84 113 70
82 110 68
81 109 66
80 108 66
82 110 67
82 112 70
81 110 68
84 113 70
78 107 66
89 116 84
164 182 190
176 194 211
171 189 201
172 189 202
179 197 212
167 185 197
174 191 205
175 192 206
166 184 197
169 186 200
179 196 210
173 191 205
181 199 217
172 190 204
181 199 216
169 187 200
172 189 202
120 143 131
83 112 69
80 109 67
81 109 67
82 111 69
80 109 68
81 109 67
83 112 70
78 106 65
84 113 71
79 108 67
83 112 69
80 109 67
79 108 67
83 112 69
81 110 68
129 152 145
174 192 206
82 110 68
85 113 73
137 157 153
117 141 130
84 113 70
81 109 67
79 107 66
85 114 72
83 111 69
77 105 64
84 114 72
77 105 65
82 111 69
82 110 68
81 110 68
81 110 68
80 108 67
81 110 69
81 110 68
82 112 70
83 113 71
80 108 66
83 112 69
110 134 115
176 194 211
181 197 212
178 195 210
166 183 192
172 190 205
173 192 206
154 173 182
117 139 128
81 110 68
83 112 69
84 112 70
79 107 66
80 109 67
77 103 62
79 107 65
81 109 68
81 110 69
82 110 69
82 111 68
80 108 67
115 138 123
182 200 220
170 188 202
176 194 211
169 188 202
165 183 194
172 190 203
168 186 197
167 185 200
178 197 216
176 194 210
171 187 201
175 191 206
171 187 198
172 189 200
173 191 203
164 182 194
168 185 199
175 193 209
165 182 193
167 185 198
162 181 190
137 157 157
176 193 209
171 189 203
172 189 203
175 192 206
166 183 195
170 187 201
172 191 206
169 188 203
173 191 206
171 189 204
168 186 199
172 190 205
175 191 205
175 194 209
169 185 196
164 183 195
178 196 213
166 185 198
170 187 202
168 186 198
170 189 204
128 148 143
82 110 67
81 110 68
78 105 64
81 110 68
80 107 66
85 113 70
79 108 66
81 109 68
81 109 68
82 111 69
79 107 66
81 109 68
79 107 66
80 108 67
83 111 69
80 109 68
81 109 67
83 111 68
85 114 71
82 110 68
83 111 69
105 126 106
116 138 128
99 124 96
81 109 67
81 109 67
83 111 68
82 111 69
80 108 67
79 107 65
82 111 69
74 101 60
80 108 66
81 109 67
82 111 69
83 112 69
80 107 66
77 104 64
80 108 66
83 110 69
81 109 67
74 101 61
83 111 69
76 104 64
130 151 146
167 184 195
173 190 204
174 191 205
172 189 204
172 189 204
167 185 200
162 180 189
169 186 197
172 191 207
172 189 203
171 188 199
169 186 197
167 185 196
166 184 197
168 186 198
168 187 201
170 187 198
179 196 212
160 177 186
181 197 213
159 176 185
170 187 200
98 121 102
78 106 66
76 103 62
84 113 70
77 105 65
81 109 67
80 108 66
82 110 68
80 109 68
72 99 59
82 110 68
81 110 68
80 108 67
80 109 67
79 106 65
81 109 67
80 108 66
95 121 95
113 135 123
123 144 138
156 175 184
164 181 192
168 185 197
80 108 69
80 108 67
84 112 69
81 110 69
82 111 69
84 112 68
78 105 64
77 105 63
79 107 65
79 107 66
77 105 65
77 105 63
80 108 66
81 109 67
82 110 68
79 106 65
76 104 63
82 111 69
80 108 66
80 108 67
74 102 62
79 106 65
120 142 130
179 196 212
163 181 191
176 193 209
173 189 204
168 185 197
165 183 195
160 177 188
161 178 187
174 191 207
168 185 194
165 183 194
173 191 203
171 188 200
166 184 194
173 190 203
160 178 188
169 188 200
174 191 206
169 186 197
168 186 197
179 197 216
158 177 184
82 111 68
80 108 66
81 109 67
77 105 64
81 110 67
81 109 67
80 108 67
80 107 66
80 108 67
80 109 67
82 111 68
81 109 67
81 110 68
78 107 66
80 108 67
83 111 69
79 107 66
82 111 69
78 106 65
79 107 66
81 109 68
101 124 105
168 184 193
170 187 200
179 196 211
168 185 197
162 180 191
169 187 201
164 181 192
169 187 199
168 186 200
172 189 203
169 187 200
167 185 199
167 185 199
173 191 208
162 180 188
164 181 190
173 191 202
164 181 192
171 189 203
168 186 199
165 183 193
123 144 132
80 109 66
81 110 68
83 112 70
82 110 68
78 106 65
80 108 67
78 106 66
77 105 64
81 110 68
80 108 66
78 106 65
79 107 66
77 105 64
85 113 70
82 111 69
82 110 68
76 103 63
76 104 64
83 112 69
77 105 64
142 161 160
171 189 202
166 183 194
173 190 203
165 183 195
177 193 208
168 186 199
171 187 199
182 199 218
174 192 207
166 184 195
171 188 201
174 191 207
180 197 212
178 196 214
176 193 207
178 196 211
167 185 199
175 193 206
160 178 188
155 173 183
77 105 65
79 108 66
84 113 70
79 107 66
80 109 68
80 107 65
81 110 68
81 110 69
84 113 71
78 106 64
79 107 65
81 110 68
80 108 67
82 111 69
79 107 65
80 108 66
80 108 67
80 109 68
80 109 67
143 163 161
169 188 201
171 188 201
172 189 201
166 182 194
168 187 199
168 186 202
173 190 203
172 190 205
173 191 206
161 180 192
172 190 204
172 191 206
175 193 209
167 185 194
171 188 200
173 190 203
174 191 205
172 190 207
133 153 147
80 109 67
79 108 66
81 109 67
78 106 66
79 107 65
82 110 68
82 111 69
81 111 69
79 108 66
82 111 69
84 113 71
81 109 67
79 108 67
80 108 67
83 112 70
80 108 66
81 110 68
118 139 127
175 194 211
168 186 198
171 189 204
173 190 204
176 194 210
175 192 207
175 192 207
179 197 214
177 193 208
167 185 196
170 189 203
177 194 208
179 198 216
177 195 212
168 185 198
173 191 205
169 187 202
94 121 87
80 108 67
83 112 70
80 108 67
78 106 66
81 110 68
83 112 70
80 107 66
84 113 71
84 113 70
85 114 70
81 109 68
78 107 65
87 117 73
81 109 67
79 107 66
153 172 177
